( pcb2gcode 2.5.0 )
( Software-independent Gcode )

G94 ( Millimeters per minute feed rate. )
G21 ( Units == Millimeters. )

G90 ( Absolute coordinates. )
G00 S13000 ( RPM spindle speed. )
G01 F120.00000 ( Feedrate. )


G00 Z15.00000 (Retract to tool change height)
T0
M5      (Spindle stop.)
G04 P1.00000 (Wait for spindle to stop)
(MSG, Change tool bit to mill diameter 0.45360mm)
M6      (Tool change.)
M0      (Temporary machine stop.)
M3 ( Spindle on clockwise. )
G04 P1.00000 (Wait for spindle to get up to speed)
G04 P0 ( dwell for no time -- G64 should not smooth over this point )
G00 Z2.00000 ( retract )

G00 X-10.17199 Y-1.00000 ( rapid move to begin. )
G01 F60.00000
( Mill infeed pass 1/2 )
G01 Z-0.05000
G04 P0 ( dwell for no time -- G64 should not smooth over this point )
G01 F120.00000
G01 X-10.17199 Y-1.00000
G01 X-2.00000 Y-1.00000
G01 X-1.80490 Y-1.01920
G01 X-1.61727 Y-1.07610
G01 X-1.44442 Y-1.16853
G01 X-1.29289 Y-1.29289
G01 X-1.16853 Y-1.44442
G01 X-1.07610 Y-1.61727
G01 X-1.01920 Y-1.80490
G01 X-1.00000 Y-2.00000
G01 X-1.00000 Y-8.68586
G01 X-1.19141 Y-8.70491
G01 X-1.62644 Y-8.75784
G01 X-1.94996 Y-8.80875
G01 X-2.17757 Y-8.84024
G01 X-2.32608 Y-8.85586
G01 X-2.45194 Y-8.90801
G01 X-2.69006 Y-8.99772
G01 X-2.98973 Y-9.08888
G01 X-3.06814 Y-9.10852
G01 X-3.34894 Y-9.16450
G01 X-3.42735 Y-9.17613
G01 X-3.64998 Y-9.20006
G01 X-3.91000 Y-9.22241
G01 X-4.30992 Y-9.29002
G01 X-4.45226 Y-9.54999
G01 X-4.57096 Y-9.79858
G01 X-4.77258 Y-9.95418
G01 X-5.01876 Y-10.11159
G01 X-5.23705 Y-10.22040
G01 X-5.39298 Y-10.28047
G01 X-5.57881 Y-10.33277
G01 X-5.75546 Y-10.36307
G01 X-5.92882 Y-10.37440
G01 X-6.69199 Y-10.37455
G01 X-6.85292 Y-10.31029
G01 X-6.90517 Y-10.29332
G01 X-7.01578 Y-10.26363
G01 X-7.17149 Y-10.23610
G01 X-7.35089 Y-10.22469
G01 X-8.07700 Y-10.22553
G01 X-8.22841 Y-10.23630
G01 X-8.38406 Y-10.26386
G01 X-8.54667 Y-10.31052
G01 X-8.68507 Y-10.36483
G01 X-8.69996 Y-10.40369
G01 X-8.69998 Y-12.72146
G01 X-8.90753 Y-12.77948
G01 X-8.95980 Y-12.79060
G01 X-9.11794 Y-12.81572
G01 X-9.28624 Y-12.82880
G01 X-10.07748 Y-12.82929
G01 X-10.22982 Y-12.82121
G01 X-10.44014 Y-12.79060
G01 X-10.49241 Y-12.77948
G01 X-10.71260 Y-12.71737
G01 X-10.89579 Y-12.64681
G01 X-11.15502 Y-12.51770
G01 X-11.20729 Y-12.48753
G01 X-11.44676 Y-12.33137
G01 X-11.49904 Y-12.29340
G01 X-11.78743 Y-12.05883
G01 X-12.00993 Y-11.84996
G01 X-12.20495 Y-11.65497
G01 X-12.29500 Y-11.65497
G01 X-13.00000 Y-10.94999
G01 X-13.17170 Y-10.78941
G01 X-13.37155 Y-10.62685
G01 X-13.42380 Y-10.58890
G01 X-13.63947 Y-10.45215
G01 X-13.83101 Y-10.35766
G01 X-13.95331 Y-10.31057
G01 X-14.11595 Y-10.26394
G01 X-14.16820 Y-10.25284
G01 X-14.32377 Y-10.23092
G01 X-14.42507 Y-10.22530
G01 X-14.54998 Y-10.22507
G01 X-14.68747 Y-10.21730
G01 X-14.81574 Y-10.19876
G01 X-14.96774 Y-10.16043
G01 X-15.13027 Y-10.10051
G01 X-15.54226 Y-9.91448
G01 X-15.57050 Y-9.67824
G01 X-15.57498 Y-9.50801
G01 X-15.48445 Y-9.34283
G01 X-15.41897 Y-9.19625
G01 X-15.18100 Y-8.55375
G01 X-15.11186 Y-8.39998
G01 X-15.18100 Y-8.24619
G01 X-15.40302 Y-7.64527
G01 X-15.47863 Y-7.46864
G01 X-15.53152 Y-7.45142
G01 X-15.71849 Y-7.40352
G01 X-15.88806 Y-7.37883
G01 X-16.04996 Y-7.36999
G01 X-19.52214 Y-7.36996
G01 X-19.67708 Y-7.43151
G01 X-19.85475 Y-7.48924
G01 X-19.95866 Y-7.51716
G01 X-20.13636 Y-7.55493
G01 X-20.22780 Y-7.56945
G01 X-20.40550 Y-7.58812
G01 X-20.49115 Y-7.59264
G01 X-20.66884 Y-7.59264
G01 X-20.75447 Y-7.58812
G01 X-20.93217 Y-7.56945
G01 X-21.04779 Y-7.54979
G01 X-21.17646 Y-7.46135
G01 X-21.24608 Y-7.40799
G01 X-21.38162 Y-7.29221
G01 X-21.44159 Y-7.23532
G01 X-21.57852 Y-7.09059
G01 X-21.64499 Y-6.85226
G01 X-21.65949 Y-6.78416
G01 X-21.69396 Y-6.54637
G01 X-21.70328 Y-6.31126
G01 X-21.68764 Y-6.07347
G01 X-21.65949 Y-5.89580
G01 X-21.64499 Y-5.82770
G01 X-21.59737 Y-5.65000
G01 X-21.57052 Y-5.56765
G01 X-21.47903 Y-5.33420
G01 X-21.47903 Y-5.14660
G01 X-21.57748 Y-5.02244
G01 X-21.64778 Y-4.89829
G01 X-21.68997 Y-4.77413
G01 X-21.70405 Y-4.64995
G01 X-21.70405 Y-2.94998
G01 X-21.69213 Y-2.83578
G01 X-21.65647 Y-2.72161
G01 X-21.54321 Y-2.68663
G01 X-21.42998 Y-2.67498
G01 X-19.72998 Y-2.67498
G01 X-19.59247 Y-2.69217
G01 X-19.45498 Y-2.74373
G01 X-19.31749 Y-2.82966
G01 X-19.17997 Y-2.94998
G01 X-17.95998 Y-4.16997
G01 X-15.83969 Y-4.16997
G01 X-15.72816 Y-4.25214
G01 X-15.50993 Y-4.39999
G01 X-11.87811 Y-4.39997
G01 X-11.80907 Y-4.55346
G01 X-11.57100 Y-5.19618
G01 X-11.50556 Y-5.34269
G01 X-11.38855 Y-5.54998
G01 X-10.95261 Y-6.23750
G01 X-10.91738 Y-6.47847
G01 X-10.67989 Y-6.55079
G01 X-10.44997 Y-6.63542
G01 X-8.94999 Y-7.25673
G01 X-8.78149 Y-7.33720
G01 X-8.62922 Y-7.42757
G01 X-8.45815 Y-7.55871
G01 X-8.36620 Y-7.64593
G01 X-8.25680 Y-7.77032
G01 X-8.07110 Y-8.27128
G01 X-7.91649 Y-8.32711
G01 X-7.74756 Y-8.37021
G01 X-7.59930 Y-8.39183
G01 X-7.53674 Y-8.39678
G01 X-7.45000 Y-8.40021
G01 X-5.92882 Y-8.40054
G01 X-5.77159 Y-8.41101
G01 X-5.61033 Y-8.43887
G01 X-5.44208 Y-8.48644
G01 X-5.26197 Y-8.55828
G01 X-5.06354 Y-8.66249
G01 X-4.88142 Y-8.78126
G01 X-4.62191 Y-8.98873
G01 X-4.44998 Y-9.14999
G01 X-4.30992 Y-9.29002
G01 X-3.91000 Y-9.22241
G01 X-3.64998 Y-9.20006
G01 X-3.42735 Y-9.17613
G01 X-3.34894 Y-9.16450
G01 X-3.06814 Y-9.10852
G01 X-2.98973 Y-9.08888
G01 X-2.69006 Y-8.99772
G01 X-2.45194 Y-8.90801
G01 X-2.32608 Y-8.85586
G01 X-2.17757 Y-8.84024
G01 X-1.94996 Y-8.80875
G01 X-1.62644 Y-8.75784
G01 X-1.19141 Y-8.70491
G01 X-1.00000 Y-8.68586
G01 X-1.00000 Y-14.77000
G01 X-1.01920 Y-14.96507
G01 X-1.07610 Y-15.15267
G01 X-1.16853 Y-15.32555
G01 X-1.29289 Y-15.47708
G01 X-1.44442 Y-15.60147
G01 X-1.61727 Y-15.69387
G01 X-1.80490 Y-15.75077
G01 X-2.00000 Y-15.77000
G01 X-22.37999 Y-15.77000
G01 X-22.57509 Y-15.75077
G01 X-22.76267 Y-15.69387
G01 X-22.93556 Y-15.60147
G01 X-23.08710 Y-15.47708
G01 X-23.21146 Y-15.32555
G01 X-23.30386 Y-15.15267
G01 X-23.36076 Y-14.96507
G01 X-23.37999 Y-14.77000
G01 X-23.37999 Y-2.00000
G01 X-23.36076 Y-1.80490
G01 X-23.30386 Y-1.61727
G01 X-23.21146 Y-1.44442
G01 X-23.08710 Y-1.29289
G01 X-22.93556 Y-1.16853
G01 X-22.76267 Y-1.07610
G01 X-22.57509 Y-1.01920
G01 X-22.37999 Y-1.00000
G01 X-10.17199 Y-1.00000
G01 X-10.32863 Y-1.37577
G01 X-10.55220 Y-1.84935
G01 X-10.77577 Y-2.26532
G01 X-10.93998 Y-2.54066
G01 X-11.38855 Y-3.24996
G01 X-11.50536 Y-3.45686
G01 X-11.57110 Y-3.60403
G01 X-11.80907 Y-4.24650
G01 X-11.87811 Y-4.39997
G01 X-11.80907 Y-4.55346
G01 X-11.57100 Y-5.19618
G01 X-11.50556 Y-5.34269
G01 X-11.38855 Y-5.54998
G01 X-10.95261 Y-6.23750
G01 X-10.91738 Y-6.47847
G01 X-11.32624 Y-6.78586
G01 X-11.58728 Y-7.28066
G01 X-11.66167 Y-7.52432
G01 X-11.72695 Y-7.81599
G01 X-11.98189 Y-8.01929
G01 X-12.16332 Y-8.13758
G01 X-12.36147 Y-8.24172
G01 X-12.54181 Y-8.31370
G01 X-12.71057 Y-8.36143
G01 X-12.90063 Y-8.39193
G01 X-12.96322 Y-8.39686
G01 X-13.04999 Y-8.40031
G01 X-15.11186 Y-8.39998
G01 X-15.18100 Y-8.55375
G01 X-15.41897 Y-9.19625
G01 X-15.48445 Y-9.34283
G01 X-15.57498 Y-9.50801
G01 X-15.57050 Y-9.67824
G01 X-15.54226 Y-9.91448
G01 X-15.60032 Y-10.00303
G01 X-15.69133 Y-10.16008
G01 X-15.77889 Y-10.34870
G01 X-15.79999 Y-10.40369
G01 X-15.79999 Y-12.39632
G01 X-15.88183 Y-12.58733
G01 X-15.98534 Y-12.77457
G01 X-16.05981 Y-12.79060
G01 X-16.21787 Y-12.81570
G01 X-16.38623 Y-12.82880
G01 X-16.45133 Y-12.82995
G01 X-17.17746 Y-12.82929
G01 X-17.38201 Y-12.81572
G01 X-17.54015 Y-12.79060
G01 X-17.59242 Y-12.77948
G01 X-17.81284 Y-12.71730
G01 X-18.04805 Y-12.62355
G01 X-18.30685 Y-12.48778
G01 X-18.52188 Y-12.34928
G01 X-18.53324 Y-12.26998
G01 X-18.56179 Y-11.97206
G01 X-18.56496 Y-11.84999
G01 X-18.56496 Y-10.94999
G01 X-18.55904 Y-10.77567
G01 X-18.53921 Y-10.56998
G01 X-18.49308 Y-10.19284
G01 X-18.50728 Y-10.10727
G01 X-18.81297 Y-9.92251
G01 X-19.11863 Y-9.79056
G01 X-19.42429 Y-9.71136
G01 X-19.72998 Y-9.68497
G01 X-21.67664 Y-9.68672
G01 X-21.90359 Y-9.69749
G01 X-22.17125 Y-9.71878
G01 X-22.60928 Y-9.76744
G01 X-22.79190 Y-9.79190
G01 X-23.34433 Y-9.89292
G01 X-23.37999 Y-9.90239
( Mill infeed pass 2/2 )
G00 Z2.00000 ( retract )
G00 X-10.17199 Y-1.00000 ( rapid move to begin. )
G01 Z-0.10000
G04 P0 ( dwell for no time -- G64 should not smooth over this point )
G01 F120.00000
G01 X-10.17199 Y-1.00000
G01 X-2.00000 Y-1.00000
G01 X-1.80490 Y-1.01920
G01 X-1.61727 Y-1.07610
G01 X-1.44442 Y-1.16853
G01 X-1.29289 Y-1.29289
G01 X-1.16853 Y-1.44442
G01 X-1.07610 Y-1.61727
G01 X-1.01920 Y-1.80490
G01 X-1.00000 Y-2.00000
G01 X-1.00000 Y-8.68586
G01 X-1.19141 Y-8.70491
G01 X-1.62644 Y-8.75784
G01 X-1.94996 Y-8.80875
G01 X-2.17757 Y-8.84024
G01 X-2.32608 Y-8.85586
G01 X-2.45194 Y-8.90801
G01 X-2.69006 Y-8.99772
G01 X-2.98973 Y-9.08888
G01 X-3.06814 Y-9.10852
G01 X-3.34894 Y-9.16450
G01 X-3.42735 Y-9.17613
G01 X-3.64998 Y-9.20006
G01 X-3.91000 Y-9.22241
G01 X-4.30992 Y-9.29002
G01 X-4.45226 Y-9.54999
G01 X-4.57096 Y-9.79858
G01 X-4.77258 Y-9.95418
G01 X-5.01876 Y-10.11159
G01 X-5.23705 Y-10.22040
G01 X-5.39298 Y-10.28047
G01 X-5.57881 Y-10.33277
G01 X-5.75546 Y-10.36307
G01 X-5.92882 Y-10.37440
G01 X-6.69199 Y-10.37455
G01 X-6.85292 Y-10.31029
G01 X-6.90517 Y-10.29332
G01 X-7.01578 Y-10.26363
G01 X-7.17149 Y-10.23610
G01 X-7.35089 Y-10.22469
G01 X-8.07700 Y-10.22553
G01 X-8.22841 Y-10.23630
G01 X-8.38406 Y-10.26386
G01 X-8.54667 Y-10.31052
G01 X-8.68507 Y-10.36483
G01 X-8.69996 Y-10.40369
G01 X-8.69998 Y-12.72146
G01 X-8.90753 Y-12.77948
G01 X-8.95980 Y-12.79060
G01 X-9.11794 Y-12.81572
G01 X-9.28624 Y-12.82880
G01 X-10.07748 Y-12.82929
G01 X-10.22982 Y-12.82121
G01 X-10.44014 Y-12.79060
G01 X-10.49241 Y-12.77948
G01 X-10.71260 Y-12.71737
G01 X-10.89579 Y-12.64681
G01 X-11.15502 Y-12.51770
G01 X-11.20729 Y-12.48753
G01 X-11.44676 Y-12.33137
G01 X-11.49904 Y-12.29340
G01 X-11.78743 Y-12.05883
G01 X-12.00993 Y-11.84996
G01 X-12.20495 Y-11.65497
G01 X-12.29500 Y-11.65497
G01 X-13.00000 Y-10.94999
G01 X-13.17170 Y-10.78941
G01 X-13.37155 Y-10.62685
G01 X-13.42380 Y-10.58890
G01 X-13.63947 Y-10.45215
G01 X-13.83101 Y-10.35766
G01 X-13.95331 Y-10.31057
G01 X-14.11595 Y-10.26394
G01 X-14.16820 Y-10.25284
G01 X-14.32377 Y-10.23092
G01 X-14.42507 Y-10.22530
G01 X-14.54998 Y-10.22507
G01 X-14.68747 Y-10.21730
G01 X-14.81574 Y-10.19876
G01 X-14.96774 Y-10.16043
G01 X-15.13027 Y-10.10051
G01 X-15.54226 Y-9.91448
G01 X-15.57050 Y-9.67824
G01 X-15.57498 Y-9.50801
G01 X-15.48445 Y-9.34283
G01 X-15.41897 Y-9.19625
G01 X-15.18100 Y-8.55375
G01 X-15.11186 Y-8.39998
G01 X-15.18100 Y-8.24619
G01 X-15.40302 Y-7.64527
G01 X-15.47863 Y-7.46864
G01 X-15.53152 Y-7.45142
G01 X-15.71849 Y-7.40352
G01 X-15.88806 Y-7.37883
G01 X-16.04996 Y-7.36999
G01 X-19.52214 Y-7.36996
G01 X-19.67708 Y-7.43151
G01 X-19.85475 Y-7.48924
G01 X-19.95866 Y-7.51716
G01 X-20.13636 Y-7.55493
G01 X-20.22780 Y-7.56945
G01 X-20.40550 Y-7.58812
G01 X-20.49115 Y-7.59264
G01 X-20.66884 Y-7.59264
G01 X-20.75447 Y-7.58812
G01 X-20.93217 Y-7.56945
G01 X-21.04779 Y-7.54979
G01 X-21.17646 Y-7.46135
G01 X-21.24608 Y-7.40799
G01 X-21.38162 Y-7.29221
G01 X-21.44159 Y-7.23532
G01 X-21.57852 Y-7.09059
G01 X-21.64499 Y-6.85226
G01 X-21.65949 Y-6.78416
G01 X-21.69396 Y-6.54637
G01 X-21.70328 Y-6.31126
G01 X-21.68764 Y-6.07347
G01 X-21.65949 Y-5.89580
G01 X-21.64499 Y-5.82770
G01 X-21.59737 Y-5.65000
G01 X-21.57052 Y-5.56765
G01 X-21.47903 Y-5.33420
G01 X-21.47903 Y-5.14660
G01 X-21.57748 Y-5.02244
G01 X-21.64778 Y-4.89829
G01 X-21.68997 Y-4.77413
G01 X-21.70405 Y-4.64995
G01 X-21.70405 Y-2.94998
G01 X-21.69213 Y-2.83578
G01 X-21.65647 Y-2.72161
G01 X-21.54321 Y-2.68663
G01 X-21.42998 Y-2.67498
G01 X-19.72998 Y-2.67498
G01 X-19.59247 Y-2.69217
G01 X-19.45498 Y-2.74373
G01 X-19.31749 Y-2.82966
G01 X-19.17997 Y-2.94998
G01 X-17.95998 Y-4.16997
G01 X-15.83969 Y-4.16997
G01 X-15.72816 Y-4.25214
G01 X-15.50993 Y-4.39999
G01 X-11.87811 Y-4.39997
G01 X-11.80907 Y-4.55346
G01 X-11.57100 Y-5.19618
G01 X-11.50556 Y-5.34269
G01 X-11.38855 Y-5.54998
G01 X-10.95261 Y-6.23750
G01 X-10.91738 Y-6.47847
G01 X-10.67989 Y-6.55079
G01 X-10.44997 Y-6.63542
G01 X-8.94999 Y-7.25673
G01 X-8.78149 Y-7.33720
G01 X-8.62922 Y-7.42757
G01 X-8.45815 Y-7.55871
G01 X-8.36620 Y-7.64593
G01 X-8.25680 Y-7.77032
G01 X-8.07110 Y-8.27128
G01 X-7.91649 Y-8.32711
G01 X-7.74756 Y-8.37021
G01 X-7.59930 Y-8.39183
G01 X-7.53674 Y-8.39678
G01 X-7.45000 Y-8.40021
G01 X-5.92882 Y-8.40054
G01 X-5.77159 Y-8.41101
G01 X-5.61033 Y-8.43887
G01 X-5.44208 Y-8.48644
G01 X-5.26197 Y-8.55828
G01 X-5.06354 Y-8.66249
G01 X-4.88142 Y-8.78126
G01 X-4.62191 Y-8.98873
G01 X-4.44998 Y-9.14999
G01 X-4.30992 Y-9.29002
G01 X-3.91000 Y-9.22241
G01 X-3.64998 Y-9.20006
G01 X-3.42735 Y-9.17613
G01 X-3.34894 Y-9.16450
G01 X-3.06814 Y-9.10852
G01 X-2.98973 Y-9.08888
G01 X-2.69006 Y-8.99772
G01 X-2.45194 Y-8.90801
G01 X-2.32608 Y-8.85586
G01 X-2.17757 Y-8.84024
G01 X-1.94996 Y-8.80875
G01 X-1.62644 Y-8.75784
G01 X-1.19141 Y-8.70491
G01 X-1.00000 Y-8.68586
G01 X-1.00000 Y-14.77000
G01 X-1.01920 Y-14.96507
G01 X-1.07610 Y-15.15267
G01 X-1.16853 Y-15.32555
G01 X-1.29289 Y-15.47708
G01 X-1.44442 Y-15.60147
G01 X-1.61727 Y-15.69387
G01 X-1.80490 Y-15.75077
G01 X-2.00000 Y-15.77000
G01 X-22.37999 Y-15.77000
G01 X-22.57509 Y-15.75077
G01 X-22.76267 Y-15.69387
G01 X-22.93556 Y-15.60147
G01 X-23.08710 Y-15.47708
G01 X-23.21146 Y-15.32555
G01 X-23.30386 Y-15.15267
G01 X-23.36076 Y-14.96507
G01 X-23.37999 Y-14.77000
G01 X-23.37999 Y-2.00000
G01 X-23.36076 Y-1.80490
G01 X-23.30386 Y-1.61727
G01 X-23.21146 Y-1.44442
G01 X-23.08710 Y-1.29289
G01 X-22.93556 Y-1.16853
G01 X-22.76267 Y-1.07610
G01 X-22.57509 Y-1.01920
G01 X-22.37999 Y-1.00000
G01 X-10.17199 Y-1.00000
G01 X-10.32863 Y-1.37577
G01 X-10.55220 Y-1.84935
G01 X-10.77577 Y-2.26532
G01 X-10.93998 Y-2.54066
G01 X-11.38855 Y-3.24996
G01 X-11.50536 Y-3.45686
G01 X-11.57110 Y-3.60403
G01 X-11.80907 Y-4.24650
G01 X-11.87811 Y-4.39997
G01 X-11.80907 Y-4.55346
G01 X-11.57100 Y-5.19618
G01 X-11.50556 Y-5.34269
G01 X-11.38855 Y-5.54998
G01 X-10.95261 Y-6.23750
G01 X-10.91738 Y-6.47847
G01 X-11.32624 Y-6.78586
G01 X-11.58728 Y-7.28066
G01 X-11.66167 Y-7.52432
G01 X-11.72695 Y-7.81599
G01 X-11.98189 Y-8.01929
G01 X-12.16332 Y-8.13758
G01 X-12.36147 Y-8.24172
G01 X-12.54181 Y-8.31370
G01 X-12.71057 Y-8.36143
G01 X-12.90063 Y-8.39193
G01 X-12.96322 Y-8.39686
G01 X-13.04999 Y-8.40031
G01 X-15.11186 Y-8.39998
G01 X-15.18100 Y-8.55375
G01 X-15.41897 Y-9.19625
G01 X-15.48445 Y-9.34283
G01 X-15.57498 Y-9.50801
G01 X-15.57050 Y-9.67824
G01 X-15.54226 Y-9.91448
G01 X-15.60032 Y-10.00303
G01 X-15.69133 Y-10.16008
G01 X-15.77889 Y-10.34870
G01 X-15.79999 Y-10.40369
G01 X-15.79999 Y-12.39632
G01 X-15.88183 Y-12.58733
G01 X-15.98534 Y-12.77457
G01 X-16.05981 Y-12.79060
G01 X-16.21787 Y-12.81570
G01 X-16.38623 Y-12.82880
G01 X-16.45133 Y-12.82995
G01 X-17.17746 Y-12.82929
G01 X-17.38201 Y-12.81572
G01 X-17.54015 Y-12.79060
G01 X-17.59242 Y-12.77948
G01 X-17.81284 Y-12.71730
G01 X-18.04805 Y-12.62355
G01 X-18.30685 Y-12.48778
G01 X-18.52188 Y-12.34928
G01 X-18.53324 Y-12.26998
G01 X-18.56179 Y-11.97206
G01 X-18.56496 Y-11.84999
G01 X-18.56496 Y-10.94999
G01 X-18.55904 Y-10.77567
G01 X-18.53921 Y-10.56998
G01 X-18.49308 Y-10.19284
G01 X-18.50728 Y-10.10727
G01 X-18.81297 Y-9.92251
G01 X-19.11863 Y-9.79056
G01 X-19.42429 Y-9.71136
G01 X-19.72998 Y-9.68497
G01 X-21.67664 Y-9.68672
G01 X-21.90359 Y-9.69749
G01 X-22.17125 Y-9.71878
G01 X-22.60928 Y-9.76744
G01 X-22.79190 Y-9.79190
G01 X-23.34433 Y-9.89292
G01 X-23.37999 Y-9.90239

G04 P0 ( dwell for no time -- G64 should not smooth over this point )
G00 Z15.000000 ( retract )

M5 ( Spindle off. )
G04 P1.000000
M9 ( Coolant off. )
M2 ( Program end. )

