( pcb2gcode 2.5.0 )
( Software-independent Gcode )

( This file uses 1 drill bit sizes. )
( Bit sizes: [1mm] )

G94       (Millimeters per minute feed rate.)
G21       (Units == Millimeters.)
G91.1     (Incremental arc distance mode.)
G90       (Absolute coordinates.)
G00 S13000     (RPM spindle speed.)

G00 Z15.00000 (Retract)
T1
M5      (Spindle stop.)
G04 P1.00000
(MSG, Change tool bit to drill size 1mm)
M6      (Tool change.)
M0      (Temporary machine stop.)
M3      (Spindle on clockwise.)
G0 Z2.00000
G04 P1.00000

G1 F120.00000
G0 X-2.79908 Y-3.79984
G1 Z-2.50000
G1 Z2.00000
G0 X-2.79908 Y-6.33984
G1 Z-2.50000
G1 Z2.00000
G0 X-2.79908 Y-11.41984
G1 Z-2.50000
G1 Z2.00000
G0 X-2.79908 Y-13.95984
G1 Z-2.50000
G1 Z2.00000
G0 X-20.57908 Y-3.79984
G1 Z-2.50000
G1 Z2.00000
G0 X-20.57908 Y-6.33984
G1 Z-2.50000
G1 Z2.00000
G0 X-20.57908 Y-11.41984
G1 Z-2.50000
G1 Z2.00000
G0 X-20.57908 Y-13.95984
G1 Z-2.50000
G1 Z2.00000

G00 Z15.000 ( All done -- retract )

M5      (Spindle off.)
G04 P1.000000
M9      (Coolant off.)
M2      (Program end.)

