( pcb2gcode 2.5.0 )
( Software-independent Gcode )

G94 ( Millimeters per minute feed rate. )
G21 ( Units == Millimeters. )

G90 ( Absolute coordinates. )
G00 S13000 ( RPM spindle speed. )
G01 F120.00000 ( Feedrate. )


G00 Z15.00000 (Retract to tool change height)
T0
M5      (Spindle stop.)
G04 P1.00000 (Wait for spindle to stop)
(MSG, Change tool bit to cutter diameter 1.00000mm)
M6      (Tool change.)
M0      (Temporary machine stop.)
M3 ( Spindle on clockwise. )
G04 P1.00000 (Wait for spindle to get up to speed)
G04 P0 ( dwell for no time -- G64 should not smooth over this point )
G00 Z2.00000 ( retract )

G00 X-0.49997 Y-14.77000 ( rapid move to begin. )
G01 Z-0.50000 F60.00000 ( plunge. )
G04 P0 ( dwell for no time -- G64 should not smooth over this point )
G01 F120.00000
G01 X-0.50239 Y-1.95100
G01 X-0.52878 Y-1.70736
G01 X-0.59761 Y-1.47216
G01 X-0.63515 Y-1.38153
G01 X-0.72758 Y-1.20866
G01 X-0.78202 Y-1.12723
G01 X-0.93932 Y-0.93932
G01 X-1.12723 Y-0.78202
G01 X-1.20866 Y-0.72758
G01 X-1.42593 Y-0.61415
G01 X-1.65976 Y-0.54072
G01 X-1.75590 Y-0.52159
G01 X-2.00000 Y-0.49997
G01 X-22.37999 Y-0.49997
G01 X-22.62406 Y-0.52159
G01 X-22.72020 Y-0.54072
G01 X-22.95401 Y-0.61415
G01 X-23.17128 Y-0.72756
G01 X-23.25273 Y-0.78202
G01 X-23.44064 Y-0.93932
G01 X-23.59795 Y-1.12723
G01 X-23.65240 Y-1.20871
G01 X-23.76579 Y-1.42596
G01 X-23.83922 Y-1.65976
G01 X-23.85835 Y-1.75585
G01 X-23.87999 Y-2.00000
G01 X-23.87999 Y-14.77000
G01 X-23.85835 Y-15.01409
G01 X-23.83922 Y-15.11018
G01 X-23.76579 Y-15.34399
G01 X-23.65240 Y-15.56123
G01 X-23.59795 Y-15.64272
G01 X-23.47359 Y-15.79425
G01 X-23.40432 Y-15.86354
G01 X-23.25279 Y-15.98793
G01 X-23.17123 Y-16.04244
G01 X-22.99833 Y-16.13484
G01 X-22.90778 Y-16.17233
G01 X-22.72020 Y-16.22923
G01 X-22.62411 Y-16.24835
G01 X-22.37999 Y-16.27000
G01 X-1.95095 Y-16.26758
G01 X-1.75585 Y-16.24835
G01 X-1.65976 Y-16.22923
G01 X-1.42596 Y-16.15580
G01 X-1.16660 Y-16.01716
G01 X-0.97564 Y-15.86354
G01 X-0.90637 Y-15.79425
G01 X-0.78202 Y-15.64272
G01 X-0.72758 Y-15.56128
G01 X-0.61415 Y-15.34401
G01 X-0.54072 Y-15.11018
G01 X-0.52159 Y-15.01404
G01 X-0.49997 Y-14.77000
G01 Z-1.00000 F60.00000 ( plunge. )
G04 P0 ( dwell for no time -- G64 should not smooth over this point )
G01 F120.00000
G01 X-0.50239 Y-1.95100
G01 X-0.52878 Y-1.70736
G01 X-0.59761 Y-1.47216
G01 X-0.63515 Y-1.38153
G01 X-0.72758 Y-1.20866
G01 X-0.78202 Y-1.12723
G01 X-0.93932 Y-0.93932
G01 X-1.12723 Y-0.78202
G01 X-1.20866 Y-0.72758
G01 X-1.42593 Y-0.61415
G01 X-1.65976 Y-0.54072
G01 X-1.75590 Y-0.52159
G01 X-2.00000 Y-0.49997
G01 X-22.37999 Y-0.49997
G01 X-22.62406 Y-0.52159
G01 X-22.72020 Y-0.54072
G01 X-22.95401 Y-0.61415
G01 X-23.17128 Y-0.72756
G01 X-23.25273 Y-0.78202
G01 X-23.44064 Y-0.93932
G01 X-23.59795 Y-1.12723
G01 X-23.65240 Y-1.20871
G01 X-23.76579 Y-1.42596
G01 X-23.83922 Y-1.65976
G01 X-23.85835 Y-1.75585
G01 X-23.87999 Y-2.00000
G01 X-23.87999 Y-14.77000
G01 X-23.85835 Y-15.01409
G01 X-23.83922 Y-15.11018
G01 X-23.76579 Y-15.34399
G01 X-23.65240 Y-15.56123
G01 X-23.59795 Y-15.64272
G01 X-23.47359 Y-15.79425
G01 X-23.40432 Y-15.86354
G01 X-23.25279 Y-15.98793
G01 X-23.17123 Y-16.04244
G01 X-22.99833 Y-16.13484
G01 X-22.90778 Y-16.17233
G01 X-22.72020 Y-16.22923
G01 X-22.62411 Y-16.24835
G01 X-22.37999 Y-16.27000
G01 X-1.95095 Y-16.26758
G01 X-1.75585 Y-16.24835
G01 X-1.65976 Y-16.22923
G01 X-1.42596 Y-16.15580
G01 X-1.16660 Y-16.01716
G01 X-0.97564 Y-15.86354
G01 X-0.90637 Y-15.79425
G01 X-0.78202 Y-15.64272
G01 X-0.72758 Y-15.56128
G01 X-0.61415 Y-15.34401
G01 X-0.54072 Y-15.11018
G01 X-0.52159 Y-15.01404
G01 X-0.49997 Y-14.77000
G01 Z-1.50000 F60.00000 ( plunge. )
G04 P0 ( dwell for no time -- G64 should not smooth over this point )
G01 F120.00000
G01 X-0.50239 Y-1.95100
G01 X-0.52878 Y-1.70736
G01 X-0.59761 Y-1.47216
G01 X-0.63515 Y-1.38153
G01 X-0.72758 Y-1.20866
G01 X-0.78202 Y-1.12723
G01 X-0.93932 Y-0.93932
G01 X-1.12723 Y-0.78202
G01 X-1.20866 Y-0.72758
G01 X-1.42593 Y-0.61415
G01 X-1.65976 Y-0.54072
G01 X-1.75590 Y-0.52159
G01 X-2.00000 Y-0.49997
G01 X-22.37999 Y-0.49997
G01 X-22.62406 Y-0.52159
G01 X-22.72020 Y-0.54072
G01 X-22.95401 Y-0.61415
G01 X-23.17128 Y-0.72756
G01 X-23.25273 Y-0.78202
G01 X-23.44064 Y-0.93932
G01 X-23.59795 Y-1.12723
G01 X-23.65240 Y-1.20871
G01 X-23.76579 Y-1.42596
G01 X-23.83922 Y-1.65976
G01 X-23.85835 Y-1.75585
G01 X-23.87999 Y-2.00000
G01 X-23.87999 Y-14.77000
G01 X-23.85835 Y-15.01409
G01 X-23.83922 Y-15.11018
G01 X-23.76579 Y-15.34399
G01 X-23.65240 Y-15.56123
G01 X-23.59795 Y-15.64272
G01 X-23.47359 Y-15.79425
G01 X-23.40432 Y-15.86354
G01 X-23.25279 Y-15.98793
G01 X-23.17123 Y-16.04244
G01 X-22.99833 Y-16.13484
G01 X-22.90778 Y-16.17233
G01 X-22.72020 Y-16.22923
G01 X-22.62411 Y-16.24835
G01 X-22.37999 Y-16.27000
G01 X-1.95095 Y-16.26758
G01 X-1.75585 Y-16.24835
G01 X-1.65976 Y-16.22923
G01 X-1.42596 Y-16.15580
G01 X-1.16660 Y-16.01716
G01 X-0.97564 Y-15.86354
G01 X-0.90637 Y-15.79425
G01 X-0.78202 Y-15.64272
G01 X-0.72758 Y-15.56128
G01 X-0.61415 Y-15.34401
G01 X-0.54072 Y-15.11018
G01 X-0.52159 Y-15.01404
G01 X-0.49997 Y-14.77000
G01 Z-2.00000 F60.00000 ( plunge. )
G04 P0 ( dwell for no time -- G64 should not smooth over this point )
G01 F120.00000
G01 X-0.50239 Y-1.95100
G01 X-0.52878 Y-1.70736
G01 X-0.59761 Y-1.47216
G01 X-0.63515 Y-1.38153
G01 X-0.72758 Y-1.20866
G01 X-0.78202 Y-1.12723
G01 X-0.93932 Y-0.93932
G01 X-1.12723 Y-0.78202
G01 X-1.20866 Y-0.72758
G01 X-1.42593 Y-0.61415
G01 X-1.65976 Y-0.54072
G01 X-1.75590 Y-0.52159
G01 X-2.00000 Y-0.49997
G01 X-22.37999 Y-0.49997
G01 X-22.62406 Y-0.52159
G01 X-22.72020 Y-0.54072
G01 X-22.95401 Y-0.61415
G01 X-23.17128 Y-0.72756
G01 X-23.25273 Y-0.78202
G01 X-23.44064 Y-0.93932
G01 X-23.59795 Y-1.12723
G01 X-23.65240 Y-1.20871
G01 X-23.76579 Y-1.42596
G01 X-23.83922 Y-1.65976
G01 X-23.85835 Y-1.75585
G01 X-23.87999 Y-2.00000
G01 X-23.87999 Y-14.77000
G01 X-23.85835 Y-15.01409
G01 X-23.83922 Y-15.11018
G01 X-23.76579 Y-15.34399
G01 X-23.65240 Y-15.56123
G01 X-23.59795 Y-15.64272
G01 X-23.47359 Y-15.79425
G01 X-23.40432 Y-15.86354
G01 X-23.25279 Y-15.98793
G01 X-23.17123 Y-16.04244
G01 X-22.99833 Y-16.13484
G01 X-22.90778 Y-16.17233
G01 X-22.72020 Y-16.22923
G01 X-22.62411 Y-16.24835
G01 X-22.37999 Y-16.27000
G01 X-1.95095 Y-16.26758
G01 X-1.75585 Y-16.24835
G01 X-1.65976 Y-16.22923
G01 X-1.42596 Y-16.15580
G01 X-1.16660 Y-16.01716
G01 X-0.97564 Y-15.86354
G01 X-0.90637 Y-15.79425
G01 X-0.78202 Y-15.64272
G01 X-0.72758 Y-15.56128
G01 X-0.61415 Y-15.34401
G01 X-0.54072 Y-15.11018
G01 X-0.52159 Y-15.01404
G01 X-0.49997 Y-14.77000
G01 Z-2.50000 F60.00000 ( plunge. )
G04 P0 ( dwell for no time -- G64 should not smooth over this point )
G01 F120.00000
G01 X-0.50239 Y-1.95100
G01 X-0.52878 Y-1.70736
G01 X-0.59761 Y-1.47216
G01 X-0.63515 Y-1.38153
G01 X-0.72758 Y-1.20866
G01 X-0.78202 Y-1.12723
G01 X-0.93932 Y-0.93932
G01 X-1.12723 Y-0.78202
G01 X-1.20866 Y-0.72758
G01 X-1.42593 Y-0.61415
G01 X-1.65976 Y-0.54072
G01 X-1.75590 Y-0.52159
G01 X-2.00000 Y-0.49997
G01 X-22.37999 Y-0.49997
G01 X-22.62406 Y-0.52159
G01 X-22.72020 Y-0.54072
G01 X-22.95401 Y-0.61415
G01 X-23.17128 Y-0.72756
G01 X-23.25273 Y-0.78202
G01 X-23.44064 Y-0.93932
G01 X-23.59795 Y-1.12723
G01 X-23.65240 Y-1.20871
G01 X-23.76579 Y-1.42596
G01 X-23.83922 Y-1.65976
G01 X-23.85835 Y-1.75585
G01 X-23.87999 Y-2.00000
G01 X-23.87999 Y-14.77000
G01 X-23.85835 Y-15.01409
G01 X-23.83922 Y-15.11018
G01 X-23.76579 Y-15.34399
G01 X-23.65240 Y-15.56123
G01 X-23.59795 Y-15.64272
G01 X-23.47359 Y-15.79425
G01 X-23.40432 Y-15.86354
G01 X-23.25279 Y-15.98793
G01 X-23.17123 Y-16.04244
G01 X-22.99833 Y-16.13484
G01 X-22.90778 Y-16.17233
G01 X-22.72020 Y-16.22923
G01 X-22.62411 Y-16.24835
G01 X-22.37999 Y-16.27000
G01 X-1.95095 Y-16.26758
G01 X-1.75585 Y-16.24835
G01 X-1.65976 Y-16.22923
G01 X-1.42596 Y-16.15580
G01 X-1.16660 Y-16.01716
G01 X-0.97564 Y-15.86354
G01 X-0.90637 Y-15.79425
G01 X-0.78202 Y-15.64272
G01 X-0.72758 Y-15.56128
G01 X-0.61415 Y-15.34401
G01 X-0.54072 Y-15.11018
G01 X-0.52159 Y-15.01404
G01 X-0.49997 Y-14.77000

G04 P0 ( dwell for no time -- G64 should not smooth over this point )
G00 Z15.000000 ( retract )

M5 ( Spindle off. )
G04 P1.000000
M9 ( Coolant off. )
M2 ( Program end. )

