( pcb2gcode 2.5.0 )
( Software-independent Gcode )

G94 ( Millimeters per minute feed rate. )
G21 ( Units == Millimeters. )

G90 ( Absolute coordinates. )
G00 S13000 ( RPM spindle speed. )
G01 F120.00000 ( Feedrate. )


G00 Z15.00000 (Retract to tool change height)
T0
M5      (Spindle stop.)
G04 P1.00000 (Wait for spindle to stop)
(MSG, Change tool bit to mill diameter 0.45360mm)
M6      (Tool change.)
M0      (Temporary machine stop.)
M3 ( Spindle on clockwise. )
G04 P1.00000 (Wait for spindle to get up to speed)
G04 P0 ( dwell for no time -- G64 should not smooth over this point )
G00 Z2.00000 ( retract )

G00 X-2.68679 Y-3.17317 ( rapid move to begin. )
G01 F60.00000
( Mill infeed pass 1/1 )
G01 Z-0.07000
G04 P0 ( dwell for no time -- G64 should not smooth over this point )
G01 F120.00000
G01 X-2.68679 Y-3.17317
G01 X-2.68884 Y-2.89517
G01 X-2.71772 Y-2.81770
G01 X-2.76479 Y-2.75481
G01 X-2.82771 Y-2.70772
G01 X-2.90515 Y-2.67884
G01 X-3.18310 Y-2.67678
G01 X-3.18310 Y-2.72318
G01 X-2.95999 Y-2.72318
G01 X-2.91574 Y-2.72755
G01 X-2.87320 Y-2.74046
G01 X-2.83398 Y-2.76141
G01 X-2.79961 Y-2.78961
G01 X-2.77142 Y-2.82397
G01 X-2.75044 Y-2.86319
G01 X-2.73754 Y-2.90573
G01 X-2.73319 Y-2.94998
G01 X-2.73319 Y-3.17317
G01 X-2.68679 Y-3.17317
G04 P0 ( dwell for no time -- G64 should not smooth over this point )
G00 Z2.00000 ( retract )

G00 X-2.68679 Y-4.68566 ( rapid move to begin. )
G01 F60.00000
( Mill infeed pass 1/1 )
G01 Z-0.07000
G04 P0 ( dwell for no time -- G64 should not smooth over this point )
G01 F120.00000
G01 X-2.68679 Y-4.68566
G01 X-2.68679 Y-4.42679
G01 X-2.73319 Y-4.42679
G01 X-2.73319 Y-4.64998
G01 X-2.73754 Y-4.69422
G01 X-2.75044 Y-4.73677
G01 X-2.77142 Y-4.77599
G01 X-2.79961 Y-4.81035
G01 X-2.83398 Y-4.83857
G01 X-2.87320 Y-4.85953
G01 X-2.91574 Y-4.87243
G01 X-2.95999 Y-4.87680
G01 X-3.18310 Y-4.87680
G01 X-3.18310 Y-4.92315
G01 X-2.92428 Y-4.92315
G01 X-2.90515 Y-4.92110
G01 X-2.82768 Y-4.89222
G01 X-2.76479 Y-4.84515
G01 X-2.71772 Y-4.78226
G01 X-2.68884 Y-4.70479
G01 X-2.68679 Y-4.68566
G04 P0 ( dwell for no time -- G64 should not smooth over this point )
G00 Z2.00000 ( retract )

G00 X-4.43680 Y-4.92315 ( rapid move to begin. )
G01 F60.00000
( Mill infeed pass 1/1 )
G01 Z-0.07000
G04 P0 ( dwell for no time -- G64 should not smooth over this point )
G01 F120.00000
G01 X-4.43680 Y-4.92315
G01 X-4.43680 Y-4.87680
G01 X-4.65999 Y-4.87680
G01 X-4.70423 Y-4.87243
G01 X-4.74678 Y-4.85953
G01 X-4.78599 Y-4.83857
G01 X-4.82036 Y-4.81035
G01 X-4.84856 Y-4.77599
G01 X-4.86954 Y-4.73677
G01 X-4.88244 Y-4.69422
G01 X-4.88678 Y-4.64998
G01 X-4.88678 Y-4.42679
G01 X-5.47484 Y-4.42679
G01 X-5.62948 Y-4.60019
G01 X-5.72315 Y-4.66982
G01 X-5.72315 Y-4.73225
G01 X-5.62524 Y-4.66367
G01 X-5.51680 Y-4.55526
G01 X-5.43695 Y-4.49547
G01 X-5.37642 Y-4.47289
G01 X-5.30814 Y-4.45803
G01 X-5.26534 Y-4.45290
G01 X-5.22232 Y-4.45597
G01 X-5.11523 Y-4.49153
G01 X-5.07642 Y-4.51038
G01 X-5.04190 Y-4.53621
G01 X-5.01289 Y-4.56814
G01 X-4.95351 Y-4.65132
G01 X-4.90223 Y-4.78226
G01 X-4.85516 Y-4.84513
G01 X-4.79227 Y-4.89222
G01 X-4.71477 Y-4.92110
G01 X-4.69565 Y-4.92315
G01 X-4.43680 Y-4.92315
G04 P0 ( dwell for no time -- G64 should not smooth over this point )
G00 Z2.00000 ( retract )

G00 X-4.43680 Y-2.72318 ( rapid move to begin. )
G01 F60.00000
( Mill infeed pass 1/1 )
G01 Z-0.07000
G04 P0 ( dwell for no time -- G64 should not smooth over this point )
G01 F120.00000
G01 X-4.43680 Y-2.72318
G01 X-4.43680 Y-2.67678
G01 X-4.69567 Y-2.67678
G01 X-4.71477 Y-2.67884
G01 X-4.79224 Y-2.70772
G01 X-4.85516 Y-2.75481
G01 X-4.90223 Y-2.81770
G01 X-4.95351 Y-2.94864
G01 X-4.98792 Y-3.00685
G01 X-5.00913 Y-3.03134
G01 X-5.08953 Y-3.09438
G01 X-5.12636 Y-3.11683
G01 X-5.16674 Y-3.13190
G01 X-5.20926 Y-3.13903
G01 X-5.27896 Y-3.14401
G01 X-5.32206 Y-3.14297
G01 X-5.36418 Y-3.13383
G01 X-5.40380 Y-3.11686
G01 X-5.49234 Y-3.06588
G01 X-5.62524 Y-2.93627
G01 X-5.72315 Y-2.86769
G01 X-5.72315 Y-2.93017
G01 X-5.62948 Y-2.99977
G01 X-5.47487 Y-3.17317
G01 X-4.88678 Y-3.17317
G01 X-4.88678 Y-2.94998
G01 X-4.88244 Y-2.90573
G01 X-4.86954 Y-2.86319
G01 X-4.84856 Y-2.82397
G01 X-4.82036 Y-2.78961
G01 X-4.78599 Y-2.76141
G01 X-4.74678 Y-2.74046
G01 X-4.70423 Y-2.72755
G01 X-4.65999 Y-2.72318
G01 X-4.43680 Y-2.72318
G04 P0 ( dwell for no time -- G64 should not smooth over this point )
G00 Z2.00000 ( retract )

G00 X-6.97680 Y-4.73225 ( rapid move to begin. )
G01 F60.00000
( Mill infeed pass 1/1 )
G01 Z-0.07000
G04 P0 ( dwell for no time -- G64 should not smooth over this point )
G01 F120.00000
G01 X-6.97680 Y-4.73225
G01 X-6.97680 Y-4.66984
G01 X-7.07050 Y-4.60019
G01 X-7.22513 Y-4.42679
G01 X-7.28226 Y-4.42679
G01 X-7.21368 Y-4.52471
G01 X-7.07471 Y-4.66367
G01 X-6.97680 Y-4.73225
G04 P0 ( dwell for no time -- G64 should not smooth over this point )
G00 Z2.00000 ( retract )

G00 X-6.97680 Y-2.93014 ( rapid move to begin. )
G01 F60.00000
( Mill infeed pass 1/1 )
G01 Z-0.07000
G04 P0 ( dwell for no time -- G64 should not smooth over this point )
G01 F120.00000
G01 X-6.97680 Y-2.93014
G01 X-7.07050 Y-2.99977
G01 X-7.22511 Y-3.17317
G01 X-7.28403 Y-3.17317
G01 X-7.21451 Y-3.07607
G01 X-7.07471 Y-2.93627
G01 X-6.97680 Y-2.86769
G01 X-6.97680 Y-2.93014
G04 P0 ( dwell for no time -- G64 should not smooth over this point )
G00 Z2.00000 ( retract )

G00 X-7.95769 Y-3.17317 ( rapid move to begin. )
G01 F60.00000
( Mill infeed pass 1/1 )
G01 Z-0.07000
G04 P0 ( dwell for no time -- G64 should not smooth over this point )
G01 F120.00000
G01 X-7.95769 Y-3.17317
G01 X-8.02627 Y-3.07523
G01 X-8.16524 Y-2.93627
G01 X-8.26315 Y-2.86769
G01 X-8.26315 Y-2.93017
G01 X-8.16948 Y-2.99977
G01 X-8.01487 Y-3.17317
G01 X-7.95769 Y-3.17317
G04 P0 ( dwell for no time -- G64 should not smooth over this point )
G00 Z2.00000 ( retract )

G00 X-9.51680 Y-2.93014 ( rapid move to begin. )
G01 F60.00000
( Mill infeed pass 1/1 )
G01 Z-0.07000
G04 P0 ( dwell for no time -- G64 should not smooth over this point )
G01 F120.00000
G01 X-9.51680 Y-2.93014
G01 X-9.61050 Y-2.99977
G01 X-9.76511 Y-3.17317
G01 X-9.82403 Y-3.17317
G01 X-9.75451 Y-3.07607
G01 X-9.61471 Y-2.93627
G01 X-9.51680 Y-2.86769
G01 X-9.51680 Y-2.93014
G04 P0 ( dwell for no time -- G64 should not smooth over this point )
G00 Z2.00000 ( retract )

G00 X-10.49769 Y-3.17317 ( rapid move to begin. )
G01 F60.00000
( Mill infeed pass 1/1 )
G01 Z-0.07000
G04 P0 ( dwell for no time -- G64 should not smooth over this point )
G01 F120.00000
G01 X-10.49769 Y-3.17317
G01 X-10.56627 Y-3.07523
G01 X-10.70524 Y-2.93627
G01 X-10.80315 Y-2.86769
G01 X-10.80315 Y-2.93017
G01 X-10.70948 Y-2.99977
G01 X-10.55487 Y-3.17317
G01 X-10.49769 Y-3.17317
G04 P0 ( dwell for no time -- G64 should not smooth over this point )
G00 Z2.00000 ( retract )

G00 X-12.05680 Y-4.73225 ( rapid move to begin. )
G01 F60.00000
( Mill infeed pass 1/1 )
G01 Z-0.07000
G04 P0 ( dwell for no time -- G64 should not smooth over this point )
G01 F120.00000
G01 X-12.05680 Y-4.73225
G01 X-12.05680 Y-4.66984
G01 X-12.15050 Y-4.60019
G01 X-12.30513 Y-4.42679
G01 X-12.36226 Y-4.42679
G01 X-12.29368 Y-4.52471
G01 X-12.15471 Y-4.66367
G01 X-12.05680 Y-4.73225
G04 P0 ( dwell for no time -- G64 should not smooth over this point )
G00 Z2.00000 ( retract )

G00 X-12.05680 Y-2.93014 ( rapid move to begin. )
G01 F60.00000
( Mill infeed pass 1/1 )
G01 Z-0.07000
G04 P0 ( dwell for no time -- G64 should not smooth over this point )
G01 F120.00000
G01 X-12.05680 Y-2.93014
G01 X-12.05680 Y-2.86769
G01 X-12.15471 Y-2.93627
G01 X-12.29368 Y-3.07523
G01 X-12.36226 Y-3.17317
G01 X-12.30511 Y-3.17317
G01 X-12.15050 Y-2.99977
G01 X-12.05680 Y-2.93014
G04 P0 ( dwell for no time -- G64 should not smooth over this point )
G00 Z2.00000 ( retract )

G00 X-10.49592 Y-4.42679 ( rapid move to begin. )
G01 F60.00000
( Mill infeed pass 1/1 )
G01 Z-0.07000
G04 P0 ( dwell for no time -- G64 should not smooth over this point )
G01 F120.00000
G01 X-10.49592 Y-4.42679
G01 X-10.56543 Y-4.52387
G01 X-10.70524 Y-4.66367
G01 X-10.80315 Y-4.73225
G01 X-10.80315 Y-4.66982
G01 X-10.70948 Y-4.60019
G01 X-10.55484 Y-4.42679
G01 X-10.49592 Y-4.42679
G04 P0 ( dwell for no time -- G64 should not smooth over this point )
G00 Z2.00000 ( retract )

G00 X-9.51680 Y-4.73225 ( rapid move to begin. )
G01 F60.00000
( Mill infeed pass 1/1 )
G01 Z-0.07000
G04 P0 ( dwell for no time -- G64 should not smooth over this point )
G01 F120.00000
G01 X-9.51680 Y-4.73225
G01 X-9.61471 Y-4.66367
G01 X-9.75368 Y-4.52471
G01 X-9.82226 Y-4.42679
G01 X-9.76513 Y-4.42679
G01 X-9.61050 Y-4.60019
G01 X-9.51680 Y-4.66984
G01 X-9.51680 Y-4.73225
G04 P0 ( dwell for no time -- G64 should not smooth over this point )
G00 Z2.00000 ( retract )

G00 X-7.95591 Y-4.42679 ( rapid move to begin. )
G01 F60.00000
( Mill infeed pass 1/1 )
G01 Z-0.07000
G04 P0 ( dwell for no time -- G64 should not smooth over this point )
G01 F120.00000
G01 X-7.95591 Y-4.42679
G01 X-8.01484 Y-4.42679
G01 X-8.16948 Y-4.60019
G01 X-8.26315 Y-4.66982
G01 X-8.26315 Y-4.73225
G01 X-8.16524 Y-4.66367
G01 X-8.02543 Y-4.52387
G01 X-7.95591 Y-4.42679
G04 P0 ( dwell for no time -- G64 should not smooth over this point )
G00 Z2.00000 ( retract )

G00 X-4.78678 Y-7.83692 ( rapid move to begin. )
G01 F60.00000
( Mill infeed pass 1/1 )
G01 Z-0.07000
G04 P0 ( dwell for no time -- G64 should not smooth over this point )
G01 F120.00000
G01 X-4.78678 Y-7.83692
G01 X-4.78678 Y-7.77918
G01 X-4.89864 Y-7.83306
G01 X-5.08109 Y-7.95744
G01 X-5.24294 Y-8.10763
G01 X-5.38061 Y-8.28027
G01 X-5.49656 Y-8.48566
G01 X-5.43804 Y-8.48566
G01 X-5.31429 Y-8.27385
G01 X-5.11470 Y-8.05216
G01 X-4.89328 Y-7.88977
G01 X-4.85224 Y-7.86608
G01 X-4.78678 Y-7.83692
G04 P0 ( dwell for no time -- G64 should not smooth over this point )
G00 Z2.00000 ( retract )

G00 X-2.82339 Y-9.73927 ( rapid move to begin. )
G01 F60.00000
( Mill infeed pass 1/1 )
G01 Z-0.07000
G04 P0 ( dwell for no time -- G64 should not smooth over this point )
G01 F120.00000
G01 X-2.82339 Y-9.73927
G01 X-2.93936 Y-9.94471
G01 X-3.07701 Y-10.11733
G01 X-3.23880 Y-10.26749
G01 X-3.42133 Y-10.39188
G01 X-3.53317 Y-10.44575
G01 X-3.53317 Y-10.38804
G01 X-3.46773 Y-10.35891
G01 X-3.42669 Y-10.33521
G01 X-3.22372 Y-10.18774
G01 X-3.18849 Y-10.15601
G01 X-3.00568 Y-9.95114
G01 X-2.88191 Y-9.73927
G01 X-2.82339 Y-9.73927
G04 P0 ( dwell for no time -- G64 should not smooth over this point )
G00 Z2.00000 ( retract )

G00 X-2.82339 Y-8.48566 ( rapid move to begin. )
G01 F60.00000
( Mill infeed pass 1/1 )
G01 Z-0.07000
G04 P0 ( dwell for no time -- G64 should not smooth over this point )
G01 F120.00000
G01 X-2.82339 Y-8.48566
G01 X-2.93936 Y-8.28027
G01 X-3.07703 Y-8.10763
G01 X-3.23880 Y-7.95744
G01 X-3.42130 Y-7.83306
G01 X-3.53317 Y-7.77918
G01 X-3.53317 Y-7.83694
G01 X-3.46773 Y-7.86608
G01 X-3.42669 Y-7.88977
G01 X-3.22372 Y-8.03722
G01 X-3.18849 Y-8.06894
G01 X-3.00568 Y-8.27385
G01 X-2.88193 Y-8.48566
G01 X-2.82339 Y-8.48566
G04 P0 ( dwell for no time -- G64 should not smooth over this point )
G00 Z2.00000 ( retract )

G00 X-4.78678 Y-10.44575 ( rapid move to begin. )
G01 F60.00000
( Mill infeed pass 1/1 )
G01 Z-0.07000
G04 P0 ( dwell for no time -- G64 should not smooth over this point )
G01 F120.00000
G01 X-4.78678 Y-10.44575
G01 X-4.78678 Y-10.38807
G01 X-4.85224 Y-10.35891
G01 X-4.89328 Y-10.33521
G01 X-5.09626 Y-10.18774
G01 X-5.13149 Y-10.15601
G01 X-5.31429 Y-9.95114
G01 X-5.43806 Y-9.73927
G01 X-5.49656 Y-9.73927
G01 X-5.38061 Y-9.94471
G01 X-5.24294 Y-10.11733
G01 X-5.08109 Y-10.26749
G01 X-4.89862 Y-10.39188
G01 X-4.78678 Y-10.44575
G04 P0 ( dwell for no time -- G64 should not smooth over this point )
G00 Z2.00000 ( retract )

G00 X-4.68074 Y-14.70317 ( rapid move to begin. )
G01 F60.00000
( Mill infeed pass 1/1 )
G01 Z-0.07000
G04 P0 ( dwell for no time -- G64 should not smooth over this point )
G01 F120.00000
G01 X-4.68074 Y-14.70317
G01 X-4.70558 Y-14.68849
G01 X-4.81343 Y-14.65715
G01 X-5.17317 Y-14.65679
G01 X-5.17317 Y-14.70317
G01 X-4.68074 Y-14.70317
G04 P0 ( dwell for no time -- G64 should not smooth over this point )
G00 Z2.00000 ( retract )

G00 X-4.59710 Y-15.75679 ( rapid move to begin. )
G01 F60.00000
( Mill infeed pass 1/1 )
G01 Z-0.07000
G04 P0 ( dwell for no time -- G64 should not smooth over this point )
G01 F120.00000
G01 X-4.59710 Y-15.75679
G01 X-4.61173 Y-15.81165
G01 X-4.61277 Y-15.85478
G01 X-4.60779 Y-15.92448
G01 X-4.59819 Y-15.97317
G01 X-5.17317 Y-15.97317
G01 X-5.17317 Y-15.75679
G01 X-4.59710 Y-15.75679
G04 P0 ( dwell for no time -- G64 should not smooth over this point )
G00 Z2.00000 ( retract )

G00 X-4.59710 Y-17.02679 ( rapid move to begin. )
G01 F60.00000
( Mill infeed pass 1/1 )
G01 Z-0.07000
G04 P0 ( dwell for no time -- G64 should not smooth over this point )
G01 F120.00000
G01 X-4.59710 Y-17.02679
G01 X-4.61173 Y-17.08165
G01 X-4.61277 Y-17.12478
G01 X-4.60779 Y-17.19448
G01 X-4.59819 Y-17.24317
G01 X-5.17317 Y-17.24317
G01 X-5.17317 Y-17.02679
G01 X-4.59710 Y-17.02679
G04 P0 ( dwell for no time -- G64 should not smooth over this point )
G00 Z2.00000 ( retract )

G00 X-4.59710 Y-18.29679 ( rapid move to begin. )
G01 F60.00000
( Mill infeed pass 1/1 )
G01 Z-0.07000
G04 P0 ( dwell for no time -- G64 should not smooth over this point )
G01 F120.00000
G01 X-4.59710 Y-18.29679
G01 X-4.61173 Y-18.35165
G01 X-4.61277 Y-18.39478
G01 X-4.60779 Y-18.46448
G01 X-4.59819 Y-18.51317
G01 X-5.17317 Y-18.51317
G01 X-5.17317 Y-18.29679
G01 X-4.59710 Y-18.29679
G04 P0 ( dwell for no time -- G64 should not smooth over this point )
G00 Z2.00000 ( retract )

G00 X-4.68076 Y-19.56679 ( rapid move to begin. )
G01 F60.00000
( Mill infeed pass 1/1 )
G01 Z-0.07000
G04 P0 ( dwell for no time -- G64 should not smooth over this point )
G01 F120.00000
G01 X-4.68076 Y-19.56679
G01 X-4.70558 Y-19.58147
G01 X-4.81343 Y-19.61281
G01 X-5.17317 Y-19.61317
G01 X-5.17317 Y-19.56679
G01 X-4.68076 Y-19.56679
G04 P0 ( dwell for no time -- G64 should not smooth over this point )
G00 Z2.00000 ( retract )

G00 X-6.22678 Y-19.61317 ( rapid move to begin. )
G01 F60.00000
( Mill infeed pass 1/1 )
G01 Z-0.07000
G04 P0 ( dwell for no time -- G64 should not smooth over this point )
G01 F120.00000
G01 X-6.22678 Y-19.61317
G01 X-6.22678 Y-19.56679
G01 X-6.71919 Y-19.56679
G01 X-6.69437 Y-19.58147
G01 X-6.58650 Y-19.61281
G01 X-6.22678 Y-19.61317
G04 P0 ( dwell for no time -- G64 should not smooth over this point )
G00 Z2.00000 ( retract )

G00 X-6.22678 Y-18.51317 ( rapid move to begin. )
G01 F60.00000
( Mill infeed pass 1/1 )
G01 Z-0.07000
G04 P0 ( dwell for no time -- G64 should not smooth over this point )
G01 F120.00000
G01 X-6.22678 Y-18.51317
G01 X-6.22678 Y-18.29679
G01 X-6.66679 Y-18.29679
G01 X-6.66679 Y-18.51317
G01 X-6.22678 Y-18.51317
G04 P0 ( dwell for no time -- G64 should not smooth over this point )
G00 Z2.00000 ( retract )

G00 X-6.22678 Y-17.24317 ( rapid move to begin. )
G01 F60.00000
( Mill infeed pass 1/1 )
G01 Z-0.07000
G04 P0 ( dwell for no time -- G64 should not smooth over this point )
G01 F120.00000
G01 X-6.22678 Y-17.24317
G01 X-6.22678 Y-17.02679
G01 X-6.66679 Y-17.02679
G01 X-6.66679 Y-17.24317
G01 X-6.22678 Y-17.24317
G04 P0 ( dwell for no time -- G64 should not smooth over this point )
G00 Z2.00000 ( retract )

G00 X-6.22678 Y-15.97317 ( rapid move to begin. )
G01 F60.00000
( Mill infeed pass 1/1 )
G01 Z-0.07000
G04 P0 ( dwell for no time -- G64 should not smooth over this point )
G01 F120.00000
G01 X-6.22678 Y-15.97317
G01 X-6.22678 Y-15.75679
G01 X-6.66679 Y-15.75679
G01 X-6.66679 Y-15.97317
G01 X-6.22678 Y-15.97317
G04 P0 ( dwell for no time -- G64 should not smooth over this point )
G00 Z2.00000 ( retract )

G00 X-6.22678 Y-14.70317 ( rapid move to begin. )
G01 F60.00000
( Mill infeed pass 1/1 )
G01 Z-0.07000
G04 P0 ( dwell for no time -- G64 should not smooth over this point )
G01 F120.00000
G01 X-6.22678 Y-14.70317
G01 X-6.22678 Y-14.65679
G01 X-6.58650 Y-14.65715
G01 X-6.69437 Y-14.68849
G01 X-6.71921 Y-14.70317
G01 X-6.22678 Y-14.70317
G04 P0 ( dwell for no time -- G64 should not smooth over this point )
G00 Z2.00000 ( retract )

G00 X-13.24445 Y-12.60803 ( rapid move to begin. )
G01 F60.00000
( Mill infeed pass 1/1 )
G01 Z-0.07000
G04 P0 ( dwell for no time -- G64 should not smooth over this point )
G01 F120.00000
G01 X-13.24445 Y-12.60803
G01 X-13.41996 Y-12.59268
G01 X-13.59550 Y-12.60803
G01 X-13.55077 Y-12.65253
G01 X-13.50361 Y-12.64757
G01 X-13.33637 Y-12.64757
G01 X-13.28900 Y-12.65258
G01 X-13.24445 Y-12.60803
G04 P0 ( dwell for no time -- G64 should not smooth over this point )
G00 Z2.00000 ( retract )

G00 X-12.34267 Y-13.66998 ( rapid move to begin. )
G01 F60.00000
( Mill infeed pass 1/1 )
G01 Z-0.07000
G04 P0 ( dwell for no time -- G64 should not smooth over this point )
G01 F120.00000
G01 X-12.34267 Y-13.66998
G01 X-12.35804 Y-13.84549
G01 X-12.40541 Y-13.79812
G01 X-12.39319 Y-13.66998
G01 X-12.40541 Y-13.54183
G01 X-12.35804 Y-13.49446
G01 X-12.34267 Y-13.66998
G04 P0 ( dwell for no time -- G64 should not smooth over this point )
G00 Z2.00000 ( retract )

G00 X-13.24445 Y-14.73192 ( rapid move to begin. )
G01 F60.00000
( Mill infeed pass 1/1 )
G01 Z-0.07000
G04 P0 ( dwell for no time -- G64 should not smooth over this point )
G01 F120.00000
G01 X-13.24445 Y-14.73192
G01 X-13.28898 Y-14.68740
G01 X-13.33637 Y-14.69240
G01 X-13.50361 Y-14.69240
G01 X-13.55077 Y-14.68745
G01 X-13.59550 Y-14.73192
G01 X-13.41996 Y-14.74727
G01 X-13.24445 Y-14.73192
G04 P0 ( dwell for no time -- G64 should not smooth over this point )
G00 Z2.00000 ( retract )

G00 X-14.43457 Y-13.79812 ( rapid move to begin. )
G01 F60.00000
( Mill infeed pass 1/1 )
G01 Z-0.07000
G04 P0 ( dwell for no time -- G64 should not smooth over this point )
G01 F120.00000
G01 X-14.43457 Y-13.79812
G01 X-14.44678 Y-13.66998
G01 X-14.43457 Y-13.54181
G01 X-14.48191 Y-13.49446
G01 X-14.49728 Y-13.66998
G01 X-14.48191 Y-13.84549
G01 X-14.43457 Y-13.79812
G04 P0 ( dwell for no time -- G64 should not smooth over this point )
G00 Z2.00000 ( retract )

G00 X-18.44678 Y-19.67316 ( rapid move to begin. )
G01 F60.00000
( Mill infeed pass 1/1 )
G01 Z-0.07000
G04 P0 ( dwell for no time -- G64 should not smooth over this point )
G01 F120.00000
G01 X-18.44678 Y-19.67316
G01 X-18.44678 Y-19.62678
G01 X-19.41998 Y-19.62678
G01 X-19.46422 Y-19.62244
G01 X-19.50677 Y-19.60951
G01 X-19.54599 Y-19.58856
G01 X-19.58035 Y-19.56036
G01 X-19.60857 Y-19.52600
G01 X-19.62953 Y-19.48678
G01 X-19.64243 Y-19.44423
G01 X-19.64680 Y-19.39999
G01 X-19.64680 Y-18.42679
G01 X-19.69315 Y-18.42679
G01 X-19.69315 Y-19.43567
G01 X-19.69110 Y-19.45480
G01 X-19.66222 Y-19.53227
G01 X-19.61515 Y-19.59516
G01 X-19.55226 Y-19.64223
G01 X-19.47479 Y-19.67111
G01 X-19.45564 Y-19.67316
G01 X-18.44678 Y-19.67316
G04 P0 ( dwell for no time -- G64 should not smooth over this point )
G00 Z2.00000 ( retract )

G00 X-15.94678 Y-19.43567 ( rapid move to begin. )
G01 F60.00000
( Mill infeed pass 1/1 )
G01 Z-0.07000
G04 P0 ( dwell for no time -- G64 should not smooth over this point )
G01 F120.00000
G01 X-15.94678 Y-19.43567
G01 X-15.94884 Y-19.45477
G01 X-15.97772 Y-19.53224
G01 X-16.02481 Y-19.59516
G01 X-16.08770 Y-19.64223
G01 X-16.16517 Y-19.67111
G01 X-17.19316 Y-19.67316
G01 X-17.19316 Y-19.62678
G01 X-16.21998 Y-19.62678
G01 X-16.17574 Y-19.62244
G01 X-16.13319 Y-19.60951
G01 X-16.09397 Y-19.58856
G01 X-16.05961 Y-19.56036
G01 X-16.03141 Y-19.52600
G01 X-16.01046 Y-19.48678
G01 X-15.99755 Y-19.44423
G01 X-15.99319 Y-19.39999
G01 X-15.99319 Y-18.42679
G01 X-15.94678 Y-18.42679
G01 X-15.94678 Y-19.43567
G04 P0 ( dwell for no time -- G64 should not smooth over this point )
G00 Z2.00000 ( retract )

G00 X-14.04678 Y-21.21309 ( rapid move to begin. )
G01 F60.00000
( Mill infeed pass 1/1 )
G01 Z-0.07000
G04 P0 ( dwell for no time -- G64 should not smooth over this point )
G01 F120.00000
G01 X-14.04678 Y-21.21309
G01 X-14.04678 Y-22.20559
G01 X-14.37348 Y-23.45588
G01 X-14.42436 Y-23.61651
G01 X-14.44678 Y-23.82998
G01 X-14.42436 Y-24.04346
G01 X-14.35801 Y-24.24763
G01 X-14.25070 Y-24.43353
G01 X-14.10706 Y-24.59304
G01 X-13.93340 Y-24.71923
G01 X-13.73729 Y-24.80653
G01 X-13.52733 Y-24.85116
G01 X-13.31265 Y-24.85116
G01 X-13.12563 Y-24.81268
G01 X-13.08052 Y-24.79802
G01 X-12.92774 Y-24.73000
G01 X-12.88666 Y-24.70630
G01 X-12.73289 Y-24.59304
G01 X-12.58928 Y-24.43353
G01 X-12.49274 Y-24.26879
G01 X-12.47346 Y-24.22545
G01 X-12.41562 Y-24.04346
G01 X-12.39444 Y-23.85370
G01 X-12.39444 Y-23.80628
G01 X-12.41562 Y-23.61651
G01 X-12.46617 Y-23.45693
G01 X-12.79317 Y-22.20653
G01 X-12.79317 Y-21.44400
G01 X-11.01595 Y-19.66679
G01 X-10.64999 Y-19.66679
G01 X-10.54971 Y-19.65800
G01 X-10.50610 Y-19.64934
G01 X-10.41011 Y-19.61906
G01 X-10.31199 Y-19.56669
G01 X-9.78545 Y-19.56471
G01 X-9.70854 Y-19.54835
G01 X-9.65774 Y-19.52709
G01 X-9.61667 Y-19.50336
G01 X-9.57285 Y-19.47001
G01 X-9.52015 Y-19.41147
G01 X-9.49155 Y-19.36440
G01 X-9.47224 Y-19.32109
G01 X-9.45271 Y-19.24487
G01 X-9.44819 Y-19.18998
G01 X-9.44943 Y-18.86628
G01 X-9.46257 Y-18.78871
G01 X-9.49155 Y-18.71558
G01 X-9.53508 Y-18.65005
G01 X-9.59132 Y-18.59504
G01 X-9.65774 Y-18.55290
G01 X-9.71423 Y-18.52986
G01 X-9.74054 Y-18.52392
G01 X-9.74479 Y-18.51835
G01 X-9.78952 Y-18.51599
G01 X-9.74054 Y-18.52392
G01 X-9.82500 Y-18.51320
G01 X-10.31215 Y-18.51320
G01 X-10.39000 Y-18.47040
G01 X-10.43107 Y-18.45340
G01 X-10.50610 Y-18.43062
G01 X-10.54971 Y-18.42196
G01 X-10.62774 Y-18.41426
G01 X-11.29782 Y-18.41426
G01 X-11.37585 Y-18.42196
G01 X-11.41946 Y-18.43062
G01 X-11.51545 Y-18.46090
G01 X-11.60473 Y-18.50738
G01 X-11.64168 Y-18.53207
G01 X-11.71880 Y-18.59676
G01 X-13.86319 Y-20.74116
G01 X-13.92789 Y-20.81827
G01 X-13.95258 Y-20.85523
G01 X-13.98956 Y-20.92439
G01 X-14.00655 Y-20.96546
G01 X-14.03474 Y-21.06209
G01 X-14.04569 Y-21.16214
G01 X-14.04678 Y-21.21309
G01 X-14.11143 Y-21.36805
G01 X-14.04678 Y-21.48997
G04 P0 ( dwell for no time -- G64 should not smooth over this point )
G00 Z2.00000 ( retract )

G00 X-18.44678 Y-31.32897 ( rapid move to begin. )
G01 F60.00000
( Mill infeed pass 1/1 )
G01 Z-0.07000
G04 P0 ( dwell for no time -- G64 should not smooth over this point )
G01 F120.00000
G01 X-18.44678 Y-31.32897
G01 X-18.73339 Y-31.45793
G01 X-19.04235 Y-31.68241
G01 X-19.29790 Y-31.96623
G01 X-19.47807 Y-32.27581
G01 X-19.49737 Y-32.31911
G01 X-19.52793 Y-32.41317
G01 X-19.58520 Y-32.41317
G01 X-19.54212 Y-32.29193
G01 X-19.42419 Y-32.06443
G01 X-19.27644 Y-31.85505
G01 X-19.10154 Y-31.66778
G01 X-18.90273 Y-31.50603
G01 X-18.68378 Y-31.37289
G01 X-18.44678 Y-31.27024
G01 X-18.44678 Y-31.32897
G04 P0 ( dwell for no time -- G64 should not smooth over this point )
G00 Z2.00000 ( retract )

G00 X-16.05476 Y-32.41317 ( rapid move to begin. )
G01 F60.00000
( Mill infeed pass 1/1 )
G01 Z-0.07000
G04 P0 ( dwell for no time -- G64 should not smooth over this point )
G01 F120.00000
G01 X-16.05476 Y-32.41317
G01 X-16.11206 Y-32.41317
G01 X-16.14261 Y-32.31911
G01 X-16.16189 Y-32.27581
G01 X-16.34208 Y-31.96623
G01 X-16.58084 Y-31.69920
G01 X-16.61607 Y-31.66748
G01 X-16.90660 Y-31.45793
G01 X-17.19316 Y-31.32897
G01 X-17.19316 Y-31.27024
G01 X-16.95618 Y-31.37289
G01 X-16.73720 Y-31.50603
G01 X-16.53842 Y-31.66775
G01 X-16.36352 Y-31.85505
G01 X-16.21574 Y-32.06443
G01 X-16.09786 Y-32.29193
G01 X-16.05476 Y-32.41317
G04 P0 ( dwell for no time -- G64 should not smooth over this point )
G00 Z2.00000 ( retract )

G00 X-16.05476 Y-33.66679 ( rapid move to begin. )
G01 F60.00000
( Mill infeed pass 1/1 )
G01 Z-0.07000
G04 P0 ( dwell for no time -- G64 should not smooth over this point )
G01 F120.00000
G01 X-16.05476 Y-33.66679
G01 X-16.11206 Y-33.66679
G01 X-16.14261 Y-33.76084
G01 X-16.16189 Y-33.80417
G01 X-16.34208 Y-34.11375
G01 X-16.58084 Y-34.38078
G01 X-16.61607 Y-34.41250
G01 X-16.90660 Y-34.62205
G01 X-17.19316 Y-34.75098
G01 X-17.19316 Y-34.80968
G01 X-16.95618 Y-34.70704
G01 X-16.73720 Y-34.57387
G01 X-16.53842 Y-34.41217
G01 X-16.36352 Y-34.22490
G01 X-16.21574 Y-34.01553
G01 X-16.09786 Y-33.78799
G01 X-16.05476 Y-33.66679
G04 P0 ( dwell for no time -- G64 should not smooth over this point )
G00 Z2.00000 ( retract )

G00 X-18.44678 Y-34.80968 ( rapid move to begin. )
G01 F60.00000
( Mill infeed pass 1/1 )
G01 Z-0.07000
G04 P0 ( dwell for no time -- G64 should not smooth over this point )
G01 F120.00000
G01 X-18.44678 Y-34.80968
G01 X-18.68378 Y-34.70704
G01 X-18.90273 Y-34.57390
G01 X-19.10154 Y-34.41217
G01 X-19.27644 Y-34.22490
G01 X-19.42419 Y-34.01553
G01 X-19.54212 Y-33.78799
G01 X-19.58520 Y-33.66679
G01 X-19.52793 Y-33.66679
G01 X-19.49737 Y-33.76084
G01 X-19.47807 Y-33.80417
G01 X-19.29790 Y-34.11375
G01 X-19.05914 Y-34.38078
G01 X-19.02391 Y-34.41250
G01 X-18.73339 Y-34.62205
G01 X-18.44678 Y-34.75101
G01 X-18.44678 Y-34.80968
G04 P0 ( dwell for no time -- G64 should not smooth over this point )
G00 Z2.00000 ( retract )

G00 X-12.05680 Y-40.90225 ( rapid move to begin. )
G01 F60.00000
( Mill infeed pass 1/1 )
G01 Z-0.07000
G04 P0 ( dwell for no time -- G64 should not smooth over this point )
G01 F120.00000
G01 X-12.05680 Y-40.90225
G01 X-12.15471 Y-40.83367
G01 X-12.29368 Y-40.69471
G01 X-12.36226 Y-40.59679
G01 X-12.30511 Y-40.59679
G01 X-12.15050 Y-40.77020
G01 X-12.05680 Y-40.83982
G01 X-12.05680 Y-40.90225
G04 P0 ( dwell for no time -- G64 should not smooth over this point )
G00 Z2.00000 ( retract )

G00 X-10.49592 Y-40.59679 ( rapid move to begin. )
G01 F60.00000
( Mill infeed pass 1/1 )
G01 Z-0.07000
G04 P0 ( dwell for no time -- G64 should not smooth over this point )
G01 F120.00000
G01 X-10.49592 Y-40.59679
G01 X-10.55487 Y-40.59679
G01 X-10.70948 Y-40.77020
G01 X-10.80315 Y-40.83982
G01 X-10.80315 Y-40.90225
G01 X-10.70524 Y-40.83367
G01 X-10.56543 Y-40.69387
G01 X-10.49592 Y-40.59679
G04 P0 ( dwell for no time -- G64 should not smooth over this point )
G00 Z2.00000 ( retract )

G00 X-9.51680 Y-40.90225 ( rapid move to begin. )
G01 F60.00000
( Mill infeed pass 1/1 )
G01 Z-0.07000
G04 P0 ( dwell for no time -- G64 should not smooth over this point )
G01 F120.00000
G01 X-9.51680 Y-40.90225
G01 X-9.51680 Y-40.83982
G01 X-9.61050 Y-40.77020
G01 X-9.76511 Y-40.59679
G01 X-9.82226 Y-40.59679
G01 X-9.75368 Y-40.69471
G01 X-9.61471 Y-40.83367
G01 X-9.51680 Y-40.90225
G04 P0 ( dwell for no time -- G64 should not smooth over this point )
G00 Z2.00000 ( retract )

G00 X-7.95769 Y-39.34318 ( rapid move to begin. )
G01 F60.00000
( Mill infeed pass 1/1 )
G01 Z-0.07000
G04 P0 ( dwell for no time -- G64 should not smooth over this point )
G01 F120.00000
G01 X-7.95769 Y-39.34318
G01 X-8.01487 Y-39.34318
G01 X-8.16948 Y-39.16977
G01 X-8.26315 Y-39.10015
G01 X-8.26315 Y-39.03769
G01 X-8.16524 Y-39.10627
G01 X-8.02627 Y-39.24524
G01 X-7.95769 Y-39.34318
G04 P0 ( dwell for no time -- G64 should not smooth over this point )
G00 Z2.00000 ( retract )

G00 X-6.97680 Y-39.10015 ( rapid move to begin. )
G01 F60.00000
( Mill infeed pass 1/1 )
G01 Z-0.07000
G04 P0 ( dwell for no time -- G64 should not smooth over this point )
G01 F120.00000
G01 X-6.97680 Y-39.10015
G01 X-6.97680 Y-39.03769
G01 X-7.07471 Y-39.10627
G01 X-7.21451 Y-39.24607
G01 X-7.28403 Y-39.34318
G01 X-7.22511 Y-39.34318
G01 X-7.07050 Y-39.16977
G01 X-6.97680 Y-39.10015
G04 P0 ( dwell for no time -- G64 should not smooth over this point )
G00 Z2.00000 ( retract )

G00 X-4.43680 Y-38.89319 ( rapid move to begin. )
G01 F60.00000
( Mill infeed pass 1/1 )
G01 Z-0.07000
G04 P0 ( dwell for no time -- G64 should not smooth over this point )
G01 F120.00000
G01 X-4.43680 Y-38.89319
G01 X-4.65999 Y-38.89319
G01 X-4.70423 Y-38.89753
G01 X-4.74678 Y-38.91046
G01 X-4.78599 Y-38.93142
G01 X-4.82036 Y-38.95961
G01 X-4.84856 Y-38.99398
G01 X-4.86954 Y-39.03320
G01 X-4.88244 Y-39.07574
G01 X-4.88678 Y-39.11999
G01 X-4.88678 Y-39.34318
G01 X-5.47487 Y-39.34318
G01 X-5.62948 Y-39.16977
G01 X-5.72315 Y-39.10015
G01 X-5.72315 Y-39.03769
G01 X-5.62524 Y-39.10627
G01 X-5.49234 Y-39.23589
G01 X-5.40380 Y-39.28687
G01 X-5.36418 Y-39.30383
G01 X-5.32206 Y-39.31298
G01 X-5.27896 Y-39.31402
G01 X-5.20926 Y-39.30904
G01 X-5.16672 Y-39.30188
G01 X-5.12630 Y-39.28681
G01 X-5.08947 Y-39.26436
G01 X-5.00911 Y-39.20129
G01 X-4.98795 Y-39.17686
G01 X-4.95356 Y-39.11872
G01 X-4.90223 Y-38.98768
G01 X-4.85516 Y-38.92479
G01 X-4.79227 Y-38.87772
G01 X-4.71477 Y-38.84884
G01 X-4.69567 Y-38.84679
G01 X-4.43680 Y-38.84679
G01 X-4.43680 Y-38.89319
G04 P0 ( dwell for no time -- G64 should not smooth over this point )
G00 Z2.00000 ( retract )

G00 X-2.68679 Y-39.34318 ( rapid move to begin. )
G01 F60.00000
( Mill infeed pass 1/1 )
G01 Z-0.07000
G04 P0 ( dwell for no time -- G64 should not smooth over this point )
G01 F120.00000
G01 X-2.68679 Y-39.34318
G01 X-2.73319 Y-39.34318
G01 X-2.73319 Y-39.11999
G01 X-2.73754 Y-39.07574
G01 X-2.75044 Y-39.03320
G01 X-2.77142 Y-38.99398
G01 X-2.79961 Y-38.95961
G01 X-2.83398 Y-38.93142
G01 X-2.87320 Y-38.91046
G01 X-2.91574 Y-38.89753
G01 X-2.95999 Y-38.89319
G01 X-3.18310 Y-38.89319
G01 X-3.18310 Y-38.84679
G01 X-2.90515 Y-38.84884
G01 X-2.82768 Y-38.87772
G01 X-2.76479 Y-38.92479
G01 X-2.71772 Y-38.98768
G01 X-2.68884 Y-39.06517
G01 X-2.68679 Y-39.34318
G04 P0 ( dwell for no time -- G64 should not smooth over this point )
G00 Z2.00000 ( retract )

G00 X-2.68679 Y-40.85567 ( rapid move to begin. )
G01 F60.00000
( Mill infeed pass 1/1 )
G01 Z-0.07000
G04 P0 ( dwell for no time -- G64 should not smooth over this point )
G01 F120.00000
G01 X-2.68679 Y-40.85567
G01 X-2.68884 Y-40.87477
G01 X-2.71772 Y-40.95227
G01 X-2.76479 Y-41.01516
G01 X-2.82768 Y-41.06222
G01 X-2.90515 Y-41.09110
G01 X-2.92428 Y-41.09316
G01 X-3.18310 Y-41.09316
G01 X-3.18310 Y-41.04678
G01 X-2.95999 Y-41.04678
G01 X-2.91574 Y-41.04244
G01 X-2.87320 Y-41.02953
G01 X-2.83398 Y-41.00855
G01 X-2.79961 Y-40.98036
G01 X-2.77142 Y-40.94599
G01 X-2.75044 Y-40.90678
G01 X-2.73754 Y-40.86423
G01 X-2.73319 Y-40.81998
G01 X-2.73319 Y-40.59679
G01 X-2.68679 Y-40.59679
G01 X-2.68679 Y-40.85567
G04 P0 ( dwell for no time -- G64 should not smooth over this point )
G00 Z2.00000 ( retract )

G00 X-4.43680 Y-41.09316 ( rapid move to begin. )
G01 F60.00000
( Mill infeed pass 1/1 )
G01 Z-0.07000
G04 P0 ( dwell for no time -- G64 should not smooth over this point )
G01 F120.00000
G01 X-4.43680 Y-41.09316
G01 X-4.69565 Y-41.09316
G01 X-4.71477 Y-41.09110
G01 X-4.79227 Y-41.06222
G01 X-4.85516 Y-41.01516
G01 X-4.90223 Y-40.95227
G01 X-4.95353 Y-40.82128
G01 X-5.01292 Y-40.73809
G01 X-5.04193 Y-40.70622
G01 X-5.07644 Y-40.68039
G01 X-5.11523 Y-40.66154
G01 X-5.22232 Y-40.62598
G01 X-5.26534 Y-40.62291
G01 X-5.30814 Y-40.62804
G01 X-5.37642 Y-40.64290
G01 X-5.43687 Y-40.66543
G01 X-5.51680 Y-40.72527
G01 X-5.62524 Y-40.83367
G01 X-5.72315 Y-40.90225
G01 X-5.72315 Y-40.83982
G01 X-5.62948 Y-40.77020
G01 X-5.47487 Y-40.59679
G01 X-4.88678 Y-40.59679
G01 X-4.88678 Y-40.81998
G01 X-4.88244 Y-40.86423
G01 X-4.86954 Y-40.90678
G01 X-4.84856 Y-40.94599
G01 X-4.82036 Y-40.98036
G01 X-4.78599 Y-41.00855
G01 X-4.74678 Y-41.02953
G01 X-4.70423 Y-41.04244
G01 X-4.65999 Y-41.04678
G01 X-4.43680 Y-41.04678
G01 X-4.43680 Y-41.09316
G04 P0 ( dwell for no time -- G64 should not smooth over this point )
G00 Z2.00000 ( retract )

G00 X-6.97680 Y-40.90225 ( rapid move to begin. )
G01 F60.00000
( Mill infeed pass 1/1 )
G01 Z-0.07000
G04 P0 ( dwell for no time -- G64 should not smooth over this point )
G01 F120.00000
G01 X-6.97680 Y-40.90225
G01 X-7.07471 Y-40.83367
G01 X-7.21368 Y-40.69471
G01 X-7.28226 Y-40.59679
G01 X-7.22511 Y-40.59679
G01 X-7.07050 Y-40.77020
G01 X-6.97680 Y-40.83982
G01 X-6.97680 Y-40.90225
G04 P0 ( dwell for no time -- G64 should not smooth over this point )
G00 Z2.00000 ( retract )

G00 X-7.95591 Y-40.59679 ( rapid move to begin. )
G01 F60.00000
( Mill infeed pass 1/1 )
G01 Z-0.07000
G04 P0 ( dwell for no time -- G64 should not smooth over this point )
G01 F120.00000
G01 X-7.95591 Y-40.59679
G01 X-8.02543 Y-40.69387
G01 X-8.16524 Y-40.83367
G01 X-8.26315 Y-40.90225
G01 X-8.26315 Y-40.83982
G01 X-8.16948 Y-40.77020
G01 X-8.01487 Y-40.59679
G01 X-7.95591 Y-40.59679
G04 P0 ( dwell for no time -- G64 should not smooth over this point )
G00 Z2.00000 ( retract )

G00 X-9.51680 Y-39.10015 ( rapid move to begin. )
G01 F60.00000
( Mill infeed pass 1/1 )
G01 Z-0.07000
G04 P0 ( dwell for no time -- G64 should not smooth over this point )
G01 F120.00000
G01 X-9.51680 Y-39.10015
G01 X-9.61050 Y-39.16977
G01 X-9.76511 Y-39.34318
G01 X-9.82403 Y-39.34318
G01 X-9.75451 Y-39.24607
G01 X-9.61471 Y-39.10627
G01 X-9.51680 Y-39.03769
G01 X-9.51680 Y-39.10015
G04 P0 ( dwell for no time -- G64 should not smooth over this point )
G00 Z2.00000 ( retract )

G00 X-10.49769 Y-39.34318 ( rapid move to begin. )
G01 F60.00000
( Mill infeed pass 1/1 )
G01 Z-0.07000
G04 P0 ( dwell for no time -- G64 should not smooth over this point )
G01 F120.00000
G01 X-10.49769 Y-39.34318
G01 X-10.56627 Y-39.24524
G01 X-10.70524 Y-39.10627
G01 X-10.80315 Y-39.03769
G01 X-10.80315 Y-39.10015
G01 X-10.70948 Y-39.16977
G01 X-10.55487 Y-39.34318
G01 X-10.49769 Y-39.34318
G04 P0 ( dwell for no time -- G64 should not smooth over this point )
G00 Z2.00000 ( retract )

G00 X-12.05680 Y-39.10015 ( rapid move to begin. )
G01 F60.00000
( Mill infeed pass 1/1 )
G01 Z-0.07000
G04 P0 ( dwell for no time -- G64 should not smooth over this point )
G01 F120.00000
G01 X-12.05680 Y-39.10015
G01 X-12.15050 Y-39.16977
G01 X-12.30511 Y-39.34318
G01 X-12.36226 Y-39.34318
G01 X-12.29368 Y-39.24524
G01 X-12.15471 Y-39.10627
G01 X-12.05680 Y-39.03769
G01 X-12.05680 Y-39.10015
G04 P0 ( dwell for no time -- G64 should not smooth over this point )
G00 Z2.00000 ( retract )

G00 X-14.33269 Y-38.34999 ( rapid move to begin. )
G01 F60.00000
( Mill infeed pass 1/1 )
G01 Z-0.07000
G04 P0 ( dwell for no time -- G64 should not smooth over this point )
G01 F120.00000
G01 X-14.33269 Y-38.34999
G01 X-14.34803 Y-38.17445
G01 X-14.39540 Y-38.22184
G01 X-14.38318 Y-38.34999
G01 X-14.39540 Y-38.47813
G01 X-14.34803 Y-38.52550
G01 X-14.33269 Y-38.34999
G04 P0 ( dwell for no time -- G64 should not smooth over this point )
G00 Z2.00000 ( retract )

G00 X-16.29989 Y-37.27691 ( rapid move to begin. )
G01 F60.00000
( Mill infeed pass 1/1 )
G01 Z-0.07000
G04 P0 ( dwell for no time -- G64 should not smooth over this point )
G01 F120.00000
G01 X-16.29989 Y-37.27691
G01 X-16.22712 Y-37.35179
G01 X-16.19044 Y-37.37445
G01 X-16.08275 Y-37.40823
G01 X-16.04602 Y-37.41514
G01 X-16.00863 Y-37.41588
G01 X-15.89867 Y-37.39236
G01 X-15.77843 Y-37.33764
G01 X-15.59705 Y-37.28905
G01 X-15.40998 Y-37.27267
G01 X-15.23446 Y-37.28804
G01 X-15.27901 Y-37.33256
G01 X-15.32636 Y-37.32756
G01 X-15.51732 Y-37.32881
G01 X-15.70436 Y-37.36729
G01 X-15.74945 Y-37.38194
G01 X-15.90223 Y-37.44996
G01 X-15.94330 Y-37.47369
G01 X-16.09705 Y-37.58692
G01 X-16.24068 Y-37.74646
G01 X-16.34802 Y-37.93236
G01 X-16.41434 Y-38.13650
G01 X-16.43680 Y-38.34999
G01 X-16.41805 Y-38.54003
G01 X-16.40820 Y-38.58641
G01 X-16.34802 Y-38.76761
G01 X-16.25361 Y-38.93363
G01 X-16.22575 Y-38.97198
G01 X-16.11384 Y-39.09626
G01 X-16.07861 Y-39.12799
G01 X-15.92339 Y-39.23922
G01 X-15.72727 Y-39.32654
G01 X-15.51732 Y-39.37117
G01 X-15.32636 Y-39.37241
G01 X-15.27899 Y-39.36741
G01 X-15.23446 Y-39.41191
G01 X-15.40998 Y-39.42728
G01 X-15.59705 Y-39.41089
G01 X-15.77843 Y-39.36230
G01 X-15.90746 Y-39.30467
G01 X-16.00812 Y-39.28707
G01 X-16.05117 Y-39.28466
G01 X-16.09390 Y-39.29047
G01 X-16.13477 Y-39.30424
G01 X-16.19855 Y-39.33276
G01 X-16.23606 Y-39.35405
G01 X-16.26885 Y-39.38201
G01 X-16.29567 Y-39.41557
G01 X-16.35206 Y-39.50762
G01 X-16.36428 Y-39.54358
G01 X-16.37033 Y-39.58110
G01 X-16.37492 Y-39.65941
G01 X-16.37129 Y-39.69415
G01 X-16.37129 Y-42.15549
G01 X-16.36210 Y-42.21937
G01 X-16.34241 Y-42.28640
G01 X-16.32638 Y-42.32643
G01 X-16.30309 Y-42.36270
G01 X-16.22054 Y-42.43967
G01 X-16.19004 Y-42.46194
G01 X-16.15628 Y-42.47883
G01 X-16.06867 Y-42.50111
G01 X-16.02049 Y-42.50629
G01 X-2.00696 Y-42.50629
G01 X-1.87896 Y-42.49407
G01 X-1.79484 Y-42.47426
G01 X-1.67018 Y-42.42554
G01 X-1.57968 Y-42.36994
G01 X-1.54452 Y-42.34271
G01 X-1.44203 Y-42.24274
G01 X-1.40670 Y-42.19486
G01 X-1.33833 Y-42.07619
G01 X-1.28948 Y-41.92382
G01 X-1.27366 Y-41.77302
G01 X-1.27366 Y-2.00696
G01 X-1.29032 Y-1.85224
G01 X-1.30353 Y-1.80076
G01 X-1.33124 Y-1.72154
G01 X-1.35001 Y-1.68115
G01 X-1.42083 Y-1.56395
G01 X-1.51389 Y-1.46347
G01 X-1.58509 Y-1.40670
G01 X-1.70376 Y-1.33833
G01 X-1.83380 Y-1.29535
G01 X-1.87896 Y-1.28588
G01 X-2.00696 Y-1.27366
G01 X-16.26050 Y-1.27366
G01 X-16.32438 Y-1.28285
G01 X-16.43146 Y-1.31856
G01 X-16.46773 Y-1.34188
G01 X-16.52321 Y-1.39972
G01 X-16.52656 Y-1.13901
G01 X-16.52621 Y-1.11336
G01 X-16.45531 Y-1.08496
G01 X-16.32504 Y-1.05153
G01 X-16.26050 Y-1.04691
G01 X-2.00696 Y-1.04691
G01 X-1.80960 Y-1.06754
G01 X-1.65865 Y-1.11321
G01 X-1.61112 Y-1.13134
G01 X-1.56591 Y-1.15471
G01 X-1.46985 Y-1.21140
G01 X-1.41760 Y-1.24739
G01 X-1.34915 Y-1.30767
G01 X-1.23967 Y-1.42756
G01 X-1.21140 Y-1.46985
G01 X-1.13398 Y-1.60531
G01 X-1.08948 Y-1.72590
G01 X-1.06924 Y-1.80180
G01 X-1.06037 Y-1.85522
G01 X-1.04691 Y-2.00696
G01 X-1.04691 Y-41.77302
G01 X-1.06754 Y-41.97035
G01 X-1.11321 Y-42.12130
G01 X-1.13134 Y-42.16883
G01 X-1.15471 Y-42.21404
G01 X-1.21140 Y-42.31010
G01 X-1.24744 Y-42.36240
G01 X-1.30769 Y-42.43083
G01 X-1.38872 Y-42.50746
G01 X-1.45900 Y-42.56194
G01 X-1.56896 Y-42.62844
G01 X-1.71404 Y-42.68612
G01 X-1.77475 Y-42.70454
G01 X-1.85522 Y-42.71957
G01 X-2.00696 Y-42.73304
G01 X-16.02049 Y-42.73304
G01 X-16.06895 Y-42.73045
G01 X-16.16837 Y-42.71147
G01 X-16.24056 Y-42.68935
G01 X-16.28148 Y-42.66885
G01 X-16.28440 Y-42.38229
G01 X-16.28297 Y-42.77998
G01 X-2.00000 Y-42.77998
G01 X-1.80490 Y-42.76077
G01 X-1.61727 Y-42.70388
G01 X-1.44442 Y-42.61145
G01 X-1.29289 Y-42.48709
G01 X-1.16853 Y-42.33555
G01 X-1.07610 Y-42.16268
G01 X-1.01920 Y-41.97507
G01 X-1.00000 Y-41.77998
G01 X-1.04691 Y-41.77302
G01 X-1.27366 Y-41.77302
G01 X-1.04691 Y-41.77302
G01 X-1.00000 Y-41.77998
G01 X-1.00000 Y-2.00000
G01 X-1.01920 Y-1.80490
G01 X-1.07610 Y-1.61727
G01 X-1.16853 Y-1.44442
G01 X-1.29289 Y-1.29289
G01 X-1.44442 Y-1.16853
G01 X-1.61727 Y-1.07610
G01 X-1.80490 Y-1.01920
G01 X-2.00000 Y-1.00000
G01 X-16.52471 Y-1.00000
G01 X-16.52321 Y-1.39972
G01 X-16.56692 Y-1.45491
G01 X-16.58379 Y-1.48862
G01 X-16.60609 Y-1.57617
G01 X-16.61130 Y-1.62448
G01 X-16.61130 Y-6.18048
G01 X-16.60210 Y-6.24436
G01 X-16.58242 Y-6.31142
G01 X-16.56639 Y-6.35142
G01 X-16.54307 Y-6.38774
G01 X-16.46050 Y-6.46468
G01 X-16.43002 Y-6.48691
G01 X-16.39626 Y-6.50382
G01 X-16.30868 Y-6.52610
G01 X-16.26050 Y-6.53128
G01 X-9.81611 Y-6.53128
G01 X-9.73285 Y-6.54022
G01 X-9.64113 Y-6.56755
G01 X-9.55769 Y-6.62117
G01 X-9.52942 Y-6.64563
G01 X-9.46719 Y-6.71751
G01 X-9.42767 Y-6.80400
G01 X-9.41713 Y-6.83994
G01 X-9.40128 Y-6.95020
G01 X-9.40128 Y-15.43670
G01 X-9.41548 Y-15.50248
G01 X-9.43755 Y-15.56880
G01 X-9.50234 Y-15.66962
G01 X-9.52515 Y-15.71597
G01 X-9.55761 Y-15.81854
G01 X-9.56033 Y-15.86047
G01 X-9.55525 Y-15.90220
G01 X-9.53036 Y-16.00406
G01 X-9.51525 Y-16.03568
G01 X-9.46389 Y-16.10375
G01 X-9.42266 Y-16.19400
G01 X-9.41065 Y-16.23489
G01 X-9.39627 Y-16.33568
G01 X-9.39627 Y-16.66382
G01 X-9.40521 Y-16.74706
G01 X-9.43249 Y-16.83860
G01 X-9.51433 Y-16.97058
G01 X-9.55421 Y-17.07076
G01 X-9.55992 Y-17.11246
G01 X-9.54791 Y-17.22369
G01 X-9.53181 Y-17.28097
G01 X-9.43292 Y-17.45074
G01 X-9.40166 Y-17.55841
G01 X-9.40128 Y-17.97670
G01 X-9.43285 Y-18.08897
G01 X-9.50625 Y-18.21147
G01 X-9.55187 Y-18.30956
G01 X-9.56102 Y-18.35168
G01 X-9.56206 Y-18.39478
G01 X-9.55708 Y-18.46448
G01 X-9.55187 Y-18.49915
G01 X-9.54141 Y-18.53263
G01 X-9.43298 Y-18.72056
G01 X-9.40166 Y-18.82841
G01 X-9.40128 Y-19.24670
G01 X-9.43305 Y-19.35958
G01 X-9.48753 Y-19.45173
G01 X-9.56323 Y-19.52742
G01 X-9.65538 Y-19.58193
G01 X-9.76340 Y-19.61330
G01 X-10.20478 Y-19.61368
G01 X-10.24895 Y-19.61802
G01 X-10.31801 Y-19.63285
G01 X-10.45347 Y-19.68779
G01 X-10.58362 Y-19.71368
G01 X-10.88349 Y-19.71599
G01 X-10.98215 Y-19.74256
G01 X-11.02330 Y-19.75917
G01 X-11.06040 Y-19.78345
G01 X-11.09927 Y-19.81642
G01 X-12.66469 Y-21.38512
G01 X-12.72819 Y-21.50059
G01 X-12.73708 Y-21.52896
G01 X-12.74496 Y-21.58462
G01 X-12.74442 Y-22.15866
G01 X-12.73470 Y-22.21916
G01 X-12.35857 Y-23.64242
G01 X-12.34219 Y-23.82998
G01 X-12.35855 Y-24.01712
G01 X-12.40716 Y-24.19861
G01 X-12.48656 Y-24.36889
G01 X-12.59431 Y-24.52279
G01 X-12.72718 Y-24.65560
G01 X-12.88108 Y-24.76337
G01 X-13.05131 Y-24.84277
G01 X-13.23282 Y-24.89139
G01 X-13.41999 Y-24.90777
G01 X-13.60714 Y-24.89139
G01 X-13.78862 Y-24.84277
G01 X-13.95887 Y-24.76337
G01 X-14.11277 Y-24.65560
G01 X-14.24564 Y-24.52276
G01 X-14.35339 Y-24.36889
G01 X-14.43279 Y-24.19861
G01 X-14.48140 Y-24.01712
G01 X-14.49776 Y-23.82998
G01 X-14.48138 Y-23.64242
G01 X-14.10525 Y-22.21916
G01 X-14.09367 Y-22.12978
G01 X-14.09598 Y-21.84354
G01 X-14.12255 Y-21.74489
G01 X-14.13858 Y-21.70483
G01 X-14.16190 Y-21.66856
G01 X-14.19167 Y-21.63737
G01 X-14.25214 Y-21.58616
G01 X-14.29286 Y-21.50781
G01 X-14.37810 Y-21.53605
G01 X-14.31877 Y-21.54872
G01 X-14.27958 Y-21.56663
G01 X-14.25214 Y-21.58616
G01 X-14.27958 Y-21.56663
G01 X-14.31877 Y-21.54872
G01 X-14.37810 Y-21.53605
G01 X-14.47287 Y-21.52653
G01 X-14.51557 Y-21.53267
G01 X-14.55633 Y-21.54677
G01 X-14.65499 Y-21.59579
G01 X-14.68600 Y-21.62167
G01 X-15.24800 Y-22.18324
G01 X-15.35839 Y-22.25700
G01 X-15.48097 Y-22.30778
G01 X-15.61112 Y-22.33366
G01 X-20.50979 Y-22.33366
G01 X-20.59917 Y-22.34527
G01 X-22.02244 Y-22.72137
G01 X-22.20999 Y-22.73778
G01 X-22.39749 Y-22.72137
G01 X-23.67430 Y-22.38553
G01 X-23.76642 Y-22.38362
G01 X-23.82393 Y-22.39104
G01 X-24.18410 Y-22.48545
G01 X-24.24356 Y-22.51055
G01 X-24.33571 Y-22.57011
G01 X-24.36335 Y-22.59896
G01 X-24.38552 Y-22.63221
G01 X-24.42588 Y-22.70966
G01 X-24.57480 Y-23.27125
G01 X-24.58441 Y-23.33107
G01 X-24.58629 Y-26.27630
G01 X-24.61217 Y-26.40648
G01 X-24.66294 Y-26.52906
G01 X-24.73668 Y-26.63944
G01 X-26.70051 Y-28.60589
G01 X-26.73614 Y-28.65511
G01 X-27.37719 Y-29.75135
G01 X-27.40045 Y-29.80698
G01 X-27.41859 Y-29.87446
G01 X-27.42575 Y-29.91698
G01 X-27.42476 Y-29.96011
G01 X-27.39659 Y-30.06194
G01 X-27.40571 Y-30.10426
G01 X-27.36746 Y-30.12326
G01 X-27.37747 Y-30.10845
G01 X-27.39659 Y-30.06194
G01 X-27.37747 Y-30.10845
G01 X-27.35334 Y-30.14416
G01 X-27.26906 Y-30.21917
G01 X-27.23883 Y-30.24030
G01 X-27.20558 Y-30.25625
G01 X-27.12126 Y-30.27665
G01 X-27.07559 Y-30.28130
G01 X-25.98928 Y-30.28140
G01 X-25.87508 Y-30.30060
G01 X-25.84021 Y-30.31203
G01 X-25.75519 Y-30.35419
G01 X-25.68628 Y-30.41785
G01 X-25.61526 Y-30.50482
G01 X-25.48357 Y-30.63326
G01 X-25.39505 Y-30.68427
G01 X-25.35537 Y-30.70126
G01 X-25.31321 Y-30.71043
G01 X-25.27008 Y-30.71144
G01 X-25.16314 Y-30.70062
G01 X-25.12736 Y-30.68869
G01 X-25.09403 Y-30.67101
G01 X-25.04968 Y-30.64251
G01 X-25.01194 Y-30.61208
G01 X-24.90056 Y-30.50070
G01 X-24.82306 Y-30.40685
G01 X-24.75418 Y-30.34716
G01 X-24.66772 Y-30.30769
G01 X-24.63180 Y-30.29715
G01 X-24.52149 Y-30.28130
G01 X-23.63610 Y-30.28130
G01 X-23.55286 Y-30.29021
G01 X-23.46112 Y-30.31757
G01 X-23.37770 Y-30.37119
G01 X-23.34943 Y-30.39567
G01 X-23.28715 Y-30.46753
G01 X-23.24768 Y-30.55396
G01 X-23.22678 Y-30.64576
G01 X-23.18642 Y-30.73964
G01 X-23.16485 Y-30.77698
G01 X-23.13663 Y-30.80954
G01 X-23.06825 Y-30.85836
G01 X-23.05936 Y-30.88165
G01 X-22.99785 Y-30.99524
G01 X-22.99119 Y-31.03479
G01 X-22.97600 Y-31.03395
G01 X-22.99119 Y-31.03479
G01 X-22.99871 Y-31.07418
G01 X-23.02431 Y-31.14088
G01 X-23.05411 Y-31.23722
G01 X-23.02431 Y-31.14088
G01 X-22.99871 Y-31.07418
G01 X-22.99119 Y-31.03479
G01 X-22.99785 Y-30.99524
G01 X-23.05936 Y-30.88165
G01 X-23.06825 Y-30.85836
G01 X-23.00564 Y-30.89372
G01 X-22.96427 Y-30.90586
G01 X-22.92137 Y-30.90997
G01 X-22.83678 Y-30.90890
G01 X-22.83678 Y-31.01160
G01 X-22.87859 Y-31.04197
G01 X-22.91385 Y-31.07372
G01 X-23.04070 Y-31.21645
G01 X-23.14801 Y-31.40235
G01 X-23.21436 Y-31.60652
G01 X-23.23678 Y-31.81998
G01 X-23.21436 Y-32.03346
G01 X-23.15652 Y-32.21545
G01 X-23.13724 Y-32.25879
G01 X-23.05411 Y-32.40275
G01 X-23.02434 Y-32.49900
G01 X-22.99437 Y-32.57707
G01 X-22.98685 Y-32.61886
G01 X-22.97219 Y-32.61957
G01 X-22.98685 Y-32.61886
G01 X-22.99520 Y-32.66049
G01 X-23.05931 Y-32.79079
G01 X-22.99520 Y-32.66049
G01 X-22.98685 Y-32.61886
G01 X-22.99437 Y-32.57707
G01 X-23.02434 Y-32.49900
G01 X-23.05411 Y-32.40275
G01 X-23.02574 Y-32.44197
G01 X-22.91385 Y-32.56625
G01 X-22.87859 Y-32.59798
G01 X-22.83678 Y-32.62838
G01 X-22.83678 Y-32.73857
G01 X-22.89614 Y-32.73369
G01 X-22.93887 Y-32.73951
G01 X-22.97974 Y-32.75327
G01 X-23.04351 Y-32.78180
G01 X-23.08101 Y-32.80306
G01 X-23.11380 Y-32.83102
G01 X-23.14072 Y-32.86468
G01 X-23.19482 Y-32.95170
G01 X-23.21352 Y-33.01411
G01 X-23.22129 Y-33.08320
G01 X-23.22129 Y-35.46048
G01 X-23.21209 Y-35.52436
G01 X-23.19241 Y-35.59142
G01 X-23.17638 Y-35.63145
G01 X-23.15307 Y-35.66775
G01 X-23.12330 Y-35.69894
G01 X-23.04001 Y-35.76693
G01 X-23.00625 Y-35.78382
G01 X-22.97019 Y-35.79490
G01 X-22.91867 Y-35.80610
G01 X-22.87049 Y-35.81128
G01 X-16.78612 Y-35.81128
G01 X-16.70284 Y-35.82022
G01 X-16.61112 Y-35.84755
G01 X-16.52768 Y-35.90117
G01 X-16.49943 Y-35.92566
G01 X-16.43715 Y-35.99751
G01 X-16.39768 Y-36.08398
G01 X-16.38714 Y-36.11989
G01 X-16.37129 Y-36.23020
G01 X-16.37129 Y-37.00793
G01 X-16.37475 Y-37.05418
G01 X-16.36070 Y-37.15532
G01 X-16.34978 Y-37.19706
G01 X-16.33116 Y-37.23597
G01 X-16.29989 Y-37.27691
G01 X-16.31434 Y-37.54910
G01 X-16.32214 Y-37.58375
G01 X-16.30810 Y-37.59022
G01 X-16.32214 Y-37.58375
G01 X-16.34028 Y-37.61428
G01 X-16.35270 Y-37.62703
G01 X-16.46161 Y-37.72157
G01 X-16.50172 Y-37.89177
G01 X-16.52727 Y-38.05316
G01 X-16.53690 Y-38.14450
G01 X-16.54536 Y-38.30579
G01 X-16.54536 Y-38.39416
G01 X-16.53690 Y-38.55545
G01 X-16.52727 Y-38.64679
G01 X-16.50172 Y-38.80818
G01 X-16.46184 Y-38.97752
G01 X-16.35496 Y-39.07180
G01 X-16.33217 Y-39.09987
G01 X-16.32443 Y-39.11628
G01 X-16.31142 Y-39.11026
G01 X-16.32443 Y-39.11628
G01 X-16.31719 Y-39.15171
G01 X-16.31447 Y-39.21788
G01 X-16.29567 Y-39.41557
G01 X-16.33400 Y-39.47417
G04 P0 ( dwell for no time -- G64 should not smooth over this point )
G00 Z2.00000 ( retract )

G00 X-18.53679 Y-37.32319 ( rapid move to begin. )
G01 F60.00000
( Mill infeed pass 1/1 )
G01 Z-0.07000
G04 P0 ( dwell for no time -- G64 should not smooth over this point )
G01 F120.00000
G01 X-18.53679 Y-37.32319
G01 X-18.71000 Y-37.32319
G01 X-18.75424 Y-37.32754
G01 X-18.79679 Y-37.34046
G01 X-18.83598 Y-37.36142
G01 X-18.87037 Y-37.38961
G01 X-18.89857 Y-37.42398
G01 X-18.91952 Y-37.46320
G01 X-18.93242 Y-37.50574
G01 X-18.93679 Y-37.54999
G01 X-18.93679 Y-37.72317
G01 X-18.98317 Y-37.72317
G01 X-18.98112 Y-37.49518
G01 X-18.95221 Y-37.41771
G01 X-18.90512 Y-37.35479
G01 X-18.84225 Y-37.30772
G01 X-18.76478 Y-37.27884
G01 X-18.74566 Y-37.27679
G01 X-18.53679 Y-37.27679
G01 X-18.53679 Y-37.32319
G04 P0 ( dwell for no time -- G64 should not smooth over this point )
G00 Z2.00000 ( retract )

G00 X-18.53679 Y-39.42316 ( rapid move to begin. )
G01 F60.00000
( Mill infeed pass 1/1 )
G01 Z-0.07000
G04 P0 ( dwell for no time -- G64 should not smooth over this point )
G01 F120.00000
G01 X-18.53679 Y-39.42316
G01 X-18.76478 Y-39.42110
G01 X-18.84225 Y-39.39222
G01 X-18.90512 Y-39.34516
G01 X-18.95221 Y-39.28224
G01 X-18.98112 Y-39.20477
G01 X-18.98317 Y-38.97678
G01 X-18.93679 Y-38.97678
G01 X-18.93679 Y-39.14999
G01 X-18.93242 Y-39.19423
G01 X-18.91952 Y-39.23678
G01 X-18.89857 Y-39.27599
G01 X-18.87037 Y-39.31036
G01 X-18.83598 Y-39.33855
G01 X-18.79679 Y-39.35954
G01 X-18.75424 Y-39.37244
G01 X-18.71000 Y-39.37678
G01 X-18.53679 Y-39.37678
G01 X-18.53679 Y-39.42316
G04 P0 ( dwell for no time -- G64 should not smooth over this point )
G00 Z2.00000 ( retract )

G00 X-20.76679 Y-40.85567 ( rapid move to begin. )
G01 F60.00000
( Mill infeed pass 1/1 )
G01 Z-0.07000
G04 P0 ( dwell for no time -- G64 should not smooth over this point )
G01 F120.00000
G01 X-20.76679 Y-40.85567
G01 X-20.76679 Y-40.59679
G01 X-20.81319 Y-40.59679
G01 X-20.81319 Y-40.81998
G01 X-20.81754 Y-40.86423
G01 X-20.83046 Y-40.90678
G01 X-20.85142 Y-40.94599
G01 X-20.87961 Y-40.98036
G01 X-20.91398 Y-41.00855
G01 X-20.95320 Y-41.02953
G01 X-20.99574 Y-41.04244
G01 X-21.03999 Y-41.04678
G01 X-21.26315 Y-41.04678
G01 X-21.26315 Y-41.09316
G01 X-21.00428 Y-41.09316
G01 X-20.98515 Y-41.09110
G01 X-20.90768 Y-41.06222
G01 X-20.84479 Y-41.01516
G01 X-20.79772 Y-40.95227
G01 X-20.76884 Y-40.87477
G01 X-20.76679 Y-40.85567
G04 P0 ( dwell for no time -- G64 should not smooth over this point )
G00 Z2.00000 ( retract )

G00 X-22.51680 Y-41.09316 ( rapid move to begin. )
G01 F60.00000
( Mill infeed pass 1/1 )
G01 Z-0.07000
G04 P0 ( dwell for no time -- G64 should not smooth over this point )
G01 F120.00000
G01 X-22.51680 Y-41.09316
G01 X-22.51680 Y-41.04678
G01 X-22.73999 Y-41.04678
G01 X-22.78423 Y-41.04244
G01 X-22.82678 Y-41.02953
G01 X-22.86599 Y-41.00855
G01 X-22.90036 Y-40.98036
G01 X-22.92855 Y-40.94599
G01 X-22.94954 Y-40.90678
G01 X-22.96244 Y-40.86423
G01 X-22.96678 Y-40.81998
G01 X-22.96678 Y-40.59679
G01 X-23.55487 Y-40.59679
G01 X-23.70948 Y-40.77020
G01 X-23.80315 Y-40.83982
G01 X-23.80315 Y-40.90225
G01 X-23.70524 Y-40.83367
G01 X-23.59680 Y-40.72527
G01 X-23.51687 Y-40.66543
G01 X-23.45642 Y-40.64290
G01 X-23.38814 Y-40.62804
G01 X-23.34534 Y-40.62291
G01 X-23.30232 Y-40.62598
G01 X-23.19523 Y-40.66154
G01 X-23.15644 Y-40.68039
G01 X-23.12192 Y-40.70622
G01 X-23.09292 Y-40.73809
G01 X-23.03353 Y-40.82128
G01 X-22.98222 Y-40.95227
G01 X-22.93516 Y-41.01516
G01 X-22.87227 Y-41.06222
G01 X-22.79477 Y-41.09110
G01 X-22.77565 Y-41.09316
G01 X-22.51680 Y-41.09316
G04 P0 ( dwell for no time -- G64 should not smooth over this point )
G00 Z2.00000 ( retract )

G00 X-20.76679 Y-39.34318 ( rapid move to begin. )
G01 F60.00000
( Mill infeed pass 1/1 )
G01 Z-0.07000
G04 P0 ( dwell for no time -- G64 should not smooth over this point )
G01 F120.00000
G01 X-20.76679 Y-39.34318
G01 X-20.81319 Y-39.34318
G01 X-20.81319 Y-39.11999
G01 X-20.81754 Y-39.07574
G01 X-20.83046 Y-39.03320
G01 X-20.85142 Y-38.99398
G01 X-20.87961 Y-38.95961
G01 X-20.91398 Y-38.93142
G01 X-20.95320 Y-38.91046
G01 X-20.99574 Y-38.89753
G01 X-21.03999 Y-38.89319
G01 X-21.26315 Y-38.89319
G01 X-21.26315 Y-38.84679
G01 X-20.98515 Y-38.84884
G01 X-20.90768 Y-38.87772
G01 X-20.84479 Y-38.92479
G01 X-20.79772 Y-38.98768
G01 X-20.76884 Y-39.06517
G01 X-20.76679 Y-39.34318
G04 P0 ( dwell for no time -- G64 should not smooth over this point )
G00 Z2.00000 ( retract )

G00 X-22.51680 Y-38.89319 ( rapid move to begin. )
G01 F60.00000
( Mill infeed pass 1/1 )
G01 Z-0.07000
G04 P0 ( dwell for no time -- G64 should not smooth over this point )
G01 F120.00000
G01 X-22.51680 Y-38.89319
G01 X-22.73999 Y-38.89319
G01 X-22.78423 Y-38.89753
G01 X-22.82678 Y-38.91046
G01 X-22.86599 Y-38.93142
G01 X-22.90036 Y-38.95961
G01 X-22.92855 Y-38.99398
G01 X-22.94954 Y-39.03320
G01 X-22.96244 Y-39.07574
G01 X-22.96678 Y-39.11999
G01 X-22.96678 Y-39.34318
G01 X-23.55487 Y-39.34318
G01 X-23.70948 Y-39.16977
G01 X-23.80315 Y-39.10015
G01 X-23.80315 Y-39.03769
G01 X-23.70524 Y-39.10627
G01 X-23.57234 Y-39.23589
G01 X-23.48380 Y-39.28687
G01 X-23.44417 Y-39.30383
G01 X-23.40206 Y-39.31298
G01 X-23.35896 Y-39.31402
G01 X-23.28926 Y-39.30904
G01 X-23.24671 Y-39.30188
G01 X-23.20630 Y-39.28681
G01 X-23.16947 Y-39.26436
G01 X-23.08911 Y-39.20129
G01 X-23.06795 Y-39.17686
G01 X-23.03356 Y-39.11872
G01 X-22.98222 Y-38.98768
G01 X-22.93516 Y-38.92479
G01 X-22.87227 Y-38.87772
G01 X-22.79477 Y-38.84884
G01 X-22.77567 Y-38.84679
G01 X-22.51680 Y-38.84679
G01 X-22.51680 Y-38.89319
G04 P0 ( dwell for no time -- G64 should not smooth over this point )
G00 Z2.00000 ( retract )

G00 X-25.05680 Y-40.90225 ( rapid move to begin. )
G01 F60.00000
( Mill infeed pass 1/1 )
G01 Z-0.07000
G04 P0 ( dwell for no time -- G64 should not smooth over this point )
G01 F120.00000
G01 X-25.05680 Y-40.90225
G01 X-25.05680 Y-40.83982
G01 X-25.15050 Y-40.77020
G01 X-25.30511 Y-40.59679
G01 X-25.36226 Y-40.59679
G01 X-25.29368 Y-40.69471
G01 X-25.15471 Y-40.83367
G01 X-25.05680 Y-40.90225
G04 P0 ( dwell for no time -- G64 should not smooth over this point )
G00 Z2.00000 ( retract )

G00 X-26.03591 Y-40.59679 ( rapid move to begin. )
G01 F60.00000
( Mill infeed pass 1/1 )
G01 Z-0.07000
G04 P0 ( dwell for no time -- G64 should not smooth over this point )
G01 F120.00000
G01 X-26.03591 Y-40.59679
G01 X-26.09487 Y-40.59679
G01 X-26.24948 Y-40.77020
G01 X-26.34315 Y-40.83982
G01 X-26.34315 Y-40.90225
G01 X-26.24524 Y-40.83367
G01 X-26.10543 Y-40.69387
G01 X-26.03591 Y-40.59679
G04 P0 ( dwell for no time -- G64 should not smooth over this point )
G00 Z2.00000 ( retract )

G00 X-27.59680 Y-40.90225 ( rapid move to begin. )
G01 F60.00000
( Mill infeed pass 1/1 )
G01 Z-0.07000
G04 P0 ( dwell for no time -- G64 should not smooth over this point )
G01 F120.00000
G01 X-27.59680 Y-40.90225
G01 X-27.59680 Y-40.83982
G01 X-27.69050 Y-40.77020
G01 X-27.84511 Y-40.59679
G01 X-27.90226 Y-40.59679
G01 X-27.83368 Y-40.69471
G01 X-27.69471 Y-40.83367
G01 X-27.59680 Y-40.90225
G04 P0 ( dwell for no time -- G64 should not smooth over this point )
G00 Z2.00000 ( retract )

G00 X-28.57591 Y-40.59679 ( rapid move to begin. )
G01 F60.00000
( Mill infeed pass 1/1 )
G01 Z-0.07000
G04 P0 ( dwell for no time -- G64 should not smooth over this point )
G01 F120.00000
G01 X-28.57591 Y-40.59679
G01 X-28.63487 Y-40.59679
G01 X-28.78948 Y-40.77020
G01 X-28.88315 Y-40.83982
G01 X-28.88315 Y-40.90225
G01 X-28.78524 Y-40.83367
G01 X-28.64543 Y-40.69387
G01 X-28.57591 Y-40.59679
G04 P0 ( dwell for no time -- G64 should not smooth over this point )
G00 Z2.00000 ( retract )

G00 X-30.13680 Y-40.90225 ( rapid move to begin. )
G01 F60.00000
( Mill infeed pass 1/1 )
G01 Z-0.07000
G04 P0 ( dwell for no time -- G64 should not smooth over this point )
G01 F120.00000
G01 X-30.13680 Y-40.90225
G01 X-30.13680 Y-40.83982
G01 X-30.23050 Y-40.77020
G01 X-30.38511 Y-40.59679
G01 X-30.44226 Y-40.59679
G01 X-30.37368 Y-40.69471
G01 X-30.23471 Y-40.83367
G01 X-30.13680 Y-40.90225
G04 P0 ( dwell for no time -- G64 should not smooth over this point )
G00 Z2.00000 ( retract )

G00 X-34.76541 Y-38.78829 ( rapid move to begin. )
G01 F60.00000
( Mill infeed pass 1/1 )
G01 Z-0.07000
G04 P0 ( dwell for no time -- G64 should not smooth over this point )
G01 F120.00000
G01 X-34.76541 Y-38.78829
G01 X-34.76358 Y-38.80241
G01 X-34.76724 Y-38.81608
G01 X-34.75058 Y-38.82431
G01 X-34.76724 Y-38.81608
G01 X-34.77593 Y-38.82741
G01 X-34.78820 Y-38.83449
G01 X-34.78215 Y-38.85220
G01 X-34.78820 Y-38.83449
G01 X-34.80237 Y-38.83637
G01 X-34.81608 Y-38.83271
G01 X-34.82437 Y-38.84950
G01 X-34.81608 Y-38.83271
G01 X-34.82736 Y-38.82408
G01 X-34.83450 Y-38.81173
G01 X-34.85218 Y-38.81775
G01 X-34.83450 Y-38.81173
G01 X-34.83638 Y-38.79764
G01 X-34.83270 Y-38.78387
G01 X-34.84946 Y-38.77561
G01 X-34.83270 Y-38.78387
G01 X-34.82398 Y-38.77252
G01 X-34.81174 Y-38.76545
G01 X-34.81776 Y-38.74775
G01 X-34.81174 Y-38.76545
G01 X-34.79764 Y-38.76357
G01 X-34.78380 Y-38.76728
G01 X-34.77550 Y-38.75044
G01 X-34.78380 Y-38.76728
G01 X-34.77255 Y-38.77592
G01 X-34.76541 Y-38.78829
G01 X-34.74773 Y-38.78232
G01 X-34.53681 Y-38.81727
G01 X-34.55022 Y-38.88471
G01 X-34.54603 Y-38.88613
G01 X-34.55022 Y-38.88471
G01 X-34.56343 Y-38.91661
G01 X-34.60171 Y-38.97386
G01 X-34.59836 Y-38.97678
G01 X-34.60171 Y-38.97386
G01 X-34.65347 Y-39.01928
G01 X-34.68334 Y-39.03652
G01 X-34.68136 Y-39.04051
G01 X-34.68334 Y-39.03652
G01 X-34.74852 Y-39.05862
G01 X-34.78276 Y-39.06314
G01 X-34.78248 Y-39.06756
G01 X-34.78276 Y-39.06314
G01 X-34.81723 Y-39.06314
G01 X-34.88479 Y-39.04971
G01 X-34.88621 Y-39.05390
G01 X-34.88479 Y-39.04971
G01 X-34.91662 Y-39.03652
G01 X-34.97387 Y-38.99825
G01 X-34.97679 Y-39.00160
G01 X-34.97387 Y-38.99825
G01 X-35.01923 Y-38.94651
G01 X-35.03651 Y-38.91661
G01 X-35.04049 Y-38.91857
G01 X-35.03651 Y-38.91661
G01 X-35.04969 Y-38.88478
G01 X-35.06315 Y-38.81719
G01 X-35.06757 Y-38.81747
G01 X-35.06315 Y-38.81719
G01 X-35.06315 Y-38.78275
G01 X-35.04969 Y-38.71516
G01 X-35.05388 Y-38.71374
G01 X-35.04969 Y-38.71516
G01 X-35.03651 Y-38.68334
G01 X-34.99823 Y-38.62608
G01 X-35.00158 Y-38.62316
G01 X-34.99823 Y-38.62608
G01 X-34.97382 Y-38.60165
G01 X-34.91667 Y-38.56347
G01 X-34.91865 Y-38.55949
G01 X-34.91667 Y-38.56347
G01 X-34.88479 Y-38.55027
G01 X-34.81718 Y-38.53680
G01 X-34.81748 Y-38.53238
G01 X-34.81718 Y-38.53680
G01 X-34.78276 Y-38.53680
G01 X-34.71515 Y-38.55027
G01 X-34.71372 Y-38.54607
G01 X-34.71515 Y-38.55027
G01 X-34.68329 Y-38.56347
G01 X-34.62607 Y-38.60170
G01 X-34.62315 Y-38.59837
G01 X-34.62607 Y-38.60170
G01 X-34.58070 Y-38.65344
G01 X-34.56343 Y-38.68334
G01 X-34.55947 Y-38.68138
G01 X-34.56343 Y-38.68334
G01 X-34.55022 Y-38.71524
G01 X-34.53681 Y-38.78268
G01 X-34.53239 Y-38.78240
G01 X-34.53681 Y-38.78268
G01 X-34.53681 Y-38.81727
G01 X-34.31007 Y-38.83213
G01 X-34.31845 Y-38.89578
G01 X-34.33506 Y-38.95776
G01 X-34.35965 Y-39.01712
G01 X-34.35566 Y-39.01907
G01 X-34.35965 Y-39.01712
G01 X-34.39175 Y-39.07274
G01 X-34.43084 Y-39.12370
G01 X-34.47626 Y-39.16911
G01 X-34.47334 Y-39.17244
G01 X-34.47626 Y-39.16911
G01 X-34.52724 Y-39.20823
G01 X-34.58284 Y-39.24031
G01 X-34.64212 Y-39.26487
G01 X-34.64067 Y-39.26909
G01 X-34.64212 Y-39.26487
G01 X-34.70417 Y-39.28151
G01 X-34.76790 Y-39.28989
G01 X-34.83211 Y-39.28989
G01 X-34.83242 Y-39.29433
G01 X-34.83211 Y-39.28989
G01 X-34.89576 Y-39.28151
G01 X-34.95782 Y-39.26487
G01 X-35.01713 Y-39.24031
G01 X-35.01908 Y-39.24430
G01 X-35.01713 Y-39.24031
G01 X-35.07275 Y-39.20820
G01 X-35.12370 Y-39.16911
G01 X-35.16907 Y-39.12375
G01 X-35.17242 Y-39.12667
G01 X-35.16907 Y-39.12375
G01 X-35.20818 Y-39.07274
G01 X-35.24032 Y-39.01712
G01 X-35.26488 Y-38.95781
G01 X-35.26907 Y-38.95926
G01 X-35.26488 Y-38.95781
G01 X-35.28151 Y-38.89571
G01 X-35.28990 Y-38.83205
G01 X-35.28990 Y-38.76789
G01 X-35.29434 Y-38.76759
G01 X-35.28990 Y-38.76789
G01 X-35.28151 Y-38.70424
G01 X-35.26488 Y-38.64214
G01 X-35.24032 Y-38.58283
G01 X-35.24430 Y-38.58087
G01 X-35.24032 Y-38.58283
G01 X-35.20821 Y-38.52725
G01 X-35.16909 Y-38.47625
G01 X-35.12365 Y-38.43081
G01 X-35.12657 Y-38.42748
G01 X-35.12365 Y-38.43081
G01 X-35.07273 Y-38.39172
G01 X-35.01718 Y-38.35966
G01 X-34.95782 Y-38.33508
G01 X-34.95924 Y-38.33089
G01 X-34.95782 Y-38.33508
G01 X-34.89571 Y-38.31844
G01 X-34.83206 Y-38.31006
G01 X-34.76790 Y-38.31006
G01 X-34.76760 Y-38.30561
G01 X-34.76790 Y-38.31006
G01 X-34.70425 Y-38.31844
G01 X-34.64212 Y-38.33508
G01 X-34.58281 Y-38.35964
G01 X-34.58083 Y-38.35568
G01 X-34.58281 Y-38.35964
G01 X-34.52721 Y-38.39174
G01 X-34.47626 Y-38.43086
G01 X-34.43084 Y-38.47625
G01 X-34.42752 Y-38.47333
G01 X-34.43084 Y-38.47625
G01 X-34.39175 Y-38.52720
G01 X-34.35965 Y-38.58283
G01 X-34.33506 Y-38.64219
G01 X-34.33084 Y-38.64077
G01 X-34.33506 Y-38.64219
G01 X-34.31845 Y-38.70416
G01 X-34.31007 Y-38.76782
G01 X-34.31007 Y-38.83213
G01 X-34.08329 Y-38.84699
G01 X-34.09450 Y-38.94036
G01 X-34.11987 Y-39.03081
G01 X-34.15482 Y-39.11806
G01 X-34.20191 Y-39.19964
G01 X-34.26000 Y-39.27353
G01 X-34.32569 Y-39.34076
G01 X-34.40039 Y-39.39809
G01 X-34.48233 Y-39.44412
G01 X-34.56869 Y-39.48110
G01 X-34.65975 Y-39.50485
G01 X-34.75299 Y-39.51775
G01 X-34.84700 Y-39.51666
G01 X-34.94027 Y-39.50546
G01 X-35.03125 Y-39.48110
G01 X-35.11763 Y-39.44412
G01 X-35.20008 Y-39.39878
G01 X-35.27354 Y-39.33995
G01 X-35.34072 Y-39.27432
G01 X-35.39754 Y-39.19926
G01 X-35.44512 Y-39.11806
G01 X-35.48007 Y-39.03086
G01 X-35.50547 Y-38.94028
G01 X-35.51776 Y-38.84696
G01 X-35.51667 Y-38.75301
G01 X-35.50630 Y-38.65951
G01 X-35.48007 Y-38.56909
G01 X-35.44512 Y-38.48189
G01 X-35.39757 Y-38.40071
G01 X-35.34075 Y-38.32568
G01 X-35.27349 Y-38.25997
G01 X-35.20006 Y-38.20117
G01 X-35.11766 Y-38.15585
G01 X-35.03125 Y-38.11887
G01 X-34.94016 Y-38.09510
G01 X-34.84695 Y-38.08219
G01 X-34.75302 Y-38.08329
G01 X-34.65952 Y-38.09365
G01 X-34.56907 Y-38.11991
G01 X-34.48185 Y-38.15484
G01 X-34.40069 Y-38.20241
G01 X-34.32566 Y-38.25921
G01 X-34.26000 Y-38.32642
G01 X-34.20191 Y-38.40030
G01 X-34.15482 Y-38.48189
G01 X-34.11987 Y-38.56914
G01 X-34.09363 Y-38.65946
G01 X-34.08329 Y-38.75296
G01 X-34.08329 Y-38.84699
G01 X-33.85655 Y-38.86185
G01 X-33.87161 Y-38.98468
G01 X-33.90468 Y-39.10386
G01 X-33.95101 Y-39.21857
G01 X-34.01296 Y-39.32588
G01 X-34.08914 Y-39.42337
G01 X-34.17529 Y-39.51227
G01 X-34.27473 Y-39.58610
G01 X-34.38129 Y-39.64889
G01 X-34.49571 Y-39.69629
G01 X-34.61553 Y-39.72725
G01 X-34.73806 Y-39.74450
G01 X-34.86196 Y-39.74450
G01 X-34.98441 Y-39.72725
G01 X-35.10422 Y-39.69631
G01 X-35.21834 Y-39.64836
G01 X-35.32589 Y-39.58699
G01 X-35.42337 Y-39.51082
G01 X-35.51225 Y-39.42469
G01 X-35.58609 Y-39.32525
G01 X-35.64890 Y-39.21864
G01 X-35.69571 Y-39.10406
G01 X-35.72835 Y-38.98456
G01 X-35.74341 Y-38.86180
G01 X-35.74451 Y-38.73812
G01 X-35.72833 Y-38.61532
G01 X-35.69523 Y-38.49604
G01 X-35.64969 Y-38.38095
G01 X-35.58609 Y-38.27473
G01 X-35.51164 Y-38.17590
G01 X-35.42365 Y-38.08875
G01 X-35.32581 Y-38.01290
G01 X-35.21817 Y-37.95204
G01 X-35.10430 Y-37.90368
G01 X-34.98459 Y-37.87160
G01 X-34.86178 Y-37.85654
G01 X-34.73813 Y-37.85545
G01 X-34.61532 Y-37.87163
G01 X-34.49604 Y-37.90472
G01 X-34.38093 Y-37.95027
G01 X-34.27471 Y-38.01387
G01 X-34.17590 Y-38.08829
G01 X-34.08878 Y-38.17628
G01 X-34.01294 Y-38.27412
G01 X-33.95203 Y-38.38181
G01 X-33.90367 Y-38.49571
G01 X-33.87161 Y-38.61534
G01 X-33.85655 Y-38.73810
G01 X-33.85655 Y-38.86185
G01 X-33.62980 Y-38.87671
G01 X-33.64873 Y-39.02893
G01 X-33.68848 Y-39.17729
G01 X-33.74822 Y-39.31864
G01 X-33.82330 Y-39.45258
G01 X-33.91830 Y-39.57320
G01 X-34.02602 Y-39.68245
G01 X-34.14789 Y-39.77597
G01 X-34.28131 Y-39.85174
G01 X-34.42261 Y-39.91145
G01 X-34.57110 Y-39.95062
G01 X-34.72325 Y-39.97127
G01 X-34.87671 Y-39.97015
G01 X-35.02894 Y-39.95120
G01 X-35.17732 Y-39.91148
G01 X-35.31865 Y-39.85174
G01 X-35.45258 Y-39.77665
G01 X-35.57321 Y-39.68166
G01 X-35.68245 Y-39.57396
G01 X-35.77542 Y-39.45176
G01 X-35.85273 Y-39.31910
G01 X-35.91042 Y-39.17693
G01 X-35.95121 Y-39.02898
G01 X-35.97128 Y-38.87671
G01 X-35.97016 Y-38.72329
G01 X-35.95205 Y-38.57084
G01 X-35.91042 Y-38.42301
G01 X-35.85273 Y-38.28085
G01 X-35.77544 Y-38.14821
G01 X-35.68243 Y-38.02601
G01 X-35.57316 Y-37.91826
G01 X-35.45213 Y-37.82400
G01 X-35.31913 Y-37.74722
G01 X-35.17694 Y-37.68954
G01 X-35.02899 Y-37.64874
G01 X-34.87669 Y-37.62868
G01 X-34.72330 Y-37.62980
G01 X-34.57085 Y-37.64791
G01 X-34.42299 Y-37.68954
G01 X-34.28083 Y-37.74722
G01 X-34.14819 Y-37.82451
G01 X-34.02602 Y-37.91750
G01 X-33.91830 Y-38.02675
G01 X-33.82330 Y-38.14737
G01 X-33.74822 Y-38.28131
G01 X-33.68848 Y-38.42266
G01 X-33.64934 Y-38.57109
G01 X-33.62869 Y-38.72321
G01 X-33.62980 Y-38.87671
G01 X-33.40303 Y-38.89157
G01 X-33.42645 Y-39.07318
G01 X-33.47385 Y-39.25011
G01 X-33.54398 Y-39.41935
G01 X-33.63557 Y-39.57800
G01 X-33.74707 Y-39.72334
G01 X-33.87662 Y-39.85288
G01 X-34.02195 Y-39.96439
G01 X-34.18058 Y-40.05598
G01 X-34.34982 Y-40.12608
G01 X-34.52678 Y-40.17348
G01 X-34.70839 Y-40.19740
G01 X-34.89160 Y-40.19740
G01 X-35.07318 Y-40.17348
G01 X-35.25015 Y-40.12608
G01 X-35.41936 Y-40.05598
G01 X-35.57801 Y-39.96439
G01 X-35.72335 Y-39.85288
G01 X-35.85286 Y-39.72336
G01 X-35.96437 Y-39.57800
G01 X-36.05599 Y-39.41935
G01 X-36.12606 Y-39.25014
G01 X-36.17349 Y-39.07315
G01 X-36.19741 Y-38.89157
G01 X-36.19741 Y-38.70838
G01 X-36.17349 Y-38.52680
G01 X-36.12606 Y-38.34981
G01 X-36.05599 Y-38.18059
G01 X-35.96439 Y-38.02195
G01 X-35.85286 Y-37.87661
G01 X-35.72332 Y-37.74707
G01 X-35.57801 Y-37.63554
G01 X-35.41939 Y-37.54397
G01 X-35.25015 Y-37.47389
G01 X-35.07318 Y-37.42647
G01 X-34.89155 Y-37.40254
G01 X-34.70839 Y-37.40254
G01 X-34.52680 Y-37.42647
G01 X-34.34982 Y-37.47389
G01 X-34.18058 Y-37.54397
G01 X-34.02193 Y-37.63556
G01 X-33.87662 Y-37.74707
G01 X-33.74707 Y-37.87661
G01 X-33.63557 Y-38.02195
G01 X-33.54398 Y-38.18059
G01 X-33.47385 Y-38.34983
G01 X-33.42645 Y-38.52677
G01 X-33.40255 Y-38.70836
G01 X-33.40303 Y-38.89157
G01 X-33.17629 Y-38.90640
G01 X-33.20405 Y-39.11742
G01 X-33.25914 Y-39.32301
G01 X-33.34060 Y-39.51966
G01 X-33.44702 Y-39.70398
G01 X-33.57659 Y-39.87284
G01 X-33.72711 Y-40.02336
G01 X-33.89597 Y-40.15293
G01 X-34.08027 Y-40.25936
G01 X-34.27692 Y-40.34081
G01 X-34.48253 Y-40.39588
G01 X-34.69356 Y-40.42367
G01 X-34.90641 Y-40.42367
G01 X-35.11743 Y-40.39588
G01 X-35.32302 Y-40.34081
G01 X-35.51966 Y-40.25936
G01 X-35.70399 Y-40.15293
G01 X-35.87285 Y-40.02336
G01 X-36.02337 Y-39.87287
G01 X-36.15291 Y-39.70398
G01 X-36.25936 Y-39.51966
G01 X-36.34080 Y-39.32301
G01 X-36.39589 Y-39.11740
G01 X-36.42368 Y-38.90640
G01 X-36.42368 Y-38.69355
G01 X-36.39589 Y-38.48255
G01 X-36.34080 Y-38.27694
G01 X-36.25936 Y-38.08029
G01 X-36.15291 Y-37.89596
G01 X-36.02335 Y-37.72710
G01 X-35.87283 Y-37.57658
G01 X-35.70399 Y-37.44702
G01 X-35.51966 Y-37.34059
G01 X-35.32302 Y-37.25916
G01 X-35.11743 Y-37.20407
G01 X-34.90638 Y-37.17628
G01 X-34.69356 Y-37.17628
G01 X-34.48256 Y-37.20407
G01 X-34.27692 Y-37.25916
G01 X-34.08027 Y-37.34059
G01 X-33.89594 Y-37.44704
G01 X-33.72709 Y-37.57658
G01 X-33.57659 Y-37.72710
G01 X-33.44702 Y-37.89596
G01 X-33.34060 Y-38.08029
G01 X-33.25914 Y-38.27694
G01 X-33.20405 Y-38.48252
G01 X-33.17629 Y-38.69355
G01 X-33.17629 Y-38.90640
G04 P0 ( dwell for no time -- G64 should not smooth over this point )
G00 Z2.00000 ( retract )

G00 X-30.13680 Y-39.10015 ( rapid move to begin. )
G01 F60.00000
( Mill infeed pass 1/1 )
G01 Z-0.07000
G04 P0 ( dwell for no time -- G64 should not smooth over this point )
G01 F120.00000
G01 X-30.13680 Y-39.10015
G01 X-30.23050 Y-39.16977
G01 X-30.38511 Y-39.34318
G01 X-30.44226 Y-39.34318
G01 X-30.37368 Y-39.24524
G01 X-30.23471 Y-39.10627
G01 X-30.13680 Y-39.03769
G01 X-30.13680 Y-39.10015
G04 P0 ( dwell for no time -- G64 should not smooth over this point )
G00 Z2.00000 ( retract )

G00 X-28.57769 Y-39.34318 ( rapid move to begin. )
G01 F60.00000
( Mill infeed pass 1/1 )
G01 Z-0.07000
G04 P0 ( dwell for no time -- G64 should not smooth over this point )
G01 F120.00000
G01 X-28.57769 Y-39.34318
G01 X-28.64627 Y-39.24524
G01 X-28.78524 Y-39.10627
G01 X-28.88315 Y-39.03769
G01 X-28.88315 Y-39.10015
G01 X-28.78948 Y-39.16977
G01 X-28.63487 Y-39.34318
G01 X-28.57769 Y-39.34318
G04 P0 ( dwell for no time -- G64 should not smooth over this point )
G00 Z2.00000 ( retract )

G00 X-27.59680 Y-39.10015 ( rapid move to begin. )
G01 F60.00000
( Mill infeed pass 1/1 )
G01 Z-0.07000
G04 P0 ( dwell for no time -- G64 should not smooth over this point )
G01 F120.00000
G01 X-27.59680 Y-39.10015
G01 X-27.69050 Y-39.16977
G01 X-27.84511 Y-39.34318
G01 X-27.90403 Y-39.34318
G01 X-27.83451 Y-39.24607
G01 X-27.69471 Y-39.10627
G01 X-27.59680 Y-39.03769
G01 X-27.59680 Y-39.10015
G04 P0 ( dwell for no time -- G64 should not smooth over this point )
G00 Z2.00000 ( retract )

G00 X-26.03769 Y-39.34318 ( rapid move to begin. )
G01 F60.00000
( Mill infeed pass 1/1 )
G01 Z-0.07000
G04 P0 ( dwell for no time -- G64 should not smooth over this point )
G01 F120.00000
G01 X-26.03769 Y-39.34318
G01 X-26.10627 Y-39.24524
G01 X-26.24524 Y-39.10627
G01 X-26.34315 Y-39.03769
G01 X-26.34315 Y-39.10015
G01 X-26.24948 Y-39.16977
G01 X-26.09487 Y-39.34318
G01 X-26.03769 Y-39.34318
G04 P0 ( dwell for no time -- G64 should not smooth over this point )
G00 Z2.00000 ( retract )

G00 X-25.05680 Y-39.10015 ( rapid move to begin. )
G01 F60.00000
( Mill infeed pass 1/1 )
G01 Z-0.07000
G04 P0 ( dwell for no time -- G64 should not smooth over this point )
G01 F120.00000
G01 X-25.05680 Y-39.10015
G01 X-25.15050 Y-39.16977
G01 X-25.30511 Y-39.34318
G01 X-25.36403 Y-39.34318
G01 X-25.29451 Y-39.24607
G01 X-25.15471 Y-39.10627
G01 X-25.05680 Y-39.03769
G01 X-25.05680 Y-39.10015
G04 P0 ( dwell for no time -- G64 should not smooth over this point )
G00 Z2.00000 ( retract )

G00 X-29.37457 Y-31.93814 ( rapid move to begin. )
G01 F60.00000
( Mill infeed pass 1/1 )
G01 Z-0.07000
G04 P0 ( dwell for no time -- G64 should not smooth over this point )
G01 F120.00000
G01 X-29.37457 Y-31.93814
G01 X-29.42191 Y-31.98548
G01 X-29.43728 Y-31.80997
G01 X-29.42191 Y-31.63446
G01 X-29.37457 Y-31.68183
G01 X-29.38678 Y-31.80999
G01 X-29.37457 Y-31.93814
G04 P0 ( dwell for no time -- G64 should not smooth over this point )
G00 Z2.00000 ( retract )

G00 X-28.18445 Y-32.87192 ( rapid move to begin. )
G01 F60.00000
( Mill infeed pass 1/1 )
G01 Z-0.07000
G04 P0 ( dwell for no time -- G64 should not smooth over this point )
G01 F120.00000
G01 X-28.18445 Y-32.87192
G01 X-28.35996 Y-32.88726
G01 X-28.53550 Y-32.87192
G01 X-28.49077 Y-32.82744
G01 X-28.44361 Y-32.83240
G01 X-28.27637 Y-32.83240
G01 X-28.22898 Y-32.82739
G01 X-28.18445 Y-32.87192
G04 P0 ( dwell for no time -- G64 should not smooth over this point )
G00 Z2.00000 ( retract )

G00 X-27.28267 Y-31.80997 ( rapid move to begin. )
G01 F60.00000
( Mill infeed pass 1/1 )
G01 Z-0.07000
G04 P0 ( dwell for no time -- G64 should not smooth over this point )
G01 F120.00000
G01 X-27.28267 Y-31.80997
G01 X-27.29804 Y-31.63446
G01 X-27.34541 Y-31.68183
G01 X-27.33319 Y-31.80999
G01 X-27.34541 Y-31.93811
G01 X-27.29804 Y-31.98548
G01 X-27.28267 Y-31.80997
G04 P0 ( dwell for no time -- G64 should not smooth over this point )
G00 Z2.00000 ( retract )

G00 X-26.27457 Y-31.94815 ( rapid move to begin. )
G01 F60.00000
( Mill infeed pass 1/1 )
G01 Z-0.07000
G04 P0 ( dwell for no time -- G64 should not smooth over this point )
G01 F120.00000
G01 X-26.27457 Y-31.94815
G01 X-26.32192 Y-31.99549
G01 X-26.33723 Y-31.81998
G01 X-26.32192 Y-31.64446
G01 X-26.27457 Y-31.69181
G01 X-26.28679 Y-31.81998
G01 X-26.27457 Y-31.94815
G04 P0 ( dwell for no time -- G64 should not smooth over this point )
G00 Z2.00000 ( retract )

G00 X-25.08446 Y-32.88190 ( rapid move to begin. )
G01 F60.00000
( Mill infeed pass 1/1 )
G01 Z-0.07000
G04 P0 ( dwell for no time -- G64 should not smooth over this point )
G01 F120.00000
G01 X-25.08446 Y-32.88190
G01 X-25.26000 Y-32.89727
G01 X-25.43551 Y-32.88193
G01 X-25.39075 Y-32.83745
G01 X-25.34361 Y-32.84240
G01 X-25.17635 Y-32.84240
G01 X-25.12898 Y-32.83740
G01 X-25.08446 Y-32.88190
G04 P0 ( dwell for no time -- G64 should not smooth over this point )
G00 Z2.00000 ( retract )

G00 X-24.18268 Y-31.81998 ( rapid move to begin. )
G01 F60.00000
( Mill infeed pass 1/1 )
G01 Z-0.07000
G04 P0 ( dwell for no time -- G64 should not smooth over this point )
G01 F120.00000
G01 X-24.18268 Y-31.81998
G01 X-24.19805 Y-31.64446
G01 X-24.24542 Y-31.69183
G01 X-24.23317 Y-31.81998
G01 X-24.24539 Y-31.94812
G01 X-24.19805 Y-31.99549
G01 X-24.18268 Y-31.81998
G04 P0 ( dwell for no time -- G64 should not smooth over this point )
G00 Z2.00000 ( retract )

G00 X-21.33872 Y-32.44677 ( rapid move to begin. )
G01 F60.00000
( Mill infeed pass 1/1 )
G01 Z-0.07000
G04 P0 ( dwell for no time -- G64 should not smooth over this point )
G01 F120.00000
G01 X-21.33872 Y-32.44677
G01 X-21.39853 Y-32.44677
G01 X-21.52292 Y-32.58304
G01 X-21.58317 Y-32.62836
G01 X-21.58317 Y-32.69122
G01 X-21.51751 Y-32.64522
G01 X-21.38469 Y-32.51246
G01 X-21.33872 Y-32.44677
G04 P0 ( dwell for no time -- G64 should not smooth over this point )
G00 Z2.00000 ( retract )

G00 X-21.33872 Y-31.19316 ( rapid move to begin. )
G01 F60.00000
( Mill infeed pass 1/1 )
G01 Z-0.07000
G04 P0 ( dwell for no time -- G64 should not smooth over this point )
G01 F120.00000
G01 X-21.33872 Y-31.19316
G01 X-21.39859 Y-31.19316
G01 X-21.52292 Y-31.05694
G01 X-21.58317 Y-31.01162
G01 X-21.58317 Y-30.94873
G01 X-21.51751 Y-30.99473
G01 X-21.38469 Y-31.12750
G01 X-21.33872 Y-31.19316
G04 P0 ( dwell for no time -- G64 should not smooth over this point )
G00 Z2.00000 ( retract )

G00 X-21.37044 Y-20.82668 ( rapid move to begin. )
G01 F60.00000
( Mill infeed pass 1/1 )
G01 Z-0.07000
G04 P0 ( dwell for no time -- G64 should not smooth over this point )
G01 F120.00000
G01 X-21.37044 Y-20.82668
G01 X-20.55754 Y-20.93130
G01 X-16.00431 Y-20.92866
G01 X-16.00350 Y-20.93285
G01 X-16.00431 Y-20.92866
G01 X-15.71521 Y-20.81126
G01 X-12.23071 Y-17.32676
G01 X-12.15360 Y-17.26207
G01 X-12.11664 Y-17.23738
G01 X-12.04747 Y-17.20040
G01 X-12.00640 Y-17.18340
G01 X-11.93137 Y-17.16062
G01 X-11.88776 Y-17.15196
G01 X-11.78750 Y-17.14317
G01 X-10.64999 Y-17.14317
G01 X-10.54971 Y-17.15196
G01 X-10.50610 Y-17.16062
G01 X-10.41011 Y-17.19090
G01 X-10.31197 Y-17.24330
G01 X-9.80900 Y-17.24401
G01 X-9.73770 Y-17.25417
G01 X-9.76216 Y-17.24896
G01 X-9.74113 Y-17.24975
G01 X-9.73770 Y-17.25417
G01 X-9.68639 Y-17.27015
G01 X-9.63658 Y-17.29367
G01 X-9.57285 Y-17.33997
G01 X-9.53508 Y-17.38005
G01 X-9.50722 Y-17.41843
G01 X-9.48075 Y-17.46672
G01 X-9.46257 Y-17.51871
G01 X-9.45271 Y-17.56509
G01 X-9.44819 Y-17.61998
G01 X-9.44819 Y-17.91998
G01 X-9.45271 Y-17.97487
G01 X-9.46257 Y-18.02125
G01 X-9.48075 Y-18.07324
G01 X-9.50722 Y-18.12155
G01 X-9.55606 Y-18.18323
G01 X-9.61667 Y-18.23336
G01 X-9.68639 Y-18.26984
G01 X-9.71423 Y-18.28010
G01 X-9.77438 Y-18.29161
G01 X-9.74369 Y-18.28676
G01 X-9.74717 Y-18.29161
G01 X-9.82500 Y-18.29679
G01 X-10.31215 Y-18.29679
G01 X-10.39000 Y-18.33956
G01 X-10.43107 Y-18.35655
G01 X-10.50610 Y-18.37934
G01 X-10.54971 Y-18.38800
G01 X-10.62774 Y-18.39570
G01 X-11.52787 Y-18.39679
G01 X-14.45171 Y-21.32066
G01 X-14.25552 Y-21.12444
G01 X-14.32062 Y-21.28058
G01 X-14.45171 Y-21.32066
G01 X-15.23426 Y-22.10318
G01 X-15.31137 Y-22.16788
G01 X-15.34833 Y-22.19256
G01 X-15.41750 Y-22.22955
G01 X-15.45857 Y-22.24654
G01 X-15.55519 Y-22.27473
G01 X-15.67749 Y-22.28677
G01 X-20.58632 Y-22.28677
G01 X-21.84761 Y-22.61784
G01 X-21.91563 Y-22.64268
G01 X-22.07920 Y-22.67745
G01 X-22.12637 Y-22.68240
G01 X-22.31733 Y-22.68116
G01 X-22.50435 Y-22.64268
G01 X-22.57212 Y-22.61794
G01 X-23.73498 Y-22.31410
G01 X-24.42520 Y-22.49498
G01 X-24.63317 Y-23.28464
G01 X-24.63317 Y-26.20998
G01 X-24.64196 Y-26.31023
G01 X-24.65062 Y-26.35385
G01 X-24.67341 Y-26.42888
G01 X-24.69040 Y-26.46995
G01 X-24.72738 Y-26.53911
G01 X-24.75207 Y-26.57607
G01 X-24.81677 Y-26.65319
G01 X-26.76868 Y-28.60512
G01 X-27.41930 Y-29.72069
G01 X-27.51635 Y-29.89362
G01 X-27.54422 Y-29.93197
G01 X-27.65613 Y-30.05625
G01 X-27.69138 Y-30.08798
G01 X-27.74615 Y-30.12778
G01 X-27.67292 Y-30.07304
G01 X-27.61826 Y-30.01421
G01 X-27.63340 Y-30.08450
G01 X-27.74615 Y-30.12778
G01 X-27.84658 Y-30.19923
G01 X-28.02052 Y-30.27802
G01 X-28.06563 Y-30.29267
G01 X-28.22920 Y-30.32745
G01 X-28.27637 Y-30.33240
G01 X-28.46733 Y-30.33116
G01 X-28.67929 Y-30.28577
G01 X-28.46733 Y-30.33116
G01 X-28.27637 Y-30.33240
G01 X-28.22920 Y-30.32745
G01 X-28.03931 Y-30.28523
G01 X-28.09423 Y-30.32039
G01 X-28.24345 Y-30.40141
G01 X-28.32245 Y-30.43898
G01 X-28.34081 Y-30.44660
G01 X-28.37914 Y-30.44660
G01 X-28.47650 Y-30.40139
G01 X-28.62565 Y-30.32041
G01 X-28.67929 Y-30.28577
G01 X-28.87340 Y-30.19923
G01 X-29.04706 Y-30.07304
G01 X-29.17680 Y-29.93067
G01 X-29.04706 Y-30.07304
G01 X-28.97294 Y-30.12844
G01 X-29.12633 Y-30.06921
G01 X-29.17680 Y-29.93067
G01 X-29.20362 Y-29.89362
G01 X-29.29801 Y-29.72763
G01 X-29.35821 Y-29.54640
G01 X-29.36806 Y-29.50002
G01 X-29.38678 Y-29.31000
G01 X-29.36806 Y-29.11996
G01 X-29.35821 Y-29.07358
G01 X-29.30652 Y-28.91452
G01 X-29.28724 Y-28.87119
G01 X-29.19070 Y-28.70644
G01 X-29.06385 Y-28.56372
G01 X-29.02859 Y-28.53200
G01 X-28.89329 Y-28.43367
G01 X-28.85224 Y-28.40998
G01 X-28.78894 Y-28.38181
G01 X-27.65443 Y-27.71800
G01 X-25.88679 Y-25.95034
G01 X-25.88679 Y-23.28344
G01 X-26.21377 Y-22.03308
G01 X-26.26434 Y-21.87346
G01 X-26.28679 Y-21.65998
G01 X-26.26434 Y-21.44652
G01 X-26.20650 Y-21.26452
G01 X-26.18725 Y-21.22119
G01 X-26.10361 Y-21.07636
G01 X-26.07574 Y-21.03801
G01 X-25.94701 Y-20.89694
G01 X-25.83972 Y-20.81743
G01 X-25.98171 Y-20.86356
G01 X-26.05923 Y-20.89340
G01 X-26.22103 Y-20.96544
G01 X-26.32344 Y-21.01781
G01 X-26.48555 Y-21.11141
G01 X-26.62375 Y-21.20151
G01 X-26.78618 Y-21.31952
G01 X-26.97587 Y-21.47382
G01 X-27.13866 Y-21.62040
G01 X-27.40487 Y-21.88807
G01 X-27.56886 Y-22.07024
G01 X-27.77289 Y-22.31420
G01 X-27.71945 Y-22.46904
G01 X-27.68333 Y-22.59701
G01 X-27.60223 Y-22.99759
G01 X-27.47223 Y-23.48733
G01 X-27.47409 Y-25.29286
G01 X-27.45682 Y-25.30000
G01 X-27.47409 Y-25.29286
G01 X-27.59636 Y-25.41516
G01 X-28.21221 Y-26.90195
G01 X-28.97871 Y-28.23314
G01 X-29.06121 Y-28.39507
G01 X-29.09948 Y-28.48077
G01 X-29.17683 Y-28.68933
G01 X-29.19070 Y-28.70644
G01 X-29.17683 Y-28.68933
G01 X-29.09948 Y-28.48077
G01 X-29.06121 Y-28.39507
G01 X-28.97871 Y-28.23314
G01 X-28.21826 Y-26.91521
G01 X-27.52877 Y-25.24625
G01 X-27.52446 Y-25.24712
G01 X-27.52877 Y-25.24625
G01 X-27.52705 Y-23.49439
G01 X-27.57305 Y-23.14153
G01 X-27.68300 Y-22.59691
G01 X-27.71945 Y-22.46904
G01 X-27.77289 Y-22.31420
G01 X-27.56886 Y-22.07024
G01 X-27.40416 Y-21.88736
G01 X-27.60241 Y-22.11040
G01 X-27.59517 Y-22.15634
G01 X-27.55217 Y-22.31682
G01 X-27.52001 Y-22.41575
G01 X-27.24544 Y-23.45817
G01 X-27.24732 Y-25.38679
G01 X-27.23007 Y-25.39393
G01 X-27.24732 Y-25.38679
G01 X-27.82311 Y-25.96258
G01 X-28.04985 Y-26.51001
G01 X-27.02057 Y-25.48070
G01 X-27.00330 Y-25.48786
G01 X-27.02057 Y-25.48070
G01 X-27.01864 Y-23.42899
G01 X-27.30231 Y-22.35197
G01 X-27.33650 Y-22.24677
G01 X-27.37335 Y-22.10920
G01 X-27.39563 Y-21.96854
G01 X-27.40416 Y-21.88736
G01 X-27.13866 Y-21.62040
G01 X-26.95031 Y-21.45304
G01 X-27.13866 Y-21.62040
G01 X-27.19301 Y-21.67509
G01 X-27.18760 Y-21.77849
G01 X-27.17013 Y-21.94484
G01 X-27.15156 Y-22.06206
G01 X-27.12085 Y-22.17669
G01 X-27.08460 Y-22.28820
G01 X-26.79187 Y-23.39983
G01 X-26.79380 Y-25.57465
G01 X-26.77655 Y-25.58179
G01 X-26.79380 Y-25.57465
G01 X-28.21168 Y-26.99517
G01 X-28.28948 Y-27.03840
G01 X-28.51617 Y-27.43319
G01 X-28.07208 Y-27.17625
G01 X-26.56705 Y-25.66855
G01 X-26.54978 Y-25.67572
G01 X-26.56705 Y-25.66855
G01 X-26.56512 Y-23.37067
G01 X-26.86690 Y-22.22442
G01 X-26.90518 Y-22.10661
G01 X-26.92977 Y-22.01492
G01 X-26.94460 Y-21.92114
G01 X-26.96210 Y-21.75480
G01 X-26.96705 Y-21.65998
G01 X-26.96210 Y-21.56518
G01 X-26.95031 Y-21.45304
G01 X-26.78618 Y-21.31952
G01 X-26.62375 Y-21.20151
G01 X-26.48555 Y-21.11141
G01 X-26.33574 Y-21.02493
G01 X-26.48555 Y-21.11141
G01 X-26.67500 Y-21.23877
G01 X-26.70795 Y-21.35221
G01 X-26.71910 Y-21.42254
G01 X-26.73657 Y-21.58888
G01 X-26.74031 Y-21.65998
G01 X-26.73657 Y-21.73110
G01 X-26.71910 Y-21.89742
G01 X-26.70795 Y-21.96777
G01 X-26.64920 Y-22.16064
G01 X-26.33835 Y-23.34151
G01 X-26.34031 Y-25.76246
G01 X-26.32304 Y-25.76965
G01 X-26.34031 Y-25.76246
G01 X-27.93248 Y-27.35732
G01 X-28.74292 Y-27.82801
G01 X-28.96812 Y-28.21488
G01 X-28.89720 Y-28.18178
G01 X-27.79283 Y-27.53845
G01 X-26.11354 Y-25.85639
G01 X-26.09626 Y-25.86358
G01 X-26.11354 Y-25.85639
G01 X-26.11161 Y-23.31235
G01 X-26.43149 Y-22.09686
G01 X-26.48615 Y-21.92061
G01 X-26.51354 Y-21.65998
G01 X-26.49355 Y-21.44624
G01 X-26.47386 Y-21.35350
G01 X-26.40518 Y-21.15012
G01 X-26.33574 Y-21.02493
G01 X-26.32344 Y-21.01781
G01 X-26.22103 Y-20.96544
G01 X-26.05923 Y-20.89340
G01 X-25.98171 Y-20.86356
G01 X-25.83972 Y-20.81743
G01 X-25.77335 Y-20.77075
G01 X-25.59944 Y-20.69196
G01 X-25.55436 Y-20.67730
G01 X-25.36731 Y-20.63882
G01 X-25.15265 Y-20.63882
G01 X-24.96561 Y-20.67730
G01 X-24.89794 Y-20.70202
G01 X-23.73498 Y-21.00585
G01 X-23.05126 Y-20.82668
G01 X-23.73498 Y-20.91383
G01 X-24.41862 Y-20.82670
G01 X-23.73498 Y-20.91568
G01 X-23.05126 Y-20.82668
G01 X-22.57224 Y-20.70209
G01 X-22.50435 Y-20.67730
G01 X-22.34077 Y-20.64253
G01 X-22.29361 Y-20.63758
G01 X-22.12637 Y-20.63758
G01 X-22.07920 Y-20.64253
G01 X-21.91563 Y-20.67730
G01 X-21.84791 Y-20.70202
G01 X-20.58540 Y-21.03316
G01 X-15.93710 Y-21.03316
G01 X-15.71521 Y-20.81126
G01 X-15.80203 Y-20.60179
G01 X-16.04899 Y-20.70407
G01 X-20.55020 Y-20.70407
G01 X-21.34133 Y-20.60179
G01 X-21.97062 Y-20.60179
G01 X-22.20999 Y-20.58213
G01 X-22.44936 Y-20.60179
G01 X-24.38966 Y-20.60179
G01 X-23.08027 Y-20.60179
G01 X-23.73498 Y-20.68614
G01 X-24.38966 Y-20.60179
G01 X-25.02063 Y-20.60179
G01 X-25.25997 Y-20.58213
G01 X-25.49934 Y-20.60179
G01 X-38.15550 Y-20.60179
G01 X-38.20368 Y-20.59661
G01 X-38.29131 Y-20.57433
G01 X-38.32509 Y-20.55741
G01 X-38.40836 Y-20.48934
G01 X-38.43810 Y-20.45815
G01 X-38.46137 Y-20.42190
G01 X-38.47739 Y-20.38190
G01 X-38.49708 Y-20.31487
G01 X-38.50627 Y-20.25099
G01 X-38.50627 Y-16.32400
G01 X-38.50109 Y-16.27579
G01 X-38.48989 Y-16.22428
G01 X-38.47882 Y-16.18821
G01 X-38.46192 Y-16.15445
G01 X-38.39393 Y-16.07116
G01 X-38.36274 Y-16.04140
G01 X-38.32647 Y-16.01808
G01 X-38.28641 Y-16.00205
G01 X-38.21938 Y-15.98237
G01 X-38.15550 Y-15.97317
G01 X-34.68398 Y-15.97317
G01 X-34.63577 Y-15.97835
G01 X-34.54819 Y-16.00063
G01 X-34.51443 Y-16.01752
G01 X-34.48395 Y-16.03977
G01 X-34.40138 Y-16.11671
G01 X-34.37806 Y-16.15300
G01 X-34.36203 Y-16.19303
G01 X-34.34235 Y-16.26009
G01 X-34.33315 Y-16.32400
G01 X-34.33315 Y-16.92316
G01 X-34.28680 Y-16.92316
G01 X-34.28680 Y-16.19999
G01 X-34.28243 Y-16.15575
G01 X-34.26953 Y-16.11320
G01 X-34.24857 Y-16.07398
G01 X-34.22035 Y-16.03962
G01 X-34.18599 Y-16.01140
G01 X-34.13651 Y-15.98734
G01 X-34.18154 Y-15.99222
G01 X-34.31586 Y-16.03599
G01 X-34.35337 Y-16.04152
G01 X-34.37227 Y-16.03954
G01 X-34.41159 Y-16.02659
G01 X-34.57862 Y-15.98646
G01 X-34.61784 Y-15.98226
G01 X-34.57862 Y-15.98646
G01 X-34.41159 Y-16.02659
G01 X-34.37227 Y-16.03954
G01 X-34.35337 Y-16.04152
G01 X-34.35330 Y-16.04696
G01 X-34.35337 Y-16.04152
G01 X-34.31586 Y-16.03599
G01 X-34.18154 Y-15.99222
G01 X-34.13651 Y-15.98734
G01 X-34.10422 Y-15.97754
G01 X-34.05998 Y-15.97320
G01 X-30.45998 Y-15.97320
G01 X-30.41574 Y-15.97754
G01 X-30.37319 Y-15.99044
G01 X-30.33398 Y-16.01140
G01 X-30.29961 Y-16.03962
G01 X-30.27142 Y-16.07398
G01 X-30.25046 Y-16.11320
G01 X-30.23756 Y-16.15575
G01 X-30.23319 Y-16.19999
G01 X-30.23319 Y-16.92316
G01 X-30.18678 Y-16.92316
G01 X-30.18678 Y-16.32400
G01 X-30.18160 Y-16.27579
G01 X-30.17040 Y-16.22428
G01 X-30.15932 Y-16.18821
G01 X-30.14243 Y-16.15445
G01 X-30.07444 Y-16.07116
G01 X-30.04325 Y-16.04140
G01 X-30.00695 Y-16.01808
G01 X-29.90383 Y-15.98353
G01 X-29.97942 Y-15.99321
G01 X-30.16362 Y-16.04018
G01 X-30.20634 Y-16.03497
G01 X-30.33946 Y-15.99199
G01 X-30.38391 Y-15.98719
G01 X-30.33946 Y-15.99199
G01 X-30.20634 Y-16.03497
G01 X-30.16362 Y-16.04018
G01 X-30.16369 Y-16.04538
G01 X-30.16362 Y-16.04018
G01 X-29.97942 Y-15.99321
G01 X-29.83598 Y-15.97317
G01 X-20.04398 Y-15.97317
G01 X-19.99577 Y-15.97835
G01 X-19.94426 Y-15.98955
G01 X-19.90819 Y-16.00063
G01 X-19.87443 Y-16.01752
G01 X-19.79115 Y-16.08552
G01 X-19.76138 Y-16.11671
G01 X-19.73806 Y-16.15300
G01 X-19.72203 Y-16.19303
G01 X-19.70235 Y-16.26009
G01 X-19.69315 Y-16.32400
G01 X-19.69315 Y-17.17317
G01 X-19.64680 Y-17.17317
G01 X-19.64680 Y-16.19999
G01 X-19.64243 Y-16.15575
G01 X-19.62953 Y-16.11320
G01 X-19.60857 Y-16.07398
G01 X-19.58035 Y-16.03962
G01 X-19.54599 Y-16.01140
G01 X-19.49651 Y-15.98734
G01 X-19.54154 Y-15.99222
G01 X-19.67586 Y-16.03599
G01 X-19.71337 Y-16.04152
G01 X-19.73227 Y-16.03954
G01 X-19.77159 Y-16.02659
G01 X-19.93862 Y-15.98646
G01 X-19.97784 Y-15.98226
G01 X-19.93862 Y-15.98646
G01 X-19.77159 Y-16.02659
G01 X-19.73227 Y-16.03954
G01 X-19.71337 Y-16.04152
G01 X-19.71330 Y-16.04696
G01 X-19.71337 Y-16.04152
G01 X-19.67586 Y-16.03599
G01 X-19.54154 Y-15.99222
G01 X-19.49651 Y-15.98734
G01 X-19.46422 Y-15.97754
G01 X-19.41998 Y-15.97320
G01 X-16.21998 Y-15.97320
G01 X-16.17574 Y-15.97754
G01 X-16.13319 Y-15.99044
G01 X-16.09397 Y-16.01140
G01 X-16.05961 Y-16.03962
G01 X-16.03141 Y-16.07398
G01 X-16.01046 Y-16.11320
G01 X-15.99755 Y-16.15575
G01 X-15.99319 Y-16.19999
G01 X-15.99319 Y-17.17317
G01 X-15.94678 Y-17.17317
G01 X-15.94678 Y-16.32400
G01 X-15.94160 Y-16.27579
G01 X-15.93040 Y-16.22428
G01 X-15.91932 Y-16.18821
G01 X-15.90243 Y-16.15445
G01 X-15.83444 Y-16.07116
G01 X-15.80325 Y-16.04140
G01 X-15.76695 Y-16.01808
G01 X-15.66382 Y-15.98353
G01 X-15.73941 Y-15.99321
G01 X-15.92362 Y-16.04018
G01 X-15.96634 Y-16.03497
G01 X-16.09946 Y-15.99199
G01 X-16.14391 Y-15.98719
G01 X-16.09946 Y-15.99199
G01 X-15.96634 Y-16.03497
G01 X-15.92362 Y-16.04018
G01 X-15.92369 Y-16.04538
G01 X-15.92362 Y-16.04018
G01 X-15.73941 Y-15.99321
G01 X-15.59598 Y-15.97317
G01 X-9.79899 Y-15.97317
G01 X-9.73397 Y-15.98201
G01 X-9.75296 Y-15.97800
G01 X-9.73755 Y-15.97787
G01 X-9.73397 Y-15.98201
G01 X-9.66320 Y-16.00063
G01 X-9.62944 Y-16.01752
G01 X-9.54616 Y-16.08552
G01 X-9.51639 Y-16.11671
G01 X-9.49307 Y-16.15300
G01 X-9.47704 Y-16.19303
G01 X-9.45736 Y-16.26009
G01 X-9.44816 Y-16.32400
G01 X-9.44816 Y-16.67599
G01 X-9.45335 Y-16.72417
G01 X-9.46455 Y-16.77568
G01 X-9.47562 Y-16.81178
G01 X-9.49251 Y-16.84553
G01 X-9.56056 Y-16.92885
G01 X-9.59175 Y-16.95859
G01 X-9.62802 Y-16.98188
G01 X-9.66805 Y-16.99791
G01 X-9.75863 Y-17.02272
G01 X-9.73892 Y-17.01843
G01 X-9.74247 Y-17.02295
G01 X-9.79899 Y-17.02679
G01 X-11.53043 Y-17.02679
G01 X-11.57336 Y-17.05442
G01 X-11.60724 Y-17.06740
G01 X-11.70589 Y-17.09397
G01 X-11.85385 Y-17.09628
G01 X-11.98400 Y-17.12217
G01 X-12.10661 Y-17.17294
G01 X-12.21697 Y-17.24668
G01 X-15.46931 Y-20.49902
G01 X-15.50789 Y-20.53181
G01 X-15.55852 Y-20.56270
G01 X-15.65346 Y-20.59259
G01 X-15.71737 Y-20.60179
G01 X-21.34133 Y-20.60179
G04 P0 ( dwell for no time -- G64 should not smooth over this point )
G00 Z2.00000 ( retract )

G00 X-27.29725 Y-21.45828 ( rapid move to begin. )
G01 F60.00000
( Mill infeed pass 1/1 )
G01 Z-0.07000
G04 P0 ( dwell for no time -- G64 should not smooth over this point )
G01 F120.00000
G01 X-27.29725 Y-21.45828
G01 X-27.12547 Y-21.30341
G01 X-26.92687 Y-21.14166
G01 X-26.75473 Y-21.01639
G01 X-26.60680 Y-20.91977
G01 X-26.43431 Y-20.82000
G01 X-26.31605 Y-20.75952
G01 X-26.14892 Y-20.68474
G01 X-26.05466 Y-20.64883
G01 X-25.90985 Y-20.60179
G01 X-26.05466 Y-20.64883
G01 X-26.14879 Y-20.68507
G01 X-26.31605 Y-20.75952
G01 X-26.44912 Y-20.82853
G01 X-38.15550 Y-20.82853
G01 X-38.20396 Y-20.82594
G01 X-38.25187 Y-20.81817
G01 X-38.30338 Y-20.80697
G01 X-38.37559 Y-20.78482
G01 X-38.44315 Y-20.75101
G01 X-38.50414 Y-20.70644
G01 X-38.55692 Y-20.66066
G01 X-38.61636 Y-20.59828
G01 X-38.66294 Y-20.52579
G01 X-38.69497 Y-20.44581
G01 X-38.72840 Y-20.31553
G01 X-38.73302 Y-20.25099
G01 X-38.73302 Y-16.32400
G01 X-38.73043 Y-16.27551
G01 X-38.72266 Y-16.22760
G01 X-38.71145 Y-16.17609
G01 X-38.68936 Y-16.10393
G01 X-38.65557 Y-16.03644
G01 X-38.61321 Y-15.97845
G01 X-38.20096 Y-15.97835
G01 X-38.32540 Y-15.98013
G01 X-38.50571 Y-15.97619
G01 X-38.77998 Y-15.98064
G01 X-38.77998 Y-21.82185
G01 X-38.77490 Y-21.82190
G01 X-38.77998 Y-21.82185
G01 X-38.77998 Y-41.77998
G01 X-38.76078 Y-41.97507
G01 X-38.70386 Y-42.16268
G01 X-38.61145 Y-42.33555
G01 X-38.48710 Y-42.48709
G01 X-38.33556 Y-42.61145
G01 X-38.16266 Y-42.70388
G01 X-37.97508 Y-42.76077
G01 X-37.77999 Y-42.77998
G01 X-16.50975 Y-42.77998
G01 X-16.51119 Y-42.38026
G01 X-16.46751 Y-42.32504
G01 X-16.45061 Y-42.29128
G01 X-16.42834 Y-42.20367
G01 X-16.42316 Y-42.15549
G01 X-16.42316 Y-39.67792
G01 X-16.43235 Y-39.61402
G01 X-16.46806 Y-39.50693
G01 X-16.49138 Y-39.47066
G01 X-16.52435 Y-39.43667
G01 X-16.54180 Y-39.20896
G01 X-16.64368 Y-39.11963
G01 X-16.65643 Y-39.11656
G01 X-16.65643 Y-39.10396
G01 X-16.66446 Y-39.10884
G01 X-16.65643 Y-39.10396
G01 X-16.64368 Y-39.11963
G01 X-16.66593 Y-39.08689
G01 X-16.70012 Y-38.96441
G01 X-16.72455 Y-38.85260
G01 X-16.75249 Y-38.67351
G01 X-16.76303 Y-38.57628
G01 X-16.77195 Y-38.40305
G01 X-16.77243 Y-38.30282
G01 X-16.76321 Y-38.12964
G01 X-16.75280 Y-38.02642
G01 X-16.72412 Y-37.84742
G01 X-16.70177 Y-37.74117
G01 X-16.67129 Y-37.62799
G01 X-16.64861 Y-37.58067
G01 X-16.63416 Y-37.57005
G01 X-16.65722 Y-37.59614
G01 X-16.65643 Y-37.58237
G01 X-16.66593 Y-37.57607
G01 X-16.65643 Y-37.58237
G01 X-16.64411 Y-37.57968
G01 X-16.53761 Y-37.48763
G01 X-16.52626 Y-37.26332
G01 X-16.53761 Y-37.48763
G01 X-16.63416 Y-37.57005
G01 X-16.65722 Y-37.59614
G01 X-16.67129 Y-37.62799
G01 X-16.70149 Y-37.74125
G01 X-16.72521 Y-37.85334
G01 X-16.75249 Y-38.02644
G01 X-16.76321 Y-38.12964
G01 X-16.77195 Y-38.29690
G01 X-16.77213 Y-38.39713
G01 X-16.76321 Y-38.57031
G01 X-16.75249 Y-38.67351
G01 X-16.72521 Y-38.84661
G01 X-16.70149 Y-38.95870
G01 X-16.67165 Y-39.07061
G01 X-16.65783 Y-39.10208
G01 X-16.63520 Y-39.12796
G01 X-16.54180 Y-39.20896
G01 X-16.52435 Y-39.43667
G01 X-16.60906 Y-39.36873
G01 X-16.64825 Y-39.35082
G01 X-16.69014 Y-39.34064
G01 X-16.79969 Y-39.32852
G01 X-16.83982 Y-39.33355
G01 X-16.87840 Y-39.34564
G01 X-16.93507 Y-39.36911
G01 X-16.97558 Y-39.39144
G01 X-17.05516 Y-39.42110
G01 X-17.28318 Y-39.42316
G01 X-17.28318 Y-39.37678
G01 X-17.11000 Y-39.37678
G01 X-17.06575 Y-39.37244
G01 X-17.02321 Y-39.35954
G01 X-16.98399 Y-39.33855
G01 X-16.94962 Y-39.31036
G01 X-16.92140 Y-39.27599
G01 X-16.90045 Y-39.23678
G01 X-16.88755 Y-39.19423
G01 X-16.88318 Y-39.14999
G01 X-16.88318 Y-37.54999
G01 X-16.88755 Y-37.50574
G01 X-16.90045 Y-37.46320
G01 X-16.92140 Y-37.42398
G01 X-16.94962 Y-37.38961
G01 X-16.98399 Y-37.36142
G01 X-17.02321 Y-37.34046
G01 X-17.06575 Y-37.32754
G01 X-17.11000 Y-37.32319
G01 X-17.28318 Y-37.32319
G01 X-17.28318 Y-37.27679
G01 X-17.05516 Y-37.27884
G01 X-16.97518 Y-37.30866
G01 X-16.92750 Y-37.33381
G01 X-16.86202 Y-37.35822
G01 X-16.82039 Y-37.36937
G01 X-16.77736 Y-37.37244
G01 X-16.73456 Y-37.36731
G01 X-16.62527 Y-37.33935
G01 X-16.58747 Y-37.31870
G01 X-16.55422 Y-37.29126
G01 X-16.47886 Y-37.21082
G01 X-16.45884 Y-37.17569
G01 X-16.44538 Y-37.13754
G01 X-16.43022 Y-37.07813
G01 X-16.42316 Y-37.02205
G01 X-16.42316 Y-36.21400
G01 X-16.43235 Y-36.15009
G01 X-16.45204 Y-36.08304
G01 X-16.46806 Y-36.04301
G01 X-16.49138 Y-36.00671
G01 X-16.52115 Y-35.97552
G01 X-16.60444 Y-35.90752
G01 X-16.63819 Y-35.89063
G01 X-16.72577 Y-35.86836
G01 X-16.77398 Y-35.86317
G01 X-23.24641 Y-35.86317
G01 X-23.27316 Y-35.83656
G01 X-23.24641 Y-35.86317
G01 X-23.27316 Y-35.86317
G01 X-23.27316 Y-32.71251
G01 X-23.22464 Y-32.60994
G01 X-23.27316 Y-32.46138
G01 X-23.27316 Y-32.71251
G01 X-23.27316 Y-32.00220
G01 X-23.28781 Y-31.81998
G01 X-23.27316 Y-31.63778
G01 X-23.27316 Y-31.17855
G01 X-23.22962 Y-31.04297
G01 X-23.27316 Y-30.95739
G01 X-23.27316 Y-31.17855
G01 X-23.27547 Y-30.65170
G01 X-23.30204 Y-30.55305
G01 X-23.31806 Y-30.51302
G01 X-23.34136 Y-30.47675
G01 X-23.37110 Y-30.44556
G01 X-23.45441 Y-30.37751
G01 X-23.48817 Y-30.36062
G01 X-23.52426 Y-30.34955
G01 X-23.59972 Y-30.33446
G01 X-24.56998 Y-30.33547
G01 X-24.66866 Y-30.36204
G01 X-24.70869 Y-30.37807
G01 X-24.74498 Y-30.40139
G01 X-24.82192 Y-30.48396
G01 X-24.84811 Y-30.52166
G01 X-25.12901 Y-30.80258
G01 X-25.17635 Y-30.79758
G01 X-25.34361 Y-30.79758
G01 X-25.39075 Y-30.80253
G01 X-25.67468 Y-30.51886
G01 X-25.73591 Y-30.43880
G01 X-25.76617 Y-30.40809
G01 X-25.80168 Y-30.38363
G01 X-25.84117 Y-30.36636
G01 X-25.94247 Y-30.33611
G01 X-25.97828 Y-30.33324
G01 X-27.45456 Y-30.33319
G01 X-27.53909 Y-30.29118
G01 X-27.65199 Y-30.33433
G01 X-27.45456 Y-30.33319
G01 X-27.66822 Y-30.33547
G01 X-27.76687 Y-30.36204
G01 X-27.80726 Y-30.37825
G01 X-27.84378 Y-30.40187
G01 X-27.90764 Y-30.46992
G01 X-27.94478 Y-30.49742
G01 X-28.14330 Y-30.60487
G01 X-28.23274 Y-30.64789
G01 X-28.30345 Y-30.67238
G01 X-28.30289 Y-30.67548
G01 X-28.30345 Y-30.67238
G01 X-28.40170 Y-30.67334
G01 X-28.40210 Y-30.67614
G01 X-28.40170 Y-30.67334
G01 X-28.43103 Y-30.66948
G01 X-28.49263 Y-30.64581
G01 X-28.73896 Y-30.51818
G01 X-28.81325 Y-30.46880
G01 X-28.86789 Y-30.40809
G01 X-28.90342 Y-30.38363
G01 X-29.00934 Y-30.34457
G01 X-29.06888 Y-30.33413
G01 X-29.22892 Y-30.27507
G01 X-29.28033 Y-30.24751
G01 X-29.31076 Y-30.21543
G01 X-29.31912 Y-30.22196
G01 X-29.31076 Y-30.21543
G01 X-29.37429 Y-30.05602
G01 X-29.39316 Y-29.99859
G01 X-29.32072 Y-30.19557
G01 X-29.29712 Y-30.23298
G01 X-29.28033 Y-30.24751
G01 X-29.22793 Y-30.27309
G01 X-29.06888 Y-30.33413
G01 X-29.00934 Y-30.34457
G01 X-28.90342 Y-30.38363
G01 X-28.86789 Y-30.40809
G01 X-28.81325 Y-30.46880
G01 X-28.77637 Y-30.49504
G01 X-28.57665 Y-30.60487
G01 X-28.43103 Y-30.66948
G01 X-28.40170 Y-30.67334
G01 X-28.31826 Y-30.67334
G01 X-28.27485 Y-30.66471
G01 X-28.13789 Y-30.60212
G01 X-27.98178 Y-30.51729
G01 X-27.90764 Y-30.46992
G01 X-28.22900 Y-30.79257
G01 X-28.27637 Y-30.78757
G01 X-28.44361 Y-30.78757
G01 X-28.49077 Y-30.79252
G01 X-28.80718 Y-30.47634
G01 X-28.86789 Y-30.40809
G01 X-28.90342 Y-30.38363
G01 X-28.94294 Y-30.36636
G01 X-29.04424 Y-30.33608
G01 X-29.08003 Y-30.33324
G01 X-29.39316 Y-30.33321
G01 X-29.39316 Y-29.64868
G01 X-29.39936 Y-29.58686
G01 X-29.42138 Y-29.49715
G01 X-29.43776 Y-29.30997
G01 X-29.42138 Y-29.12280
G01 X-29.39936 Y-29.03309
G01 X-29.39316 Y-28.97129
G01 X-29.39316 Y-23.16399
G01 X-29.40235 Y-23.10008
G01 X-29.43807 Y-22.99302
G01 X-29.46136 Y-22.95675
G01 X-29.49110 Y-22.92556
G01 X-29.57441 Y-22.85751
G01 X-29.60817 Y-22.84062
G01 X-29.69577 Y-22.81834
G01 X-29.74398 Y-22.81316
G01 X-38.15550 Y-22.81316
G01 X-38.21938 Y-22.82236
G01 X-38.28641 Y-22.84204
G01 X-38.32647 Y-22.85807
G01 X-38.36274 Y-22.88139
G01 X-38.43967 Y-22.96396
G01 X-38.46192 Y-22.99444
G01 X-38.47882 Y-23.02820
G01 X-38.50109 Y-23.11578
G01 X-38.50627 Y-23.16399
G01 X-38.50627 Y-41.77302
G01 X-38.49408 Y-41.90093
G01 X-38.48461 Y-41.94614
G01 X-38.44163 Y-42.07619
G01 X-38.37325 Y-42.19486
G01 X-38.34270 Y-42.23545
G01 X-38.24282 Y-42.33784
G01 X-38.19484 Y-42.37327
G01 X-38.09876 Y-42.42996
G01 X-38.05240 Y-42.45072
G01 X-37.92380 Y-42.49047
G01 X-37.77303 Y-42.50629
G01 X-16.77398 Y-42.50629
G01 X-16.71008 Y-42.49710
G01 X-16.60301 Y-42.46138
G01 X-16.56674 Y-42.43809
G01 X-16.51119 Y-42.38026
G01 X-16.50822 Y-42.66662
G01 X-16.57914 Y-42.69499
G01 X-16.64617 Y-42.71467
G01 X-16.70942 Y-42.72841
G01 X-16.77398 Y-42.73304
G01 X-37.77303 Y-42.73304
G01 X-37.97036 Y-42.71241
G01 X-38.12129 Y-42.66674
G01 X-38.16878 Y-42.64861
G01 X-38.31006 Y-42.56857
G01 X-38.36261 Y-42.53235
G01 X-38.43076 Y-42.47231
G01 X-38.54026 Y-42.35242
G01 X-38.62525 Y-42.21404
G01 X-38.64861 Y-42.16883
G01 X-38.66675 Y-42.12130
G01 X-38.71242 Y-41.97030
G01 X-38.73302 Y-41.77302
G01 X-38.73302 Y-23.16399
G01 X-38.73043 Y-23.11550
G01 X-38.71145 Y-23.01608
G01 X-38.68936 Y-22.94392
G01 X-38.65557 Y-22.87643
G01 X-38.61107 Y-22.81550
G01 X-38.56533 Y-22.76269
G01 X-38.50292 Y-22.70315
G01 X-38.43038 Y-22.65655
G01 X-38.35032 Y-22.62447
G01 X-38.28329 Y-22.60478
G01 X-38.22004 Y-22.59104
G01 X-38.15550 Y-22.58642
G01 X-29.74398 Y-22.58642
G01 X-29.69550 Y-22.58901
G01 X-29.59608 Y-22.60798
G01 X-29.52389 Y-22.63010
G01 X-29.45638 Y-22.66391
G01 X-29.39539 Y-22.70844
G01 X-29.34259 Y-22.75421
G01 X-29.28310 Y-22.81659
G01 X-29.23652 Y-22.88911
G01 X-29.20446 Y-22.96914
G01 X-29.18478 Y-23.03617
G01 X-29.17104 Y-23.09942
G01 X-29.16641 Y-23.16399
G01 X-29.16641 Y-28.10482
G01 X-29.26456 Y-28.29471
G01 X-29.30804 Y-28.39093
G01 X-29.39316 Y-28.62135
G01 X-29.30776 Y-28.39105
G01 X-29.26456 Y-28.29471
G01 X-29.17934 Y-28.12748
G01 X-28.41892 Y-26.80846
G01 X-28.03263 Y-25.87582
G01 X-28.03263 Y-23.16399
G01 X-28.04879 Y-22.93803
G01 X-28.09695 Y-22.71669
G01 X-28.11663 Y-22.64966
G01 X-28.22875 Y-22.36960
G01 X-28.36001 Y-22.16534
G01 X-28.66685 Y-22.03049
G01 X-28.73052 Y-22.00671
G01 X-28.89108 Y-21.95749
G01 X-28.80131 Y-22.02304
G01 X-28.74851 Y-22.06882
G01 X-28.57010 Y-22.25596
G01 X-28.43030 Y-22.47351
G01 X-28.33421 Y-22.71357
G01 X-28.31452 Y-22.78060
G01 X-28.27322 Y-22.97031
G01 X-28.25938 Y-23.16399
G01 X-28.25938 Y-26.42326
G01 X-28.41892 Y-26.80846
G01 X-27.80586 Y-25.32837
G01 X-27.80586 Y-23.16399
G01 X-27.80909 Y-23.11885
G01 X-27.80586 Y-23.16399
G01 X-27.80586 Y-25.32837
G01 X-27.75336 Y-25.20158
G01 X-27.75336 Y-23.51616
G01 X-27.79626 Y-23.18243
G01 X-27.90292 Y-22.65373
G01 X-27.93510 Y-22.53927
G01 X-27.99420 Y-22.36851
G01 X-28.31386 Y-22.18560
G01 X-28.66685 Y-22.03049
G01 X-28.73052 Y-22.00671
G01 X-29.07589 Y-21.90079
G01 X-29.42064 Y-21.84088
G01 X-29.74701 Y-21.82086
G01 X-38.77998 Y-21.82185
G01 X-38.77998 Y-20.75381
G01 X-38.70549 Y-20.83199
G01 X-38.65270 Y-20.87776
G01 X-38.56121 Y-20.94461
G01 X-38.45989 Y-20.99534
G01 X-38.35156 Y-21.02856
G01 X-38.30005 Y-21.03976
G01 X-38.22819 Y-21.05139
G01 X-38.15550 Y-21.05530
G01 X-26.80828 Y-21.05530
G01 X-26.92687 Y-21.14166
G01 X-27.09944 Y-21.28205
G01 X-38.15550 Y-21.28205
G01 X-38.25243 Y-21.27687
G01 X-38.34823 Y-21.26132
G01 X-38.39975 Y-21.25012
G01 X-38.54420 Y-21.20585
G01 X-38.67927 Y-21.13821
G01 X-38.77998 Y-21.06463
G01 X-38.77998 Y-21.34050
G01 X-38.62847 Y-21.41637
G01 X-38.44793 Y-21.47171
G01 X-38.27663 Y-21.50232
G01 X-38.15550 Y-21.50880
G01 X-27.34749 Y-21.50880
G01 X-27.29725 Y-21.45828
G01 X-27.56764 Y-21.73018
G01 X-27.77421 Y-21.96231
G01 X-28.25831 Y-21.96231
G01 X-28.58455 Y-21.81916
G01 X-28.65432 Y-21.79279
G01 X-28.84129 Y-21.73557
G01 X-28.66083 Y-21.79091
G01 X-28.58455 Y-21.81916
G01 X-28.21701 Y-21.98014
G01 X-27.92740 Y-22.14547
G01 X-27.73878 Y-21.92005
G01 X-27.57150 Y-21.73427
G01 X-28.84129 Y-21.73557
G01 X-29.02994 Y-21.67821
G01 X-29.38539 Y-21.61649
G01 X-29.45148 Y-21.60966
G01 X-29.74396 Y-21.59399
G01 X-38.61910 Y-21.59602
G01 X-38.77998 Y-21.59323
G01 X-38.77620 Y-21.59511
G01 X-38.77998 Y-21.59508
G01 X-38.77998 Y-22.66414
G01 X-38.73673 Y-22.61420
G01 X-38.64310 Y-22.52492
G01 X-38.53429 Y-22.45500
G01 X-38.41422 Y-22.40691
G01 X-38.34719 Y-22.38723
G01 X-38.25232 Y-22.36658
G01 X-38.15550 Y-22.35965
G01 X-29.74398 Y-22.35965
G01 X-29.67126 Y-22.36356
G01 X-29.54790 Y-22.38639
G01 X-29.43962 Y-22.41959
G01 X-29.33835 Y-22.47029
G01 X-29.24688 Y-22.53709
G01 X-29.19407 Y-22.58286
G01 X-29.10484 Y-22.67643
G01 X-29.03497 Y-22.78522
G01 X-28.98691 Y-22.90524
G01 X-28.96723 Y-22.97227
G01 X-28.94658 Y-23.06714
G01 X-28.93964 Y-23.16399
G01 X-28.93964 Y-27.71524
G01 X-28.48615 Y-26.92550
G01 X-28.48615 Y-23.16399
G01 X-28.49768 Y-23.00260
G01 X-28.53207 Y-22.84448
G01 X-28.55176 Y-22.77745
G01 X-28.63185 Y-22.57742
G01 X-28.74836 Y-22.39612
G01 X-28.89702 Y-22.24016
G01 X-28.94983 Y-22.19439
G01 X-29.10228 Y-22.08306
G01 X-29.27106 Y-21.99856
G01 X-29.45153 Y-21.94324
G01 X-29.62283 Y-21.91263
G01 X-29.74398 Y-21.90615
G01 X-38.15550 Y-21.90615
G01 X-38.31687 Y-21.91769
G01 X-38.47498 Y-21.95208
G01 X-38.54201 Y-21.97176
G01 X-38.74214 Y-22.05190
G01 X-38.77998 Y-22.07623
G01 X-38.77998 Y-22.34456
G01 X-38.63823 Y-22.25345
G01 X-38.47810 Y-22.18934
G01 X-38.41107 Y-22.16965
G01 X-38.28461 Y-22.14215
G01 X-38.15550 Y-22.13290
G01 X-29.74398 Y-22.13290
G01 X-29.64703 Y-22.13808
G01 X-29.55122 Y-22.15363
G01 X-29.49971 Y-22.16483
G01 X-29.35534 Y-22.20907
G01 X-29.22031 Y-22.27666
G01 X-29.09834 Y-22.36574
G01 X-29.04553 Y-22.41151
G01 X-28.92661 Y-22.53628
G01 X-28.83342 Y-22.68131
G01 X-28.76934 Y-22.84136
G01 X-28.74965 Y-22.90839
G01 X-28.72214 Y-23.03485
G01 X-28.71290 Y-23.16399
G01 X-28.71290 Y-27.32037
G04 P0 ( dwell for no time -- G64 should not smooth over this point )
G00 Z2.00000 ( retract )

G00 X-30.18678 Y-27.23566 ( rapid move to begin. )
G01 F60.00000
( Mill infeed pass 1/1 )
G01 Z-0.07000
G04 P0 ( dwell for no time -- G64 should not smooth over this point )
G01 F120.00000
G01 X-30.18678 Y-27.23566
G01 X-30.18678 Y-26.47676
G01 X-30.23319 Y-26.47676
G01 X-30.23319 Y-27.20000
G01 X-30.23756 Y-27.24424
G01 X-30.25046 Y-27.28679
G01 X-30.27142 Y-27.32598
G01 X-30.29961 Y-27.36035
G01 X-30.33398 Y-27.38857
G01 X-30.37319 Y-27.40952
G01 X-30.41574 Y-27.42242
G01 X-30.45998 Y-27.42679
G01 X-31.63316 Y-27.42679
G01 X-31.63316 Y-27.47317
G01 X-30.40520 Y-27.47114
G01 X-30.32770 Y-27.44221
G01 X-30.26479 Y-27.39512
G01 X-30.21772 Y-27.33225
G01 X-30.18884 Y-27.25478
G01 X-30.18678 Y-27.23566
G04 P0 ( dwell for no time -- G64 should not smooth over this point )
G00 Z2.00000 ( retract )

G00 X-30.18678 Y-25.22317 ( rapid move to begin. )
G01 F60.00000
( Mill infeed pass 1/1 )
G01 Z-0.07000
G04 P0 ( dwell for no time -- G64 should not smooth over this point )
G01 F120.00000
G01 X-30.18678 Y-25.22317
G01 X-30.18884 Y-24.44516
G01 X-30.21772 Y-24.36769
G01 X-30.26479 Y-24.30483
G01 X-30.32770 Y-24.25774
G01 X-30.40520 Y-24.22881
G01 X-30.42427 Y-24.22677
