( pcb2gcode 2.5.0 )
( Software-independent Gcode )

( This file uses 4 drill bit sizes. )
( Bit sizes: [0.8mm] [1mm] [1.2mm] [1.6mm] )

G94       (Millimeters per minute feed rate.)
G21       (Units == Millimeters.)
G91.1     (Incremental arc distance mode.)
G90       (Absolute coordinates.)
G00 S13000     (RPM spindle speed.)

G00 Z15.00000 (Retract)
T1
M5      (Spindle stop.)
G04 P1.00000
(MSG, Change tool bit to drill size 0.8mm)
M6      (Tool change.)
M0      (Temporary machine stop.)
M3      (Spindle on clockwise.)
G0 Z2.00000
G04 P1.00000

G1 F120.00000
G0 X-13.41882 Y-13.67028
G1 Z-2.50000
G1 Z2.00000
G0 X-22.20976 Y-21.66112
G1 Z-2.50000
G1 Z2.00000
G0 X-25.26030 Y-21.66112
G1 Z-2.50000
G1 Z2.00000
G0 X-28.35910 Y-29.30906
G1 Z-2.50000
G1 Z2.00000
G0 X-28.35910 Y-31.81096
G1 Z-2.50000
G1 Z2.00000
G0 X-25.26030 Y-31.82112
G1 Z-2.50000
G1 Z2.00000
G0 X-22.20976 Y-31.82112
G1 Z-2.50000
G1 Z2.00000
G0 X-17.90954 Y-38.34892
G1 Z-2.50000
G1 Z2.00000
G0 X-15.41018 Y-38.34892
G1 Z-2.50000
G1 Z2.00000
G0 X-13.41882 Y-23.83028
G1 Z-2.50000
G1 Z2.00000

G00 Z15.00000 (Retract)
T2
M5      (Spindle stop.)
G04 P1.00000
(MSG, Change tool bit to drill size 1mm)
M6      (Tool change.)
M0      (Temporary machine stop.)
M3      (Spindle on clockwise.)
G0 Z2.00000
G04 P1.00000

G1 F120.00000
G0 X-3.81000 Y-3.79984
G1 Z-2.50000
G1 Z2.00000
G0 X-6.35000 Y-3.79984
G1 Z-2.50000
G1 Z2.00000
G0 X-8.89000 Y-3.79984
G1 Z-2.50000
G1 Z2.00000
G0 X-11.43000 Y-3.79984
G1 Z-2.50000
G1 Z2.00000
G0 X-21.88972 Y-3.79984
G1 Z-2.50000
G1 Z2.00000
G0 X-24.42972 Y-3.79984
G1 Z-2.50000
G1 Z2.00000
G0 X-26.96972 Y-3.79984
G1 Z-2.50000
G1 Z2.00000
G0 X-29.50972 Y-3.79984
G1 Z-2.50000
G1 Z2.00000
G0 X-3.81000 Y-39.96944
G1 Z-2.50000
G1 Z2.00000
G0 X-6.35000 Y-39.96944
G1 Z-2.50000
G1 Z2.00000
G0 X-8.89000 Y-39.96944
G1 Z-2.50000
G1 Z2.00000
G0 X-11.43000 Y-39.96944
G1 Z-2.50000
G1 Z2.00000
G0 X-21.88972 Y-39.96944
G1 Z-2.50000
G1 Z2.00000
G0 X-24.42972 Y-39.96944
G1 Z-2.50000
G1 Z2.00000
G0 X-26.96972 Y-39.96944
G1 Z-2.50000
G1 Z2.00000
G0 X-29.50972 Y-39.96944
G1 Z-2.50000
G1 Z2.00000

G00 Z15.00000 (Retract)
T3
M5      (Spindle stop.)
G04 P1.00000
(MSG, Change tool bit to drill size 1.2mm)
M6      (Tool change.)
M0      (Temporary machine stop.)
M3      (Spindle on clockwise.)
G0 Z2.00000
G04 P1.00000

G1 F120.00000
G0 X-4.16052 Y-9.11352
G1 Z-2.50000
G1 Z2.00000
G0 X-29.15920 Y-9.11352
G1 Z-2.50000
G1 Z2.00000

G00 Z15.00000 (Retract)
T4
M5      (Spindle stop.)
G04 P1.00000
(MSG, Change tool bit to drill size 1.6mm)
M6      (Tool change.)
M0      (Temporary machine stop.)
M3      (Spindle on clockwise.)
G0 Z2.00000
G04 P1.00000

G1 F120.00000
G0 X-17.82064 Y-17.80032
G1 Z-2.50000
G1 Z2.00000
G0 X-17.82064 Y-33.04032
G1 Z-2.50000
G1 Z2.00000

G00 Z15.000 ( All done -- retract )

M5      (Spindle off.)
G04 P1.000000
M9      (Coolant off.)
M2      (Program end.)

