( pcb2gcode 2.5.0 )
( Software-independent Gcode )

G94 ( Millimeters per minute feed rate. )
G21 ( Units == Millimeters. )

G90 ( Absolute coordinates. )
G00 S13000 ( RPM spindle speed. )
G01 F120.00000 ( Feedrate. )


G00 Z15.00000 (Retract to tool change height)
T0
M5      (Spindle stop.)
G04 P1.00000 (Wait for spindle to stop)
(MSG, Change tool bit to cutter diameter 1.00000mm)
M6      (Tool change.)
M0      (Temporary machine stop.)
M3 ( Spindle on clockwise. )
G04 P1.00000 (Wait for spindle to get up to speed)
G04 P0 ( dwell for no time -- G64 should not smooth over this point )
G00 Z2.00000 ( retract )

G00 X-0.49997 Y-41.77998 ( rapid move to begin. )
G01 Z-0.50000 F60.00000 ( plunge. )
G04 P0 ( dwell for no time -- G64 should not smooth over this point )
G01 F120.00000
G01 X-0.49997 Y-2.00000
G01 X-0.52878 Y-1.70736
G01 X-0.61415 Y-1.42593
G01 X-0.72758 Y-1.20866
G01 X-0.78202 Y-1.12723
G01 X-0.93932 Y-0.93932
G01 X-1.12723 Y-0.78202
G01 X-1.20866 Y-0.72758
G01 X-1.42593 Y-0.61415
G01 X-1.70736 Y-0.52878
G01 X-2.00000 Y-0.49997
G01 X-37.77999 Y-0.49997
G01 X-38.07259 Y-0.52880
G01 X-38.35400 Y-0.61415
G01 X-38.57127 Y-0.72756
G01 X-38.65273 Y-0.78202
G01 X-38.84064 Y-0.93932
G01 X-38.99794 Y-1.12723
G01 X-39.05240 Y-1.20871
G01 X-39.14480 Y-1.38158
G01 X-39.18232 Y-1.47211
G01 X-39.25115 Y-1.70734
G01 X-39.27998 Y-2.00000
G01 X-39.27998 Y-41.77998
G01 X-39.25115 Y-42.07261
G01 X-39.18232 Y-42.30784
G01 X-39.14480 Y-42.39837
G01 X-39.05240 Y-42.57124
G01 X-38.99794 Y-42.65272
G01 X-38.84064 Y-42.84063
G01 X-38.65273 Y-42.99793
G01 X-38.57127 Y-43.05239
G01 X-38.35400 Y-43.16580
G01 X-38.07259 Y-43.25115
G01 X-37.77999 Y-43.27997
G01 X-2.00000 Y-43.27997
G01 X-1.70736 Y-43.25117
G01 X-1.42593 Y-43.16580
G01 X-1.20866 Y-43.05236
G01 X-1.12723 Y-42.99793
G01 X-0.93932 Y-42.84063
G01 X-0.78202 Y-42.65272
G01 X-0.72758 Y-42.57129
G01 X-0.61415 Y-42.35402
G01 X-0.52878 Y-42.07259
G01 X-0.49997 Y-41.77998
G01 Z-1.00000 F60.00000 ( plunge. )
G04 P0 ( dwell for no time -- G64 should not smooth over this point )
G01 F120.00000
G01 X-0.49997 Y-2.00000
G01 X-0.52878 Y-1.70736
G01 X-0.61415 Y-1.42593
G01 X-0.72758 Y-1.20866
G01 X-0.78202 Y-1.12723
G01 X-0.93932 Y-0.93932
G01 X-1.12723 Y-0.78202
G01 X-1.20866 Y-0.72758
G01 X-1.42593 Y-0.61415
G01 X-1.70736 Y-0.52878
G01 X-2.00000 Y-0.49997
G01 X-37.77999 Y-0.49997
G01 X-38.07259 Y-0.52880
G01 X-38.35400 Y-0.61415
G01 X-38.57127 Y-0.72756
G01 X-38.65273 Y-0.78202
G01 X-38.84064 Y-0.93932
G01 X-38.99794 Y-1.12723
G01 X-39.05240 Y-1.20871
G01 X-39.14480 Y-1.38158
G01 X-39.18232 Y-1.47211
G01 X-39.25115 Y-1.70734
G01 X-39.27998 Y-2.00000
G01 X-39.27998 Y-41.77998
G01 X-39.25115 Y-42.07261
G01 X-39.18232 Y-42.30784
G01 X-39.14480 Y-42.39837
G01 X-39.05240 Y-42.57124
G01 X-38.99794 Y-42.65272
G01 X-38.84064 Y-42.84063
G01 X-38.65273 Y-42.99793
G01 X-38.57127 Y-43.05239
G01 X-38.35400 Y-43.16580
G01 X-38.07259 Y-43.25115
G01 X-37.77999 Y-43.27997
G01 X-2.00000 Y-43.27997
G01 X-1.70736 Y-43.25117
G01 X-1.42593 Y-43.16580
G01 X-1.20866 Y-43.05236
G01 X-1.12723 Y-42.99793
G01 X-0.93932 Y-42.84063
G01 X-0.78202 Y-42.65272
G01 X-0.72758 Y-42.57129
G01 X-0.61415 Y-42.35402
G01 X-0.52878 Y-42.07259
G01 X-0.49997 Y-41.77998
G01 Z-1.50000 F60.00000 ( plunge. )
G04 P0 ( dwell for no time -- G64 should not smooth over this point )
G01 F120.00000
G01 X-0.49997 Y-2.00000
G01 X-0.52878 Y-1.70736
G01 X-0.61415 Y-1.42593
G01 X-0.72758 Y-1.20866
G01 X-0.78202 Y-1.12723
G01 X-0.93932 Y-0.93932
G01 X-1.12723 Y-0.78202
G01 X-1.20866 Y-0.72758
G01 X-1.42593 Y-0.61415
G01 X-1.70736 Y-0.52878
G01 X-2.00000 Y-0.49997
G01 X-37.77999 Y-0.49997
G01 X-38.07259 Y-0.52880
G01 X-38.35400 Y-0.61415
G01 X-38.57127 Y-0.72756
G01 X-38.65273 Y-0.78202
G01 X-38.84064 Y-0.93932
G01 X-38.99794 Y-1.12723
G01 X-39.05240 Y-1.20871
G01 X-39.14480 Y-1.38158
G01 X-39.18232 Y-1.47211
G01 X-39.25115 Y-1.70734
G01 X-39.27998 Y-2.00000
G01 X-39.27998 Y-41.77998
G01 X-39.25115 Y-42.07261
G01 X-39.18232 Y-42.30784
G01 X-39.14480 Y-42.39837
G01 X-39.05240 Y-42.57124
G01 X-38.99794 Y-42.65272
G01 X-38.84064 Y-42.84063
G01 X-38.65273 Y-42.99793
G01 X-38.57127 Y-43.05239
G01 X-38.35400 Y-43.16580
G01 X-38.07259 Y-43.25115
G01 X-37.77999 Y-43.27997
G01 X-2.00000 Y-43.27997
G01 X-1.70736 Y-43.25117
G01 X-1.42593 Y-43.16580
G01 X-1.20866 Y-43.05236
G01 X-1.12723 Y-42.99793
G01 X-0.93932 Y-42.84063
G01 X-0.78202 Y-42.65272
G01 X-0.72758 Y-42.57129
G01 X-0.61415 Y-42.35402
G01 X-0.52878 Y-42.07259
G01 X-0.49997 Y-41.77998
G01 Z-2.00000 F60.00000 ( plunge. )
G04 P0 ( dwell for no time -- G64 should not smooth over this point )
G01 F120.00000
G01 X-0.49997 Y-2.00000
G01 X-0.52878 Y-1.70736
G01 X-0.61415 Y-1.42593
G01 X-0.72758 Y-1.20866
G01 X-0.78202 Y-1.12723
G01 X-0.93932 Y-0.93932
G01 X-1.12723 Y-0.78202
G01 X-1.20866 Y-0.72758
G01 X-1.42593 Y-0.61415
G01 X-1.70736 Y-0.52878
G01 X-2.00000 Y-0.49997
G01 X-37.77999 Y-0.49997
G01 X-38.07259 Y-0.52880
G01 X-38.35400 Y-0.61415
G01 X-38.57127 Y-0.72756
G01 X-38.65273 Y-0.78202
G01 X-38.84064 Y-0.93932
G01 X-38.99794 Y-1.12723
G01 X-39.05240 Y-1.20871
G01 X-39.14480 Y-1.38158
G01 X-39.18232 Y-1.47211
G01 X-39.25115 Y-1.70734
G01 X-39.27998 Y-2.00000
G01 X-39.27998 Y-41.77998
G01 X-39.25115 Y-42.07261
G01 X-39.18232 Y-42.30784
G01 X-39.14480 Y-42.39837
G01 X-39.05240 Y-42.57124
G01 X-38.99794 Y-42.65272
G01 X-38.84064 Y-42.84063
G01 X-38.65273 Y-42.99793
G01 X-38.57127 Y-43.05239
G01 X-38.35400 Y-43.16580
G01 X-38.07259 Y-43.25115
G01 X-37.77999 Y-43.27997
G01 X-2.00000 Y-43.27997
G01 X-1.70736 Y-43.25117
G01 X-1.42593 Y-43.16580
G01 X-1.20866 Y-43.05236
G01 X-1.12723 Y-42.99793
G01 X-0.93932 Y-42.84063
G01 X-0.78202 Y-42.65272
G01 X-0.72758 Y-42.57129
G01 X-0.61415 Y-42.35402
G01 X-0.52878 Y-42.07259
G01 X-0.49997 Y-41.77998
G01 Z-2.50000 F60.00000 ( plunge. )
G04 P0 ( dwell for no time -- G64 should not smooth over this point )
G01 F120.00000
G01 X-0.49997 Y-2.00000
G01 X-0.52878 Y-1.70736
G01 X-0.61415 Y-1.42593
G01 X-0.72758 Y-1.20866
G01 X-0.78202 Y-1.12723
G01 X-0.93932 Y-0.93932
G01 X-1.12723 Y-0.78202
G01 X-1.20866 Y-0.72758
G01 X-1.42593 Y-0.61415
G01 X-1.70736 Y-0.52878
G01 X-2.00000 Y-0.49997
G01 X-37.77999 Y-0.49997
G01 X-38.07259 Y-0.52880
G01 X-38.35400 Y-0.61415
G01 X-38.57127 Y-0.72756
G01 X-38.65273 Y-0.78202
G01 X-38.84064 Y-0.93932
G01 X-38.99794 Y-1.12723
G01 X-39.05240 Y-1.20871
G01 X-39.14480 Y-1.38158
G01 X-39.18232 Y-1.47211
G01 X-39.25115 Y-1.70734
G01 X-39.27998 Y-2.00000
G01 X-39.27998 Y-41.77998
G01 X-39.25115 Y-42.07261
G01 X-39.18232 Y-42.30784
G01 X-39.14480 Y-42.39837
G01 X-39.05240 Y-42.57124
G01 X-38.99794 Y-42.65272
G01 X-38.84064 Y-42.84063
G01 X-38.65273 Y-42.99793
G01 X-38.57127 Y-43.05239
G01 X-38.35400 Y-43.16580
G01 X-38.07259 Y-43.25115
G01 X-37.77999 Y-43.27997
G01 X-2.00000 Y-43.27997
G01 X-1.70736 Y-43.25117
G01 X-1.42593 Y-43.16580
G01 X-1.20866 Y-43.05236
G01 X-1.12723 Y-42.99793
G01 X-0.93932 Y-42.84063
G01 X-0.78202 Y-42.65272
G01 X-0.72758 Y-42.57129
G01 X-0.61415 Y-42.35402
G01 X-0.52878 Y-42.07259
G01 X-0.49997 Y-41.77998

G04 P0 ( dwell for no time -- G64 should not smooth over this point )
G00 Z15.000000 ( retract )

M5 ( Spindle off. )
G04 P1.000000
M9 ( Coolant off. )
M2 ( Program end. )

