( pcb2gcode 2.5.0 )
( Software-independent Gcode )

G94 ( Millimeters per minute feed rate. )
G21 ( Units == Millimeters. )

G90 ( Absolute coordinates. )
G00 S13000 ( RPM spindle speed. )
G01 F120.00000 ( Feedrate. )


G00 Z15.00000 (Retract to tool change height)
T0
M5      (Spindle stop.)
G04 P1.00000 (Wait for spindle to stop)
(MSG, Change tool bit to mill diameter 0.45360mm)
M6      (Tool change.)
M0      (Temporary machine stop.)
M3 ( Spindle on clockwise. )
G04 P1.00000 (Wait for spindle to get up to speed)
G04 P0 ( dwell for no time -- G64 should not smooth over this point )
G00 Z2.00000 ( retract )

G00 X-12.65331 Y-3.96387 ( rapid move to begin. )
G01 F60.00000
( Mill infeed pass 1/1 )
G01 Z-0.10000
G04 P0 ( dwell for no time -- G64 should not smooth over this point )
G01 F120.00000
G01 X-12.65331 Y-3.96387
G01 X-12.81575 Y-3.93677
G01 X-13.01018 Y-3.93677
G01 X-13.17262 Y-3.96387
G01 X-13.12720 Y-4.00931
G01 X-13.05636 Y-3.99354
G01 X-13.00706 Y-3.98813
G01 X-12.79408 Y-3.98948
G01 X-12.69876 Y-4.00931
G01 X-12.65331 Y-3.96387
G04 P0 ( dwell for no time -- G64 should not smooth over this point )
G00 Z2.00000 ( retract )

G00 X-11.73574 Y-5.10997 ( rapid move to begin. )
G01 F60.00000
( Mill infeed pass 1/1 )
G01 Z-0.10000
G04 P0 ( dwell for no time -- G64 should not smooth over this point )
G01 F120.00000
G01 X-11.73574 Y-5.10997
G01 X-11.75182 Y-5.30375
G01 X-11.76818 Y-5.36834
G01 X-11.80828 Y-5.32826
G01 X-11.78618 Y-5.11000
G01 X-11.80828 Y-4.89171
G01 X-11.76818 Y-4.85160
G01 X-11.75182 Y-4.91620
G01 X-11.73574 Y-5.10997
G04 P0 ( dwell for no time -- G64 should not smooth over this point )
G00 Z2.00000 ( retract )

G00 X-12.65331 Y-6.25607 ( rapid move to begin. )
G01 F60.00000
( Mill infeed pass 1/1 )
G01 Z-0.10000
G04 P0 ( dwell for no time -- G64 should not smooth over this point )
G01 F120.00000
G01 X-12.65331 Y-6.25607
G01 X-12.69873 Y-6.21066
G01 X-12.76957 Y-6.22643
G01 X-12.81890 Y-6.23186
G01 X-13.03185 Y-6.23049
G01 X-13.12720 Y-6.21066
G01 X-13.17262 Y-6.25607
G01 X-13.01018 Y-6.28317
G01 X-12.81575 Y-6.28317
G01 X-12.65331 Y-6.25607
G04 P0 ( dwell for no time -- G64 should not smooth over this point )
G00 Z2.00000 ( retract )

G00 X-14.01770 Y-5.32828 ( rapid move to begin. )
G01 F60.00000
( Mill infeed pass 1/1 )
G01 Z-0.10000
G04 P0 ( dwell for no time -- G64 should not smooth over this point )
G01 F120.00000
G01 X-14.01770 Y-5.32828
G01 X-14.03980 Y-5.11000
G01 X-14.01770 Y-4.89168
G01 X-14.05778 Y-4.85160
G01 X-14.07414 Y-4.91620
G01 X-14.09019 Y-5.10997
G01 X-14.07414 Y-5.30375
G01 X-14.05778 Y-5.36837
G01 X-14.01770 Y-5.32828
G04 P0 ( dwell for no time -- G64 should not smooth over this point )
G00 Z2.00000 ( retract )

G00 X-12.65331 Y-11.01387 ( rapid move to begin. )
G01 F60.00000
( Mill infeed pass 1/1 )
G01 Z-0.10000
G04 P0 ( dwell for no time -- G64 should not smooth over this point )
G01 F120.00000
G01 X-12.65331 Y-11.01387
G01 X-12.69876 Y-11.05931
G01 X-12.76957 Y-11.04354
G01 X-12.81890 Y-11.03813
G01 X-13.03185 Y-11.03947
G01 X-13.12720 Y-11.05931
G01 X-13.17262 Y-11.01387
G01 X-13.01021 Y-10.98680
G01 X-12.81575 Y-10.98680
G01 X-12.65331 Y-11.01387
G04 P0 ( dwell for no time -- G64 should not smooth over this point )
G00 Z2.00000 ( retract )

G00 X-11.73574 Y-12.16000 ( rapid move to begin. )
G01 F60.00000
( Mill infeed pass 1/1 )
G01 Z-0.10000
G04 P0 ( dwell for no time -- G64 should not smooth over this point )
G01 F120.00000
G01 X-11.73574 Y-12.16000
G01 X-11.75182 Y-12.35375
G01 X-11.76818 Y-12.41834
G01 X-11.80828 Y-12.37826
G01 X-11.78618 Y-12.16000
G01 X-11.80828 Y-11.94171
G01 X-11.76818 Y-11.90160
G01 X-11.75182 Y-11.96622
G01 X-11.73574 Y-12.16000
G04 P0 ( dwell for no time -- G64 should not smooth over this point )
G00 Z2.00000 ( retract )

G00 X-12.65331 Y-13.30607 ( rapid move to begin. )
G01 F60.00000
( Mill infeed pass 1/1 )
G01 Z-0.10000
G04 P0 ( dwell for no time -- G64 should not smooth over this point )
G01 F120.00000
G01 X-12.65331 Y-13.30607
G01 X-12.69873 Y-13.26065
G01 X-12.76957 Y-13.27643
G01 X-12.81890 Y-13.28186
G01 X-13.03185 Y-13.28049
G01 X-13.12720 Y-13.26065
G01 X-13.17262 Y-13.30607
G01 X-13.01018 Y-13.33317
G01 X-12.81575 Y-13.33317
G01 X-12.65331 Y-13.30607
G04 P0 ( dwell for no time -- G64 should not smooth over this point )
G00 Z2.00000 ( retract )

G00 X-14.01770 Y-12.37828 ( rapid move to begin. )
G01 F60.00000
( Mill infeed pass 1/1 )
G01 Z-0.10000
G04 P0 ( dwell for no time -- G64 should not smooth over this point )
G01 F120.00000
G01 X-14.01770 Y-12.37828
G01 X-14.03980 Y-12.16000
G01 X-14.01770 Y-11.94168
G01 X-14.05778 Y-11.90160
G01 X-14.07414 Y-11.96622
G01 X-14.09019 Y-12.16000
G01 X-14.07414 Y-12.35375
G01 X-14.05778 Y-12.41836
G01 X-14.01770 Y-12.37828
G04 P0 ( dwell for no time -- G64 should not smooth over this point )
G00 Z2.00000 ( retract )

G00 X-12.65331 Y-18.06387 ( rapid move to begin. )
G01 F60.00000
( Mill infeed pass 1/1 )
G01 Z-0.10000
G04 P0 ( dwell for no time -- G64 should not smooth over this point )
G01 F120.00000
G01 X-12.65331 Y-18.06387
G01 X-12.69876 Y-18.10931
G01 X-12.76957 Y-18.09354
G01 X-12.81890 Y-18.08813
G01 X-13.03185 Y-18.08947
G01 X-13.12720 Y-18.10931
G01 X-13.17262 Y-18.06387
G01 X-13.01021 Y-18.03679
G01 X-12.81575 Y-18.03679
G01 X-12.65331 Y-18.06387
G04 P0 ( dwell for no time -- G64 should not smooth over this point )
G00 Z2.00000 ( retract )

G00 X-14.01770 Y-19.42828 ( rapid move to begin. )
G01 F60.00000
( Mill infeed pass 1/1 )
G01 Z-0.10000
G04 P0 ( dwell for no time -- G64 should not smooth over this point )
G01 F120.00000
G01 X-14.01770 Y-19.42828
G01 X-14.05778 Y-19.46836
G01 X-14.07414 Y-19.40375
G01 X-14.09019 Y-19.20999
G01 X-14.07414 Y-19.01622
G01 X-14.05778 Y-18.95160
G01 X-14.01770 Y-18.99168
G01 X-14.03980 Y-19.20999
G01 X-14.01770 Y-19.42828
G04 P0 ( dwell for no time -- G64 should not smooth over this point )
G00 Z2.00000 ( retract )

G00 X-12.65331 Y-20.35607 ( rapid move to begin. )
G01 F60.00000
( Mill infeed pass 1/1 )
G01 Z-0.10000
G04 P0 ( dwell for no time -- G64 should not smooth over this point )
G01 F120.00000
G01 X-12.65331 Y-20.35607
G01 X-12.81575 Y-20.38317
G01 X-13.01018 Y-20.38317
G01 X-13.17262 Y-20.35607
G01 X-13.12720 Y-20.31065
G01 X-13.05636 Y-20.32643
G01 X-13.00706 Y-20.33186
G01 X-12.79408 Y-20.33049
G01 X-12.69873 Y-20.31065
G01 X-12.65331 Y-20.35607
G04 P0 ( dwell for no time -- G64 should not smooth over this point )
G00 Z2.00000 ( retract )

G00 X-11.73574 Y-19.20999 ( rapid move to begin. )
G01 F60.00000
( Mill infeed pass 1/1 )
G01 Z-0.10000
G04 P0 ( dwell for no time -- G64 should not smooth over this point )
G01 F120.00000
G01 X-11.73574 Y-19.20999
G01 X-11.75182 Y-19.01622
G01 X-11.76818 Y-18.95160
G01 X-11.80828 Y-18.99171
G01 X-11.78618 Y-19.20999
G01 X-11.80828 Y-19.42826
G01 X-11.76818 Y-19.46834
G01 X-11.75182 Y-19.40375
G01 X-11.73574 Y-19.20999
G04 P0 ( dwell for no time -- G64 should not smooth over this point )
G00 Z2.00000 ( retract )

G00 X-5.38284 Y-16.33134 ( rapid move to begin. )
G01 F60.00000
( Mill infeed pass 1/1 )
G01 Z-0.10000
G04 P0 ( dwell for no time -- G64 should not smooth over this point )
G01 F120.00000
G01 X-5.38284 Y-16.33134
G01 X-4.80101 Y-16.91317
G01 X-4.68828 Y-16.91317
G01 X-4.62051 Y-16.83977
G01 X-4.45831 Y-16.72039
G01 X-4.41724 Y-16.69666
G01 X-4.25491 Y-16.62440
G01 X-4.20980 Y-16.60975
G01 X-4.03598 Y-16.57279
G01 X-3.98884 Y-16.56784
G01 X-3.78742 Y-16.56908
G01 X-3.56723 Y-16.61589
G01 X-3.36159 Y-16.70746
G01 X-3.17947 Y-16.83977
G01 X-3.02885 Y-17.00705
G01 X-2.91628 Y-17.20202
G01 X-2.84673 Y-17.41612
G01 X-2.82443 Y-17.61627
G01 X-2.82443 Y-17.66369
G01 X-2.84300 Y-17.84043
G01 X-2.85285 Y-17.88681
G01 X-2.91628 Y-18.07797
G01 X-3.01592 Y-18.25300
G01 X-3.04378 Y-18.29135
G01 X-3.17947 Y-18.44020
G01 X-3.34167 Y-18.55960
G01 X-3.38275 Y-18.58330
G01 X-3.54508 Y-18.65559
G01 X-3.59016 Y-18.67022
G01 X-3.64381 Y-18.68165
G01 X-3.75336 Y-18.79658
G01 X-4.04851 Y-18.79658
G01 X-4.15775 Y-18.68129
G01 X-4.03598 Y-18.70718
G01 X-3.98884 Y-18.71213
G01 X-3.78742 Y-18.71088
G01 X-3.64381 Y-18.68165
G01 X-3.78742 Y-18.71088
G01 X-3.98884 Y-18.71213
G01 X-4.03598 Y-18.70718
G01 X-4.20980 Y-18.67022
G01 X-4.25491 Y-18.65559
G01 X-4.43840 Y-18.57253
G01 X-4.62051 Y-18.44020
G01 X-4.68828 Y-18.36679
G01 X-5.10207 Y-18.36679
G01 X-5.19808 Y-18.35993
G01 X-5.23321 Y-18.35437
G01 X-5.34337 Y-18.32506
G01 X-5.44756 Y-18.27886
G01 X-5.54325 Y-18.21696
G01 X-5.61599 Y-18.15391
G01 X-8.34690 Y-15.42298
G01 X-8.42401 Y-15.33070
G01 X-8.44873 Y-15.29375
G01 X-8.49493 Y-15.20731
G01 X-8.51195 Y-15.16624
G01 X-8.54039 Y-15.07244
G01 X-8.54906 Y-15.02882
G01 X-8.55868 Y-14.93129
G01 X-8.55977 Y-13.01864
G01 X-8.60374 Y-12.98057
G01 X-8.74458 Y-12.82230
G01 X-8.85160 Y-12.63945
G01 X-8.87087 Y-12.59614
G01 X-8.93516 Y-12.39426
G01 X-8.95855 Y-12.18369
G01 X-8.95855 Y-12.13627
G01 X-8.93887 Y-11.94915
G01 X-8.92901 Y-11.90277
G01 X-8.86236 Y-11.70168
G01 X-8.75751 Y-11.51758
G01 X-8.72965 Y-11.47923
G01 X-8.60374 Y-11.33940
G01 X-8.56851 Y-11.30767
G01 X-8.39638 Y-11.18415
G01 X-8.20336 Y-11.09685
G01 X-8.15825 Y-11.08220
G01 X-7.95076 Y-11.03935
G01 X-7.71520 Y-11.03935
G01 X-7.48480 Y-11.08834
G01 X-7.29074 Y-11.17338
G01 X-7.24967 Y-11.19708
G01 X-7.09747 Y-11.30767
G01 X-7.06222 Y-11.33940
G01 X-6.92140 Y-11.49767
G01 X-6.81439 Y-11.68052
G01 X-6.79508 Y-11.72383
G01 X-6.73082 Y-11.92571
G01 X-6.70618 Y-12.16000
G01 X-6.73082 Y-12.39426
G01 X-6.80359 Y-12.61829
G01 X-6.92140 Y-12.82230
G01 X-7.06222 Y-12.98057
G01 X-7.10616 Y-13.01862
G01 X-7.10616 Y-14.60800
G01 X-5.38284 Y-16.33134
G01 X-5.33151 Y-16.34937
G01 X-5.12689 Y-16.39573
G01 X-4.97972 Y-16.51069
G01 X-4.94995 Y-16.24686
G01 X-4.86456 Y-16.31508
G01 X-4.72585 Y-16.38760
G01 X-4.55719 Y-16.33898
G01 X-4.37373 Y-16.29938
G01 X-4.26717 Y-16.28290
G01 X-4.08361 Y-16.26342
G01 X-3.98884 Y-16.25892
G01 X-3.80517 Y-16.25872
G01 X-3.71048 Y-16.26420
G01 X-3.48445 Y-16.29024
G01 X-3.41790 Y-16.24526
G01 X-3.28455 Y-16.17678
G01 X-3.04998 Y-16.17678
G01 X-3.00573 Y-16.17243
G01 X-2.96319 Y-16.15953
G01 X-2.92397 Y-16.13858
G01 X-2.88961 Y-16.11036
G01 X-2.86141 Y-16.07599
G01 X-2.84046 Y-16.03677
G01 X-2.82755 Y-15.99423
G01 X-2.82318 Y-15.94998
G01 X-2.82318 Y-14.24998
G01 X-2.82755 Y-14.20574
G01 X-2.84046 Y-14.16319
G01 X-2.86141 Y-14.12397
G01 X-2.88961 Y-14.08961
G01 X-2.92397 Y-14.06141
G01 X-2.96319 Y-14.04046
G01 X-3.00573 Y-14.02756
G01 X-3.04998 Y-14.02319
G01 X-3.17317 Y-14.02319
G01 X-3.17317 Y-9.04298
G01 X-3.18384 Y-8.92320
G01 X-3.19255 Y-8.87959
G01 X-3.22849 Y-8.76483
G01 X-3.28422 Y-8.65828
G01 X-3.30893 Y-8.62129
G01 X-3.38605 Y-8.52904
G01 X-6.71446 Y-5.20062
G01 X-6.70618 Y-5.11000
G01 X-6.73082 Y-4.87571
G01 X-6.80359 Y-4.65168
G01 X-6.92140 Y-4.44767
G01 X-7.07901 Y-4.27261
G01 X-7.26958 Y-4.13415
G01 X-7.46262 Y-4.04685
G01 X-7.50771 Y-4.03220
G01 X-7.69175 Y-3.99308
G01 X-7.73892 Y-3.98813
G01 X-7.95076 Y-3.98935
G01 X-8.15825 Y-4.03220
G01 X-8.20336 Y-4.04685
G01 X-8.39638 Y-4.13415
G01 X-8.58695 Y-4.27261
G01 X-8.74458 Y-4.44767
G01 X-8.85160 Y-4.63052
G01 X-8.87087 Y-4.67383
G01 X-8.93516 Y-4.87571
G01 X-8.95855 Y-5.08627
G01 X-8.95855 Y-5.13370
G01 X-8.93887 Y-5.32082
G01 X-8.92901 Y-5.36720
G01 X-8.86236 Y-5.56829
G01 X-8.74458 Y-5.77230
G01 X-8.58695 Y-5.94736
G01 X-8.41629 Y-6.07289
G01 X-8.37524 Y-6.09661
G01 X-8.18119 Y-6.18165
G01 X-7.97423 Y-6.22691
G01 X-7.92706 Y-6.23186
G01 X-7.73895 Y-6.23186
G01 X-4.62679 Y-9.34403
G01 X-4.62679 Y-14.02319
G01 X-4.74998 Y-14.02319
G01 X-4.79422 Y-14.02756
G01 X-4.83677 Y-14.04046
G01 X-4.87599 Y-14.06141
G01 X-4.91035 Y-14.08961
G01 X-4.93857 Y-14.12397
G01 X-4.95953 Y-14.16319
G01 X-4.97243 Y-14.20574
G01 X-4.97680 Y-14.24998
G01 X-4.97680 Y-15.94998
G01 X-4.97243 Y-15.99423
G01 X-4.95953 Y-16.03677
G01 X-4.93857 Y-16.07599
G01 X-4.91035 Y-16.11036
G01 X-4.87599 Y-16.13858
G01 X-4.83677 Y-16.15953
G01 X-4.79422 Y-16.17243
G01 X-4.74998 Y-16.17678
G01 X-3.28455 Y-16.17678
G01 X-3.41790 Y-16.24526
G01 X-3.48445 Y-16.29024
G01 X-3.71048 Y-16.26420
G01 X-3.80517 Y-16.25907
G01 X-3.98884 Y-16.25892
G01 X-4.08948 Y-16.26420
G01 X-4.26717 Y-16.28290
G01 X-4.37365 Y-16.29979
G01 X-4.55719 Y-16.33898
G01 X-4.72585 Y-16.38760
G01 X-4.86456 Y-16.31508
G01 X-4.95717 Y-16.24109
G01 X-4.93164 Y-16.08442
G01 X-4.97987 Y-16.51183
G01 X-4.78051 Y-16.61300
G01 X-4.74462 Y-16.64889
G01 X-4.70370 Y-16.61838
G01 X-4.74462 Y-16.64889
G01 X-4.74990 Y-16.72171
G01 X-4.74462 Y-16.64889
G01 X-4.78051 Y-16.61300
G01 X-4.73857 Y-16.62280
G01 X-4.73987 Y-16.63631
G01 X-4.73857 Y-16.62280
G01 X-4.69908 Y-16.61734
G01 X-4.60266 Y-16.58600
G01 X-4.50124 Y-16.55874
G01 X-4.32938 Y-16.52222
G01 X-4.24050 Y-16.50809
G01 X-4.06872 Y-16.49004
G01 X-3.98584 Y-16.48567
G01 X-3.81411 Y-16.48567
G01 X-3.73123 Y-16.49004
G01 X-3.52814 Y-16.51295
G01 X-3.43096 Y-16.67520
G04 P0 ( dwell for no time -- G64 should not smooth over this point )
G00 Z2.00000 ( retract )

G00 X-3.64213 Y-19.13870 ( rapid move to begin. )
G01 F60.00000
( Mill infeed pass 1/1 )
G01 Z-0.10000
G04 P0 ( dwell for no time -- G64 should not smooth over this point )
G01 F120.00000
G01 X-3.64213 Y-19.13870
G01 X-3.78742 Y-19.10908
G01 X-3.98884 Y-19.10784
G01 X-4.03598 Y-19.11279
G01 X-4.23273 Y-19.15589
G01 X-4.41724 Y-19.23666
G01 X-4.45831 Y-19.26039
G01 X-4.62051 Y-19.37977
G01 X-4.68828 Y-19.45317
G01 X-6.56191 Y-19.45317
G01 X-6.71446 Y-19.30062
G01 X-6.70618 Y-19.20999
G01 X-6.73082 Y-18.97571
G01 X-6.80359 Y-18.75168
G01 X-6.92140 Y-18.54766
G01 X-7.07901 Y-18.37261
G01 X-7.26958 Y-18.23415
G01 X-7.48480 Y-18.13834
G01 X-7.71520 Y-18.08937
G01 X-7.92706 Y-18.08813
G01 X-7.97423 Y-18.09308
G01 X-8.15825 Y-18.13220
G01 X-8.20336 Y-18.14685
G01 X-8.39638 Y-18.23415
G01 X-8.56851 Y-18.35767
G01 X-8.60374 Y-18.38940
G01 X-8.74458 Y-18.54766
G01 X-8.86236 Y-18.75168
G01 X-8.93516 Y-18.97571
G01 X-8.95980 Y-19.20999
G01 X-8.93516 Y-19.44426
G01 X-8.86236 Y-19.66829
G01 X-8.74458 Y-19.87230
G01 X-8.58695 Y-20.04736
G01 X-8.39638 Y-20.18584
G01 X-8.18119 Y-20.28165
G01 X-7.95076 Y-20.33062
G01 X-7.73895 Y-20.33186
G01 X-7.36041 Y-20.70885
G01 X-7.26676 Y-20.78429
G01 X-7.16123 Y-20.84194
G01 X-7.12015 Y-20.85896
G01 X-7.02635 Y-20.88741
G01 X-6.98274 Y-20.89607
G01 X-6.86298 Y-20.90679
G01 X-4.68828 Y-20.90679
G01 X-4.62051 Y-20.98020
G01 X-4.45831 Y-21.09960
G01 X-4.41724 Y-21.12330
G01 X-4.23273 Y-21.20407
G01 X-4.03598 Y-21.24718
G01 X-3.98884 Y-21.25213
G01 X-3.78742 Y-21.25088
G01 X-3.64381 Y-21.22165
G01 X-3.78742 Y-21.25088
G01 X-3.98884 Y-21.25213
G01 X-4.03598 Y-21.24718
G01 X-4.15775 Y-21.22129
G01 X-4.04851 Y-21.33658
G01 X-3.75336 Y-21.33658
G01 X-3.64381 Y-21.22165
G01 X-3.59016 Y-21.21022
G01 X-3.54508 Y-21.19559
G01 X-3.38275 Y-21.12330
G01 X-3.34167 Y-21.09960
G01 X-3.17947 Y-20.98020
G01 X-3.02885 Y-20.81291
G01 X-2.91628 Y-20.61797
G01 X-2.84673 Y-20.40387
G01 X-2.82318 Y-20.18000
G01 X-2.84673 Y-19.95612
G01 X-2.91628 Y-19.74202
G01 X-3.02885 Y-19.54705
G01 X-3.17947 Y-19.37977
G01 X-3.36159 Y-19.24746
G01 X-3.54508 Y-19.16440
G01 X-3.59016 Y-19.14975
G01 X-3.64213 Y-19.13870
G01 X-3.75145 Y-19.02336
G01 X-4.04658 Y-19.02336
G01 X-4.15618 Y-19.13834
G01 X-4.20980 Y-19.14975
G04 P0 ( dwell for no time -- G64 should not smooth over this point )
G00 Z2.00000 ( retract )

G00 X-3.64381 Y-23.76165 ( rapid move to begin. )
G01 F60.00000
( Mill infeed pass 1/1 )
G01 Z-0.10000
G04 P0 ( dwell for no time -- G64 should not smooth over this point )
G01 F120.00000
G01 X-3.64381 Y-23.76165
G01 X-3.78742 Y-23.79088
G01 X-4.01254 Y-23.79088
G01 X-4.20980 Y-23.75022
G01 X-4.27276 Y-23.72761
G01 X-6.71446 Y-26.16934
G01 X-6.70743 Y-26.23627
G01 X-6.70743 Y-26.28369
G01 X-6.72709 Y-26.47079
G01 X-6.73694 Y-26.51719
G01 X-6.80359 Y-26.71831
G01 X-6.92140 Y-26.92230
G01 X-7.06222 Y-27.08057
G01 X-7.09747 Y-27.11229
G01 X-7.24967 Y-27.22291
G01 X-7.31838 Y-27.25890
G01 X-7.46554 Y-27.36007
G01 X-7.57552 Y-27.42423
G01 X-7.68601 Y-27.37569
G01 X-7.48480 Y-27.33164
G01 X-7.31838 Y-27.25890
G01 X-7.48480 Y-27.33164
G01 X-7.71520 Y-27.38062
G01 X-7.95076 Y-27.38062
G01 X-8.15825 Y-27.33779
G01 X-8.20336 Y-27.32314
G01 X-8.37524 Y-27.24661
G01 X-8.41629 Y-27.22291
G01 X-8.58695 Y-27.09735
G01 X-8.74458 Y-26.92230
G01 X-8.85160 Y-26.73944
G01 X-8.87087 Y-26.69614
G01 X-8.93516 Y-26.49423
G01 X-8.95855 Y-26.28369
G01 X-8.95855 Y-26.23627
G01 X-8.93516 Y-26.02570
G01 X-8.86236 Y-25.80168
G01 X-8.75751 Y-25.61758
G01 X-8.72965 Y-25.57922
G01 X-8.58695 Y-25.42261
G01 X-8.39638 Y-25.28415
G01 X-8.20336 Y-25.19685
G01 X-8.15825 Y-25.18220
G01 X-7.95076 Y-25.13937
G01 X-7.73895 Y-25.13813
G01 X-4.88422 Y-22.28339
G01 X-4.78406 Y-22.10697
G01 X-4.75620 Y-22.06861
G01 X-4.62051 Y-21.91977
G01 X-4.45831 Y-21.80039
G01 X-4.41724 Y-21.77666
G01 X-4.23273 Y-21.69589
G01 X-4.01254 Y-21.64908
G01 X-3.78742 Y-21.64908
G01 X-3.64213 Y-21.67870
G01 X-3.78742 Y-21.64908
G01 X-3.98884 Y-21.64784
G01 X-4.03598 Y-21.65279
G01 X-4.20980 Y-21.68975
G01 X-4.15618 Y-21.67834
G01 X-4.04658 Y-21.56336
G01 X-3.75145 Y-21.56336
G01 X-3.64213 Y-21.67870
G01 X-3.59016 Y-21.68975
G01 X-3.54508 Y-21.70440
G01 X-3.38275 Y-21.77666
G01 X-3.34167 Y-21.80039
G01 X-3.17947 Y-21.91977
G01 X-3.02885 Y-22.08705
G01 X-2.91628 Y-22.28202
G01 X-2.84673 Y-22.49612
G01 X-2.82318 Y-22.72000
G01 X-2.84673 Y-22.94387
G01 X-2.91628 Y-23.15797
G01 X-3.02885 Y-23.35291
G01 X-3.17947 Y-23.52020
G01 X-3.34167 Y-23.63960
G01 X-3.38275 Y-23.66330
G01 X-3.54508 Y-23.73559
G01 X-3.59016 Y-23.75022
G01 X-3.64381 Y-23.76165
G01 X-3.75336 Y-23.87658
G01 X-4.20489 Y-23.87658
G01 X-4.24180 Y-23.88276
G01 X-4.24429 Y-23.87435
G01 X-4.24180 Y-23.88276
G01 X-4.30911 Y-23.91755
G01 X-4.39362 Y-23.96909
G01 X-4.54787 Y-24.07435
G01 X-4.62125 Y-24.13119
G01 X-4.76141 Y-24.25070
G01 X-4.82059 Y-24.30752
G01 X-4.94716 Y-24.44067
G01 X-5.11063 Y-24.64643
G01 X-5.16565 Y-24.72748
G01 X-5.26113 Y-24.88329
G01 X-5.34005 Y-25.03508
G01 X-6.51647 Y-26.21404
G01 X-6.51891 Y-26.21227
G01 X-6.51647 Y-26.21404
G01 X-6.62554 Y-26.44069
G01 X-6.66605 Y-26.51547
G01 X-6.76405 Y-26.67538
G01 X-6.83194 Y-26.76985
G04 P0 ( dwell for no time -- G64 should not smooth over this point )
G00 Z2.00000 ( retract )

G00 X-5.14873 Y-27.46027 ( rapid move to begin. )
G01 F60.00000
( Mill infeed pass 1/1 )
G01 Z-0.10000
G04 P0 ( dwell for no time -- G64 should not smooth over this point )
G01 F120.00000
G01 X-5.14873 Y-27.46027
G01 X-5.23283 Y-27.62621
G01 X-6.64969 Y-29.04307
G01 X-6.72650 Y-29.12468
G01 X-6.86714 Y-29.30317
G01 X-6.95160 Y-29.43578
G01 X-6.97697 Y-29.48882
G01 X-6.98294 Y-29.48694
G01 X-6.97697 Y-29.48882
G01 X-6.99219 Y-29.63382
G01 X-6.99633 Y-29.75666
G01 X-6.99633 Y-32.35493
G01 X-6.99910 Y-32.35536
G01 X-6.99633 Y-32.35493
G01 X-6.98881 Y-32.39557
G01 X-6.92531 Y-32.56097
G01 X-6.87878 Y-32.71898
G01 X-6.80359 Y-32.85167
G01 X-6.73694 Y-33.05279
G01 X-6.72709 Y-33.09917
G01 X-6.70618 Y-33.30999
G01 X-6.73082 Y-33.54426
G01 X-6.80359 Y-33.76831
G01 X-6.92140 Y-33.97230
G01 X-7.01520 Y-34.07837
G01 X-6.92140 Y-33.97230
G01 X-6.87880 Y-33.90102
G01 X-6.92259 Y-34.05068
G01 X-7.01520 Y-34.07837
G01 X-7.06222 Y-34.13056
G01 X-7.09747 Y-34.16231
G01 X-7.24967 Y-34.27291
G01 X-7.29074 Y-34.29660
G01 X-7.48480 Y-34.38164
G01 X-7.69175 Y-34.42691
G01 X-7.73892 Y-34.43186
G01 X-7.92706 Y-34.43186
G01 X-7.97423 Y-34.42691
G01 X-8.18119 Y-34.38164
G01 X-8.37524 Y-34.29660
G01 X-8.41629 Y-34.27291
G01 X-8.58695 Y-34.14735
G01 X-8.72965 Y-33.99076
G01 X-8.75751 Y-33.95238
G01 X-8.86236 Y-33.76831
G01 X-8.92901 Y-33.56719
G01 X-8.93887 Y-33.52081
G01 X-8.95980 Y-33.30999
G01 X-8.93516 Y-33.07570
G01 X-8.86236 Y-32.85167
G01 X-8.74458 Y-32.64766
G01 X-8.60374 Y-32.48939
G01 X-8.55977 Y-32.45132
G01 X-8.55977 Y-29.11668
G01 X-8.54735 Y-28.98551
G01 X-8.51804 Y-28.87535
G01 X-8.48799 Y-28.80289
G01 X-8.43084 Y-28.70426
G01 X-8.34690 Y-28.60274
G01 X-7.18993 Y-27.44577
G01 X-7.51817 Y-27.77401
G01 X-7.50128 Y-27.72740
G01 X-7.47398 Y-27.62712
G01 X-7.34464 Y-27.55191
G01 X-7.18993 Y-27.44577
G01 X-4.97497 Y-25.23081
G01 X-4.95325 Y-25.03612
G01 X-4.88368 Y-24.82202
G01 X-4.77114 Y-24.62705
G01 X-4.62051 Y-24.45977
G01 X-4.43840 Y-24.32746
G01 X-4.25491 Y-24.24440
G01 X-4.20980 Y-24.22975
G01 X-4.03598 Y-24.19279
G01 X-3.98884 Y-24.18784
G01 X-3.78742 Y-24.18908
G01 X-3.64213 Y-24.21870
G01 X-3.78742 Y-24.18908
G01 X-3.98884 Y-24.18784
G01 X-4.03598 Y-24.19279
G01 X-4.20980 Y-24.22975
G01 X-4.25491 Y-24.24440
G01 X-4.43840 Y-24.32746
G01 X-4.62051 Y-24.45977
G01 X-4.77114 Y-24.62705
G01 X-4.88368 Y-24.82202
G01 X-4.95325 Y-25.03612
G01 X-4.97497 Y-25.23081
G01 X-6.65190 Y-26.90777
G01 X-6.57222 Y-26.79636
G01 X-6.46778 Y-26.62634
G01 X-6.42214 Y-26.54097
G01 X-6.32866 Y-26.34437
G01 X-5.16453 Y-25.18273
G01 X-5.14378 Y-25.15027
G01 X-5.06621 Y-24.99921
G01 X-4.97383 Y-24.84846
G01 X-4.92846 Y-24.78240
G01 X-4.82300 Y-24.64493
G01 X-4.77642 Y-24.59037
G01 X-4.65816 Y-24.46576
G01 X-4.60726 Y-24.41748
G01 X-4.47624 Y-24.30556
G01 X-4.41673 Y-24.25992
G01 X-4.27269 Y-24.16094
G01 X-4.17609 Y-24.10336
G01 X-3.75145 Y-24.10336
G01 X-3.64213 Y-24.21870
G01 X-3.59016 Y-24.22975
G01 X-3.54508 Y-24.24440
G01 X-3.36159 Y-24.32746
G01 X-3.17947 Y-24.45977
G01 X-3.02885 Y-24.62705
G01 X-2.91628 Y-24.82202
G01 X-2.84673 Y-25.03612
G01 X-2.82443 Y-25.23627
G01 X-2.82443 Y-25.28369
G01 X-2.84300 Y-25.46040
G01 X-2.85285 Y-25.50681
G01 X-2.91628 Y-25.69794
G01 X-3.01592 Y-25.87297
G01 X-3.04378 Y-25.91135
G01 X-3.17947 Y-26.06020
G01 X-3.34167 Y-26.17960
G01 X-3.38275 Y-26.20327
G01 X-3.56723 Y-26.28405
G01 X-3.76398 Y-26.32718
G01 X-3.81114 Y-26.33210
G01 X-4.01841 Y-26.32997
G01 X-4.24294 Y-26.55451
G01 X-4.11551 Y-26.48549
G01 X-3.96796 Y-26.42045
G01 X-3.93860 Y-26.41656
G01 X-3.75336 Y-26.41656
G01 X-3.64381 Y-26.30160
G01 X-3.75336 Y-26.41656
G01 X-3.93860 Y-26.41656
G01 X-3.96796 Y-26.42045
G01 X-3.96923 Y-26.41511
G01 X-3.96796 Y-26.42045
G01 X-4.11551 Y-26.48549
G01 X-4.24294 Y-26.55451
G01 X-7.10616 Y-29.41772
G01 X-7.10616 Y-32.45134
G01 X-7.06222 Y-32.48939
G01 X-6.93633 Y-32.62922
G01 X-6.90847 Y-32.66757
G01 X-6.87878 Y-32.71898
G01 X-6.65978 Y-32.66023
G01 X-6.71060 Y-32.48792
G01 X-6.76958 Y-32.33392
G01 X-6.76958 Y-29.75778
G01 X-6.76598 Y-29.64945
G01 X-6.75706 Y-29.55232
G01 X-6.72140 Y-29.49405
G01 X-6.64274 Y-29.38074
G01 X-6.59658 Y-29.32219
G01 X-6.50715 Y-29.22201
G01 X-5.05673 Y-27.77424
G01 X-5.03657 Y-27.74140
G01 X-4.95285 Y-27.57460
G01 X-4.97497 Y-27.77081
G01 X-6.45899 Y-29.25582
G01 X-6.50994 Y-29.31549
G01 X-6.57184 Y-29.41117
G01 X-6.61802 Y-29.51536
G01 X-6.64736 Y-29.62552
G01 X-6.65978 Y-29.75668
G01 X-6.65978 Y-34.23788
G01 X-6.65978 Y-33.95972
G01 X-6.71200 Y-34.13597
G01 X-6.65978 Y-34.23788
G01 X-6.65978 Y-38.15893
G01 X-7.73895 Y-39.23812
G01 X-7.95076 Y-39.23937
G01 X-8.15825 Y-39.28219
G01 X-8.20336 Y-39.29685
G01 X-8.39638 Y-39.38415
G01 X-8.58695 Y-39.52260
G01 X-8.72965 Y-39.67922
G01 X-8.75751 Y-39.71757
G01 X-8.86236 Y-39.90167
G01 X-8.93516 Y-40.12570
G01 X-8.95980 Y-40.35999
G01 X-8.93516 Y-40.59425
G01 X-8.86236 Y-40.81831
G01 X-8.74458 Y-41.02230
G01 X-8.58695 Y-41.19735
G01 X-8.39638 Y-41.33583
G01 X-8.20336 Y-41.42313
G01 X-8.15825 Y-41.43779
G01 X-7.97423 Y-41.47690
G01 X-7.92706 Y-41.48186
G01 X-7.71520 Y-41.48061
G01 X-7.50771 Y-41.43779
G01 X-7.46262 Y-41.42313
G01 X-7.26958 Y-41.33583
G01 X-7.07901 Y-41.19735
G01 X-6.92140 Y-41.02230
G01 X-6.80359 Y-40.81831
G01 X-6.73082 Y-40.59425
G01 X-6.70618 Y-40.35999
G01 X-6.71446 Y-40.26934
G01 X-5.40695 Y-38.96083
G01 X-5.35600 Y-38.90117
G01 X-5.29410 Y-38.80548
G01 X-5.24789 Y-38.70129
G01 X-5.21858 Y-38.59113
G01 X-5.20616 Y-38.45999
G01 X-5.20616 Y-30.05773
G01 X-5.14873 Y-30.00030
G01 X-5.20616 Y-30.05773
G01 X-5.20616 Y-31.11711
G01 X-5.12313 Y-30.96984
G01 X-5.15612 Y-30.82915
G01 X-5.18536 Y-30.64553
G01 X-5.19494 Y-30.55943
G01 X-5.20375 Y-30.38170
G01 X-5.20375 Y-30.29826
G01 X-5.19097 Y-30.08600
G01 X-5.19539 Y-30.08483
G01 X-5.19097 Y-30.08600
G01 X-5.17916 Y-30.05468
G01 X-5.14873 Y-30.00030
G01 X-4.01841 Y-28.86997
G01 X-3.78742 Y-28.87088
G01 X-3.64416 Y-28.84173
G01 X-3.75371 Y-28.95658
G01 X-3.93860 Y-28.95658
G01 X-3.96796 Y-28.96044
G01 X-4.11551 Y-29.02549
G01 X-4.24294 Y-29.09451
G01 X-4.11551 Y-29.02549
G01 X-3.96796 Y-28.96044
G01 X-3.96923 Y-28.95511
G01 X-3.96796 Y-28.96044
G01 X-3.93860 Y-28.95658
G01 X-3.75371 Y-28.95658
G01 X-3.64416 Y-28.84173
G01 X-3.59016 Y-28.83022
G01 X-3.54508 Y-28.81559
G01 X-3.36159 Y-28.73253
G01 X-3.17947 Y-28.60020
G01 X-3.02885 Y-28.43291
G01 X-2.91628 Y-28.23797
G01 X-2.84673 Y-28.02387
G01 X-2.82318 Y-27.80000
G01 X-2.84673 Y-27.57612
G01 X-2.90777 Y-27.38417
G01 X-2.92707 Y-27.34086
G01 X-3.02885 Y-27.16705
G01 X-3.17947 Y-26.99977
G01 X-3.34167 Y-26.88039
G01 X-3.38275 Y-26.85666
G01 X-3.54508 Y-26.78440
G01 X-3.59016 Y-26.76975
G01 X-3.64213 Y-26.75870
G01 X-3.75145 Y-26.64336
G01 X-3.91607 Y-26.64336
G01 X-4.01536 Y-26.68895
G01 X-4.13479 Y-26.75379
G01 X-4.20980 Y-26.76975
G01 X-4.03598 Y-26.73279
G01 X-3.98884 Y-26.72784
G01 X-3.78742 Y-26.72908
G01 X-3.64213 Y-26.75870
G01 X-3.78742 Y-26.72908
G01 X-3.98884 Y-26.72784
G01 X-4.03598 Y-26.73279
G01 X-4.20980 Y-26.76975
G01 X-4.25491 Y-26.78440
G01 X-4.43840 Y-26.86746
G01 X-4.60205 Y-26.98483
G01 X-4.63730 Y-27.01656
G01 X-4.75620 Y-27.14861
G01 X-4.78406 Y-27.18697
G01 X-4.88368 Y-27.36202
G01 X-4.95285 Y-27.57460
G04 P0 ( dwell for no time -- G64 should not smooth over this point )
G00 Z2.00000 ( retract )

G00 X-4.95285 Y-30.11460 ( rapid move to begin. )
G01 F60.00000
( Mill infeed pass 1/1 )
G01 Z-0.10000
G04 P0 ( dwell for no time -- G64 should not smooth over this point )
G01 F120.00000
G01 X-4.95285 Y-30.11460
G01 X-4.97556 Y-30.31627
G01 X-4.97556 Y-30.36369
G01 X-4.95325 Y-30.56387
G01 X-4.89219 Y-30.75579
G01 X-4.87291 Y-30.79913
G01 X-4.77114 Y-30.97291
G01 X-4.62051 Y-31.14020
G01 X-4.52679 Y-31.20984
G01 X-4.52679 Y-31.27225
G01 X-4.63502 Y-31.19928
G01 X-4.73111 Y-31.16443
G01 X-4.77309 Y-31.15460
G01 X-4.81617 Y-31.15290
G01 X-4.92656 Y-31.17639
G01 X-4.96720 Y-31.19082
G01 X-5.00436 Y-31.21269
G01 X-5.03672 Y-31.24119
G01 X-5.10880 Y-31.32295
G01 X-5.12740 Y-31.35749
G01 X-5.13974 Y-31.39473
G01 X-5.15772 Y-31.47677
G01 X-5.15927 Y-38.53617
G01 X-5.18899 Y-38.68565
G01 X-5.24731 Y-38.82644
G01 X-5.33199 Y-38.95319
G01 X-6.57791 Y-40.20238
G01 X-6.64195 Y-40.31920
G01 X-6.65582 Y-40.37968
G01 X-6.67116 Y-40.55321
G01 X-6.71906 Y-40.74236
G01 X-6.79719 Y-40.92049
G01 X-6.90359 Y-41.08333
G01 X-7.03534 Y-41.22646
G01 X-7.18881 Y-41.34592
G01 X-7.35990 Y-41.43853
G01 X-7.54385 Y-41.50167
G01 X-7.73570 Y-41.53367
G01 X-7.93024 Y-41.53367
G01 X-8.12208 Y-41.50167
G01 X-8.30605 Y-41.43850
G01 X-8.47712 Y-41.34594
G01 X-8.63062 Y-41.22646
G01 X-8.76236 Y-41.08333
G01 X-8.86877 Y-40.92052
G01 X-8.94687 Y-40.74236
G01 X-8.99465 Y-40.55382
G01 X-9.01070 Y-40.35999
G01 X-8.99462 Y-40.16611
G01 X-8.94687 Y-39.97754
G01 X-8.86877 Y-39.79944
G01 X-8.76236 Y-39.63660
G01 X-8.63062 Y-39.49349
G01 X-8.47712 Y-39.37401
G01 X-8.30605 Y-39.28146
G01 X-8.12208 Y-39.21829
G01 X-7.93024 Y-39.18628
G01 X-7.86648 Y-39.18397
G01 X-7.83486 Y-39.17709
G01 X-7.76783 Y-39.15740
G01 X-7.72660 Y-39.14076
G01 X-7.68944 Y-39.11641
G01 X-7.65071 Y-39.08351
G01 X-6.80944 Y-38.24224
G01 X-6.77073 Y-38.19055
G01 X-6.73725 Y-38.12924
G01 X-6.71990 Y-38.08837
G01 X-6.71083 Y-38.04488
G01 X-6.70667 Y-37.99421
G01 X-6.70667 Y-34.62373
G01 X-6.71586 Y-34.55982
G01 X-6.75157 Y-34.45276
G01 X-6.77487 Y-34.41649
G01 X-6.80461 Y-34.38530
G01 X-6.86514 Y-34.33404
G01 X-6.89287 Y-34.27778
G01 X-6.94378 Y-34.29368
G01 X-6.89257 Y-34.31451
G01 X-6.86514 Y-34.33404
G01 X-6.89257 Y-34.31451
G01 X-6.93181 Y-34.29658
G01 X-6.97372 Y-34.28642
G01 X-7.04289 Y-34.27649
G01 X-7.07774 Y-34.27420
G01 X-7.11251 Y-34.27730
G01 X-7.18777 Y-34.29937
G01 X-7.22439 Y-34.31520
G01 X-7.35985 Y-34.38848
G01 X-7.54385 Y-34.45167
G01 X-7.73570 Y-34.48367
G01 X-7.93024 Y-34.48367
G01 X-8.12208 Y-34.45167
G01 X-8.30605 Y-34.38850
G01 X-8.47712 Y-34.29594
G01 X-8.63062 Y-34.17646
G01 X-8.76236 Y-34.03333
G01 X-8.86877 Y-33.87049
G01 X-8.94687 Y-33.69236
G01 X-8.99465 Y-33.50382
G01 X-9.01070 Y-33.30999
G01 X-8.99462 Y-33.11611
G01 X-8.94687 Y-32.92754
G01 X-8.86877 Y-32.74944
G01 X-8.76236 Y-32.58660
G01 X-8.69937 Y-32.51817
G01 X-8.66285 Y-32.46493
G01 X-8.61690 Y-32.36298
G01 X-8.60753 Y-32.30024
G01 X-8.60666 Y-29.04048
G01 X-8.57695 Y-28.89100
G01 X-8.51863 Y-28.75018
G01 X-8.43394 Y-28.62349
G01 X-7.80296 Y-27.98923
G01 X-7.75198 Y-27.90063
G01 X-7.73501 Y-27.86101
G01 X-7.72584 Y-27.81889
G01 X-7.72483 Y-27.77581
G01 X-7.73138 Y-27.69679
G01 X-7.70555 Y-27.61450
G01 X-7.77659 Y-27.58356
G01 X-7.75200 Y-27.62326
G01 X-7.73694 Y-27.66365
G01 X-7.73138 Y-27.69679
G01 X-7.73694 Y-27.66365
G01 X-7.75200 Y-27.62326
G01 X-7.77443 Y-27.58646
G01 X-7.84268 Y-27.50096
G01 X-7.87382 Y-27.47650
G01 X-7.90875 Y-27.45781
G01 X-7.98812 Y-27.42562
G01 X-8.12211 Y-27.40167
G01 X-8.30605 Y-27.33853
G01 X-8.47712 Y-27.24592
G01 X-8.63062 Y-27.12644
G01 X-8.76236 Y-26.98333
G01 X-8.86877 Y-26.82049
G01 X-8.94687 Y-26.64236
G01 X-8.99465 Y-26.45382
G01 X-9.01070 Y-26.25999
G01 X-8.99462 Y-26.06611
G01 X-8.94687 Y-25.87755
G01 X-8.86877 Y-25.69944
G01 X-8.76236 Y-25.53660
G01 X-8.63062 Y-25.39350
G01 X-8.47712 Y-25.27402
G01 X-8.30605 Y-25.18146
G01 X-8.12208 Y-25.11829
G01 X-7.93024 Y-25.08628
G01 X-7.86648 Y-25.08397
G01 X-7.76783 Y-25.05740
G01 X-7.72660 Y-25.04077
G01 X-7.68944 Y-25.01641
G01 X-7.65071 Y-24.98352
G01 X-4.96750 Y-22.30031
G01 X-4.91736 Y-22.23470
G01 X-4.87685 Y-22.15596
G01 X-4.76405 Y-21.99490
G01 X-4.62504 Y-21.85589
G01 X-4.43060 Y-21.71692
G01 X-4.36502 Y-21.63854
G01 X-4.34142 Y-21.60247
G01 X-4.32509 Y-21.56257
G01 X-4.31630 Y-21.51751
G01 X-4.25127 Y-21.45187
G01 X-4.31287 Y-21.38705
G01 X-4.30906 Y-21.40770
G01 X-4.30941 Y-21.45081
G01 X-4.31630 Y-21.51751
G01 X-4.30906 Y-21.40770
G01 X-4.31688 Y-21.36531
G01 X-4.36413 Y-21.26280
G01 X-4.38767 Y-21.22566
G01 X-4.41797 Y-21.19376
G01 X-4.45534 Y-21.16290
G01 X-4.64505 Y-21.02947
G01 X-4.72689 Y-20.98360
G01 X-4.76722 Y-20.96668
G01 X-4.81005 Y-20.95782
G01 X-4.86075 Y-20.95365
G01 X-6.93918 Y-20.95365
G01 X-7.08866 Y-20.92394
G01 X-7.22945 Y-20.86562
G01 X-7.35620 Y-20.78096
G01 X-7.65068 Y-20.48642
G01 X-7.70240 Y-20.44771
G01 X-7.76371 Y-20.41423
G01 X-7.79559 Y-20.39991
G01 X-7.82932 Y-20.39064
G01 X-7.92607 Y-20.38439
G01 X-8.12208 Y-20.35165
G01 X-8.30605 Y-20.28848
G01 X-8.47712 Y-20.19592
G01 X-8.63062 Y-20.07644
G01 X-8.76236 Y-19.93334
G01 X-8.86877 Y-19.77050
G01 X-8.94687 Y-19.59237
G01 X-8.99465 Y-19.40382
G01 X-9.01070 Y-19.20999
G01 X-8.99462 Y-19.01612
G01 X-8.94687 Y-18.82755
G01 X-8.86877 Y-18.64944
G01 X-8.76236 Y-18.48660
G01 X-8.63062 Y-18.34350
G01 X-8.47712 Y-18.22402
G01 X-8.30605 Y-18.13146
G01 X-8.12208 Y-18.06829
G01 X-7.93024 Y-18.03629
G01 X-7.73570 Y-18.03629
G01 X-7.54385 Y-18.06829
G01 X-7.35988 Y-18.13146
G01 X-7.18881 Y-18.22402
G01 X-7.03534 Y-18.34347
G01 X-6.90359 Y-18.48663
G01 X-6.79719 Y-18.64944
G01 X-6.71906 Y-18.82757
G01 X-6.67131 Y-19.01612
G01 X-6.66069 Y-19.11640
G01 X-6.62610 Y-19.21251
G01 X-6.60679 Y-19.25112
G01 X-6.58056 Y-19.28538
G01 X-6.54830 Y-19.31403
G01 X-6.49186 Y-19.35526
G01 X-6.46247 Y-19.37347
G01 X-6.43062 Y-19.38701
G01 X-6.39709 Y-19.39554
G01 X-6.31607 Y-19.40629
G01 X-4.86075 Y-19.40629
G01 X-4.79684 Y-19.39709
G01 X-4.69453 Y-19.36377
G01 X-4.66204 Y-19.34446
G01 X-4.42989 Y-19.17626
G01 X-4.36502 Y-19.09854
G01 X-4.34142 Y-19.06247
G01 X-4.32509 Y-19.02257
G01 X-4.31630 Y-18.97751
G01 X-4.25127 Y-18.91187
G01 X-4.31287 Y-18.84705
G01 X-4.30906 Y-18.86770
G01 X-4.30941 Y-18.91081
G01 X-4.31630 Y-18.97751
G01 X-4.30906 Y-18.86770
G01 X-4.31688 Y-18.82531
G01 X-4.36413 Y-18.72280
G01 X-4.38767 Y-18.68566
G01 X-4.41797 Y-18.65376
G01 X-4.45534 Y-18.62290
G01 X-4.64505 Y-18.48947
G01 X-4.72689 Y-18.44360
G01 X-4.76722 Y-18.42668
G01 X-4.83641 Y-18.41497
G01 X-5.17825 Y-18.41365
G01 X-5.32773 Y-18.38394
G01 X-5.46854 Y-18.32562
G01 X-5.59526 Y-18.24096
G01 X-8.43394 Y-15.40228
G01 X-8.51863 Y-15.27553
G01 X-8.57695 Y-15.13474
G01 X-8.60666 Y-14.98526
G01 X-8.60897 Y-13.15707
G01 X-8.64738 Y-13.02697
G01 X-8.68418 Y-12.97104
G01 X-8.76150 Y-12.88466
G01 X-8.86877 Y-12.72050
G01 X-8.94687 Y-12.54237
G01 X-8.99465 Y-12.35382
G01 X-9.01070 Y-12.16000
G01 X-8.99462 Y-11.96612
G01 X-8.94687 Y-11.77755
G01 X-8.86877 Y-11.59944
G01 X-8.76236 Y-11.43660
G01 X-8.63062 Y-11.29350
G01 X-8.47712 Y-11.17402
G01 X-8.30605 Y-11.08146
G01 X-8.12208 Y-11.01829
G01 X-7.93024 Y-10.98629
G01 X-7.73570 Y-10.98629
G01 X-7.54385 Y-11.01829
G01 X-7.35988 Y-11.08146
G01 X-7.18881 Y-11.17402
G01 X-7.03534 Y-11.29347
G01 X-6.90359 Y-11.43660
G01 X-6.79719 Y-11.59944
G01 X-6.71906 Y-11.77757
G01 X-6.67131 Y-11.96612
G01 X-6.65523 Y-12.15997
G01 X-6.67131 Y-12.35382
G01 X-6.71906 Y-12.54237
G01 X-6.79719 Y-12.72050
G01 X-6.90359 Y-12.88336
G01 X-6.98673 Y-12.97706
G01 X-7.03400 Y-13.06764
G01 X-7.04687 Y-13.09967
G01 X-7.05475 Y-13.13327
G01 X-7.05744 Y-13.16772
G01 X-7.05929 Y-14.44295
G01 X-7.05010 Y-14.50716
G01 X-7.03042 Y-14.57422
G01 X-7.00644 Y-14.62842
G01 X-6.95653 Y-14.69131
G01 X-5.62252 Y-16.02532
G01 X-5.57083 Y-16.06403
G01 X-5.46989 Y-16.11447
G01 X-5.42778 Y-16.12362
G01 X-5.38467 Y-16.12466
G01 X-5.30563 Y-16.11810
G01 X-5.27401 Y-16.12989
G01 X-5.17375 Y-16.15260
G01 X-5.15493 Y-16.04488
G01 X-5.23207 Y-16.09748
G01 X-5.27246 Y-16.11254
G01 X-5.30563 Y-16.11810
G01 X-5.27246 Y-16.11254
G01 X-5.23207 Y-16.09748
G01 X-5.15493 Y-16.04488
G01 X-5.10738 Y-16.00416
G01 X-5.08155 Y-15.96961
G01 X-5.03829 Y-15.86532
G01 X-5.02760 Y-15.82638
G01 X-5.02399 Y-15.78615
G01 X-5.02161 Y-14.19504
G01 X-4.99267 Y-14.11745
G01 X-4.94655 Y-14.05583
G01 X-4.79201 Y-13.94371
G01 X-4.75889 Y-13.91435
G01 X-4.73212 Y-13.87912
G01 X-4.71269 Y-13.83937
G01 X-4.68828 Y-13.77391
G01 X-4.67759 Y-13.73495
G01 X-4.67398 Y-13.69469
G01 X-4.67368 Y-9.50877
G01 X-4.68287 Y-9.44486
G01 X-4.70256 Y-9.37783
G01 X-4.71917 Y-9.33668
G01 X-4.74345 Y-9.29957
G01 X-4.77642 Y-9.26071
G01 X-7.65071 Y-6.38642
G01 X-7.70240 Y-6.34771
G01 X-7.79556 Y-6.29991
G01 X-7.82927 Y-6.29064
G01 X-7.92604 Y-6.28437
G01 X-8.12208 Y-6.25165
G01 X-8.30605 Y-6.18848
G01 X-8.47712 Y-6.09592
G01 X-8.63062 Y-5.97644
G01 X-8.76236 Y-5.83334
G01 X-8.86877 Y-5.67050
G01 X-8.94687 Y-5.49237
G01 X-8.99465 Y-5.30382
G01 X-9.01070 Y-5.11000
G01 X-8.99462 Y-4.91612
G01 X-8.94687 Y-4.72755
G01 X-8.86877 Y-4.54944
G01 X-8.76236 Y-4.38661
G01 X-8.63062 Y-4.24350
G01 X-8.47712 Y-4.12402
G01 X-8.30608 Y-4.03146
G01 X-8.12208 Y-3.96829
G01 X-7.93024 Y-3.93629
G01 X-7.73570 Y-3.93629
G01 X-7.54385 Y-3.96829
G01 X-7.35988 Y-4.03146
G01 X-7.18881 Y-4.12402
G01 X-7.03534 Y-4.24348
G01 X-6.90359 Y-4.38661
G01 X-6.79719 Y-4.54944
G01 X-6.71906 Y-4.72757
G01 X-6.67131 Y-4.91612
G01 X-6.65333 Y-5.10492
G01 X-6.61871 Y-5.20106
G01 X-6.58820 Y-5.25595
G01 X-3.29903 Y-8.54977
G01 X-3.21432 Y-8.67649
G01 X-3.15600 Y-8.81731
G01 X-3.12628 Y-8.96676
G01 X-3.12628 Y-13.68585
G01 X-3.11709 Y-13.74973
G01 X-3.09740 Y-13.81676
G01 X-3.08138 Y-13.85679
G01 X-3.05808 Y-13.89306
G01 X-2.97553 Y-13.97003
G01 X-2.92257 Y-14.00345
G01 X-2.85448 Y-14.05445
G01 X-2.80728 Y-14.11747
G01 X-2.77835 Y-14.19504
G01 X-2.77630 Y-15.98572
G01 X-2.77835 Y-16.00492
G01 X-2.80728 Y-16.08249
G01 X-2.85445 Y-16.14551
G01 X-2.91744 Y-16.19265
G01 X-3.01831 Y-16.23027
G01 X-3.07500 Y-16.26123
G01 X-3.16281 Y-16.33210
G01 X-3.18861 Y-16.36659
G01 X-3.19888 Y-16.38770
G01 X-3.30617 Y-16.44279
G01 X-3.24536 Y-16.54449
G01 X-3.24615 Y-16.55552
G01 X-3.24302 Y-16.51246
G01 X-3.23185 Y-16.47081
G01 X-3.19888 Y-16.38770
G01 X-3.23185 Y-16.47081
G01 X-3.24302 Y-16.51246
G01 X-3.24615 Y-16.55552
G01 X-3.24096 Y-16.59834
G01 X-3.21699 Y-16.69768
G01 X-3.20355 Y-16.72714
G01 X-3.16492 Y-16.78262
G01 X-3.03588 Y-16.91490
G01 X-2.92311 Y-17.07599
G01 X-2.84000 Y-17.25419
G01 X-2.78912 Y-17.44411
G01 X-2.77198 Y-17.64000
G01 X-2.78912 Y-17.83585
G01 X-2.84000 Y-18.02577
G01 X-2.92311 Y-18.20398
G01 X-3.03588 Y-18.36504
G01 X-3.17492 Y-18.50405
G01 X-3.34424 Y-18.62264
G01 X-3.39126 Y-18.66674
G01 X-3.43489 Y-18.72130
G01 X-3.45851 Y-18.75742
G01 X-3.47487 Y-18.79735
G01 X-3.48366 Y-18.84243
G01 X-3.54868 Y-18.90806
G01 X-3.48709 Y-18.97286
G01 X-3.49090 Y-18.95229
G01 X-3.49054 Y-18.90916
G01 X-3.48366 Y-18.84243
G01 X-3.49090 Y-18.95229
G01 X-3.48305 Y-18.99468
G01 X-3.46735 Y-19.03484
G01 X-3.41688 Y-19.12818
G01 X-3.39321 Y-19.15577
G01 X-3.36545 Y-19.17924
G01 X-3.17576 Y-19.31505
G01 X-3.03588 Y-19.45490
G01 X-2.92311 Y-19.61599
G01 X-2.84000 Y-19.79419
G01 X-2.78912 Y-19.98411
G01 X-2.77198 Y-20.18000
G01 X-2.78912 Y-20.37585
G01 X-2.84000 Y-20.56577
G01 X-2.92311 Y-20.74398
G01 X-3.03588 Y-20.90504
G01 X-3.17492 Y-21.04405
G01 X-3.34424 Y-21.16264
G01 X-3.39126 Y-21.20674
G01 X-3.43489 Y-21.26130
G01 X-3.45851 Y-21.29742
G01 X-3.47487 Y-21.33735
G01 X-3.48366 Y-21.38243
G01 X-3.54868 Y-21.44806
G01 X-3.48709 Y-21.51286
G01 X-3.49090 Y-21.49229
G01 X-3.49054 Y-21.44916
G01 X-3.48366 Y-21.38243
G01 X-3.49090 Y-21.49229
G01 X-3.48305 Y-21.53468
G01 X-3.46735 Y-21.57484
G01 X-3.41688 Y-21.66818
G01 X-3.39321 Y-21.69577
G01 X-3.36545 Y-21.71924
G01 X-3.17576 Y-21.85505
G01 X-3.03588 Y-21.99490
G01 X-2.92311 Y-22.15599
G01 X-2.84000 Y-22.33419
G01 X-2.78912 Y-22.52411
G01 X-2.77198 Y-22.72000
G01 X-2.78912 Y-22.91585
G01 X-2.84000 Y-23.10577
G01 X-2.92311 Y-23.28398
G01 X-3.03588 Y-23.44504
G01 X-3.17492 Y-23.58405
G01 X-3.34424 Y-23.70264
G01 X-3.39126 Y-23.74674
G01 X-3.43489 Y-23.80130
G01 X-3.45851 Y-23.83742
G01 X-3.47487 Y-23.87735
G01 X-3.48366 Y-23.92243
G01 X-3.54868 Y-23.98806
G01 X-3.48709 Y-24.05286
G01 X-3.49090 Y-24.03229
G01 X-3.49054 Y-23.98916
G01 X-3.48366 Y-23.92243
G01 X-3.49090 Y-24.03229
G01 X-3.48305 Y-24.07468
G01 X-3.46735 Y-24.11484
G01 X-3.41688 Y-24.20818
G01 X-3.39321 Y-24.23577
G01 X-3.36545 Y-24.25924
G01 X-3.17576 Y-24.39505
G01 X-3.03588 Y-24.53490
G01 X-2.92311 Y-24.69599
G01 X-2.84000 Y-24.87419
G01 X-2.78912 Y-25.06411
G01 X-2.77198 Y-25.26000
G01 X-2.78912 Y-25.45585
G01 X-2.84000 Y-25.64577
G01 X-2.92311 Y-25.82395
G01 X-3.03588 Y-25.98504
G01 X-3.17492 Y-26.12403
G01 X-3.34424 Y-26.24264
G01 X-3.39126 Y-26.28671
G01 X-3.45851 Y-26.37742
G01 X-3.47487 Y-26.41732
G01 X-3.48366 Y-26.46243
G01 X-3.54868 Y-26.52804
G01 X-3.48709 Y-26.59286
G01 X-3.49090 Y-26.57229
G01 X-3.49054 Y-26.52913
G01 X-3.48366 Y-26.46243
G01 X-3.49090 Y-26.57229
G01 X-3.48305 Y-26.61468
G01 X-3.46735 Y-26.65484
G01 X-3.41688 Y-26.74818
G01 X-3.39321 Y-26.77577
G01 X-3.36545 Y-26.79924
G01 X-3.17576 Y-26.93505
G01 X-3.03588 Y-27.07490
G01 X-2.92311 Y-27.23599
G01 X-2.84000 Y-27.41419
G01 X-2.78912 Y-27.60411
G01 X-2.77198 Y-27.80000
G01 X-2.78912 Y-27.99585
G01 X-2.84000 Y-28.18577
G01 X-2.92311 Y-28.36398
G01 X-3.03588 Y-28.52504
G01 X-3.17492 Y-28.66405
G01 X-3.34467 Y-28.78295
G01 X-3.39169 Y-28.82704
G01 X-3.43532 Y-28.88160
G01 X-3.45895 Y-28.91772
G01 X-3.47530 Y-28.95765
G01 X-3.48407 Y-29.00258
G01 X-3.54442 Y-29.06293
G01 X-3.61742 Y-29.14467
G01 X-3.61577 Y-29.14678
G01 X-3.61742 Y-29.14467
G01 X-3.64726 Y-29.16888
G01 X-3.68348 Y-29.18170
G01 X-3.68160 Y-29.18884
G01 X-3.68348 Y-29.18170
G01 X-3.91607 Y-29.18336
G01 X-4.01536 Y-29.22895
G01 X-4.13479 Y-29.29379
G01 X-4.20980 Y-29.30975
G01 X-4.13479 Y-29.29379
G01 X-4.01536 Y-29.22895
G01 X-3.91607 Y-29.18336
G01 X-3.70271 Y-29.18336
G01 X-3.66484 Y-29.17683
G01 X-3.64726 Y-29.16888
G01 X-3.61742 Y-29.14467
G01 X-3.54442 Y-29.06293
G01 X-3.48407 Y-29.00258
G01 X-3.49133 Y-29.11259
G01 X-3.48348 Y-29.15498
G01 X-3.46779 Y-29.19514
G01 X-3.41732 Y-29.28849
G01 X-3.39364 Y-29.31607
G01 X-3.36588 Y-29.33954
G01 X-3.17604 Y-29.47543
G01 X-3.03627 Y-29.61523
G01 X-2.96769 Y-29.71317
G01 X-3.02486 Y-29.71317
G01 X-3.17947 Y-29.53977
G01 X-3.36159 Y-29.40746
G01 X-3.56723 Y-29.31589
G01 X-3.78742 Y-29.26908
G01 X-4.01254 Y-29.26908
G01 X-4.23273 Y-29.31589
G01 X-4.43840 Y-29.40746
G01 X-4.60205 Y-29.52483
G01 X-4.63730 Y-29.55656
G01 X-4.75620 Y-29.68861
G01 X-4.78406 Y-29.72697
G01 X-4.88368 Y-29.90202
G01 X-4.95285 Y-30.11460
G01 X-4.96852 Y-30.14251
G01 X-4.97713 Y-30.37279
G01 X-4.96814 Y-30.54454
G01 X-4.96092 Y-30.61299
G01 X-4.93372 Y-30.78480
G01 X-4.89212 Y-30.95584
G01 X-4.88914 Y-30.99943
G01 X-4.87677 Y-31.00134
G01 X-4.88914 Y-30.99943
G01 X-4.90286 Y-31.04088
G01 X-4.99742 Y-31.20862
G04 P0 ( dwell for no time -- G64 should not smooth over this point )
G00 Z2.00000 ( retract )

G00 X-12.65331 Y-25.11387 ( rapid move to begin. )
G01 F60.00000
( Mill infeed pass 1/1 )
G01 Z-0.10000
G04 P0 ( dwell for no time -- G64 should not smooth over this point )
G01 F120.00000
G01 X-12.65331 Y-25.11387
G01 X-12.69876 Y-25.15933
G01 X-12.76957 Y-25.14354
G01 X-12.81890 Y-25.13813
G01 X-13.03185 Y-25.13947
G01 X-13.12720 Y-25.15931
G01 X-13.17262 Y-25.11387
G01 X-13.01021 Y-25.08679
G01 X-12.81575 Y-25.08679
G01 X-12.65331 Y-25.11387
G04 P0 ( dwell for no time -- G64 should not smooth over this point )
G00 Z2.00000 ( retract )

G00 X-11.73574 Y-26.25999 ( rapid move to begin. )
G01 F60.00000
( Mill infeed pass 1/1 )
G01 Z-0.10000
G04 P0 ( dwell for no time -- G64 should not smooth over this point )
G01 F120.00000
G01 X-11.73574 Y-26.25999
G01 X-11.75182 Y-26.45372
G01 X-11.76818 Y-26.51834
G01 X-11.80828 Y-26.47826
G01 X-11.78618 Y-26.25999
G01 X-11.80828 Y-26.04171
G01 X-11.76818 Y-26.00160
G01 X-11.75182 Y-26.06622
G01 X-11.73574 Y-26.25999
G04 P0 ( dwell for no time -- G64 should not smooth over this point )
G00 Z2.00000 ( retract )

G00 X-12.65331 Y-27.40607 ( rapid move to begin. )
G01 F60.00000
( Mill infeed pass 1/1 )
G01 Z-0.10000
G04 P0 ( dwell for no time -- G64 should not smooth over this point )
G01 F120.00000
G01 X-12.65331 Y-27.40607
G01 X-12.69873 Y-27.36065
G01 X-12.76957 Y-27.37642
G01 X-12.81890 Y-27.38186
G01 X-13.03185 Y-27.38049
G01 X-13.12720 Y-27.36065
G01 X-13.17262 Y-27.40607
G01 X-13.01018 Y-27.43317
G01 X-12.81575 Y-27.43317
G01 X-12.65331 Y-27.40607
G04 P0 ( dwell for no time -- G64 should not smooth over this point )
G00 Z2.00000 ( retract )

G00 X-14.01770 Y-26.47826 ( rapid move to begin. )
G01 F60.00000
( Mill infeed pass 1/1 )
G01 Z-0.10000
G04 P0 ( dwell for no time -- G64 should not smooth over this point )
G01 F120.00000
G01 X-14.01770 Y-26.47826
G01 X-14.03980 Y-26.25999
G01 X-14.01770 Y-26.04168
G01 X-14.05778 Y-26.00160
G01 X-14.07414 Y-26.06622
G01 X-14.09019 Y-26.25999
G01 X-14.07414 Y-26.45372
G01 X-14.05778 Y-26.51836
G01 X-14.01770 Y-26.47826
G04 P0 ( dwell for no time -- G64 should not smooth over this point )
G00 Z2.00000 ( retract )

G00 X-12.65329 Y-32.16389 ( rapid move to begin. )
G01 F60.00000
( Mill infeed pass 1/1 )
G01 Z-0.10000
G04 P0 ( dwell for no time -- G64 should not smooth over this point )
G01 F120.00000
G01 X-12.65329 Y-32.16389
G01 X-12.69873 Y-32.20933
G01 X-12.76957 Y-32.19353
G01 X-12.81890 Y-32.18812
G01 X-13.03185 Y-32.18947
G01 X-13.12720 Y-32.20931
G01 X-13.17262 Y-32.16389
G01 X-13.01021 Y-32.13679
G01 X-12.81575 Y-32.13679
G01 X-12.65329 Y-32.16389
G04 P0 ( dwell for no time -- G64 should not smooth over this point )
G00 Z2.00000 ( retract )

G00 X-11.73574 Y-33.30999 ( rapid move to begin. )
G01 F60.00000
( Mill infeed pass 1/1 )
G01 Z-0.10000
G04 P0 ( dwell for no time -- G64 should not smooth over this point )
G01 F120.00000
G01 X-11.73574 Y-33.30999
G01 X-11.75182 Y-33.50374
G01 X-11.76818 Y-33.56834
G01 X-11.80828 Y-33.52825
G01 X-11.78618 Y-33.30999
G01 X-11.80828 Y-33.09170
G01 X-11.76818 Y-33.05160
G01 X-11.75182 Y-33.11622
G01 X-11.73574 Y-33.30999
G04 P0 ( dwell for no time -- G64 should not smooth over this point )
G00 Z2.00000 ( retract )

G00 X-12.65331 Y-34.45607 ( rapid move to begin. )
G01 F60.00000
( Mill infeed pass 1/1 )
G01 Z-0.10000
G04 P0 ( dwell for no time -- G64 should not smooth over this point )
G01 F120.00000
G01 X-12.65331 Y-34.45607
G01 X-12.69873 Y-34.41065
G01 X-12.76957 Y-34.42642
G01 X-12.81890 Y-34.43186
G01 X-13.03185 Y-34.43049
G01 X-13.12720 Y-34.41065
G01 X-13.17262 Y-34.45607
G01 X-13.01018 Y-34.48317
G01 X-12.81575 Y-34.48317
G01 X-12.65331 Y-34.45607
G04 P0 ( dwell for no time -- G64 should not smooth over this point )
G00 Z2.00000 ( retract )

G00 X-14.01770 Y-33.52828 ( rapid move to begin. )
G01 F60.00000
( Mill infeed pass 1/1 )
G01 Z-0.10000
G04 P0 ( dwell for no time -- G64 should not smooth over this point )
G01 F120.00000
G01 X-14.01770 Y-33.52828
G01 X-14.03980 Y-33.30999
G01 X-14.01770 Y-33.09168
G01 X-14.05778 Y-33.05160
G01 X-14.07414 Y-33.11622
G01 X-14.09019 Y-33.30999
G01 X-14.07414 Y-33.50374
G01 X-14.05778 Y-33.56836
G01 X-14.01770 Y-33.52828
G04 P0 ( dwell for no time -- G64 should not smooth over this point )
G00 Z2.00000 ( retract )

G00 X-14.01770 Y-40.57828 ( rapid move to begin. )
G01 F60.00000
( Mill infeed pass 1/1 )
G01 Z-0.10000
G04 P0 ( dwell for no time -- G64 should not smooth over this point )
G01 F120.00000
G01 X-14.01770 Y-40.57828
G01 X-14.05778 Y-40.61836
G01 X-14.07414 Y-40.55374
G01 X-14.09019 Y-40.35999
G01 X-14.07414 Y-40.16621
G01 X-14.05778 Y-40.10160
G01 X-14.01770 Y-40.14168
G01 X-14.03980 Y-40.35999
G01 X-14.01770 Y-40.57828
G04 P0 ( dwell for no time -- G64 should not smooth over this point )
G00 Z2.00000 ( retract )

G00 X-12.65331 Y-41.50606 ( rapid move to begin. )
G01 F60.00000
( Mill infeed pass 1/1 )
G01 Z-0.10000
G04 P0 ( dwell for no time -- G64 should not smooth over this point )
G01 F120.00000
G01 X-12.65331 Y-41.50606
G01 X-12.81575 Y-41.53317
G01 X-13.01018 Y-41.53317
G01 X-13.17262 Y-41.50606
G01 X-13.12720 Y-41.46065
G01 X-13.05636 Y-41.47642
G01 X-13.00706 Y-41.48186
G01 X-12.79408 Y-41.48049
G01 X-12.69873 Y-41.46065
G01 X-12.65331 Y-41.50606
G04 P0 ( dwell for no time -- G64 should not smooth over this point )
G00 Z2.00000 ( retract )

G00 X-11.73574 Y-40.35999 ( rapid move to begin. )
G01 F60.00000
( Mill infeed pass 1/1 )
G01 Z-0.10000
G04 P0 ( dwell for no time -- G64 should not smooth over this point )
G01 F120.00000
G01 X-11.73574 Y-40.35999
G01 X-11.75182 Y-40.16621
G01 X-11.76818 Y-40.10160
G01 X-11.80828 Y-40.14170
G01 X-11.78618 Y-40.35999
G01 X-11.80828 Y-40.57825
G01 X-11.76818 Y-40.61833
G01 X-11.75182 Y-40.55374
G01 X-11.73574 Y-40.35999
G04 P0 ( dwell for no time -- G64 should not smooth over this point )
G00 Z2.00000 ( retract )

G00 X-12.65329 Y-39.21389 ( rapid move to begin. )
G01 F60.00000
( Mill infeed pass 1/1 )
G01 Z-0.10000
G04 P0 ( dwell for no time -- G64 should not smooth over this point )
G01 F120.00000
G01 X-12.65329 Y-39.21389
G01 X-12.81575 Y-39.18679
G01 X-13.01021 Y-39.18679
G01 X-13.17262 Y-39.21389
G01 X-13.12720 Y-39.25931
G01 X-13.03185 Y-39.23947
G01 X-12.81890 Y-39.23812
G01 X-12.76957 Y-39.24353
G01 X-12.69873 Y-39.25933
G01 X-12.65329 Y-39.21389
G04 P0 ( dwell for no time -- G64 should not smooth over this point )
G00 Z2.00000 ( retract )

G00 X-2.96769 Y-30.96679 ( rapid move to begin. )
G01 F60.00000
( Mill infeed pass 1/1 )
G01 Z-0.10000
G04 P0 ( dwell for no time -- G64 should not smooth over this point )
G01 F120.00000
G01 X-2.96769 Y-30.96679
G01 X-3.03627 Y-31.06471
G01 X-3.17523 Y-31.20367
G01 X-3.27317 Y-31.27225
G01 X-3.27317 Y-31.20982
G01 X-3.17947 Y-31.14020
G01 X-3.02486 Y-30.96679
G01 X-2.96769 Y-30.96679
G04 P0 ( dwell for no time -- G64 should not smooth over this point )
G00 Z2.00000 ( retract )

G00 X-1.27366 Y-42.99557 ( rapid move to begin. )
G01 F60.00000
( Mill infeed pass 1/1 )
G01 Z-0.10000
G04 P0 ( dwell for no time -- G64 should not smooth over this point )
G01 F120.00000
G01 X-1.27366 Y-42.99557
G01 X-1.27366 Y-3.00441
G01 X-1.29319 Y-2.74851
G01 X-1.34635 Y-2.50815
G01 X-1.43319 Y-2.27782
G01 X-1.55191 Y-2.06223
G01 X-1.70010 Y-1.86568
G01 X-1.87584 Y-1.69141
G01 X-2.08953 Y-1.53459
G01 X-2.30734 Y-1.41991
G01 X-2.53926 Y-1.33741
G01 X-2.77957 Y-1.28885
G01 X-3.00441 Y-1.27366
G01 X-14.01265 Y-1.27432
G01 X-14.27155 Y-1.29629
G01 X-14.51125 Y-1.35227
G01 X-14.71120 Y-1.42822
G01 X-14.95476 Y-1.56307
G01 X-15.12522 Y-1.69225
G01 X-15.28732 Y-1.85138
G01 X-15.45453 Y-2.07231
G01 X-15.57175 Y-2.28877
G01 X-15.64767 Y-2.48872
G01 X-15.70365 Y-2.72839
G01 X-15.72562 Y-2.98729
G01 X-15.72628 Y-42.99557
G01 X-15.70675 Y-43.25142
G01 X-15.65359 Y-43.49179
G01 X-15.56677 Y-43.72209
G01 X-15.44805 Y-43.93771
G01 X-15.29987 Y-44.13425
G01 X-15.12519 Y-44.30771
G01 X-14.92763 Y-44.45452
G01 X-14.71117 Y-44.57174
G01 X-14.47894 Y-44.65726
G01 X-14.22037 Y-44.71109
G01 X-13.99555 Y-44.72628
G01 X-3.00441 Y-44.72628
G01 X-2.74851 Y-44.70674
G01 X-2.53929 Y-44.66252
G01 X-2.30736 Y-44.58002
G01 X-2.06223 Y-44.44804
G01 X-1.86472 Y-44.29890
G01 X-1.70104 Y-44.13519
G01 X-1.55191 Y-43.93771
G01 X-1.42037 Y-43.69384
G01 X-1.34297 Y-43.48025
G01 X-1.29629 Y-43.27157
G01 X-1.27366 Y-42.99557
G01 X-1.04691 Y-42.99557
G01 X-1.04821 Y-43.02978
G01 X-1.06535 Y-43.25628
G01 X-1.07500 Y-43.32107
G01 X-1.12169 Y-43.52976
G01 X-1.13934 Y-43.58924
G01 X-1.20792 Y-43.77309
G01 X-1.23355 Y-43.82963
G01 X-1.33495 Y-44.01792
G01 X-1.36959 Y-44.07253
G01 X-1.49675 Y-44.24449
G01 X-1.54069 Y-44.29552
G01 X-1.70437 Y-44.45922
G01 X-1.75544 Y-44.50321
G01 X-1.92740 Y-44.63037
G01 X-1.98206 Y-44.66504
G01 X-2.17035 Y-44.76641
G01 X-2.22936 Y-44.79295
G01 X-2.43020 Y-44.86651
G01 X-2.49240 Y-44.88437
G01 X-2.70162 Y-44.92859
G01 X-2.76375 Y-44.93727
G01 X-2.97274 Y-44.95190
G01 X-13.99555 Y-44.95302
G01 X-14.23619 Y-44.93727
G01 X-14.30091 Y-44.92803
G01 X-14.52712 Y-44.87883
G01 X-14.59177 Y-44.85965
G01 X-14.79169 Y-44.78373
G01 X-14.85039 Y-44.75650
G01 X-15.03749 Y-44.65290
G01 X-15.09169 Y-44.61761
G01 X-15.26215 Y-44.48846
G01 X-15.31084 Y-44.44576
G01 X-15.46116 Y-44.29364
G01 X-15.50322 Y-44.24449
G01 X-15.63037 Y-44.07253
G01 X-15.66504 Y-44.01787
G01 X-15.76641 Y-43.82958
G01 X-15.79296 Y-43.77058
G01 X-15.86652 Y-43.56976
G01 X-15.88437 Y-43.50756
G01 X-15.92859 Y-43.29831
G01 X-15.93728 Y-43.23621
G01 X-15.95303 Y-42.99557
G01 X-15.95173 Y-2.97017
G01 X-15.93459 Y-2.74368
G01 X-15.92494 Y-2.67889
G01 X-15.87825 Y-2.47020
G01 X-15.85966 Y-2.40822
G01 X-15.78374 Y-2.20828
G01 X-15.75651 Y-2.14955
G01 X-15.65290 Y-1.96245
G01 X-15.61760 Y-1.90823
G01 X-15.48844 Y-1.73779
G01 X-15.44767 Y-1.69103
G01 X-15.30894 Y-1.55230
G01 X-15.26217 Y-1.51153
G01 X-15.09171 Y-1.38234
G01 X-15.03744 Y-1.34701
G01 X-14.85034 Y-1.24343
G01 X-14.79172 Y-1.21623
G01 X-14.59177 Y-1.14028
G01 X-14.52974 Y-1.12169
G01 X-14.32105 Y-1.07500
G01 X-14.25626 Y-1.06535
G01 X-14.02977 Y-1.04821
G01 X-3.00441 Y-1.04691
G01 X-2.76375 Y-1.06266
G01 X-2.70162 Y-1.07135
G01 X-2.49238 Y-1.11557
G01 X-2.43017 Y-1.13342
G01 X-2.22936 Y-1.20698
G01 X-2.17030 Y-1.23355
G01 X-1.98201 Y-1.33495
G01 X-1.92527 Y-1.37117
G01 X-1.73995 Y-1.50988
G01 X-1.68913 Y-1.55418
G01 X-1.53881 Y-1.70630
G01 X-1.49675 Y-1.75544
G01 X-1.36959 Y-1.92740
G01 X-1.33495 Y-1.98201
G01 X-1.23355 Y-2.17030
G01 X-1.20698 Y-2.22936
G01 X-1.13342 Y-2.43017
G01 X-1.11557 Y-2.49238
G01 X-1.07135 Y-2.70162
G01 X-1.06266 Y-2.76375
G01 X-1.04691 Y-3.00441
G01 X-1.04691 Y-42.99557
G01 X-1.00000 Y-42.99999
G01 X-1.03843 Y-43.39016
G01 X-1.15222 Y-43.76534
G01 X-1.33706 Y-44.11114
G01 X-1.58577 Y-44.41421
G01 X-1.88885 Y-44.66293
G01 X-2.23462 Y-44.84774
G01 X-2.60980 Y-44.96156
G01 X-2.99999 Y-44.99999
G01 X-14.00000 Y-44.99999
G01 X-14.39017 Y-44.96156
G01 X-14.76535 Y-44.84774
G01 X-15.11112 Y-44.66293
G01 X-15.41419 Y-44.41421
G01 X-15.66294 Y-44.11114
G01 X-15.84775 Y-43.76534
G01 X-15.96156 Y-43.39016
G01 X-15.99999 Y-42.99999
G01 X-15.99999 Y-2.99999
G01 X-15.96156 Y-2.60980
G01 X-15.84775 Y-2.23462
G01 X-15.66294 Y-1.88885
G01 X-15.41419 Y-1.58577
G01 X-15.11112 Y-1.33706
G01 X-14.76535 Y-1.15222
G01 X-14.39017 Y-1.03843
G01 X-14.00000 Y-1.00000
G01 X-2.99999 Y-1.00000
G01 X-2.60980 Y-1.03843
G01 X-2.23462 Y-1.15222
G01 X-1.88885 Y-1.33706
G01 X-1.58577 Y-1.58577
G01 X-1.33706 Y-1.88885
G01 X-1.15222 Y-2.23462
G01 X-1.03843 Y-2.60980
G01 X-1.00000 Y-2.99999
G01 X-1.00000 Y-42.99999

G04 P0 ( dwell for no time -- G64 should not smooth over this point )
G00 Z15.000000 ( retract )

M5 ( Spindle off. )
G04 P1.000000
M9 ( Coolant off. )
M2 ( Program end. )

