( pcb2gcode 2.5.0 )
( Software-independent Gcode )

G94 ( Millimeters per minute feed rate. )
G21 ( Units == Millimeters. )

G90 ( Absolute coordinates. )
G00 S13000 ( RPM spindle speed. )
G01 F120.00000 ( Feedrate. )


G00 Z15.00000 (Retract to tool change height)
T0
M5      (Spindle stop.)
G04 P1.00000 (Wait for spindle to stop)
(MSG, Change tool bit to cutter diameter 1.00000mm)
M6      (Tool change.)
M0      (Temporary machine stop.)
M3 ( Spindle on clockwise. )
G04 P1.00000 (Wait for spindle to get up to speed)
G04 P0 ( dwell for no time -- G64 should not smooth over this point )
G00 Z2.00000 ( retract )

G00 X-0.49997 Y-42.99999 ( rapid move to begin. )
G01 Z-0.50000 F60.00000 ( plunge. )
G04 P0 ( dwell for no time -- G64 should not smooth over this point )
G01 F120.00000
G01 X-0.49997 Y-2.99999
G01 X-0.54082 Y-2.56078
G01 X-0.55994 Y-2.46466
G01 X-0.67373 Y-2.08948
G01 X-0.71125 Y-1.99888
G01 X-0.89609 Y-1.65311
G01 X-0.95054 Y-1.57165
G01 X-1.19926 Y-1.26858
G01 X-1.26858 Y-1.19926
G01 X-1.57165 Y-0.95054
G01 X-1.65311 Y-0.89609
G01 X-1.99888 Y-0.71125
G01 X-2.08948 Y-0.67373
G01 X-2.46466 Y-0.55994
G01 X-2.56078 Y-0.54082
G01 X-2.99999 Y-0.49997
G01 X-14.00000 Y-0.49997
G01 X-14.43916 Y-0.54082
G01 X-14.53528 Y-0.55994
G01 X-14.91046 Y-0.67373
G01 X-15.00106 Y-0.71125
G01 X-15.34683 Y-0.89609
G01 X-15.42829 Y-0.95054
G01 X-15.73136 Y-1.19926
G01 X-15.80068 Y-1.26855
G01 X-16.07866 Y-1.61105
G01 X-16.28869 Y-1.99890
G01 X-16.32621 Y-2.08945
G01 X-16.44002 Y-2.46464
G01 X-16.45915 Y-2.56078
G01 X-16.49999 Y-2.99999
G01 X-16.49999 Y-42.99999
G01 X-16.45194 Y-43.48770
G01 X-16.32621 Y-43.91048
G01 X-16.28872 Y-44.00100
G01 X-16.07866 Y-44.38891
G01 X-15.80068 Y-44.73141
G01 X-15.73136 Y-44.80070
G01 X-15.38889 Y-45.07865
G01 X-15.00104 Y-45.28868
G01 X-14.91049 Y-45.32620
G01 X-14.53530 Y-45.44002
G01 X-14.43916 Y-45.45914
G01 X-14.00000 Y-45.49999
G01 X-2.95097 Y-45.49757
G01 X-2.51224 Y-45.45193
G01 X-2.08945 Y-45.32620
G01 X-1.99890 Y-45.28868
G01 X-1.61105 Y-45.07865
G01 X-1.23220 Y-44.76775
G01 X-0.95054 Y-44.42831
G01 X-0.89609 Y-44.34683
G01 X-0.69027 Y-43.95666
G01 X-0.55994 Y-43.53527
G01 X-0.54082 Y-43.43916
G01 X-0.49997 Y-42.99999
G01 Z-1.00000 F60.00000 ( plunge. )
G04 P0 ( dwell for no time -- G64 should not smooth over this point )
G01 F120.00000
G01 X-0.49997 Y-2.99999
G01 X-0.54082 Y-2.56078
G01 X-0.55994 Y-2.46466
G01 X-0.67373 Y-2.08948
G01 X-0.71125 Y-1.99888
G01 X-0.89609 Y-1.65311
G01 X-0.95054 Y-1.57165
G01 X-1.19926 Y-1.26858
G01 X-1.26858 Y-1.19926
G01 X-1.57165 Y-0.95054
G01 X-1.65311 Y-0.89609
G01 X-1.99888 Y-0.71125
G01 X-2.08948 Y-0.67373
G01 X-2.46466 Y-0.55994
G01 X-2.56078 Y-0.54082
G01 X-2.99999 Y-0.49997
G01 X-14.00000 Y-0.49997
G01 X-14.43916 Y-0.54082
G01 X-14.53528 Y-0.55994
G01 X-14.91046 Y-0.67373
G01 X-15.00106 Y-0.71125
G01 X-15.34683 Y-0.89609
G01 X-15.42829 Y-0.95054
G01 X-15.73136 Y-1.19926
G01 X-15.80068 Y-1.26855
G01 X-16.07866 Y-1.61105
G01 X-16.28869 Y-1.99890
G01 X-16.32621 Y-2.08945
G01 X-16.44002 Y-2.46464
G01 X-16.45915 Y-2.56078
G01 X-16.49999 Y-2.99999
G01 X-16.49999 Y-42.99999
G01 X-16.45194 Y-43.48770
G01 X-16.32621 Y-43.91048
G01 X-16.28872 Y-44.00100
G01 X-16.07866 Y-44.38891
G01 X-15.80068 Y-44.73141
G01 X-15.73136 Y-44.80070
G01 X-15.38889 Y-45.07865
G01 X-15.00104 Y-45.28868
G01 X-14.91049 Y-45.32620
G01 X-14.53530 Y-45.44002
G01 X-14.43916 Y-45.45914
G01 X-14.00000 Y-45.49999
G01 X-2.95097 Y-45.49757
G01 X-2.51224 Y-45.45193
G01 X-2.08945 Y-45.32620
G01 X-1.99890 Y-45.28868
G01 X-1.61105 Y-45.07865
G01 X-1.23220 Y-44.76775
G01 X-0.95054 Y-44.42831
G01 X-0.89609 Y-44.34683
G01 X-0.69027 Y-43.95666
G01 X-0.55994 Y-43.53527
G01 X-0.54082 Y-43.43916
G01 X-0.49997 Y-42.99999
G01 Z-1.50000 F60.00000 ( plunge. )
G04 P0 ( dwell for no time -- G64 should not smooth over this point )
G01 F120.00000
G01 X-0.49997 Y-2.99999
G01 X-0.54082 Y-2.56078
G01 X-0.55994 Y-2.46466
G01 X-0.67373 Y-2.08948
G01 X-0.71125 Y-1.99888
G01 X-0.89609 Y-1.65311
G01 X-0.95054 Y-1.57165
G01 X-1.19926 Y-1.26858
G01 X-1.26858 Y-1.19926
G01 X-1.57165 Y-0.95054
G01 X-1.65311 Y-0.89609
G01 X-1.99888 Y-0.71125
G01 X-2.08948 Y-0.67373
G01 X-2.46466 Y-0.55994
G01 X-2.56078 Y-0.54082
G01 X-2.99999 Y-0.49997
G01 X-14.00000 Y-0.49997
G01 X-14.43916 Y-0.54082
G01 X-14.53528 Y-0.55994
G01 X-14.91046 Y-0.67373
G01 X-15.00106 Y-0.71125
G01 X-15.34683 Y-0.89609
G01 X-15.42829 Y-0.95054
G01 X-15.73136 Y-1.19926
G01 X-15.80068 Y-1.26855
G01 X-16.07866 Y-1.61105
G01 X-16.28869 Y-1.99890
G01 X-16.32621 Y-2.08945
G01 X-16.44002 Y-2.46464
G01 X-16.45915 Y-2.56078
G01 X-16.49999 Y-2.99999
G01 X-16.49999 Y-42.99999
G01 X-16.45194 Y-43.48770
G01 X-16.32621 Y-43.91048
G01 X-16.28872 Y-44.00100
G01 X-16.07866 Y-44.38891
G01 X-15.80068 Y-44.73141
G01 X-15.73136 Y-44.80070
G01 X-15.38889 Y-45.07865
G01 X-15.00104 Y-45.28868
G01 X-14.91049 Y-45.32620
G01 X-14.53530 Y-45.44002
G01 X-14.43916 Y-45.45914
G01 X-14.00000 Y-45.49999
G01 X-2.95097 Y-45.49757
G01 X-2.51224 Y-45.45193
G01 X-2.08945 Y-45.32620
G01 X-1.99890 Y-45.28868
G01 X-1.61105 Y-45.07865
G01 X-1.23220 Y-44.76775
G01 X-0.95054 Y-44.42831
G01 X-0.89609 Y-44.34683
G01 X-0.69027 Y-43.95666
G01 X-0.55994 Y-43.53527
G01 X-0.54082 Y-43.43916
G01 X-0.49997 Y-42.99999
G01 Z-2.00000 F60.00000 ( plunge. )
G04 P0 ( dwell for no time -- G64 should not smooth over this point )
G01 F120.00000
G01 X-0.49997 Y-2.99999
G01 X-0.54082 Y-2.56078
G01 X-0.55994 Y-2.46466
G01 X-0.67373 Y-2.08948
G01 X-0.71125 Y-1.99888
G01 X-0.89609 Y-1.65311
G01 X-0.95054 Y-1.57165
G01 X-1.19926 Y-1.26858
G01 X-1.26858 Y-1.19926
G01 X-1.57165 Y-0.95054
G01 X-1.65311 Y-0.89609
G01 X-1.99888 Y-0.71125
G01 X-2.08948 Y-0.67373
G01 X-2.46466 Y-0.55994
G01 X-2.56078 Y-0.54082
G01 X-2.99999 Y-0.49997
G01 X-14.00000 Y-0.49997
G01 X-14.43916 Y-0.54082
G01 X-14.53528 Y-0.55994
G01 X-14.91046 Y-0.67373
G01 X-15.00106 Y-0.71125
G01 X-15.34683 Y-0.89609
G01 X-15.42829 Y-0.95054
G01 X-15.73136 Y-1.19926
G01 X-15.80068 Y-1.26855
G01 X-16.07866 Y-1.61105
G01 X-16.28869 Y-1.99890
G01 X-16.32621 Y-2.08945
G01 X-16.44002 Y-2.46464
G01 X-16.45915 Y-2.56078
G01 X-16.49999 Y-2.99999
G01 X-16.49999 Y-42.99999
G01 X-16.45194 Y-43.48770
G01 X-16.32621 Y-43.91048
G01 X-16.28872 Y-44.00100
G01 X-16.07866 Y-44.38891
G01 X-15.80068 Y-44.73141
G01 X-15.73136 Y-44.80070
G01 X-15.38889 Y-45.07865
G01 X-15.00104 Y-45.28868
G01 X-14.91049 Y-45.32620
G01 X-14.53530 Y-45.44002
G01 X-14.43916 Y-45.45914
G01 X-14.00000 Y-45.49999
G01 X-2.95097 Y-45.49757
G01 X-2.51224 Y-45.45193
G01 X-2.08945 Y-45.32620
G01 X-1.99890 Y-45.28868
G01 X-1.61105 Y-45.07865
G01 X-1.23220 Y-44.76775
G01 X-0.95054 Y-44.42831
G01 X-0.89609 Y-44.34683
G01 X-0.69027 Y-43.95666
G01 X-0.55994 Y-43.53527
G01 X-0.54082 Y-43.43916
G01 X-0.49997 Y-42.99999
G01 Z-2.50000 F60.00000 ( plunge. )
G04 P0 ( dwell for no time -- G64 should not smooth over this point )
G01 F120.00000
G01 X-0.49997 Y-2.99999
G01 X-0.54082 Y-2.56078
G01 X-0.55994 Y-2.46466
G01 X-0.67373 Y-2.08948
G01 X-0.71125 Y-1.99888
G01 X-0.89609 Y-1.65311
G01 X-0.95054 Y-1.57165
G01 X-1.19926 Y-1.26858
G01 X-1.26858 Y-1.19926
G01 X-1.57165 Y-0.95054
G01 X-1.65311 Y-0.89609
G01 X-1.99888 Y-0.71125
G01 X-2.08948 Y-0.67373
G01 X-2.46466 Y-0.55994
G01 X-2.56078 Y-0.54082
G01 X-2.99999 Y-0.49997
G01 X-14.00000 Y-0.49997
G01 X-14.43916 Y-0.54082
G01 X-14.53528 Y-0.55994
G01 X-14.91046 Y-0.67373
G01 X-15.00106 Y-0.71125
G01 X-15.34683 Y-0.89609
G01 X-15.42829 Y-0.95054
G01 X-15.73136 Y-1.19926
G01 X-15.80068 Y-1.26855
G01 X-16.07866 Y-1.61105
G01 X-16.28869 Y-1.99890
G01 X-16.32621 Y-2.08945
G01 X-16.44002 Y-2.46464
G01 X-16.45915 Y-2.56078
G01 X-16.49999 Y-2.99999
G01 X-16.49999 Y-42.99999
G01 X-16.45194 Y-43.48770
G01 X-16.32621 Y-43.91048
G01 X-16.28872 Y-44.00100
G01 X-16.07866 Y-44.38891
G01 X-15.80068 Y-44.73141
G01 X-15.73136 Y-44.80070
G01 X-15.38889 Y-45.07865
G01 X-15.00104 Y-45.28868
G01 X-14.91049 Y-45.32620
G01 X-14.53530 Y-45.44002
G01 X-14.43916 Y-45.45914
G01 X-14.00000 Y-45.49999
G01 X-2.95097 Y-45.49757
G01 X-2.51224 Y-45.45193
G01 X-2.08945 Y-45.32620
G01 X-1.99890 Y-45.28868
G01 X-1.61105 Y-45.07865
G01 X-1.23220 Y-44.76775
G01 X-0.95054 Y-44.42831
G01 X-0.89609 Y-44.34683
G01 X-0.69027 Y-43.95666
G01 X-0.55994 Y-43.53527
G01 X-0.54082 Y-43.43916
G01 X-0.49997 Y-42.99999

G04 P0 ( dwell for no time -- G64 should not smooth over this point )
G00 Z15.000000 ( retract )

M5 ( Spindle off. )
G04 P1.000000
M9 ( Coolant off. )
M2 ( Program end. )

