( pcb2gcode 2.5.0 )
( Software-independent Gcode )

G94 ( Millimeters per minute feed rate. )
G21 ( Units == Millimeters. )

G90 ( Absolute coordinates. )
G00 S13000 ( RPM spindle speed. )
G01 F120.00000 ( Feedrate. )


G00 Z15.00000 (Retract to tool change height)
T0
M5      (Spindle stop.)
G04 P1.00000 (Wait for spindle to stop)
(MSG, Change tool bit to mill diameter 0.45360mm)
M6      (Tool change.)
M0      (Temporary machine stop.)
M3 ( Spindle on clockwise. )
G04 P1.00000 (Wait for spindle to get up to speed)
G04 P0 ( dwell for no time -- G64 should not smooth over this point )
G00 Z2.00000 ( retract )

G00 X-4.46359 Y-4.50243 ( rapid move to begin. )
G01 F60.00000
( Mill infeed pass 1/1 )
G01 Z-0.10000
G04 P0 ( dwell for no time -- G64 should not smooth over this point )
G01 F120.00000
G01 X-4.46359 Y-4.50243
G01 X-4.46728 Y-4.51615
G01 X-4.47591 Y-4.52740
G01 X-4.46357 Y-4.54147
G01 X-4.47591 Y-4.52740
G01 X-4.48828 Y-4.53453
G01 X-4.50243 Y-4.53636
G01 X-4.50365 Y-4.55501
G01 X-4.50243 Y-4.53636
G01 X-4.51607 Y-4.53271
G01 X-4.52740 Y-4.52402
G01 X-4.54144 Y-4.53631
G01 X-4.52740 Y-4.52402
G01 X-4.53453 Y-4.51165
G01 X-4.53636 Y-4.49753
G01 X-4.55501 Y-4.49631
G01 X-4.53636 Y-4.49753
G01 X-4.53271 Y-4.48386
G01 X-4.52402 Y-4.47253
G01 X-4.53636 Y-4.45844
G01 X-4.52402 Y-4.47253
G01 X-4.51170 Y-4.46545
G01 X-4.49753 Y-4.46359
G01 X-4.49631 Y-4.44500
G01 X-4.49753 Y-4.46359
G01 X-4.48386 Y-4.46725
G01 X-4.47253 Y-4.47594
G01 X-4.45844 Y-4.46359
G01 X-4.47253 Y-4.47594
G01 X-4.46545 Y-4.48821
G01 X-4.46359 Y-4.50243
G01 X-4.23682 Y-4.51726
G01 X-4.24132 Y-4.55145
G01 X-4.23697 Y-4.55231
G01 X-4.24132 Y-4.55145
G01 X-4.26347 Y-4.61665
G01 X-4.28069 Y-4.64650
G01 X-4.27700 Y-4.64896
G01 X-4.28069 Y-4.64650
G01 X-4.30169 Y-4.67385
G01 X-4.35343 Y-4.71924
G01 X-4.35097 Y-4.72293
G01 X-4.35343 Y-4.71924
G01 X-4.38333 Y-4.73652
G01 X-4.44848 Y-4.75861
G01 X-4.44762 Y-4.76298
G01 X-4.44848 Y-4.75861
G01 X-4.48269 Y-4.76313
G01 X-4.55145 Y-4.75864
G01 X-4.55231 Y-4.76298
G01 X-4.55145 Y-4.75864
G01 X-4.61660 Y-4.73652
G01 X-4.64650 Y-4.71924
G01 X-4.64896 Y-4.72293
G01 X-4.64650 Y-4.71924
G01 X-4.67385 Y-4.69824
G01 X-4.71927 Y-4.64647
G01 X-4.72295 Y-4.64894
G01 X-4.71927 Y-4.64647
G01 X-4.73652 Y-4.61660
G01 X-4.75864 Y-4.55145
G01 X-4.76298 Y-4.55231
G01 X-4.75864 Y-4.55145
G01 X-4.76313 Y-4.48269
G01 X-4.75861 Y-4.44848
G01 X-4.76298 Y-4.44762
G01 X-4.75861 Y-4.44848
G01 X-4.73652 Y-4.38333
G01 X-4.71924 Y-4.35343
G01 X-4.72293 Y-4.35097
G01 X-4.71924 Y-4.35343
G01 X-4.69824 Y-4.32608
G01 X-4.64650 Y-4.28069
G01 X-4.64896 Y-4.27700
G01 X-4.64650 Y-4.28069
G01 X-4.61665 Y-4.26347
G01 X-4.55145 Y-4.24132
G01 X-4.55231 Y-4.23697
G01 X-4.55145 Y-4.24132
G01 X-4.48269 Y-4.23682
G01 X-4.44848 Y-4.24134
G01 X-4.44762 Y-4.23697
G01 X-4.44848 Y-4.24134
G01 X-4.38333 Y-4.26344
G01 X-4.35343 Y-4.28071
G01 X-4.35097 Y-4.27703
G01 X-4.35343 Y-4.28071
G01 X-4.32608 Y-4.30172
G01 X-4.28066 Y-4.35348
G01 X-4.27698 Y-4.35102
G01 X-4.28066 Y-4.35348
G01 X-4.26347 Y-4.38328
G01 X-4.24132 Y-4.44851
G01 X-4.23697 Y-4.44764
G01 X-4.24132 Y-4.44851
G01 X-4.23682 Y-4.51726
G01 X-4.01008 Y-4.53212
G01 X-4.01846 Y-4.59577
G01 X-4.01409 Y-4.59664
G01 X-4.01846 Y-4.59577
G01 X-4.03507 Y-4.65780
G01 X-4.05966 Y-4.71716
G01 X-4.09174 Y-4.77274
G01 X-4.08805 Y-4.77523
G01 X-4.09174 Y-4.77274
G01 X-4.13083 Y-4.82369
G01 X-4.17624 Y-4.86910
G01 X-4.22719 Y-4.90819
G01 X-4.22473 Y-4.91188
G01 X-4.22719 Y-4.90819
G01 X-4.28282 Y-4.94030
G01 X-4.34218 Y-4.96489
G01 X-4.40416 Y-4.98150
G01 X-4.40329 Y-4.98587
G01 X-4.40416 Y-4.98150
G01 X-4.46783 Y-4.98988
G01 X-4.53212 Y-4.98988
G01 X-4.59577 Y-4.98150
G01 X-4.59664 Y-4.98587
G01 X-4.59577 Y-4.98150
G01 X-4.65773 Y-4.96491
G01 X-4.71711 Y-4.94030
G01 X-4.77274 Y-4.90819
G01 X-4.77520 Y-4.91188
G01 X-4.77274 Y-4.90819
G01 X-4.82369 Y-4.86910
G01 X-4.86910 Y-4.82369
G01 X-4.90822 Y-4.77271
G01 X-4.91190 Y-4.77517
G01 X-4.90822 Y-4.77271
G01 X-4.94030 Y-4.71711
G01 X-4.96489 Y-4.65775
G01 X-4.98150 Y-4.59577
G01 X-4.98587 Y-4.59664
G01 X-4.98150 Y-4.59577
G01 X-4.98988 Y-4.53212
G01 X-4.98988 Y-4.46783
G01 X-4.98150 Y-4.40416
G01 X-4.98587 Y-4.40329
G01 X-4.98150 Y-4.40416
G01 X-4.96489 Y-4.34218
G01 X-4.94030 Y-4.28282
G01 X-4.90819 Y-4.22719
G01 X-4.91188 Y-4.22473
G01 X-4.90819 Y-4.22719
G01 X-4.86910 Y-4.17624
G01 X-4.82369 Y-4.13083
G01 X-4.77274 Y-4.09174
G01 X-4.77523 Y-4.08805
G01 X-4.77274 Y-4.09174
G01 X-4.71716 Y-4.05966
G01 X-4.65780 Y-4.03507
G01 X-4.59577 Y-4.01846
G01 X-4.59664 Y-4.01409
G01 X-4.59577 Y-4.01846
G01 X-4.53212 Y-4.01008
G01 X-4.46783 Y-4.01008
G01 X-4.40416 Y-4.01846
G01 X-4.40329 Y-4.01409
G01 X-4.40416 Y-4.01846
G01 X-4.34218 Y-4.03507
G01 X-4.28282 Y-4.05966
G01 X-4.22719 Y-4.09176
G01 X-4.22473 Y-4.08808
G01 X-4.22719 Y-4.09176
G01 X-4.17624 Y-4.13085
G01 X-4.13083 Y-4.17627
G01 X-4.09171 Y-4.22725
G01 X-4.08803 Y-4.22478
G01 X-4.09171 Y-4.22725
G01 X-4.05966 Y-4.28280
G01 X-4.03507 Y-4.34213
G01 X-4.01846 Y-4.40418
G01 X-4.01409 Y-4.40332
G01 X-4.01846 Y-4.40418
G01 X-4.01008 Y-4.46783
G01 X-4.01008 Y-4.53212
G01 X-3.78330 Y-4.54698
G01 X-3.79364 Y-4.64050
G01 X-3.81988 Y-4.73083
G01 X-3.85483 Y-4.81810
G01 X-3.90190 Y-4.89963
G01 X-3.95999 Y-4.97352
G01 X-4.02567 Y-5.04076
G01 X-4.10068 Y-5.09755
G01 X-4.18188 Y-5.14513
G01 X-4.26913 Y-5.18008
G01 X-4.35958 Y-5.20545
G01 X-4.45292 Y-5.21774
G01 X-4.54698 Y-5.21665
G01 X-4.64050 Y-5.20631
G01 X-4.73078 Y-5.18008
G01 X-4.81805 Y-5.14513
G01 X-4.89963 Y-5.09803
G01 X-4.97352 Y-5.03994
G01 X-5.04076 Y-4.97426
G01 X-5.09755 Y-4.89923
G01 X-5.14513 Y-4.81808
G01 X-5.18008 Y-4.73080
G01 X-5.20631 Y-4.64050
G01 X-5.21665 Y-4.54698
G01 X-5.21774 Y-4.45292
G01 X-5.20545 Y-4.35958
G01 X-5.18008 Y-4.26913
G01 X-5.14513 Y-4.18188
G01 X-5.09755 Y-4.10068
G01 X-5.04076 Y-4.02567
G01 X-4.97352 Y-3.95999
G01 X-4.89963 Y-3.90190
G01 X-4.81810 Y-3.85483
G01 X-4.73083 Y-3.81988
G01 X-4.64050 Y-3.79364
G01 X-4.54698 Y-3.78330
G01 X-4.45292 Y-3.78221
G01 X-4.35958 Y-3.79451
G01 X-4.26913 Y-3.81988
G01 X-4.18188 Y-3.85483
G01 X-4.10030 Y-3.90192
G01 X-4.02641 Y-3.96001
G01 X-3.95917 Y-4.02570
G01 X-3.90238 Y-4.10073
G01 X-3.85483 Y-4.18183
G01 X-3.81988 Y-4.26910
G01 X-3.79451 Y-4.35961
G01 X-3.78221 Y-4.45292
G01 X-3.78330 Y-4.54698
G01 X-3.55656 Y-4.56184
G01 X-3.57160 Y-4.68462
G01 X-3.60423 Y-4.80403
G01 X-3.65105 Y-4.91866
G01 X-3.71386 Y-5.02524
G01 X-3.78767 Y-5.12465
G01 X-3.87657 Y-5.21081
G01 X-3.97406 Y-5.28698
G01 X-4.08137 Y-5.34894
G01 X-4.19608 Y-5.39526
G01 X-4.31526 Y-5.42834
G01 X-4.43809 Y-5.44449
G01 X-4.56184 Y-5.44340
G01 X-4.68462 Y-5.42836
G01 X-4.80423 Y-5.39631
G01 X-4.91813 Y-5.34792
G01 X-5.02582 Y-5.28701
G01 X-5.12366 Y-5.21117
G01 X-5.21165 Y-5.12404
G01 X-5.28610 Y-5.02521
G01 X-5.34967 Y-4.91899
G01 X-5.39526 Y-4.80385
G01 X-5.42834 Y-4.68470
G01 X-5.44449 Y-4.56187
G01 X-5.44340 Y-4.43812
G01 X-5.42834 Y-4.31533
G01 X-5.39628 Y-4.19570
G01 X-5.34792 Y-4.08181
G01 X-5.28701 Y-3.97411
G01 X-5.21117 Y-3.87627
G01 X-5.12404 Y-3.78828
G01 X-5.02524 Y-3.71386
G01 X-4.91901 Y-3.65026
G01 X-4.80388 Y-3.60469
G01 X-4.68470 Y-3.57162
G01 X-4.56187 Y-3.55547
G01 X-4.43812 Y-3.55656
G01 X-4.31533 Y-3.57162
G01 X-4.19570 Y-3.60368
G01 X-4.08181 Y-3.65204
G01 X-3.97411 Y-3.71295
G01 X-3.87627 Y-3.78879
G01 X-3.78828 Y-3.87591
G01 X-3.71384 Y-3.97474
G01 X-3.65026 Y-4.08092
G01 X-3.60472 Y-4.19605
G01 X-3.57162 Y-4.31526
G01 X-3.55547 Y-4.43809
G01 X-3.55656 Y-4.56184
G01 X-3.32981 Y-4.57670
G01 X-3.34874 Y-4.72902
G01 X-3.38953 Y-4.87693
G01 X-3.44721 Y-5.01912
G01 X-3.52400 Y-5.15214
G01 X-3.61828 Y-5.27319
G01 X-3.72600 Y-5.38244
G01 X-3.84787 Y-5.47596
G01 X-3.98130 Y-5.55173
G01 X-4.12265 Y-5.61147
G01 X-4.27098 Y-5.65122
G01 X-4.42326 Y-5.67014
G01 X-4.57672 Y-5.67126
G01 X-4.72902 Y-5.65122
G01 X-4.87690 Y-5.61045
G01 X-5.01907 Y-5.55274
G01 X-5.15214 Y-5.47594
G01 X-5.27319 Y-5.38165
G01 X-5.38312 Y-5.27446
G01 X-5.47505 Y-5.15148
G01 X-5.55269 Y-5.01917
G01 X-5.61091 Y-4.87705
G01 X-5.65122 Y-4.72895
G01 X-5.67014 Y-4.57670
G01 X-5.67126 Y-4.42323
G01 X-5.65122 Y-4.27093
G01 X-5.61045 Y-4.12303
G01 X-5.55274 Y-3.98087
G01 X-5.47594 Y-3.84780
G01 X-5.38165 Y-3.72674
G01 X-5.27446 Y-3.61681
G01 X-5.15148 Y-3.52491
G01 X-5.01917 Y-3.44724
G01 X-4.87708 Y-3.38905
G01 X-4.72895 Y-3.34874
G01 X-4.57670 Y-3.32981
G01 X-4.42323 Y-3.32870
G01 X-4.27093 Y-3.34874
G01 X-4.12303 Y-3.38950
G01 X-3.98087 Y-3.44721
G01 X-3.84780 Y-3.52402
G01 X-3.72674 Y-3.61831
G01 X-3.61681 Y-3.72549
G01 X-3.52488 Y-3.84848
G01 X-3.44724 Y-3.98076
G01 X-3.38907 Y-4.12288
G01 X-3.34874 Y-4.27101
G01 X-3.32981 Y-4.42326
G01 X-3.32981 Y-4.57670
G01 X-3.10304 Y-4.59156
G01 X-3.12646 Y-4.77319
G01 X-3.17388 Y-4.95013
G01 X-3.24396 Y-5.11937
G01 X-3.33555 Y-5.27799
G01 X-3.44706 Y-5.42333
G01 X-3.57660 Y-5.55287
G01 X-3.72194 Y-5.66438
G01 X-3.88059 Y-5.75597
G01 X-4.04983 Y-5.82610
G01 X-4.22674 Y-5.87350
G01 X-4.40837 Y-5.89740
G01 X-4.59158 Y-5.89740
G01 X-4.77319 Y-5.87350
G01 X-4.95010 Y-5.82610
G01 X-5.11934 Y-5.75597
G01 X-5.27799 Y-5.66438
G01 X-5.42333 Y-5.55287
G01 X-5.55287 Y-5.42333
G01 X-5.66438 Y-5.27799
G01 X-5.75597 Y-5.11937
G01 X-5.82610 Y-4.95010
G01 X-5.87350 Y-4.77319
G01 X-5.89740 Y-4.59158
G01 X-5.89740 Y-4.40837
G01 X-5.87350 Y-4.22674
G01 X-5.82610 Y-4.04983
G01 X-5.75597 Y-3.88059
G01 X-5.66438 Y-3.72194
G01 X-5.55287 Y-3.57660
G01 X-5.42333 Y-3.44706
G01 X-5.27799 Y-3.33555
G01 X-5.11937 Y-3.24396
G01 X-4.95013 Y-3.17388
G01 X-4.77319 Y-3.12646
G01 X-4.59158 Y-3.10256
G01 X-4.40837 Y-3.10256
G01 X-4.22674 Y-3.12646
G01 X-4.04983 Y-3.17386
G01 X-3.88059 Y-3.24399
G01 X-3.72194 Y-3.33558
G01 X-3.57660 Y-3.44708
G01 X-3.44706 Y-3.57662
G01 X-3.33555 Y-3.72196
G01 X-3.24396 Y-3.88056
G01 X-3.17388 Y-4.04983
G01 X-3.12646 Y-4.22676
G01 X-3.10256 Y-4.40837
G01 X-3.10304 Y-4.59156
G01 X-2.87630 Y-4.60642
G01 X-2.90406 Y-4.81744
G01 X-2.95915 Y-5.02300
G01 X-3.04058 Y-5.21965
G01 X-3.14701 Y-5.40398
G01 X-3.27657 Y-5.57284
G01 X-3.42709 Y-5.72336
G01 X-3.59595 Y-5.85292
G01 X-3.78028 Y-5.95935
G01 X-3.97693 Y-6.04081
G01 X-4.18252 Y-6.09590
G01 X-4.39354 Y-6.12366
G01 X-4.60642 Y-6.12366
G01 X-4.81744 Y-6.09590
G01 X-5.02300 Y-6.04081
G01 X-5.21965 Y-5.95935
G01 X-5.40398 Y-5.85292
G01 X-5.57284 Y-5.72336
G01 X-5.72336 Y-5.57284
G01 X-5.85292 Y-5.40398
G01 X-5.95935 Y-5.21967
G01 X-6.04081 Y-5.02300
G01 X-6.09590 Y-4.81744
G01 X-6.12366 Y-4.60642
G01 X-6.12366 Y-4.39354
G01 X-6.09590 Y-4.18252
G01 X-6.04081 Y-3.97693
G01 X-5.95935 Y-3.78028
G01 X-5.85292 Y-3.59595
G01 X-5.72336 Y-3.42709
G01 X-5.57284 Y-3.27657
G01 X-5.40398 Y-3.14701
G01 X-5.21965 Y-3.04058
G01 X-5.02300 Y-2.95915
G01 X-4.81744 Y-2.90406
G01 X-4.60642 Y-2.87630
G01 X-4.39354 Y-2.87630
G01 X-4.18252 Y-2.90406
G01 X-3.97693 Y-2.95915
G01 X-3.78028 Y-3.04061
G01 X-3.59595 Y-3.14703
G01 X-3.42709 Y-3.27660
G01 X-3.27657 Y-3.42712
G01 X-3.14701 Y-3.59598
G01 X-3.04058 Y-3.78028
G01 X-2.95915 Y-3.97695
G01 X-2.90406 Y-4.18252
G01 X-2.87630 Y-4.39354
G01 X-2.87630 Y-4.60642
G04 P0 ( dwell for no time -- G64 should not smooth over this point )
G00 Z2.00000 ( retract )

G00 X-4.27678 Y-9.72320 ( rapid move to begin. )
G01 F60.00000
( Mill infeed pass 1/1 )
G01 Z-0.10000
G04 P0 ( dwell for no time -- G64 should not smooth over this point )
G01 F120.00000
G01 X-4.27678 Y-9.72320
G01 X-4.27678 Y-9.67679
G01 X-4.68566 Y-9.67679
G01 X-4.70479 Y-9.67885
G01 X-4.78226 Y-9.70773
G01 X-4.84515 Y-9.75479
G01 X-4.89222 Y-9.81768
G01 X-4.92110 Y-9.89515
G01 X-4.92315 Y-10.32317
G01 X-4.87680 Y-10.32317
G01 X-4.87680 Y-9.94999
G01 X-4.87243 Y-9.90575
G01 X-4.85953 Y-9.86320
G01 X-4.83857 Y-9.82398
G01 X-4.81035 Y-9.78962
G01 X-4.77599 Y-9.76140
G01 X-4.73677 Y-9.74044
G01 X-4.69422 Y-9.72754
G01 X-4.64998 Y-9.72320
G01 X-4.27678 Y-9.72320
G04 P0 ( dwell for no time -- G64 should not smooth over this point )
G00 Z2.00000 ( retract )

G00 X-2.67678 Y-10.32317 ( rapid move to begin. )
G01 F60.00000
( Mill infeed pass 1/1 )
G01 Z-0.10000
G04 P0 ( dwell for no time -- G64 should not smooth over this point )
G01 F120.00000
G01 X-2.67678 Y-10.32317
G01 X-2.67884 Y-9.89518
G01 X-2.70772 Y-9.81771
G01 X-2.75481 Y-9.75479
G01 X-2.81770 Y-9.70773
G01 X-2.89517 Y-9.67885
G01 X-3.32316 Y-9.67679
G01 X-3.32316 Y-9.72320
G01 X-2.94998 Y-9.72320
G01 X-2.90573 Y-9.72754
G01 X-2.86319 Y-9.74044
G01 X-2.82397 Y-9.76140
G01 X-2.78961 Y-9.78962
G01 X-2.76141 Y-9.82398
G01 X-2.74046 Y-9.86320
G01 X-2.72755 Y-9.90575
G01 X-2.72318 Y-9.94999
G01 X-2.72318 Y-10.32317
G01 X-2.67678 Y-10.32317
G04 P0 ( dwell for no time -- G64 should not smooth over this point )
G00 Z2.00000 ( retract )

G00 X-2.67678 Y-11.68565 ( rapid move to begin. )
G01 F60.00000
( Mill infeed pass 1/1 )
G01 Z-0.10000
G04 P0 ( dwell for no time -- G64 should not smooth over this point )
G01 F120.00000
G01 X-2.67678 Y-11.68565
G01 X-2.67678 Y-11.27679
G01 X-2.72318 Y-11.27679
G01 X-2.72318 Y-11.64999
G01 X-2.72755 Y-11.69424
G01 X-2.74046 Y-11.73678
G01 X-2.76141 Y-11.77600
G01 X-2.78961 Y-11.81037
G01 X-2.82397 Y-11.83856
G01 X-2.86319 Y-11.85951
G01 X-2.90573 Y-11.87242
G01 X-2.94998 Y-11.87679
G01 X-3.32316 Y-11.87679
G01 X-3.32316 Y-12.37932
G01 X-3.26299 Y-12.40666
G01 X-3.24162 Y-12.42037
G01 X-3.07947 Y-12.53978
G01 X-2.92885 Y-12.70706
G01 X-2.83726 Y-12.86317
G01 X-2.78232 Y-12.86317
G01 X-2.83972 Y-12.75055
G01 X-2.97876 Y-12.55611
G01 X-2.99733 Y-12.52527
G01 X-3.01074 Y-12.49187
G01 X-3.03974 Y-12.39914
G01 X-3.04881 Y-12.35565
G01 X-3.04919 Y-12.31123
G01 X-3.04053 Y-12.21445
G01 X-3.03596 Y-12.18509
G01 X-3.01556 Y-12.12947
G01 X-2.97050 Y-12.04341
G01 X-2.94615 Y-12.00628
G01 X-2.85808 Y-11.92246
G01 X-2.75481 Y-11.84511
G01 X-2.70772 Y-11.78225
G01 X-2.67884 Y-11.70478
G01 X-2.67678 Y-11.68565
G04 P0 ( dwell for no time -- G64 should not smooth over this point )
G00 Z2.00000 ( retract )

G00 X-4.27678 Y-12.37932 ( rapid move to begin. )
G01 F60.00000
( Mill infeed pass 1/1 )
G01 Z-0.10000
G04 P0 ( dwell for no time -- G64 should not smooth over this point )
G01 F120.00000
G01 X-4.27678 Y-12.37932
G01 X-4.27678 Y-11.87679
G01 X-4.64998 Y-11.87679
G01 X-4.69422 Y-11.87242
G01 X-4.73677 Y-11.85951
G01 X-4.77599 Y-11.83856
G01 X-4.81035 Y-11.81037
G01 X-4.83857 Y-11.77600
G01 X-4.85953 Y-11.73678
G01 X-4.87243 Y-11.69424
G01 X-4.87680 Y-11.64999
G01 X-4.87680 Y-11.27679
G01 X-4.92315 Y-11.27679
G01 X-4.92315 Y-11.68565
G01 X-4.92110 Y-11.70478
G01 X-4.89222 Y-11.78225
G01 X-4.84513 Y-11.84516
G01 X-4.70413 Y-11.95316
G01 X-4.62425 Y-12.05141
G01 X-4.59397 Y-12.10229
G01 X-4.58406 Y-12.13028
G01 X-4.55770 Y-12.22380
G01 X-4.54990 Y-12.26754
G01 X-4.55077 Y-12.31196
G01 X-4.56217 Y-12.40843
G01 X-4.57170 Y-12.45187
G01 X-4.58950 Y-12.49258
G01 X-4.64045 Y-12.58588
G01 X-4.76060 Y-12.75128
G01 X-4.81762 Y-12.86317
G01 X-4.76270 Y-12.86317
G01 X-4.67114 Y-12.70706
G01 X-4.52051 Y-12.53978
G01 X-4.35828 Y-12.42037
G01 X-4.33700 Y-12.40666
G01 X-4.27678 Y-12.37932
G04 P0 ( dwell for no time -- G64 should not smooth over this point )
G00 Z2.00000 ( retract )

G00 X-4.27678 Y-14.91932 ( rapid move to begin. )
G01 F60.00000
( Mill infeed pass 1/1 )
G01 Z-0.10000
G04 P0 ( dwell for no time -- G64 should not smooth over this point )
G01 F120.00000
G01 X-4.27678 Y-14.91932
G01 X-4.27678 Y-14.30066
G01 X-4.33700 Y-14.27333
G01 X-4.35828 Y-14.25959
G01 X-4.52051 Y-14.14021
G01 X-4.67114 Y-13.97292
G01 X-4.76273 Y-13.81679
G01 X-4.81762 Y-13.81679
G01 X-4.76062 Y-13.92867
G01 X-4.65671 Y-14.07170
G01 X-4.53169 Y-14.19670
G01 X-4.46562 Y-14.24816
G01 X-4.38483 Y-14.33393
G01 X-4.32425 Y-14.45692
G01 X-4.30969 Y-14.49893
G01 X-4.30360 Y-14.54295
G01 X-4.29979 Y-14.64003
G01 X-4.30240 Y-14.68440
G01 X-4.31363 Y-14.72743
G01 X-4.34726 Y-14.81859
G01 X-4.37485 Y-14.87099
G01 X-4.45945 Y-14.96538
G01 X-4.53166 Y-15.02324
G01 X-4.65671 Y-15.14826
G01 X-4.76062 Y-15.29128
G01 X-4.81762 Y-15.40317
G01 X-4.76270 Y-15.40317
G01 X-4.67114 Y-15.24706
G01 X-4.52051 Y-15.07978
G01 X-4.35828 Y-14.96037
G01 X-4.33700 Y-14.94666
G01 X-4.27678 Y-14.91932
G04 P0 ( dwell for no time -- G64 should not smooth over this point )
G00 Z2.00000 ( retract )

G00 X-2.78232 Y-15.40317 ( rapid move to begin. )
G01 F60.00000
( Mill infeed pass 1/1 )
G01 Z-0.10000
G04 P0 ( dwell for no time -- G64 should not smooth over this point )
G01 F120.00000
G01 X-2.78232 Y-15.40317
G01 X-2.83726 Y-15.40317
G01 X-2.92885 Y-15.24706
G01 X-3.07947 Y-15.07978
G01 X-3.24162 Y-14.96037
G01 X-3.26299 Y-14.94666
G01 X-3.32316 Y-14.91932
G01 X-3.32316 Y-14.30066
G01 X-3.26299 Y-14.27333
G01 X-3.24162 Y-14.25959
G01 X-3.07947 Y-14.14021
G01 X-2.92885 Y-13.97292
G01 X-2.83726 Y-13.81679
G01 X-2.78232 Y-13.81679
G01 X-2.83934 Y-13.92867
G01 X-2.94322 Y-14.07170
G01 X-3.06824 Y-14.19670
G01 X-3.14048 Y-14.25456
G01 X-3.22511 Y-14.34897
G01 X-3.25270 Y-14.40137
G01 X-3.28633 Y-14.49253
G01 X-3.29755 Y-14.53556
G01 X-3.30012 Y-14.57993
G01 X-3.29636 Y-14.67701
G01 X-3.28633 Y-14.73538
G01 X-3.23499 Y-14.85133
G01 X-3.21508 Y-14.88605
G01 X-3.13428 Y-14.97183
G01 X-3.06827 Y-15.02324
G01 X-2.94322 Y-15.14826
G01 X-2.83931 Y-15.29128
G01 X-2.78232 Y-15.40317
G04 P0 ( dwell for no time -- G64 should not smooth over this point )
G00 Z2.00000 ( retract )

G00 X-4.27678 Y-17.45932 ( rapid move to begin. )
G01 F60.00000
( Mill infeed pass 1/1 )
G01 Z-0.10000
G04 P0 ( dwell for no time -- G64 should not smooth over this point )
G01 F120.00000
G01 X-4.27678 Y-17.45932
G01 X-4.27678 Y-16.84066
G01 X-4.33700 Y-16.81333
G01 X-4.35828 Y-16.79959
G01 X-4.52051 Y-16.68021
G01 X-4.67114 Y-16.51292
G01 X-4.76273 Y-16.35679
G01 X-4.81762 Y-16.35679
G01 X-4.76062 Y-16.46867
G01 X-4.65671 Y-16.61170
G01 X-4.53169 Y-16.73669
G01 X-4.46562 Y-16.78816
G01 X-4.38483 Y-16.87393
G01 X-4.32425 Y-16.99692
G01 X-4.30969 Y-17.03893
G01 X-4.30360 Y-17.08295
G01 X-4.29979 Y-17.18003
G01 X-4.30240 Y-17.22440
G01 X-4.31363 Y-17.26743
G01 X-4.34726 Y-17.35859
G01 X-4.37485 Y-17.41099
G01 X-4.45945 Y-17.50538
G01 X-4.53166 Y-17.56324
G01 X-4.65671 Y-17.68826
G01 X-4.76062 Y-17.83128
G01 X-4.81762 Y-17.94317
G01 X-4.76270 Y-17.94317
G01 X-4.67114 Y-17.78706
G01 X-4.52051 Y-17.61978
G01 X-4.35828 Y-17.50037
G01 X-4.33700 Y-17.48666
G01 X-4.27678 Y-17.45932
G04 P0 ( dwell for no time -- G64 should not smooth over this point )
G00 Z2.00000 ( retract )

G00 X-2.78232 Y-18.89679 ( rapid move to begin. )
G01 F60.00000
( Mill infeed pass 1/1 )
G01 Z-0.10000
G04 P0 ( dwell for no time -- G64 should not smooth over this point )
G01 F120.00000
G01 X-2.78232 Y-18.89679
G01 X-2.83726 Y-18.89679
G01 X-2.92885 Y-19.05292
G01 X-3.07947 Y-19.22021
G01 X-3.24162 Y-19.33959
G01 X-3.26299 Y-19.35333
G01 X-3.32316 Y-19.38066
G01 X-3.32316 Y-19.43763
G01 X-3.21127 Y-19.38063
G01 X-3.06824 Y-19.27672
G01 X-2.94322 Y-19.15170
G01 X-2.83934 Y-19.00867
G01 X-2.78232 Y-18.89679
G04 P0 ( dwell for no time -- G64 should not smooth over this point )
G00 Z2.00000 ( retract )

G00 X-2.78232 Y-17.94317 ( rapid move to begin. )
G01 F60.00000
( Mill infeed pass 1/1 )
G01 Z-0.10000
G04 P0 ( dwell for no time -- G64 should not smooth over this point )
G01 F120.00000
G01 X-2.78232 Y-17.94317
G01 X-2.83726 Y-17.94317
G01 X-2.92885 Y-17.78706
G01 X-3.07947 Y-17.61978
G01 X-3.24162 Y-17.50037
G01 X-3.26299 Y-17.48666
G01 X-3.32316 Y-17.45932
G01 X-3.32316 Y-16.84066
G01 X-3.26299 Y-16.81333
G01 X-3.24162 Y-16.79959
G01 X-3.07947 Y-16.68021
G01 X-2.92885 Y-16.51292
G01 X-2.83726 Y-16.35679
G01 X-2.78232 Y-16.35679
G01 X-2.83934 Y-16.46867
G01 X-2.94322 Y-16.61170
G01 X-3.06824 Y-16.73669
G01 X-3.14048 Y-16.79456
G01 X-3.22511 Y-16.88897
G01 X-3.25270 Y-16.94137
G01 X-3.28633 Y-17.03253
G01 X-3.29755 Y-17.07556
G01 X-3.30012 Y-17.11993
G01 X-3.29636 Y-17.21701
G01 X-3.28633 Y-17.27538
G01 X-3.23499 Y-17.39133
G01 X-3.21508 Y-17.42605
G01 X-3.13428 Y-17.51183
G01 X-3.06827 Y-17.56324
G01 X-2.94322 Y-17.68826
G01 X-2.83931 Y-17.83128
G01 X-2.78232 Y-17.94317
G04 P0 ( dwell for no time -- G64 should not smooth over this point )
G00 Z2.00000 ( retract )

G00 X-4.27678 Y-19.43763 ( rapid move to begin. )
G01 F60.00000
( Mill infeed pass 1/1 )
G01 Z-0.10000
G04 P0 ( dwell for no time -- G64 should not smooth over this point )
G01 F120.00000
G01 X-4.27678 Y-19.43763
G01 X-4.27678 Y-19.38066
G01 X-4.33700 Y-19.35333
G01 X-4.35828 Y-19.33959
G01 X-4.52051 Y-19.22021
G01 X-4.67114 Y-19.05292
G01 X-4.76273 Y-18.89679
G01 X-4.81762 Y-18.89679
G01 X-4.76062 Y-19.00867
G01 X-4.65671 Y-19.15170
G01 X-4.53169 Y-19.27672
G01 X-4.38866 Y-19.38063
G01 X-4.27678 Y-19.43763
G04 P0 ( dwell for no time -- G64 should not smooth over this point )
G00 Z2.00000 ( retract )

G00 X-7.47723 Y-16.11704 ( rapid move to begin. )
G01 F60.00000
( Mill infeed pass 1/1 )
G01 Z-0.10000
G04 P0 ( dwell for no time -- G64 should not smooth over this point )
G01 F120.00000
G01 X-7.47723 Y-16.11704
G01 X-7.51454 Y-16.07970
G01 X-7.68921 Y-16.11744
G01 X-7.73636 Y-16.12240
G01 X-7.92731 Y-16.12115
G01 X-8.12541 Y-16.07972
G01 X-8.16272 Y-16.11704
G01 X-8.07126 Y-16.14675
G01 X-7.90443 Y-16.17317
G01 X-7.73549 Y-16.17317
G01 X-7.56869 Y-16.14675
G01 X-7.47723 Y-16.11704
G04 P0 ( dwell for no time -- G64 should not smooth over this point )
G00 Z2.00000 ( retract )

G00 X-6.74677 Y-15.18442 ( rapid move to begin. )
G01 F60.00000
( Mill infeed pass 1/1 )
G01 Z-0.10000
G04 P0 ( dwell for no time -- G64 should not smooth over this point )
G01 F120.00000
G01 X-6.74677 Y-15.18442
G01 X-6.74677 Y-15.01554
G01 X-6.77321 Y-14.84869
G01 X-6.80291 Y-14.75722
G01 X-6.84322 Y-14.79753
G01 X-6.81563 Y-14.88651
G01 X-6.79318 Y-15.10000
G01 X-6.81563 Y-15.31348
G01 X-6.84322 Y-15.40241
G01 X-6.80291 Y-15.44272
G01 X-6.77321 Y-15.35125
G01 X-6.74677 Y-15.18442
G04 P0 ( dwell for no time -- G64 should not smooth over this point )
G00 Z2.00000 ( retract )

G00 X-7.47720 Y-14.08293 ( rapid move to begin. )
G01 F60.00000
( Mill infeed pass 1/1 )
G01 Z-0.10000
G04 P0 ( dwell for no time -- G64 should not smooth over this point )
G01 F120.00000
G01 X-7.47720 Y-14.08293
G01 X-7.51456 Y-14.12027
G01 X-7.68921 Y-14.08252
G01 X-7.73636 Y-14.07757
G01 X-7.92731 Y-14.07881
G01 X-8.12541 Y-14.12027
G01 X-8.16275 Y-14.08293
G01 X-8.07128 Y-14.05321
G01 X-7.90443 Y-14.02679
G01 X-7.73549 Y-14.02679
G01 X-7.56867 Y-14.05321
G01 X-7.47720 Y-14.08293
G04 P0 ( dwell for no time -- G64 should not smooth over this point )
G00 Z2.00000 ( retract )

G00 X-16.86728 Y-4.51615 ( rapid move to begin. )
G01 F60.00000
( Mill infeed pass 1/1 )
G01 Z-0.10000
G04 P0 ( dwell for no time -- G64 should not smooth over this point )
G01 F120.00000
G01 X-16.86728 Y-4.51615
G01 X-16.87591 Y-4.52740
G01 X-16.88828 Y-4.53453
G01 X-16.88231 Y-4.55219
G01 X-16.88828 Y-4.53453
G01 X-16.90240 Y-4.53636
G01 X-16.91607 Y-4.53271
G01 X-16.92432 Y-4.54942
G01 X-16.91607 Y-4.53271
G01 X-16.92740 Y-4.52402
G01 X-16.93454 Y-4.51165
G01 X-16.95226 Y-4.51767
G01 X-16.93454 Y-4.51165
G01 X-16.93636 Y-4.49753
G01 X-16.93271 Y-4.48386
G01 X-16.94942 Y-4.47561
G01 X-16.93271 Y-4.48386
G01 X-16.92402 Y-4.47253
G01 X-16.91170 Y-4.46545
G01 X-16.91772 Y-4.44774
G01 X-16.91170 Y-4.46545
G01 X-16.89753 Y-4.46359
G01 X-16.88386 Y-4.46725
G01 X-16.87561 Y-4.45054
G01 X-16.88386 Y-4.46725
G01 X-16.87253 Y-4.47594
G01 X-16.86545 Y-4.48821
G01 X-16.84772 Y-4.48219
G01 X-16.86545 Y-4.48821
G01 X-16.86359 Y-4.50243
G01 X-16.86728 Y-4.51615
G01 X-16.85049 Y-4.52445
G01 X-16.63682 Y-4.51726
G01 X-16.64132 Y-4.55145
G01 X-16.63697 Y-4.55231
G01 X-16.64132 Y-4.55145
G01 X-16.66347 Y-4.61665
G01 X-16.68069 Y-4.64650
G01 X-16.67701 Y-4.64896
G01 X-16.68069 Y-4.64650
G01 X-16.70169 Y-4.67385
G01 X-16.75343 Y-4.71924
G01 X-16.75097 Y-4.72293
G01 X-16.75343 Y-4.71924
G01 X-16.78333 Y-4.73652
G01 X-16.84848 Y-4.75861
G01 X-16.84762 Y-4.76298
G01 X-16.84848 Y-4.75861
G01 X-16.88269 Y-4.76313
G01 X-16.95143 Y-4.75864
G01 X-16.95232 Y-4.76298
G01 X-16.95143 Y-4.75864
G01 X-17.01660 Y-4.73652
G01 X-17.04650 Y-4.71924
G01 X-17.04896 Y-4.72293
G01 X-17.04650 Y-4.71924
G01 X-17.07385 Y-4.69824
G01 X-17.11927 Y-4.64647
G01 X-17.12295 Y-4.64894
G01 X-17.11927 Y-4.64647
G01 X-17.13652 Y-4.61660
G01 X-17.15864 Y-4.55145
G01 X-17.16298 Y-4.55231
G01 X-17.15864 Y-4.55145
G01 X-17.16314 Y-4.48269
G01 X-17.15861 Y-4.44848
G01 X-17.16298 Y-4.44762
G01 X-17.15861 Y-4.44848
G01 X-17.13652 Y-4.38333
G01 X-17.11924 Y-4.35343
G01 X-17.12293 Y-4.35097
G01 X-17.11924 Y-4.35343
G01 X-17.07385 Y-4.30169
G01 X-17.04650 Y-4.28069
G01 X-17.04896 Y-4.27700
G01 X-17.04650 Y-4.28069
G01 X-17.01665 Y-4.26347
G01 X-16.95145 Y-4.24132
G01 X-16.95232 Y-4.23697
G01 X-16.95145 Y-4.24132
G01 X-16.88269 Y-4.23682
G01 X-16.84848 Y-4.24134
G01 X-16.84762 Y-4.23697
G01 X-16.84848 Y-4.24134
G01 X-16.78333 Y-4.26344
G01 X-16.75343 Y-4.28071
G01 X-16.75097 Y-4.27703
G01 X-16.75343 Y-4.28071
G01 X-16.72608 Y-4.30172
G01 X-16.68066 Y-4.35348
G01 X-16.67698 Y-4.35102
G01 X-16.68066 Y-4.35348
G01 X-16.66347 Y-4.38328
G01 X-16.64132 Y-4.44851
G01 X-16.63697 Y-4.44764
G01 X-16.64132 Y-4.44851
G01 X-16.63682 Y-4.51726
G01 X-16.41008 Y-4.53212
G01 X-16.41846 Y-4.59577
G01 X-16.41409 Y-4.59664
G01 X-16.41846 Y-4.59577
G01 X-16.43507 Y-4.65780
G01 X-16.45966 Y-4.71716
G01 X-16.49174 Y-4.77274
G01 X-16.48805 Y-4.77523
G01 X-16.49174 Y-4.77274
G01 X-16.53083 Y-4.82369
G01 X-16.57624 Y-4.86910
G01 X-16.62720 Y-4.90819
G01 X-16.62473 Y-4.91188
G01 X-16.62720 Y-4.90819
G01 X-16.68282 Y-4.94030
G01 X-16.74218 Y-4.96489
G01 X-16.80416 Y-4.98150
G01 X-16.80329 Y-4.98587
G01 X-16.80416 Y-4.98150
G01 X-16.86784 Y-4.98988
G01 X-16.93212 Y-4.98988
G01 X-16.99577 Y-4.98150
G01 X-16.99664 Y-4.98587
G01 X-16.99577 Y-4.98150
G01 X-17.05775 Y-4.96489
G01 X-17.11711 Y-4.94030
G01 X-17.17274 Y-4.90819
G01 X-17.17520 Y-4.91188
G01 X-17.17274 Y-4.90819
G01 X-17.22369 Y-4.86910
G01 X-17.26910 Y-4.82369
G01 X-17.30822 Y-4.77271
G01 X-17.31190 Y-4.77517
G01 X-17.30822 Y-4.77271
G01 X-17.34030 Y-4.71711
G01 X-17.36489 Y-4.65775
G01 X-17.38150 Y-4.59577
G01 X-17.38587 Y-4.59664
G01 X-17.38150 Y-4.59577
G01 X-17.38988 Y-4.53212
G01 X-17.38988 Y-4.46783
G01 X-17.38150 Y-4.40416
G01 X-17.38587 Y-4.40329
G01 X-17.38150 Y-4.40416
G01 X-17.36489 Y-4.34218
G01 X-17.34030 Y-4.28282
G01 X-17.30819 Y-4.22719
G01 X-17.31188 Y-4.22473
G01 X-17.30819 Y-4.22719
G01 X-17.26910 Y-4.17624
G01 X-17.22369 Y-4.13083
G01 X-17.17274 Y-4.09174
G01 X-17.17523 Y-4.08805
G01 X-17.17274 Y-4.09174
G01 X-17.11716 Y-4.05966
G01 X-17.05780 Y-4.03507
G01 X-16.99577 Y-4.01846
G01 X-16.99664 Y-4.01409
G01 X-16.99577 Y-4.01846
G01 X-16.93212 Y-4.01008
G01 X-16.86784 Y-4.01008
G01 X-16.80416 Y-4.01846
G01 X-16.80329 Y-4.01409
G01 X-16.80416 Y-4.01846
G01 X-16.74218 Y-4.03507
G01 X-16.68282 Y-4.05966
G01 X-16.62720 Y-4.09176
G01 X-16.62473 Y-4.08808
G01 X-16.62720 Y-4.09176
G01 X-16.57624 Y-4.13085
G01 X-16.53083 Y-4.17627
G01 X-16.49171 Y-4.22725
G01 X-16.48803 Y-4.22478
G01 X-16.49171 Y-4.22725
G01 X-16.45966 Y-4.28280
G01 X-16.43507 Y-4.34213
G01 X-16.41846 Y-4.40418
G01 X-16.41409 Y-4.40332
G01 X-16.41846 Y-4.40418
G01 X-16.41008 Y-4.46783
G01 X-16.41008 Y-4.53212
G01 X-16.18331 Y-4.54698
G01 X-16.19448 Y-4.64030
G01 X-16.21942 Y-4.73098
G01 X-16.25488 Y-4.81818
G01 X-16.30279 Y-4.89900
G01 X-16.35851 Y-4.97482
G01 X-16.42641 Y-5.03994
G01 X-16.50030 Y-5.09803
G01 X-16.58188 Y-5.14513
G01 X-16.66913 Y-5.18008
G01 X-16.75958 Y-5.20545
G01 X-16.85295 Y-5.21713
G01 X-16.94708 Y-5.21774
G01 X-17.04010 Y-5.20438
G01 X-17.13144 Y-5.18193
G01 X-17.21762 Y-5.14411
G01 X-17.29958 Y-5.09806
G01 X-17.37385 Y-5.04033
G01 X-17.44078 Y-4.97421
G01 X-17.49715 Y-4.89897
G01 X-17.54586 Y-4.81848
G01 X-17.58008 Y-4.73080
G01 X-17.60545 Y-4.64035
G01 X-17.61714 Y-4.54701
G01 X-17.61774 Y-4.45287
G01 X-17.60438 Y-4.35983
G01 X-17.58193 Y-4.26850
G01 X-17.54411 Y-4.18231
G01 X-17.49806 Y-4.10035
G01 X-17.44033 Y-4.02608
G01 X-17.37421 Y-3.95915
G01 X-17.29900 Y-3.90279
G01 X-17.21853 Y-3.85409
G01 X-17.13083 Y-3.81988
G01 X-17.04035 Y-3.79451
G01 X-16.94701 Y-3.78282
G01 X-16.85287 Y-3.78221
G01 X-16.75983 Y-3.79557
G01 X-16.66850 Y-3.81803
G01 X-16.58231 Y-3.85585
G01 X-16.50035 Y-3.90190
G01 X-16.42608 Y-3.95963
G01 X-16.35915 Y-4.02575
G01 X-16.30279 Y-4.10098
G01 X-16.25409 Y-4.18142
G01 X-16.21988 Y-4.26910
G01 X-16.19451 Y-4.35961
G01 X-16.18221 Y-4.45292
G01 X-16.18331 Y-4.54698
G01 X-15.95656 Y-4.56184
G01 X-15.97160 Y-4.68462
G01 X-16.00424 Y-4.80403
G01 X-16.05105 Y-4.91866
G01 X-16.11386 Y-5.02524
G01 X-16.18767 Y-5.12465
G01 X-16.27657 Y-5.21081
G01 X-16.37406 Y-5.28698
G01 X-16.48137 Y-5.34894
G01 X-16.59608 Y-5.39526
G01 X-16.71526 Y-5.42834
G01 X-16.83809 Y-5.44449
G01 X-16.96184 Y-5.44340
G01 X-17.08460 Y-5.42834
G01 X-17.20423 Y-5.39628
G01 X-17.31813 Y-5.34792
G01 X-17.42582 Y-5.28701
G01 X-17.52366 Y-5.21117
G01 X-17.61165 Y-5.12404
G01 X-17.68610 Y-5.02521
G01 X-17.74967 Y-4.91899
G01 X-17.79527 Y-4.80385
G01 X-17.82834 Y-4.68470
G01 X-17.84449 Y-4.56187
G01 X-17.84340 Y-4.43812
G01 X-17.82834 Y-4.31533
G01 X-17.79628 Y-4.19570
G01 X-17.74792 Y-4.08181
G01 X-17.68701 Y-3.97411
G01 X-17.61117 Y-3.87627
G01 X-17.52404 Y-3.78828
G01 X-17.42524 Y-3.71386
G01 X-17.31902 Y-3.65026
G01 X-17.20388 Y-3.60469
G01 X-17.08470 Y-3.57162
G01 X-16.96187 Y-3.55547
G01 X-16.83812 Y-3.55656
G01 X-16.71533 Y-3.57162
G01 X-16.59570 Y-3.60368
G01 X-16.48181 Y-3.65204
G01 X-16.37411 Y-3.71295
G01 X-16.27627 Y-3.78879
G01 X-16.18828 Y-3.87591
G01 X-16.11384 Y-3.97474
G01 X-16.05026 Y-4.08092
G01 X-16.00472 Y-4.19605
G01 X-15.97162 Y-4.31526
G01 X-15.95547 Y-4.43809
G01 X-15.95656 Y-4.56184
G01 X-15.72981 Y-4.57670
G01 X-15.74874 Y-4.72902
G01 X-15.78953 Y-4.87693
G01 X-15.84721 Y-5.01912
G01 X-15.92400 Y-5.15214
G01 X-16.01828 Y-5.27319
G01 X-16.12600 Y-5.38244
G01 X-16.24787 Y-5.47596
G01 X-16.38130 Y-5.55173
G01 X-16.52265 Y-5.61147
G01 X-16.67099 Y-5.65122
G01 X-16.82326 Y-5.67014
G01 X-16.97673 Y-5.67126
G01 X-17.12900 Y-5.65122
G01 X-17.27690 Y-5.61045
G01 X-17.41907 Y-5.55274
G01 X-17.55214 Y-5.47594
G01 X-17.67319 Y-5.38165
G01 X-17.78312 Y-5.27446
G01 X-17.87505 Y-5.15148
G01 X-17.95269 Y-5.01917
G01 X-18.01091 Y-4.87705
G01 X-18.05122 Y-4.72895
G01 X-18.07014 Y-4.57670
G01 X-18.07126 Y-4.42323
G01 X-18.05122 Y-4.27093
G01 X-18.01045 Y-4.12303
G01 X-17.95275 Y-3.98087
G01 X-17.87594 Y-3.84780
G01 X-17.78165 Y-3.72674
G01 X-17.67446 Y-3.61681
G01 X-17.55148 Y-3.52491
G01 X-17.41917 Y-3.44724
G01 X-17.27708 Y-3.38905
G01 X-17.12895 Y-3.34874
G01 X-16.97670 Y-3.32981
G01 X-16.82323 Y-3.32870
G01 X-16.67093 Y-3.34874
G01 X-16.52303 Y-3.38950
G01 X-16.38087 Y-3.44721
G01 X-16.24780 Y-3.52402
G01 X-16.12674 Y-3.61831
G01 X-16.01681 Y-3.72549
G01 X-15.92489 Y-3.84848
G01 X-15.84724 Y-3.98076
G01 X-15.78907 Y-4.12288
G01 X-15.74874 Y-4.27101
G01 X-15.72981 Y-4.42326
G01 X-15.72981 Y-4.57670
G01 X-15.50304 Y-4.59156
G01 X-15.52646 Y-4.77319
G01 X-15.57388 Y-4.95013
G01 X-15.64396 Y-5.11937
G01 X-15.73555 Y-5.27799
G01 X-15.84706 Y-5.42333
G01 X-15.97660 Y-5.55287
G01 X-16.12194 Y-5.66438
G01 X-16.28059 Y-5.75597
G01 X-16.44983 Y-5.82610
G01 X-16.62674 Y-5.87350
G01 X-16.80837 Y-5.89740
G01 X-16.99158 Y-5.89740
G01 X-17.17317 Y-5.87350
G01 X-17.35010 Y-5.82610
G01 X-17.51935 Y-5.75597
G01 X-17.67799 Y-5.66438
G01 X-17.82333 Y-5.55287
G01 X-17.95287 Y-5.42333
G01 X-18.06438 Y-5.27799
G01 X-18.15597 Y-5.11937
G01 X-18.22610 Y-4.95010
G01 X-18.27350 Y-4.77319
G01 X-18.29740 Y-4.59158
G01 X-18.29740 Y-4.40837
G01 X-18.27350 Y-4.22674
G01 X-18.22610 Y-4.04983
G01 X-18.15597 Y-3.88059
G01 X-18.06438 Y-3.72194
G01 X-17.95287 Y-3.57660
G01 X-17.82333 Y-3.44706
G01 X-17.67799 Y-3.33555
G01 X-17.51937 Y-3.24396
G01 X-17.35013 Y-3.17388
G01 X-17.17319 Y-3.12646
G01 X-16.99158 Y-3.10256
G01 X-16.80837 Y-3.10256
G01 X-16.62674 Y-3.12646
G01 X-16.44983 Y-3.17386
G01 X-16.28059 Y-3.24399
G01 X-16.12194 Y-3.33558
G01 X-15.97660 Y-3.44708
G01 X-15.84706 Y-3.57662
G01 X-15.73555 Y-3.72196
G01 X-15.64396 Y-3.88056
G01 X-15.57388 Y-4.04983
G01 X-15.52646 Y-4.22676
G01 X-15.50256 Y-4.40837
G01 X-15.50304 Y-4.59156
G01 X-15.27630 Y-4.60642
G01 X-15.30406 Y-4.81744
G01 X-15.35915 Y-5.02300
G01 X-15.44058 Y-5.21965
G01 X-15.54701 Y-5.40398
G01 X-15.67658 Y-5.57284
G01 X-15.82710 Y-5.72336
G01 X-15.99595 Y-5.85292
G01 X-16.18028 Y-5.95935
G01 X-16.37693 Y-6.04081
G01 X-16.58252 Y-6.09590
G01 X-16.79354 Y-6.12366
G01 X-17.00639 Y-6.12366
G01 X-17.21742 Y-6.09590
G01 X-17.42300 Y-6.04081
G01 X-17.61965 Y-5.95935
G01 X-17.80398 Y-5.85292
G01 X-17.97284 Y-5.72336
G01 X-18.12336 Y-5.57284
G01 X-18.25292 Y-5.40398
G01 X-18.35935 Y-5.21967
G01 X-18.44081 Y-5.02300
G01 X-18.49590 Y-4.81744
G01 X-18.52366 Y-4.60642
G01 X-18.52366 Y-4.39354
G01 X-18.49590 Y-4.18252
G01 X-18.44081 Y-3.97693
G01 X-18.35935 Y-3.78028
G01 X-18.25292 Y-3.59595
G01 X-18.12336 Y-3.42709
G01 X-17.97284 Y-3.27657
G01 X-17.80398 Y-3.14701
G01 X-17.61965 Y-3.04058
G01 X-17.42300 Y-2.95915
G01 X-17.21744 Y-2.90406
G01 X-17.00642 Y-2.87630
G01 X-16.79354 Y-2.87630
G01 X-16.58252 Y-2.90406
G01 X-16.37693 Y-2.95915
G01 X-16.18028 Y-3.04061
G01 X-15.99595 Y-3.14703
G01 X-15.82710 Y-3.27660
G01 X-15.67658 Y-3.42712
G01 X-15.54701 Y-3.59598
G01 X-15.44058 Y-3.78028
G01 X-15.35915 Y-3.97695
G01 X-15.30406 Y-4.18252
G01 X-15.27630 Y-4.39354
G01 X-15.27630 Y-4.60642
G04 P0 ( dwell for no time -- G64 should not smooth over this point )
G00 Z2.00000 ( retract )

G00 X-10.50178 Y-10.32317 ( rapid move to begin. )
G01 F60.00000
( Mill infeed pass 1/1 )
G01 Z-0.10000
G04 P0 ( dwell for no time -- G64 should not smooth over this point )
G01 F120.00000
G01 X-10.50178 Y-10.32317
G01 X-10.54819 Y-10.32317
G01 X-10.54819 Y-9.94999
G01 X-10.55256 Y-9.90575
G01 X-10.56546 Y-9.86320
G01 X-10.58642 Y-9.82398
G01 X-10.61461 Y-9.78962
G01 X-10.64898 Y-9.76140
G01 X-10.68819 Y-9.74044
G01 X-10.73074 Y-9.72754
G01 X-10.77498 Y-9.72320
G01 X-11.14816 Y-9.72320
G01 X-11.14816 Y-9.67679
G01 X-10.72017 Y-9.67885
G01 X-10.64270 Y-9.70773
G01 X-10.57981 Y-9.75479
G01 X-10.53272 Y-9.81771
G01 X-10.50384 Y-9.89518
G01 X-10.50178 Y-10.32317
G04 P0 ( dwell for no time -- G64 should not smooth over this point )
G00 Z2.00000 ( retract )

G00 X-10.50178 Y-11.68565 ( rapid move to begin. )
G01 F60.00000
( Mill infeed pass 1/1 )
G01 Z-0.10000
G04 P0 ( dwell for no time -- G64 should not smooth over this point )
G01 F120.00000
G01 X-10.50178 Y-11.68565
G01 X-10.50384 Y-11.70478
G01 X-10.53272 Y-11.78225
G01 X-10.57981 Y-11.84514
G01 X-10.64270 Y-11.89223
G01 X-10.72017 Y-11.92111
G01 X-11.14816 Y-11.92317
G01 X-11.14816 Y-11.87679
G01 X-10.77498 Y-11.87679
G01 X-10.73074 Y-11.87242
G01 X-10.68819 Y-11.85951
G01 X-10.64898 Y-11.83856
G01 X-10.61461 Y-11.81037
G01 X-10.58642 Y-11.77600
G01 X-10.56546 Y-11.73678
G01 X-10.55256 Y-11.69424
G01 X-10.54819 Y-11.64999
G01 X-10.54819 Y-11.27679
G01 X-10.50178 Y-11.27679
G01 X-10.50178 Y-11.68565
G04 P0 ( dwell for no time -- G64 should not smooth over this point )
G00 Z2.00000 ( retract )

G00 X-8.79673 Y-14.79751 ( rapid move to begin. )
G01 F60.00000
( Mill infeed pass 1/1 )
G01 Z-0.10000
G04 P0 ( dwell for no time -- G64 should not smooth over this point )
G01 F120.00000
G01 X-8.79673 Y-14.79751
G01 X-8.83704 Y-14.75722
G01 X-8.86673 Y-14.84869
G01 X-8.89317 Y-15.01551
G01 X-8.89317 Y-15.18442
G01 X-8.86673 Y-15.35125
G01 X-8.83704 Y-15.44272
G01 X-8.79676 Y-15.40243
G01 X-8.82434 Y-15.31348
G01 X-8.84679 Y-15.10000
G01 X-8.82434 Y-14.88651
G01 X-8.79673 Y-14.79751
G04 P0 ( dwell for no time -- G64 should not smooth over this point )
G00 Z2.00000 ( retract )

G00 X-12.49777 Y-18.32145 ( rapid move to begin. )
G01 F60.00000
( Mill infeed pass 1/1 )
G01 Z-0.10000
G04 P0 ( dwell for no time -- G64 should not smooth over this point )
G01 F120.00000
G01 X-12.49777 Y-18.32145
G01 X-12.64580 Y-18.48658
G01 X-12.79634 Y-18.63735
G01 X-13.29741 Y-19.09415
G01 X-13.33632 Y-19.08432
G01 X-13.34826 Y-19.06201
G01 X-13.29550 Y-19.09247
G01 X-13.34826 Y-19.06201
G01 X-13.38768 Y-18.98825
G01 X-13.48613 Y-18.78170
G01 X-13.55885 Y-18.58040
G01 X-13.46843 Y-18.69056
G01 X-13.33101 Y-18.80337
G01 X-13.25024 Y-18.85734
G01 X-13.14742 Y-18.91668
G01 X-13.11565 Y-18.92986
G01 X-13.14742 Y-18.91668
G01 X-13.25024 Y-18.85734
G01 X-13.33101 Y-18.80337
G01 X-13.46843 Y-18.69056
G01 X-13.55885 Y-18.58040
G01 X-13.58758 Y-18.48665
G01 X-13.65949 Y-18.12897
G01 X-13.66822 Y-18.04022
G01 X-13.67660 Y-17.87032
G01 X-13.67660 Y-12.76683
G01 X-13.53629 Y-12.42812
G01 X-13.44465 Y-12.23736
G01 X-13.24696 Y-12.01727
G01 X-13.44465 Y-12.23736
G01 X-13.50086 Y-12.34905
G01 X-13.58031 Y-12.53439
G01 X-13.58031 Y-17.87312
G01 X-13.57701 Y-17.93984
G01 X-13.54823 Y-18.10123
G01 X-13.50952 Y-18.22882
G01 X-13.44666 Y-18.34639
G01 X-13.39268 Y-18.42717
G01 X-13.30810 Y-18.53024
G01 X-13.20503 Y-18.61482
G01 X-13.12426 Y-18.66880
G01 X-13.04717 Y-18.71330
G01 X-12.96492 Y-18.74736
G01 X-12.92644 Y-18.75767
G01 X-12.79634 Y-18.63735
G01 X-12.68684 Y-18.52922
G01 X-12.72637 Y-18.56824
G01 X-12.83472 Y-18.54799
G01 X-12.89205 Y-18.53265
G01 X-12.94686 Y-18.50995
G01 X-12.99825 Y-18.48025
G01 X-13.07904 Y-18.42628
G01 X-13.14775 Y-18.36989
G01 X-13.20414 Y-18.30118
G01 X-13.25811 Y-18.22041
G01 X-13.30000 Y-18.14203
G01 X-13.32583 Y-18.05696
G01 X-13.34480 Y-17.96166
G01 X-13.35354 Y-17.87312
G01 X-13.35354 Y-12.38324
G01 X-13.35049 Y-12.33068
G01 X-13.33015 Y-12.20396
G01 X-13.30587 Y-12.13752
G01 X-13.26548 Y-12.04915
G01 X-13.24696 Y-12.01727
G01 X-13.19192 Y-11.95873
G01 X-13.07887 Y-11.84986
G01 X-12.95723 Y-11.74049
G01 X-12.94498 Y-11.72322
G01 X-12.92614 Y-11.67412
G01 X-12.94498 Y-11.72322
G01 X-12.93762 Y-11.72764
G01 X-12.94498 Y-11.72322
G01 X-12.95723 Y-11.74049
G01 X-12.98755 Y-11.76764
G01 X-12.91976 Y-11.73874
G01 X-12.87277 Y-11.76652
G01 X-12.91976 Y-11.73874
G01 X-12.92614 Y-11.67412
G01 X-12.85337 Y-11.41420
G01 X-12.83119 Y-11.30813
G01 X-12.80272 Y-11.13046
G01 X-12.79220 Y-11.02761
G01 X-12.78230 Y-10.84397
G01 X-12.78291 Y-10.75002
G01 X-12.79268 Y-10.56640
G01 X-12.80262 Y-10.46950
G01 X-12.83228 Y-10.28593
G01 X-12.85337 Y-10.18581
G01 X-12.90259 Y-10.00244
G01 X-12.93668 Y-9.89447
G01 X-12.95585 Y-9.86018
G01 X-12.99482 Y-9.82429
G01 X-12.95585 Y-9.86018
G01 X-12.93668 Y-9.89447
G01 X-12.93190 Y-9.89200
G01 X-12.93668 Y-9.89447
G01 X-12.92616 Y-9.92584
G01 X-12.92014 Y-9.86462
G01 X-12.87988 Y-9.84326
G01 X-12.92014 Y-9.86462
G01 X-12.94686 Y-9.85357
G01 X-12.99482 Y-9.82429
G01 X-13.01158 Y-9.62665
G01 X-13.01684 Y-9.51697
G01 X-12.98738 Y-9.55317
G01 X-12.95306 Y-9.58139
G01 X-12.84656 Y-9.65020
G01 X-12.79050 Y-9.66922
G01 X-12.69520 Y-9.68817
G01 X-12.65936 Y-9.69239
G01 X-12.62332 Y-9.69084
G01 X-12.50892 Y-9.67679
G01 X-12.10178 Y-9.67679
G01 X-12.10178 Y-9.72320
G01 X-12.47498 Y-9.72320
G01 X-12.51923 Y-9.72754
G01 X-12.56177 Y-9.74044
G01 X-12.60099 Y-9.76140
G01 X-12.63536 Y-9.78962
G01 X-12.66358 Y-9.82398
G01 X-12.68453 Y-9.86320
G01 X-12.69743 Y-9.90575
G01 X-12.70178 Y-9.94999
G01 X-12.70178 Y-11.64999
G01 X-12.69743 Y-11.69424
G01 X-12.68453 Y-11.73678
G01 X-12.66358 Y-11.77600
G01 X-12.63536 Y-11.81037
G01 X-12.60099 Y-11.83856
G01 X-12.56177 Y-11.85951
G01 X-12.51923 Y-11.87242
G01 X-12.47498 Y-11.87679
G01 X-12.10178 Y-11.87679
G01 X-12.10178 Y-11.92317
G01 X-12.50831 Y-11.92317
G01 X-12.58565 Y-11.91423
G01 X-12.68273 Y-11.91077
G01 X-12.72708 Y-11.91354
G01 X-12.77000 Y-11.92492
G01 X-12.86104 Y-11.95885
G01 X-12.91339 Y-11.98662
G01 X-12.93637 Y-12.00536
G01 X-13.00747 Y-12.07158
G01 X-13.03691 Y-12.10493
G01 X-13.05926 Y-12.14336
G01 X-13.11176 Y-12.26495
G01 X-13.12525 Y-12.35695
G01 X-13.12680 Y-17.87312
G01 X-13.12240 Y-17.91739
G01 X-13.10345 Y-18.01269
G01 X-13.09052 Y-18.05521
G01 X-13.06960 Y-18.09443
G01 X-13.01562 Y-18.17520
G01 X-12.98738 Y-18.20954
G01 X-12.95306 Y-18.23776
G01 X-12.87229 Y-18.29173
G01 X-12.81915 Y-18.31792
G01 X-12.79050 Y-18.32559
G01 X-12.69520 Y-18.34454
G01 X-12.65095 Y-18.34891
G01 X-12.60673 Y-18.34454
G01 X-12.51146 Y-18.32559
G01 X-12.46891 Y-18.31269
G01 X-12.42972 Y-18.29173
G01 X-12.31849 Y-18.21343
G01 X-12.29269 Y-18.18422
G01 X-12.15159 Y-17.99384
G01 X-12.03688 Y-17.87914
G01 X-11.90653 Y-17.78442
G01 X-11.76294 Y-17.71127
G01 X-11.60970 Y-17.66148
G01 X-11.45055 Y-17.63629
G01 X-8.55147 Y-17.63629
G01 X-8.39236 Y-17.66148
G01 X-8.23910 Y-17.71127
G01 X-8.09551 Y-17.78442
G01 X-7.96519 Y-17.87914
G01 X-6.11312 Y-19.73118
G01 X-6.01840 Y-19.86150
G01 X-5.94528 Y-20.00509
G01 X-5.89537 Y-20.15874
G01 X-5.85937 Y-20.37110
G01 X-5.82089 Y-20.46790
G01 X-5.80004 Y-20.50694
G01 X-5.76090 Y-20.55769
G01 X-5.70581 Y-20.61279
G01 X-5.67065 Y-20.64154
G01 X-5.70766 Y-20.61093
G01 X-5.69458 Y-20.64253
G01 X-5.67065 Y-20.64154
G01 X-5.63611 Y-20.66331
G01 X-5.54393 Y-20.70265
G01 X-5.48389 Y-20.71832
G01 X-5.39910 Y-20.72678
G01 X-1.74948 Y-20.72678
G01 X-1.70523 Y-20.72241
G01 X-1.60990 Y-20.70346
G01 X-1.58128 Y-20.69579
G01 X-1.52817 Y-20.66961
G01 X-1.44739 Y-20.61563
G01 X-1.40289 Y-20.57657
G01 X-1.33086 Y-20.47222
G01 X-1.30990 Y-20.43306
G01 X-1.29700 Y-20.39054
G01 X-1.27803 Y-20.29526
G01 X-1.27366 Y-20.25099
G01 X-1.27366 Y-4.50652
G01 X-1.29492 Y-4.13807
G01 X-1.34468 Y-3.83146
G01 X-1.42458 Y-3.52793
G01 X-1.55397 Y-3.18707
G01 X-1.71976 Y-2.86494
G01 X-1.90589 Y-2.58328
G01 X-2.10447 Y-2.34020
G01 X-2.34338 Y-2.10162
G01 X-2.60243 Y-1.89187
G01 X-2.88544 Y-1.70779
G01 X-3.18615 Y-1.55433
G01 X-3.50126 Y-1.43314
G01 X-3.82730 Y-1.34556
G01 X-4.16100 Y-1.29248
G01 X-4.50652 Y-1.27366
G01 X-12.65098 Y-1.27366
G01 X-12.69525 Y-1.27803
G01 X-12.79055 Y-1.29700
G01 X-12.83307 Y-1.30990
G01 X-12.87229 Y-1.33086
G01 X-12.95306 Y-1.38483
G01 X-12.98738 Y-1.41305
G01 X-13.03934 Y-1.48293
G01 X-13.03934 Y-1.00000
G01 X-4.49999 Y-1.00000
G01 X-3.81716 Y-1.06723
G01 X-3.16060 Y-1.26642
G01 X-2.55549 Y-1.58979
G01 X-2.02512 Y-2.02512
G01 X-1.58979 Y-2.55549
G01 X-1.26642 Y-3.16060
G01 X-1.06723 Y-3.81716
G01 X-1.00000 Y-4.49999
G01 X-1.00000 Y-20.63935
G01 X-1.16980 Y-20.63935
G01 X-1.00000 Y-20.63935
G01 X-1.04691 Y-20.25099
G01 X-1.27366 Y-20.25099
G01 X-1.27803 Y-20.29526
G01 X-1.29700 Y-20.39054
G01 X-1.30990 Y-20.43306
G01 X-1.33086 Y-20.47222
G01 X-1.40289 Y-20.57657
G01 X-1.42387 Y-20.59755
G01 X-1.48290 Y-20.63935
G01 X-1.16980 Y-20.63935
G01 X-1.14229 Y-20.59821
G01 X-1.10043 Y-20.51985
G01 X-1.07462 Y-20.43483
G01 X-1.05565 Y-20.33956
G01 X-1.04691 Y-20.25099
G01 X-1.04691 Y-4.50652
G01 X-1.07097 Y-4.10258
G01 X-1.12537 Y-3.77373
G01 X-1.20528 Y-3.47020
G01 X-1.34229 Y-3.10578
G01 X-1.36251 Y-3.06067
G01 X-1.53012 Y-2.74061
G01 X-1.70223 Y-2.47810
G01 X-1.92888 Y-2.19674
G01 X-2.21765 Y-1.91021
G01 X-2.47810 Y-1.70223
G01 X-2.74061 Y-1.53012
G01 X-3.10396 Y-1.34300
G01 X-3.44162 Y-1.21435
G01 X-3.74447 Y-1.13180
G01 X-4.10063 Y-1.07127
G01 X-4.50652 Y-1.04691
G01 X-12.65098 Y-1.04691
G01 X-12.73952 Y-1.05565
G01 X-12.83482 Y-1.07462
G01 X-12.91989 Y-1.10043
G01 X-12.99825 Y-1.14234
G01 X-13.03934 Y-1.16980
G01 X-13.03934 Y-1.48293
G01 X-13.09052 Y-1.56736
G01 X-13.10345 Y-1.60988
G01 X-13.12240 Y-1.70518
G01 X-13.12680 Y-1.74948
G01 X-13.12680 Y-9.21675
G01 X-13.12240 Y-9.26102
G01 X-13.10345 Y-9.35632
G01 X-13.09052 Y-9.39884
G01 X-13.06960 Y-9.43806
G01 X-13.01684 Y-9.51697
G01 X-13.51257 Y-9.94875
G01 X-13.37960 Y-9.96889
G01 X-13.15100 Y-9.98903
G01 X-13.14143 Y-9.99729
G01 X-13.07475 Y-10.23600
G01 X-13.05469 Y-10.33026
G01 X-13.02746 Y-10.50209
G01 X-13.01847 Y-10.58718
G01 X-13.00950 Y-10.75893
G01 X-13.00950 Y-10.84100
G01 X-13.01847 Y-11.01275
G01 X-13.02746 Y-11.09787
G01 X-13.05469 Y-11.26970
G01 X-13.07475 Y-11.36399
G01 X-13.14074 Y-11.60038
G01 X-13.35435 Y-11.80046
G01 X-13.46497 Y-11.91809
G01 X-13.63243 Y-12.10876
G01 X-13.67909 Y-12.19680
G01 X-13.74389 Y-12.33686
G01 X-13.89471 Y-12.70089
G01 X-13.90239 Y-12.72946
G01 X-13.90655 Y-12.72868
G01 X-13.90239 Y-12.72946
G01 X-13.90335 Y-17.87312
G01 X-13.89456 Y-18.05417
G01 X-13.88356 Y-18.16819
G01 X-13.80881 Y-18.53672
G01 X-13.77666 Y-18.64446
G01 X-13.69355 Y-18.87436
G01 X-13.59126 Y-19.08818
G01 X-13.55209 Y-19.16173
G01 X-13.71750 Y-19.32714
G01 X-13.96779 Y-19.54616
G01 X-13.77292 Y-19.37563
G01 X-13.77292 Y-18.65523
G01 X-13.77292 Y-19.37563
G01 X-13.96779 Y-19.54616
G01 X-14.21044 Y-19.69780
G01 X-14.41066 Y-19.77291
G01 X-14.21044 Y-19.69780
G01 X-14.02456 Y-19.58162
G01 X-14.01275 Y-19.54271
G01 X-13.99967 Y-19.40999
G01 X-13.99967 Y-12.65743
G01 X-14.01691 Y-12.65029
G01 X-13.99967 Y-12.65743
G01 X-13.78979 Y-12.44757
G01 X-13.70711 Y-12.25479
G01 X-13.63457 Y-12.10737
G01 X-13.35435 Y-11.80046
G01 X-13.40216 Y-11.85128
G01 X-13.51321 Y-11.92891
G01 X-13.65982 Y-11.99690
G01 X-13.66185 Y-11.99398
G01 X-13.65982 Y-11.99690
G01 X-14.22641 Y-12.56350
G01 X-14.24368 Y-12.55636
G01 X-14.22641 Y-12.56350
G01 X-14.22644 Y-19.40999
G01 X-14.23515 Y-19.49846
G01 X-14.26096 Y-19.58355
G01 X-14.30287 Y-19.66196
G01 X-14.35928 Y-19.73069
G01 X-14.41066 Y-19.77291
G01 X-14.44729 Y-19.78663
G01 X-14.68702 Y-19.81660
G01 X-16.17401 Y-19.81660
G01 X-16.37566 Y-19.79536
G01 X-16.52681 Y-19.74764
G01 X-16.55133 Y-19.66740
G01 X-16.52742 Y-19.70154
G01 X-16.47152 Y-19.75744
G01 X-16.45161 Y-19.77139
G01 X-16.47152 Y-19.75744
G01 X-16.52742 Y-19.70154
G01 X-16.55133 Y-19.66740
G01 X-16.57152 Y-19.60136
G01 X-16.59158 Y-19.40423
G01 X-16.59158 Y-15.45844
G01 X-16.57690 Y-15.32562
G01 X-16.56812 Y-15.15839
G01 X-16.56743 Y-15.04752
G01 X-16.57736 Y-14.86837
G01 X-16.59298 Y-14.73269
G01 X-16.50012 Y-14.59263
G01 X-16.44404 Y-14.48557
G01 X-16.40677 Y-14.39664
G01 X-16.40680 Y-19.40999
G01 X-16.40335 Y-19.44936
G01 X-16.39311 Y-19.48757
G01 X-16.37640 Y-19.52338
G01 X-16.35371 Y-19.55576
G01 X-16.32577 Y-19.58373
G01 X-16.29339 Y-19.60641
G01 X-16.25755 Y-19.62310
G01 X-16.21937 Y-19.63334
G01 X-16.17998 Y-19.63679
G01 X-14.67998 Y-19.63679
G01 X-14.63573 Y-19.63242
G01 X-14.59319 Y-19.61952
G01 X-14.55397 Y-19.59856
G01 X-14.51961 Y-19.57037
G01 X-14.49141 Y-19.53598
G01 X-14.47046 Y-19.49679
G01 X-14.45755 Y-19.45424
G01 X-14.45318 Y-19.40999
G01 X-14.45318 Y-12.46960
G01 X-13.79045 Y-11.80683
G01 X-13.62659 Y-11.73251
G01 X-13.46291 Y-11.61514
G01 X-13.42768 Y-11.58342
G01 X-13.30879 Y-11.45136
G01 X-13.28087 Y-11.41301
G01 X-13.18125 Y-11.23795
G01 X-13.11786 Y-11.04679
G01 X-13.10800 Y-11.00041
G01 X-13.08819 Y-10.79998
G01 X-13.00950 Y-10.84100
G01 X-13.08819 Y-10.79998
G01 X-13.11171 Y-10.57610
G01 X-13.18125 Y-10.36201
G01 X-13.29383 Y-10.16706
G01 X-13.44447 Y-9.99978
G01 X-13.62659 Y-9.86744
G01 X-13.83223 Y-9.77590
G01 X-14.05242 Y-9.72909
G01 X-14.27754 Y-9.72909
G01 X-14.49774 Y-9.77590
G01 X-14.68224 Y-9.85667
G01 X-14.72329 Y-9.88037
G01 X-14.86705 Y-9.98484
G01 X-14.90228 Y-10.01657
G01 X-15.03614 Y-10.16706
G01 X-15.13792 Y-10.34087
G01 X-15.17000 Y-10.42360
G01 X-16.13563 Y-11.39078
G01 X-16.22890 Y-11.50445
G01 X-16.25361 Y-11.54140
G01 X-16.32290 Y-11.67107
G01 X-16.33992 Y-11.71214
G01 X-16.38259 Y-11.85283
G01 X-16.39128 Y-11.89645
G01 X-16.40677 Y-12.06497
G01 X-16.40677 Y-14.39664
G01 X-17.07606 Y-14.62080
G01 X-16.98292 Y-14.68140
G01 X-16.81541 Y-14.77782
G01 X-16.80319 Y-14.88918
G01 X-16.79471 Y-15.05049
G01 X-16.79471 Y-15.14947
G01 X-16.80319 Y-15.31076
G01 X-16.81836 Y-15.44952
G01 X-16.81891 Y-19.41002
G01 X-16.79598 Y-19.63537
G01 X-16.72626 Y-19.87093
G01 X-16.70571 Y-19.90943
G01 X-16.67213 Y-19.93732
G01 X-16.65196 Y-19.94591
G01 X-16.49204 Y-19.99640
G01 X-16.65303 Y-19.94812
G01 X-16.69026 Y-19.92500
G01 X-16.70571 Y-19.90943
G01 X-16.71554 Y-19.91693
G01 X-16.70571 Y-19.90943
G01 X-16.72626 Y-19.87093
G01 X-16.77642 Y-19.70674
G01 X-16.77642 Y-19.99640
G01 X-16.84284 Y-20.06283
G01 X-16.77642 Y-19.99640
G01 X-16.49204 Y-19.99640
G01 X-16.41091 Y-20.02056
G01 X-16.17998 Y-20.04365
G01 X-14.67993 Y-20.04395
G01 X-14.39286 Y-20.00755
G01 X-14.10929 Y-19.90260
G01 X-13.83990 Y-19.73362
G01 X-13.56523 Y-19.49541
G01 X-13.37747 Y-19.30781
G01 X-13.34447 Y-19.31614
G01 X-13.38580 Y-19.31614
G01 X-13.34447 Y-19.31614
G01 X-13.31648 Y-19.32320
G01 X-13.24054 Y-19.37939
G01 X-13.02695 Y-19.52259
G01 X-12.87508 Y-19.61380
G01 X-12.69675 Y-19.70959
G01 X-12.57008 Y-19.76966
G01 X-12.69675 Y-19.70959
G01 X-12.87038 Y-19.61647
G01 X-12.99334 Y-19.54289
G01 X-13.61951 Y-19.54289
G01 X-13.82532 Y-19.72280
G01 X-13.89756 Y-19.76966
G01 X-12.57008 Y-19.76966
G01 X-12.40569 Y-19.84083
G01 X-12.22075 Y-19.90628
G01 X-12.03912 Y-19.95853
G01 X-11.86787 Y-19.99640
G01 X-14.36086 Y-19.99640
G01 X-11.86787 Y-19.99640
G01 X-11.75695 Y-20.01484
G01 X-11.60737 Y-20.03255
G01 X-11.40003 Y-20.04294
G01 X-9.18065 Y-20.04334
G01 X-8.87405 Y-20.17034
G01 X-8.74817 Y-20.22716
G01 X-8.62632 Y-20.24494
G01 X-8.54090 Y-20.26727
G01 X-8.46455 Y-20.29424
G01 X-8.35462 Y-20.34708
G01 X-8.28060 Y-20.39277
G01 X-8.35462 Y-20.34708
G01 X-8.44260 Y-20.30367
G01 X-8.54090 Y-20.26727
G01 X-8.64969 Y-20.24014
G01 X-8.73966 Y-20.22762
G01 X-8.82998 Y-20.22318
G01 X-17.00319 Y-20.22318
G01 X-17.00319 Y-15.40231
G01 X-16.97563 Y-15.31348
G01 X-16.95318 Y-15.10000
G01 X-16.97563 Y-14.88651
G01 X-17.04195 Y-14.68234
G01 X-17.14929 Y-14.49644
G01 X-17.27614 Y-14.35372
G01 X-17.31137 Y-14.32199
G01 X-17.44668 Y-14.22367
G01 X-17.48775 Y-14.19997
G01 X-17.66268 Y-14.12344
G01 X-17.87266 Y-14.07881
G01 X-18.08731 Y-14.07881
G01 X-18.27436 Y-14.11729
G01 X-18.31945 Y-14.13195
G01 X-18.47223 Y-14.19997
G01 X-18.51330 Y-14.22367
G01 X-18.66704 Y-14.33693
G01 X-18.81068 Y-14.49644
G01 X-18.90723 Y-14.66121
G01 X-18.92653 Y-14.70452
G01 X-18.98434 Y-14.88651
G01 X-19.00679 Y-15.10000
G01 X-18.98434 Y-15.31348
G01 X-18.95678 Y-15.40233
G01 X-18.95569 Y-21.21220
G01 X-18.94129 Y-21.35850
G01 X-18.93260 Y-21.40212
G01 X-18.88993 Y-21.54281
G01 X-18.87291 Y-21.58388
G01 X-18.80362 Y-21.71355
G01 X-18.77891 Y-21.75053
G01 X-18.66763 Y-21.88367
G01 X-18.61104 Y-21.93641
G01 X-18.50649 Y-22.01614
G01 X-18.44525 Y-22.05294
G01 X-18.35727 Y-22.09630
G01 X-18.28033 Y-22.12604
G01 X-18.17352 Y-22.15502
G01 X-18.06021 Y-22.17237
G01 X-17.96999 Y-22.17677
G01 X-14.78732 Y-22.17677
G01 X-16.07264 Y-22.17677
G01 X-15.97406 Y-22.21860
G01 X-15.87665 Y-22.27003
G01 X-15.72321 Y-22.37306
G01 X-15.59273 Y-22.36175
G01 X-15.40271 Y-22.35660
G01 X-15.26443 Y-22.36191
G01 X-15.13675 Y-22.37306
G01 X-14.98331 Y-22.27003
G01 X-14.88590 Y-22.21860
G01 X-14.78732 Y-22.17677
G01 X-12.37442 Y-22.17677
G01 X-12.25131 Y-22.50714
G01 X-12.34196 Y-22.63877
G01 X-12.37303 Y-22.51553
G01 X-12.40112 Y-22.46333
G01 X-12.45486 Y-22.38883
G01 X-12.40112 Y-22.46333
G01 X-12.37303 Y-22.51553
G01 X-12.34199 Y-22.63849
G01 X-12.33607 Y-22.68250
G01 X-12.33884 Y-22.72683
G01 X-12.35436 Y-22.82271
G01 X-12.36574 Y-22.86574
G01 X-12.39162 Y-22.93508
G01 X-12.39368 Y-22.95428
G01 X-12.39368 Y-32.70567
G01 X-12.39162 Y-32.72488
G01 X-12.36266 Y-32.80250
G01 X-12.31549 Y-32.86549
G01 X-12.25250 Y-32.91266
G01 X-12.17485 Y-32.94162
G01 X-10.56508 Y-32.94162
G01 X-10.48743 Y-32.91266
G01 X-10.42444 Y-32.86549
G01 X-10.37727 Y-32.80250
G01 X-10.34834 Y-32.72490
G01 X-10.34628 Y-30.32013
G01 X-10.34273 Y-30.26514
G01 X-10.30072 Y-30.11752
G01 X-10.27041 Y-30.06659
G01 X-10.21024 Y-29.99031
G01 X-10.17946 Y-29.95831
G01 X-10.14301 Y-29.93291
G01 X-10.03145 Y-29.87266
G01 X-9.98426 Y-29.85999
G01 X-9.76729 Y-29.64299
G01 X-9.78916 Y-29.55963
G01 X-9.80679 Y-29.37998
G01 X-9.78916 Y-29.20035
G01 X-9.76727 Y-29.11696
G01 X-9.98743 Y-28.89682
G01 X-10.05253 Y-28.87942
G01 X-10.09172 Y-28.85846
G01 X-10.18032 Y-28.79852
G01 X-10.14882 Y-28.87370
G01 X-10.10122 Y-28.96276
G01 X-10.02020 Y-29.09522
G01 X-9.98281 Y-29.18874
G01 X-9.97961 Y-29.22209
G01 X-9.98517 Y-29.32844
G01 X-9.98517 Y-29.43146
G01 X-9.97961 Y-29.53784
G01 X-9.98281 Y-29.57121
G01 X-10.02007 Y-29.66443
G01 X-10.12462 Y-29.83903
G01 X-10.18101 Y-29.95993
G01 X-10.12462 Y-29.83903
G01 X-10.01951 Y-29.66471
G01 X-9.98807 Y-29.58716
G01 X-9.97996 Y-29.55465
G01 X-9.97633 Y-29.55526
G01 X-9.97996 Y-29.55465
G01 X-9.98517 Y-29.43146
G01 X-9.98517 Y-29.32844
G01 X-9.97961 Y-29.22209
G01 X-9.98281 Y-29.18874
G01 X-9.97684 Y-29.18729
G01 X-9.98281 Y-29.18874
G01 X-10.02883 Y-29.07848
G01 X-10.10122 Y-28.96276
G01 X-10.14882 Y-28.87370
G01 X-10.18032 Y-28.79852
G01 X-10.21707 Y-28.76545
G01 X-10.23513 Y-28.74188
G01 X-10.28911 Y-28.66108
G01 X-10.31006 Y-28.62189
G01 X-10.32297 Y-28.57934
G01 X-10.34191 Y-28.48407
G01 X-10.34628 Y-28.43985
G01 X-10.34628 Y-25.23950
G01 X-10.34191 Y-25.19525
G01 X-10.31530 Y-25.07130
G01 X-10.28911 Y-25.01816
G01 X-10.21705 Y-24.91387
G01 X-10.17252 Y-24.87483
G01 X-10.09172 Y-24.82085
G01 X-10.05256 Y-24.79990
G01 X-10.01004 Y-24.78700
G01 X-9.89274 Y-24.76475
G01 X-8.55149 Y-24.76365
G01 X-8.39234 Y-24.73846
G01 X-8.23910 Y-24.68867
G01 X-8.09554 Y-24.61552
G01 X-7.96519 Y-24.52080
G01 X-6.11314 Y-22.66876
G01 X-6.01843 Y-22.53841
G01 X-5.94528 Y-22.39485
G01 X-5.89549 Y-22.24161
G01 X-5.87030 Y-22.08246
G01 X-5.87030 Y-21.25449
G01 X-5.86593 Y-21.21019
G01 X-5.84695 Y-21.11489
G01 X-5.83405 Y-21.07237
G01 X-5.81309 Y-21.03316
G01 X-5.75912 Y-20.95238
G01 X-5.73090 Y-20.91804
G01 X-5.66440 Y-20.86836
G01 X-5.70456 Y-20.89643
G01 X-5.69326 Y-20.86938
G01 X-5.66440 Y-20.86836
G01 X-5.59008 Y-20.82101
G01 X-5.53400 Y-20.80199
G01 X-5.43870 Y-20.78304
G01 X-5.39448 Y-20.77867
G01 X-1.74948 Y-20.77867
G01 X-1.70523 Y-20.78304
G01 X-1.58128 Y-20.80966
G01 X-1.55387 Y-20.82101
G01 X-1.48288 Y-20.86610
G01 X-1.41305 Y-20.91804
G01 X-1.38483 Y-20.95238
G01 X-1.33086 Y-21.03316
G01 X-1.30990 Y-21.07237
G01 X-1.29700 Y-21.11489
G01 X-1.27803 Y-21.21019
G01 X-1.27366 Y-21.25449
G01 X-1.27366 Y-41.39352
G01 X-1.29205 Y-41.73499
G01 X-1.34490 Y-42.06941
G01 X-1.43289 Y-42.39776
G01 X-1.55433 Y-42.71381
G01 X-1.70619 Y-43.01162
G01 X-1.89133 Y-43.29671
G01 X-2.10452 Y-43.55976
G01 X-2.34338 Y-43.79831
G01 X-2.58404 Y-43.99468
G01 X-2.90975 Y-44.20606
G01 X-3.19006 Y-44.34736
G01 X-3.47962 Y-44.45973
G01 X-3.85473 Y-44.56013
G01 X-4.18785 Y-44.61022
G01 X-4.50652 Y-44.62628
G01 X-16.89346 Y-44.62628
G01 X-17.26286 Y-44.60486
G01 X-17.59491 Y-44.54962
G01 X-17.89463 Y-44.46811
G01 X-18.18815 Y-44.35691
G01 X-18.51363 Y-44.19257
G01 X-18.79752 Y-44.00809
G01 X-19.07662 Y-43.78018
G01 X-19.29544 Y-43.55976
G01 X-19.49404 Y-43.31668
G01 X-19.69374 Y-43.01160
G01 X-19.84563 Y-42.71378
G01 X-19.96704 Y-42.39776
G01 X-20.05503 Y-42.06941
G01 X-20.10788 Y-41.73499
G01 X-20.12627 Y-41.39344
G01 X-20.12594 Y-4.49346
G01 X-20.10788 Y-4.16496
G01 X-20.06013 Y-3.85470
G01 X-19.96707 Y-3.50220
G01 X-19.84563 Y-3.18613
G01 X-19.69376 Y-2.88831
G01 X-19.49468 Y-2.58404
G01 X-19.29831 Y-2.34338
G01 X-19.07730 Y-2.12047
G01 X-18.79483 Y-1.88996
G01 X-18.51452 Y-1.70779
G01 X-18.21289 Y-1.55397
G01 X-17.89554 Y-1.43215
G01 X-17.56849 Y-1.34468
G01 X-17.26187 Y-1.29492
G01 X-16.90649 Y-1.27401
G01 X-13.63223 Y-1.27475
G01 X-13.51491 Y-1.29700
G01 X-13.47239 Y-1.30990
G01 X-13.43322 Y-1.33086
G01 X-13.32888 Y-1.40289
G01 X-13.30790 Y-1.42387
G01 X-13.26612 Y-1.48290
G01 X-13.26612 Y-1.16977
G01 X-13.30724 Y-1.14229
G01 X-13.38560 Y-1.10043
G01 X-13.47061 Y-1.07462
G01 X-13.56589 Y-1.05565
G01 X-13.65451 Y-1.04691
G01 X-16.93212 Y-1.04798
G01 X-17.29735 Y-1.07097
G01 X-17.62623 Y-1.12537
G01 X-17.97682 Y-1.22047
G01 X-18.33928 Y-1.36251
G01 X-18.61833 Y-1.50622
G01 X-18.89912 Y-1.68585
G01 X-19.20169 Y-1.92766
G01 X-19.23834 Y-1.96080
G01 X-19.45935 Y-2.18371
G01 X-19.67090 Y-2.44137
G01 X-19.88393 Y-2.76479
G01 X-20.05696 Y-3.10396
G01 X-20.18612 Y-3.44353
G01 X-20.28424 Y-3.82021
G01 X-20.33666 Y-4.17571
G01 X-20.35269 Y-4.49346
G01 X-20.35302 Y-41.39344
G01 X-20.33199 Y-41.76949
G01 X-20.27408 Y-42.12808
G01 X-20.18609 Y-42.45643
G01 X-20.05698 Y-42.79595
G01 X-19.88393 Y-43.13509
G01 X-19.69882 Y-43.42018
G01 X-19.47106 Y-43.70321
G01 X-19.20321 Y-43.97106
G01 X-18.96013 Y-44.16966
G01 X-18.65932 Y-44.36981
G01 X-18.31373 Y-44.54896
G01 X-18.26849 Y-44.56897
G01 X-17.93169 Y-44.69412
G01 X-17.60908 Y-44.77822
G01 X-17.29928 Y-44.82866
G01 X-16.91856 Y-44.85234
G01 X-4.50652 Y-44.85302
G01 X-4.17624 Y-44.83669
G01 X-3.82024 Y-44.78424
G01 X-3.44350 Y-44.68609
G01 X-3.12964 Y-44.56826
G01 X-2.80769 Y-44.40855
G01 X-2.76482 Y-44.38391
G01 X-2.44137 Y-44.17090
G01 X-2.18371 Y-43.95935
G01 X-1.92890 Y-43.70321
G01 X-1.70117 Y-43.42021
G01 X-1.51602 Y-43.13512
G01 X-1.36159 Y-42.83751
G01 X-1.22923 Y-42.50342
G01 X-1.12586 Y-42.12808
G01 X-1.11569 Y-42.07970
G01 X-1.06794 Y-41.76949
G01 X-1.04750 Y-41.41673
G01 X-1.04691 Y-21.25449
G01 X-1.05565 Y-21.16592
G01 X-1.07462 Y-21.07062
G01 X-1.10043 Y-20.98556
G01 X-1.14234 Y-20.90717
G01 X-1.16977 Y-20.86610
G01 X-1.48288 Y-20.86610
G01 X-1.00000 Y-20.86610
G01 X-1.00000 Y-41.39999
G01 X-1.04691 Y-41.39352
G01 X-1.27366 Y-41.39352
G01 X-1.04691 Y-41.39352
G01 X-1.00000 Y-41.39999
G01 X-1.06723 Y-42.08280
G01 X-1.26642 Y-42.73939
G01 X-1.58979 Y-43.34449
G01 X-2.02512 Y-43.87487
G01 X-2.55549 Y-44.31012
G01 X-3.16060 Y-44.63357
G01 X-3.81716 Y-44.83273
G01 X-4.49999 Y-44.89999
G01 X-16.89999 Y-44.89999
G01 X-17.58279 Y-44.83273
G01 X-18.23938 Y-44.63357
G01 X-18.84449 Y-44.31012
G01 X-19.37487 Y-43.87487
G01 X-19.81012 Y-43.34449
G01 X-20.13356 Y-42.73939
G01 X-20.33273 Y-42.08280
G01 X-20.39998 Y-41.39999
G01 X-20.39998 Y-4.49999
G01 X-20.33273 Y-3.81716
G01 X-20.13356 Y-3.16060
G01 X-19.81012 Y-2.55549
G01 X-19.37487 Y-2.02512
G01 X-18.84449 Y-1.58979
G01 X-18.23938 Y-1.26642
G01 X-17.58279 Y-1.06723
G01 X-16.89999 Y-1.00000
G01 X-13.26612 Y-1.00000
G01 X-13.26612 Y-1.48290
G01 X-13.22100 Y-1.55387
G01 X-13.20965 Y-1.58128
G01 X-13.18301 Y-1.70523
G01 X-13.17866 Y-1.74948
G01 X-13.17866 Y-9.20572
G01 X-13.17386 Y-9.26866
G01 X-13.19223 Y-9.41862
G01 X-13.21417 Y-9.47364
G01 X-13.26164 Y-9.55840
G01 X-13.28707 Y-9.59488
G01 X-13.31912 Y-9.62569
G01 X-13.41986 Y-9.70262
G01 X-13.47285 Y-9.72551
G01 X-13.41986 Y-9.70262
G01 X-13.31912 Y-9.62569
G01 X-13.28707 Y-9.59488
G01 X-13.24343 Y-9.52589
G01 X-13.22809 Y-9.75492
G01 X-13.35664 Y-9.74329
G01 X-13.47285 Y-9.72551
G01 X-13.56777 Y-9.75236
G01 X-13.61150 Y-9.76018
G01 X-13.65595 Y-9.75931
G01 X-13.77442 Y-9.74420
G01 X-13.90185 Y-9.70394
G01 X-14.07653 Y-9.67628
G01 X-14.25341 Y-9.67628
G01 X-14.42811 Y-9.70394
G01 X-14.59631 Y-9.75858
G01 X-14.75392 Y-9.83889
G01 X-14.89702 Y-9.94286
G01 X-15.02209 Y-10.06792
G01 X-15.12606 Y-10.21103
G01 X-15.19812 Y-10.35246
G01 X-15.26250 Y-10.44583
G01 X-15.28562 Y-10.47285
G01 X-16.21081 Y-11.39807
G01 X-16.30553 Y-11.52842
G01 X-16.37868 Y-11.67201
G01 X-16.42847 Y-11.82527
G01 X-16.45366 Y-11.98438
G01 X-16.45366 Y-13.95915
G01 X-16.45803 Y-14.00338
G01 X-16.47698 Y-14.09868
G01 X-16.49600 Y-14.15476
G01 X-16.56481 Y-14.26124
G01 X-16.60388 Y-14.30574
G01 X-16.62742 Y-14.32380
G01 X-16.70822 Y-14.37777
G01 X-16.74741 Y-14.39873
G01 X-16.78996 Y-14.41163
G01 X-16.88523 Y-14.43058
G01 X-16.92946 Y-14.43495
G01 X-16.94878 Y-14.43304
G01 X-16.92946 Y-14.43495
G01 X-16.88523 Y-14.43058
G01 X-16.78996 Y-14.41163
G01 X-16.74741 Y-14.39873
G01 X-16.70822 Y-14.37777
G01 X-16.61963 Y-14.31783
G01 X-16.65112 Y-14.39301
G01 X-16.69801 Y-14.48074
G01 X-16.74721 Y-14.55496
G01 X-16.86380 Y-14.48844
G01 X-16.94878 Y-14.43304
G01 X-17.06900 Y-14.41163
G01 X-17.12509 Y-14.39261
G01 X-17.23156 Y-14.32380
G01 X-17.28048 Y-14.28102
G01 X-17.41724 Y-14.18166
G01 X-17.56781 Y-14.10492
G01 X-17.72854 Y-14.05273
G01 X-17.89547 Y-14.02629
G01 X-18.06448 Y-14.02629
G01 X-18.23141 Y-14.05273
G01 X-18.39214 Y-14.10492
G01 X-18.54271 Y-14.18166
G01 X-18.67944 Y-14.28100
G01 X-18.79892 Y-14.40050
G01 X-18.89829 Y-14.53726
G01 X-18.97502 Y-14.68783
G01 X-19.02724 Y-14.84854
G01 X-19.05366 Y-15.01546
G01 X-19.05366 Y-15.18338
G01 X-19.00682 Y-15.46161
G01 X-19.00367 Y-15.49928
G01 X-19.00367 Y-21.27054
G01 X-18.97847 Y-21.42970
G01 X-18.92869 Y-21.58294
G01 X-18.85554 Y-21.72652
G01 X-18.76082 Y-21.85685
G01 X-18.63687 Y-21.98080
G01 X-18.50649 Y-22.07552
G01 X-18.36293 Y-22.14867
G01 X-18.20969 Y-22.19846
G01 X-18.05054 Y-22.22365
G01 X-16.51010 Y-22.22365
G01 X-16.46580 Y-22.22802
G01 X-16.37050 Y-22.24700
G01 X-16.32798 Y-22.25990
G01 X-16.28877 Y-22.28085
G01 X-16.20799 Y-22.33483
G01 X-16.17365 Y-22.36305
G01 X-16.14543 Y-22.39739
G01 X-16.09146 Y-22.47816
G01 X-16.06527 Y-22.53130
G01 X-16.03865 Y-22.65525
G01 X-16.03428 Y-22.69950
G01 X-16.03700 Y-22.72708
G01 X-16.03428 Y-22.69950
G01 X-16.03865 Y-22.65525
G01 X-16.06527 Y-22.53130
G01 X-16.09146 Y-22.47816
G01 X-16.15204 Y-22.38936
G01 X-16.07624 Y-22.42111
G01 X-15.98884 Y-22.46782
G01 X-15.90462 Y-22.52439
G01 X-15.97815 Y-22.64562
G01 X-16.03700 Y-22.72708
G01 X-16.05760 Y-22.83899
G01 X-16.07663 Y-22.89508
G01 X-16.14543 Y-23.00155
G01 X-16.21081 Y-23.07306
G01 X-16.30550 Y-23.20343
G01 X-16.37868 Y-23.34702
G01 X-16.42847 Y-23.50028
G01 X-16.45366 Y-23.65939
G01 X-16.45366 Y-32.42887
G01 X-16.45803 Y-32.47309
G01 X-16.47698 Y-32.56839
G01 X-16.49600 Y-32.62447
G01 X-16.56481 Y-32.73095
G01 X-16.59303 Y-32.76529
G01 X-18.32150 Y-34.49376
G01 X-18.35036 Y-34.51817
G01 X-18.58023 Y-34.68180
G01 X-18.69895 Y-34.80049
G01 X-18.79829 Y-34.93722
G01 X-18.87502 Y-35.08781
G01 X-18.92724 Y-35.24855
G01 X-18.95366 Y-35.41547
G01 X-18.95366 Y-35.58449
G01 X-18.92724 Y-35.75141
G01 X-18.87502 Y-35.91212
G01 X-18.79829 Y-36.06269
G01 X-18.69892 Y-36.19944
G01 X-18.57944 Y-36.31895
G01 X-18.44274 Y-36.41829
G01 X-18.29214 Y-36.49500
G01 X-18.13141 Y-36.54722
G01 X-17.96448 Y-36.57366
G01 X-17.79547 Y-36.57366
G01 X-17.62854 Y-36.54722
G01 X-17.46781 Y-36.49500
G01 X-17.31721 Y-36.41829
G01 X-17.18051 Y-36.31895
G01 X-17.06179 Y-36.20023
G01 X-16.89816 Y-35.97034
G01 X-16.87375 Y-35.94151
G01 X-14.64915 Y-33.71685
G01 X-14.55443 Y-33.58650
G01 X-14.48128 Y-33.44294
G01 X-14.43149 Y-33.28970
G01 X-14.40630 Y-33.13054
G01 X-14.40630 Y-23.65941
G01 X-14.43149 Y-23.50026
G01 X-14.48128 Y-23.34702
G01 X-14.55443 Y-23.20343
G01 X-14.64912 Y-23.07308
G01 X-14.71452 Y-23.00155
G01 X-14.76850 Y-22.92078
G01 X-14.79469 Y-22.86767
G01 X-14.80236 Y-22.83899
G01 X-14.82131 Y-22.74372
G01 X-14.82568 Y-22.69950
G01 X-14.82131 Y-22.65525
G01 X-14.80236 Y-22.55995
G01 X-14.78333 Y-22.50387
G01 X-14.70853 Y-22.38962
G01 X-14.76850 Y-22.47816
G01 X-14.79469 Y-22.53130
G01 X-14.82131 Y-22.65525
G01 X-14.82568 Y-22.69950
G01 X-14.82131 Y-22.74372
G01 X-14.82296 Y-22.72708
G01 X-14.88176 Y-22.64567
G01 X-14.95534 Y-22.52439
G01 X-14.87112 Y-22.46782
G01 X-14.78371 Y-22.42111
G01 X-14.70853 Y-22.38962
G01 X-14.67546 Y-22.35289
G01 X-14.65191 Y-22.33483
G01 X-14.57112 Y-22.28085
G01 X-14.53195 Y-22.25990
G01 X-14.48943 Y-22.24700
G01 X-14.37213 Y-22.22475
G01 X-12.81158 Y-22.22365
G01 X-12.68423 Y-22.24301
G01 X-12.64338 Y-22.25441
G01 X-12.60536 Y-22.27323
G01 X-12.52271 Y-22.32429
G01 X-12.48738 Y-22.35124
G01 X-12.45486 Y-22.38883
G01 X-12.39853 Y-22.41121
G01 X-12.31123 Y-22.45589
G01 X-12.24509 Y-22.49863
G01 X-12.25131 Y-22.50714
G01 X-12.15464 Y-22.76660
G01 X-12.02566 Y-22.58334
G01 X-9.15810 Y-22.58334
G01 X-9.15726 Y-22.58753
G01 X-9.15810 Y-22.58334
G01 X-9.11469 Y-22.57471
G01 X-8.78657 Y-22.43879
G01 X-8.65142 Y-22.37793
G01 X-8.28076 Y-22.00727
G01 X-8.14967 Y-21.88858
G01 X-8.03184 Y-21.75982
G01 X-8.00633 Y-21.72355
G01 X-7.93704 Y-21.59389
G01 X-7.92046 Y-21.55421
G01 X-7.87977 Y-21.42315
G01 X-7.87077 Y-21.37948
G01 X-7.86257 Y-21.22284
G01 X-7.87077 Y-21.02046
G01 X-7.88068 Y-20.97397
G01 X-7.93763 Y-20.80268
G01 X-8.02569 Y-20.64771
G01 X-8.14974 Y-20.51129
G01 X-8.28096 Y-20.39249
G01 X-9.03666 Y-19.63677
G01 X-11.36998 Y-19.63677
G01 X-11.46020 Y-19.63237
G01 X-11.57348 Y-19.61502
G01 X-11.65896 Y-19.59275
G01 X-11.73556 Y-19.56562
G01 X-11.86485 Y-19.50204
G01 X-11.92583 Y-19.46262
G01 X-12.01102 Y-19.39641
G01 X-12.07562 Y-19.33418
G01 X-12.18214 Y-19.20265
G01 X-12.26289 Y-19.05389
G01 X-12.27991 Y-19.01281
G01 X-12.32258 Y-18.87212
G01 X-12.33127 Y-18.82856
G01 X-12.34679 Y-18.65927
G01 X-12.32573 Y-18.45833
G01 X-12.27948 Y-18.30568
G01 X-12.26289 Y-18.26605
G01 X-12.18214 Y-18.11729
G01 X-12.07562 Y-17.98577
G01 X-12.01108 Y-17.92361
G01 X-11.92588 Y-17.85734
G01 X-11.86475 Y-17.81787
G01 X-11.75730 Y-17.76367
G01 X-11.68022 Y-17.73390
G01 X-11.57359 Y-17.70494
G01 X-11.48235 Y-17.68986
G01 X-11.38189 Y-17.68348
G01 X-8.61426 Y-17.68386
G01 X-8.46178 Y-17.69867
G01 X-8.34733 Y-17.72615
G01 X-8.20476 Y-17.78218
G01 X-8.07270 Y-17.85983
G01 X-7.94134 Y-17.96928
G01 X-6.20326 Y-19.70738
G01 X-6.09506 Y-19.83750
G01 X-6.07035 Y-19.87448
G01 X-6.00105 Y-20.00415
G01 X-5.98404 Y-20.04522
G01 X-5.94136 Y-20.18591
G01 X-5.93268 Y-20.22953
G01 X-5.91718 Y-20.39808
G01 X-5.91718 Y-20.81705
G01 X-5.91718 Y-20.69770
G01 X-5.89206 Y-20.75706
G01 X-5.91718 Y-20.81705
G01 X-5.91787 Y-22.01969
G01 X-5.93268 Y-22.17217
G01 X-5.97116 Y-22.32045
G01 X-6.01619 Y-22.42919
G01 X-6.09384 Y-22.56125
G01 X-6.20329 Y-22.69259
G01 X-7.94136 Y-24.43066
G01 X-8.07148 Y-24.53889
G01 X-8.10847 Y-24.56360
G01 X-8.23813 Y-24.63289
G01 X-8.27921 Y-24.64991
G01 X-8.41990 Y-24.69258
G01 X-8.46351 Y-24.70127
G01 X-8.60981 Y-24.71567
G01 X-10.39317 Y-24.71677
G01 X-10.39317 Y-24.79426
G01 X-10.37097 Y-24.75306
G01 X-10.34047 Y-24.72751
G01 X-10.31570 Y-24.71677
G01 X-10.35685 Y-24.73894
G01 X-10.36107 Y-24.73422
G01 X-10.35685 Y-24.73894
G01 X-10.37097 Y-24.75306
G01 X-10.39317 Y-24.78682
G01 X-10.39317 Y-29.87835
G01 X-10.39317 Y-28.87726
G01 X-10.35131 Y-28.97589
G01 X-10.29551 Y-29.07975
G01 X-10.22609 Y-29.19072
G01 X-10.20740 Y-29.23586
G01 X-10.21192 Y-29.32547
G01 X-10.20740 Y-29.52410
G01 X-10.22579 Y-29.56852
G01 X-10.32787 Y-29.73835
G01 X-10.39317 Y-29.87835
G01 X-10.39320 Y-32.66999
G01 X-10.39754 Y-32.71423
G01 X-10.41044 Y-32.75678
G01 X-10.43140 Y-32.79600
G01 X-10.45962 Y-32.83036
G01 X-10.49398 Y-32.85856
G01 X-10.53320 Y-32.87951
G01 X-10.57575 Y-32.89244
G01 X-10.61999 Y-32.89678
G01 X-12.11999 Y-32.89678
G01 X-12.16424 Y-32.89244
G01 X-12.20678 Y-32.87951
G01 X-12.24600 Y-32.85856
G01 X-12.28037 Y-32.83036
G01 X-12.30856 Y-32.79600
G01 X-12.32952 Y-32.75678
G01 X-12.34242 Y-32.71423
G01 X-12.34679 Y-32.66999
G01 X-12.34679 Y-22.99000
G01 X-12.34242 Y-22.94575
G01 X-12.32952 Y-22.90321
G01 X-12.30856 Y-22.86399
G01 X-12.28037 Y-22.82962
G01 X-12.24600 Y-22.80140
G01 X-12.20678 Y-22.78045
G01 X-12.16424 Y-22.76754
G01 X-12.11999 Y-22.76318
G01 X-9.03666 Y-22.76318
G01 X-8.28076 Y-22.00727
G01 X-8.35469 Y-22.05291
G01 X-8.46442 Y-22.10565
G01 X-8.54098 Y-22.13275
G01 X-8.62642 Y-22.15502
G01 X-8.74824 Y-22.17283
G01 X-8.87402 Y-22.22957
G01 X-9.18063 Y-22.35657
G01 X-12.04709 Y-22.35660
G01 X-12.20262 Y-22.25617
G01 X-12.30003 Y-22.20692
G01 X-12.37442 Y-22.17677
G01 X-8.82998 Y-22.17677
G01 X-8.71753 Y-22.17011
G01 X-8.62642 Y-22.15502
G01 X-8.51969 Y-22.12604
G01 X-8.44266 Y-22.09630
G01 X-8.35469 Y-22.05291
G01 X-8.29351 Y-22.01616
G01 X-8.14967 Y-21.88858
G01 X-8.02503 Y-21.75154
G01 X-7.87077 Y-21.59729
G01 X-7.87077 Y-21.37948
G01 X-7.86257 Y-21.22284
G01 X-7.87077 Y-21.02046
G01 X-7.87077 Y-20.80268
G01 X-8.02549 Y-20.64796
G01 X-8.14974 Y-20.51129
G01 X-8.28096 Y-20.39249
G01 X-8.65147 Y-20.02198
G01 X-8.78657 Y-19.96112
G01 X-9.12873 Y-19.82043
G01 X-9.12785 Y-19.81599
G01 X-9.12873 Y-19.82043
G01 X-9.15810 Y-19.81657
G01 X-11.39485 Y-19.81624
G01 X-11.58588 Y-19.80679
G01 X-11.72393 Y-19.79049
G01 X-11.82479 Y-19.77377
G01 X-11.94549 Y-19.71634
G01 X-12.02634 Y-19.66862
G01 X-12.15022 Y-19.57542
G01 X-12.21273 Y-19.51909
G01 X-12.34417 Y-19.36438
G01 X-12.39357 Y-19.29046
G01 X-12.46289 Y-19.16079
G01 X-12.49690 Y-19.07865
G01 X-12.53957 Y-18.93796
G01 X-12.55692 Y-18.85081
G01 X-12.56871 Y-18.73126
G01 X-12.47930 Y-18.64053
G01 X-12.32784 Y-18.47187
G01 X-12.48136 Y-18.64274
G01 X-12.63795 Y-18.79958
G01 X-13.08623 Y-19.20984
G01 X-12.90307 Y-19.33265
G01 X-12.76083 Y-19.41792
G01 X-12.59210 Y-19.50839
G01 X-12.47315 Y-19.56465
G01 X-12.59210 Y-19.50839
G01 X-12.76083 Y-19.41792
G01 X-12.87264 Y-19.35089
G01 X-12.93089 Y-19.21030
G01 X-12.96462 Y-19.09902
G01 X-12.77242 Y-18.92412
G01 X-12.75657 Y-19.00377
G01 X-12.71387 Y-19.14446
G01 X-12.66287 Y-19.26768
G01 X-12.59355 Y-19.39734
G01 X-12.51946 Y-19.50824
G01 X-12.47315 Y-19.56465
G01 X-12.32294 Y-19.62970
G01 X-12.15133 Y-19.69041
G01 X-11.98354 Y-19.73870
G01 X-11.82479 Y-19.77377
G04 P0 ( dwell for no time -- G64 should not smooth over this point )
G00 Z2.00000 ( retract )

G00 X-15.90533 Y-22.88708 ( rapid move to begin. )
G01 F60.00000
( Mill infeed pass 1/1 )
G01 Z-0.10000
G04 P0 ( dwell for no time -- G64 should not smooth over this point )
G01 F120.00000
G01 X-15.90533 Y-22.88708
G01 X-15.98592 Y-22.93734
G01 X-16.08793 Y-23.01809
G01 X-16.13278 Y-23.06236
G01 X-16.20921 Y-23.15187
G01 X-16.23317 Y-23.18576
G01 X-16.32234 Y-23.34268
G01 X-16.37929 Y-23.51397
G01 X-16.38915 Y-23.56035
G01 X-16.40680 Y-23.73998
G01 X-16.40677 Y-32.64538
G01 X-18.35269 Y-34.59127
G01 X-18.41330 Y-34.62368
G01 X-18.54860 Y-34.72198
G01 X-18.58383 Y-34.75370
G01 X-18.71068 Y-34.89645
G01 X-18.80723 Y-35.06119
G01 X-18.82653 Y-35.10450
G01 X-18.87819 Y-35.26358
G01 X-18.88807 Y-35.30996
G01 X-18.90679 Y-35.49998
G01 X-18.88434 Y-35.71347
G01 X-18.81802 Y-35.91763
G01 X-18.71068 Y-36.10353
G01 X-18.56704 Y-36.26305
G01 X-18.39338 Y-36.38923
G01 X-18.19730 Y-36.47653
G01 X-17.98731 Y-36.52116
G01 X-17.77266 Y-36.52116
G01 X-17.56268 Y-36.47653
G01 X-17.36659 Y-36.38923
G01 X-17.19293 Y-36.26305
G01 X-17.04929 Y-36.10353
G01 X-16.97370 Y-35.97509
G01 X-14.72720 Y-33.72762
G01 X-14.62984 Y-33.60933
G01 X-14.55219 Y-33.47728
G01 X-14.49616 Y-33.33471
G01 X-14.46868 Y-33.22025
G01 X-14.45318 Y-33.05000
G01 X-14.45318 Y-23.73998
G01 X-14.46868 Y-23.57143
G01 X-14.47736 Y-23.52782
G01 X-14.52004 Y-23.38713
G01 X-14.53705 Y-23.34605
G01 X-14.60635 Y-23.21639
G01 X-14.63723 Y-23.16937
G01 X-14.72717 Y-23.06236
G01 X-14.78887 Y-23.00364
G01 X-14.89362 Y-22.92373
G01 X-14.95463 Y-22.88708
G01 X-15.00510 Y-22.86218
G01 X-15.07157 Y-22.76975
G01 X-15.17627 Y-22.59696
G01 X-15.28008 Y-22.58814
G01 X-15.40419 Y-22.58370
G01 X-15.53139 Y-22.58568
G01 X-15.68366 Y-22.59696
G01 X-15.76161 Y-22.72787
G01 X-15.83436 Y-22.83549
G01 X-15.85486 Y-22.86216
G01 X-15.90533 Y-22.88708
G01 X-15.79545 Y-22.83427
G01 X-15.71904 Y-22.80724
G01 X-15.61026 Y-22.78014
G01 X-15.52029 Y-22.76762
G01 X-15.44190 Y-22.76348
G01 X-15.33967 Y-22.76762
G01 X-15.22636 Y-22.78494
G01 X-15.11978 Y-22.81390
G01 X-15.06454 Y-22.83424
G01 X-15.00510 Y-22.86218
G04 P0 ( dwell for no time -- G64 should not smooth over this point )
G00 Z2.00000 ( retract )

G00 X-8.52691 Y-28.40261 ( rapid move to begin. )
G01 F60.00000
( Mill infeed pass 1/1 )
G01 Z-0.10000
G04 P0 ( dwell for no time -- G64 should not smooth over this point )
G01 F120.00000
G01 X-8.52691 Y-28.40261
G01 X-8.56597 Y-28.44168
G01 X-8.70443 Y-28.41226
G01 X-8.75160 Y-28.40728
G01 X-8.93209 Y-28.40853
G01 X-9.09399 Y-28.44168
G01 X-9.13305 Y-28.40261
G01 X-9.06958 Y-28.38199
G01 X-8.91050 Y-28.35679
G01 X-8.74944 Y-28.35679
G01 X-8.59038 Y-28.38199
G01 X-8.52691 Y-28.40261
G04 P0 ( dwell for no time -- G64 should not smooth over this point )
G00 Z2.00000 ( retract )

G00 X-7.80679 Y-29.46049 ( rapid move to begin. )
G01 F60.00000
( Mill infeed pass 1/1 )
G01 Z-0.10000
G04 P0 ( dwell for no time -- G64 should not smooth over this point )
G01 F120.00000
G01 X-7.80679 Y-29.46049
G01 X-7.83196 Y-29.61958
G01 X-7.85259 Y-29.68305
G01 X-7.89269 Y-29.64297
G01 X-7.87082 Y-29.55963
G01 X-7.85320 Y-29.37998
G01 X-7.87082 Y-29.20035
G01 X-7.89269 Y-29.11701
G01 X-7.85259 Y-29.07690
G01 X-7.83196 Y-29.14038
G01 X-7.80679 Y-29.29943
G01 X-7.80679 Y-29.46049
G04 P0 ( dwell for no time -- G64 should not smooth over this point )
G00 Z2.00000 ( retract )

G00 X-8.52688 Y-30.35734 ( rapid move to begin. )
G01 F60.00000
( Mill infeed pass 1/1 )
G01 Z-0.10000
G04 P0 ( dwell for no time -- G64 should not smooth over this point )
G01 F120.00000
G01 X-8.52688 Y-30.35734
G01 X-8.56595 Y-30.31828
G01 X-8.70443 Y-30.34772
G01 X-8.75160 Y-30.35267
G01 X-8.93209 Y-30.35143
G01 X-9.09401 Y-30.31828
G01 X-9.13308 Y-30.35734
G01 X-9.06958 Y-30.37797
G01 X-8.91050 Y-30.40316
G01 X-8.74944 Y-30.40316
G01 X-8.59038 Y-30.37797
G01 X-8.52688 Y-30.35734
G04 P0 ( dwell for no time -- G64 should not smooth over this point )
G00 Z2.00000 ( retract )

G00 X-4.27678 Y-26.91930 ( rapid move to begin. )
G01 F60.00000
( Mill infeed pass 1/1 )
G01 Z-0.10000
G04 P0 ( dwell for no time -- G64 should not smooth over this point )
G01 F120.00000
G01 X-4.27678 Y-26.91930
G01 X-4.33700 Y-26.94666
G01 X-4.35828 Y-26.96037
G01 X-4.52051 Y-27.07978
G01 X-4.67114 Y-27.24706
G01 X-4.76270 Y-27.40317
G01 X-4.81762 Y-27.40317
G01 X-4.76062 Y-27.29128
G01 X-4.65671 Y-27.14826
G01 X-4.53169 Y-27.02324
G01 X-4.38866 Y-26.91933
G01 X-4.27678 Y-26.86233
G01 X-4.27678 Y-26.91930
G04 P0 ( dwell for no time -- G64 should not smooth over this point )
G00 Z2.00000 ( retract )

G00 X-2.78232 Y-27.40317 ( rapid move to begin. )
G01 F60.00000
( Mill infeed pass 1/1 )
G01 Z-0.10000
G04 P0 ( dwell for no time -- G64 should not smooth over this point )
G01 F120.00000
G01 X-2.78232 Y-27.40317
G01 X-2.83931 Y-27.29128
G01 X-2.94322 Y-27.14826
G01 X-3.06824 Y-27.02324
G01 X-3.21127 Y-26.91933
G01 X-3.32316 Y-26.86233
G01 X-3.32316 Y-26.91933
G01 X-3.26299 Y-26.94666
G01 X-3.24162 Y-26.96037
G01 X-3.07947 Y-27.07978
G01 X-2.92885 Y-27.24706
G01 X-2.83726 Y-27.40317
G01 X-2.78232 Y-27.40317
G04 P0 ( dwell for no time -- G64 should not smooth over this point )
G00 Z2.00000 ( retract )

G00 X-4.27678 Y-29.45930 ( rapid move to begin. )
G01 F60.00000
( Mill infeed pass 1/1 )
G01 Z-0.10000
G04 P0 ( dwell for no time -- G64 should not smooth over this point )
G01 F120.00000
G01 X-4.27678 Y-29.45930
G01 X-4.33700 Y-29.48666
G01 X-4.35828 Y-29.50037
G01 X-4.52051 Y-29.61978
G01 X-4.67114 Y-29.78706
G01 X-4.76270 Y-29.94317
G01 X-4.81762 Y-29.94317
G01 X-4.76062 Y-29.83128
G01 X-4.65668 Y-29.68826
G01 X-4.58881 Y-29.62036
G01 X-4.43644 Y-29.48495
G01 X-4.38709 Y-29.42676
G01 X-4.36187 Y-29.39031
G01 X-4.33382 Y-29.33095
G01 X-4.30472 Y-29.23677
G01 X-4.29870 Y-29.19374
G01 X-4.29796 Y-29.14940
G01 X-4.30708 Y-29.05128
G01 X-4.31797 Y-29.00921
G01 X-4.33428 Y-28.96789
G01 X-4.38762 Y-28.87002
G01 X-4.46562 Y-28.78816
G01 X-4.53169 Y-28.73670
G01 X-4.65671 Y-28.61170
G01 X-4.76062 Y-28.46868
G01 X-4.81762 Y-28.35679
G01 X-4.76273 Y-28.35679
G01 X-4.67114 Y-28.51292
G01 X-4.52051 Y-28.68021
G01 X-4.35828 Y-28.79959
G01 X-4.33700 Y-28.81333
G01 X-4.27678 Y-28.84066
G01 X-4.27678 Y-29.45930
G04 P0 ( dwell for no time -- G64 should not smooth over this point )
G00 Z2.00000 ( retract )

G00 X-2.78232 Y-29.94317 ( rapid move to begin. )
G01 F60.00000
( Mill infeed pass 1/1 )
G01 Z-0.10000
G04 P0 ( dwell for no time -- G64 should not smooth over this point )
G01 F120.00000
G01 X-2.78232 Y-29.94317
G01 X-2.83931 Y-29.83128
G01 X-2.94322 Y-29.68826
G01 X-3.06827 Y-29.56324
G01 X-3.13431 Y-29.51178
G01 X-3.21508 Y-29.42603
G01 X-3.23499 Y-29.39133
G01 X-3.28633 Y-29.27538
G01 X-3.29636 Y-29.21701
G01 X-3.30012 Y-29.11993
G01 X-3.29755 Y-29.07556
G01 X-3.28633 Y-29.03253
G01 X-3.25270 Y-28.94137
G01 X-3.22511 Y-28.88897
G01 X-3.14048 Y-28.79456
G01 X-3.06824 Y-28.73670
G01 X-2.94322 Y-28.61170
G01 X-2.83934 Y-28.46868
G01 X-2.78232 Y-28.35679
G01 X-2.83726 Y-28.35679
G01 X-2.92885 Y-28.51292
G01 X-3.07947 Y-28.68021
G01 X-3.24162 Y-28.79959
G01 X-3.26299 Y-28.81333
G01 X-3.32316 Y-28.84063
G01 X-3.32316 Y-29.45933
G01 X-3.26299 Y-29.48666
G01 X-3.24162 Y-29.50037
G01 X-3.07947 Y-29.61978
G01 X-2.92885 Y-29.78706
G01 X-2.83726 Y-29.94317
G01 X-2.78232 Y-29.94317
G04 P0 ( dwell for no time -- G64 should not smooth over this point )
G00 Z2.00000 ( retract )

G00 X-4.27678 Y-31.99930 ( rapid move to begin. )
G01 F60.00000
( Mill infeed pass 1/1 )
G01 Z-0.10000
G04 P0 ( dwell for no time -- G64 should not smooth over this point )
G01 F120.00000
G01 X-4.27678 Y-31.99930
G01 X-4.33700 Y-32.02666
G01 X-4.35828 Y-32.04037
G01 X-4.52051 Y-32.15978
G01 X-4.67114 Y-32.32706
G01 X-4.76270 Y-32.48317
G01 X-4.81762 Y-32.48317
G01 X-4.76062 Y-32.37128
G01 X-4.65671 Y-32.22826
G01 X-4.53166 Y-32.10324
G01 X-4.45943 Y-32.04535
G01 X-4.39349 Y-31.97400
G01 X-4.36667 Y-31.93857
G01 X-4.34729 Y-31.89859
G01 X-4.31366 Y-31.80745
G01 X-4.30522 Y-31.77901
G01 X-4.29979 Y-31.72003
G01 X-4.30360 Y-31.62295
G01 X-4.30969 Y-31.57893
G01 X-4.32425 Y-31.53692
G01 X-4.38483 Y-31.41393
G01 X-4.46562 Y-31.32816
G01 X-4.53169 Y-31.27670
G01 X-4.65671 Y-31.15170
G01 X-4.76062 Y-31.00868
G01 X-4.81762 Y-30.89679
G01 X-4.76273 Y-30.89679
G01 X-4.67114 Y-31.05292
G01 X-4.52051 Y-31.22021
G01 X-4.35828 Y-31.33959
G01 X-4.33700 Y-31.35333
G01 X-4.27678 Y-31.38066
G01 X-4.27678 Y-31.99930
G04 P0 ( dwell for no time -- G64 should not smooth over this point )
G00 Z2.00000 ( retract )

G00 X-2.78232 Y-32.48317 ( rapid move to begin. )
G01 F60.00000
( Mill infeed pass 1/1 )
G01 Z-0.10000
G04 P0 ( dwell for no time -- G64 should not smooth over this point )
G01 F120.00000
G01 X-2.78232 Y-32.48317
G01 X-2.83931 Y-32.37128
G01 X-2.94322 Y-32.22826
G01 X-3.06827 Y-32.10324
G01 X-3.13431 Y-32.05178
G01 X-3.21508 Y-31.96603
G01 X-3.23499 Y-31.93133
G01 X-3.28633 Y-31.81538
G01 X-3.29636 Y-31.75701
G01 X-3.30012 Y-31.65993
G01 X-3.29755 Y-31.61556
G01 X-3.28633 Y-31.57253
G01 X-3.25270 Y-31.48137
G01 X-3.22511 Y-31.42897
G01 X-3.14048 Y-31.33456
G01 X-3.06824 Y-31.27670
G01 X-2.94322 Y-31.15170
G01 X-2.83934 Y-31.00868
G01 X-2.78232 Y-30.89679
G01 X-2.83726 Y-30.89679
G01 X-2.92885 Y-31.05292
G01 X-3.07947 Y-31.22021
G01 X-3.24162 Y-31.33959
G01 X-3.26299 Y-31.35333
G01 X-3.32316 Y-31.38063
G01 X-3.32316 Y-31.99933
G01 X-3.26299 Y-32.02666
G01 X-3.24162 Y-32.04037
G01 X-3.07947 Y-32.15978
G01 X-2.92885 Y-32.32706
G01 X-2.83726 Y-32.48317
G01 X-2.78232 Y-32.48317
G04 P0 ( dwell for no time -- G64 should not smooth over this point )
G00 Z2.00000 ( retract )

G00 X-4.27678 Y-34.42320 ( rapid move to begin. )
G01 F60.00000
( Mill infeed pass 1/1 )
G01 Z-0.10000
G04 P0 ( dwell for no time -- G64 should not smooth over this point )
G01 F120.00000
G01 X-4.27678 Y-34.42320
G01 X-4.64998 Y-34.42320
G01 X-4.69422 Y-34.42754
G01 X-4.73677 Y-34.44044
G01 X-4.77599 Y-34.46140
G01 X-4.81035 Y-34.48962
G01 X-4.83857 Y-34.52398
G01 X-4.85953 Y-34.56320
G01 X-4.87243 Y-34.60575
G01 X-4.87680 Y-34.64999
G01 X-4.87680 Y-35.02317
G01 X-4.92315 Y-35.02317
G01 X-4.92110 Y-34.59516
G01 X-4.89222 Y-34.51769
G01 X-4.84515 Y-34.45480
G01 X-4.74190 Y-34.37753
G01 X-4.71241 Y-34.35116
G01 X-4.65376 Y-34.29363
G01 X-4.62940 Y-34.25647
G01 X-4.58437 Y-34.17039
G01 X-4.56771 Y-34.12919
G01 X-4.55943 Y-34.08553
G01 X-4.55074 Y-33.98876
G01 X-4.55003 Y-33.95906
G01 X-4.56019 Y-33.90069
G01 X-4.60266 Y-33.77463
G01 X-4.76021 Y-33.54944
G01 X-4.81762 Y-33.43679
G01 X-4.76273 Y-33.43679
G01 X-4.67114 Y-33.59292
G01 X-4.52051 Y-33.76021
G01 X-4.35828 Y-33.87959
G01 X-4.33700 Y-33.89333
G01 X-4.27678 Y-33.92066
G01 X-4.27678 Y-34.42320
G04 P0 ( dwell for no time -- G64 should not smooth over this point )
G00 Z2.00000 ( retract )

G00 X-2.67678 Y-35.02317 ( rapid move to begin. )
G01 F60.00000
( Mill infeed pass 1/1 )
G01 Z-0.10000
G04 P0 ( dwell for no time -- G64 should not smooth over this point )
G01 F120.00000
G01 X-2.67678 Y-35.02317
G01 X-2.72318 Y-35.02317
G01 X-2.72318 Y-34.64999
G01 X-2.72755 Y-34.60575
G01 X-2.74046 Y-34.56320
G01 X-2.76141 Y-34.52398
G01 X-2.78961 Y-34.48962
G01 X-2.82397 Y-34.46140
G01 X-2.86319 Y-34.44044
G01 X-2.90573 Y-34.42754
G01 X-2.94998 Y-34.42320
G01 X-3.32316 Y-34.42320
G01 X-3.32316 Y-33.92063
G01 X-3.26299 Y-33.89333
G01 X-3.24162 Y-33.87959
G01 X-3.07947 Y-33.76021
G01 X-2.92885 Y-33.59292
G01 X-2.83726 Y-33.43679
G01 X-2.78232 Y-33.43679
G01 X-2.83934 Y-33.54868
G01 X-2.95948 Y-33.71406
G01 X-3.02321 Y-33.83410
G01 X-3.03779 Y-33.89152
G01 X-3.04919 Y-33.98802
G01 X-3.04841 Y-34.04725
G01 X-3.01584 Y-34.16976
G01 X-2.99964 Y-34.21113
G01 X-2.97569 Y-34.24855
G01 X-2.89580 Y-34.34679
G01 X-2.75483 Y-34.45477
G01 X-2.70772 Y-34.51771
G01 X-2.67884 Y-34.59516
G01 X-2.67678 Y-34.61431
G01 X-2.67678 Y-35.02317
G04 P0 ( dwell for no time -- G64 should not smooth over this point )
G00 Z2.00000 ( retract )

G00 X-2.67678 Y-36.38565 ( rapid move to begin. )
G01 F60.00000
( Mill infeed pass 1/1 )
G01 Z-0.10000
G04 P0 ( dwell for no time -- G64 should not smooth over this point )
G01 F120.00000
G01 X-2.67678 Y-36.38565
G01 X-2.67884 Y-36.40478
G01 X-2.70772 Y-36.48225
G01 X-2.75481 Y-36.54514
G01 X-2.81770 Y-36.59223
G01 X-2.89517 Y-36.62111
G01 X-3.32316 Y-36.62317
G01 X-3.32316 Y-36.57679
G01 X-2.94998 Y-36.57679
G01 X-2.90573 Y-36.57242
G01 X-2.86319 Y-36.55952
G01 X-2.82397 Y-36.53856
G01 X-2.78961 Y-36.51037
G01 X-2.76141 Y-36.47600
G01 X-2.74046 Y-36.43678
G01 X-2.72755 Y-36.39424
G01 X-2.72318 Y-36.34999
G01 X-2.72318 Y-35.97679
G01 X-2.67678 Y-35.97679
G01 X-2.67678 Y-36.38565
G04 P0 ( dwell for no time -- G64 should not smooth over this point )
G00 Z2.00000 ( retract )

G00 X-2.87630 Y-41.50639 ( rapid move to begin. )
G01 F60.00000
( Mill infeed pass 1/1 )
G01 Z-0.10000
G04 P0 ( dwell for no time -- G64 should not smooth over this point )
G01 F120.00000
G01 X-2.87630 Y-41.50639
G01 X-2.87630 Y-41.29354
G01 X-2.90406 Y-41.08252
G01 X-2.95915 Y-40.87696
G01 X-3.04058 Y-40.68028
G01 X-3.14701 Y-40.49598
G01 X-3.27657 Y-40.32712
G01 X-3.42709 Y-40.17660
G01 X-3.59595 Y-40.04704
G01 X-3.78028 Y-39.94061
G01 X-3.97693 Y-39.85915
G01 X-4.18252 Y-39.80406
G01 X-4.39356 Y-39.77627
G01 X-4.60639 Y-39.77627
G01 X-4.81741 Y-39.80406
G01 X-5.02300 Y-39.85915
G01 X-5.21965 Y-39.94059
G01 X-5.40398 Y-40.04701
G01 X-5.57284 Y-40.17658
G01 X-5.72336 Y-40.32710
G01 X-5.85292 Y-40.49596
G01 X-5.95935 Y-40.68028
G01 X-6.04081 Y-40.87693
G01 X-6.09590 Y-41.08252
G01 X-6.12366 Y-41.29354
G01 X-6.12366 Y-41.50639
G01 X-6.09590 Y-41.71742
G01 X-6.04081 Y-41.92300
G01 X-5.95935 Y-42.11968
G01 X-5.85292 Y-42.30398
G01 X-5.72336 Y-42.47284
G01 X-5.57284 Y-42.62336
G01 X-5.40398 Y-42.75292
G01 X-5.21965 Y-42.85935
G01 X-5.02300 Y-42.94081
G01 X-4.81744 Y-42.99590
G01 X-4.60642 Y-43.02366
G01 X-4.39354 Y-43.02366
G01 X-4.18252 Y-42.99590
G01 X-3.97693 Y-42.94081
G01 X-3.78028 Y-42.85935
G01 X-3.59595 Y-42.75292
G01 X-3.42709 Y-42.62336
G01 X-3.27657 Y-42.47284
G01 X-3.14701 Y-42.30398
G01 X-3.04058 Y-42.11965
G01 X-2.95915 Y-41.92300
G01 X-2.90406 Y-41.71742
G01 X-2.87630 Y-41.50639
G01 X-3.10304 Y-41.49156
G01 X-3.10256 Y-41.30838
G01 X-3.12646 Y-41.12677
G01 X-3.17388 Y-40.94983
G01 X-3.24396 Y-40.78056
G01 X-3.33555 Y-40.62197
G01 X-3.44706 Y-40.47663
G01 X-3.57660 Y-40.34709
G01 X-3.72194 Y-40.23558
G01 X-3.88059 Y-40.14399
G01 X-4.04983 Y-40.07386
G01 X-4.22676 Y-40.02646
G01 X-4.40840 Y-40.00254
G01 X-4.59156 Y-40.00254
G01 X-4.77317 Y-40.02646
G01 X-4.95013 Y-40.07388
G01 X-5.11937 Y-40.14396
G01 X-5.27799 Y-40.23556
G01 X-5.42333 Y-40.34706
G01 X-5.55287 Y-40.47660
G01 X-5.66438 Y-40.62194
G01 X-5.75597 Y-40.78059
G01 X-5.82610 Y-40.94983
G01 X-5.87350 Y-41.12674
G01 X-5.89740 Y-41.30838
G01 X-5.89740 Y-41.49159
G01 X-5.87350 Y-41.67317
G01 X-5.82607 Y-41.85011
G01 X-5.75597 Y-42.01937
G01 X-5.66438 Y-42.17800
G01 X-5.55287 Y-42.32333
G01 X-5.42333 Y-42.45287
G01 X-5.27799 Y-42.56438
G01 X-5.11934 Y-42.65597
G01 X-4.95010 Y-42.72610
G01 X-4.77319 Y-42.77350
G01 X-4.59158 Y-42.79740
G01 X-4.40837 Y-42.79740
G01 X-4.22674 Y-42.77350
G01 X-4.04983 Y-42.72610
G01 X-3.88059 Y-42.65597
G01 X-3.72194 Y-42.56438
G01 X-3.57660 Y-42.45287
G01 X-3.44706 Y-42.32333
G01 X-3.33555 Y-42.17800
G01 X-3.24396 Y-42.01937
G01 X-3.17388 Y-41.85013
G01 X-3.12646 Y-41.67317
G01 X-3.10304 Y-41.49156
G01 X-3.32981 Y-41.47670
G01 X-3.32981 Y-41.32326
G01 X-3.34874 Y-41.17101
G01 X-3.38907 Y-41.02288
G01 X-3.44724 Y-40.88077
G01 X-3.52488 Y-40.74848
G01 X-3.61681 Y-40.62550
G01 X-3.72674 Y-40.51831
G01 X-3.84780 Y-40.42402
G01 X-3.98109 Y-40.34780
G01 X-4.12272 Y-40.28846
G01 X-4.27121 Y-40.24981
G01 X-4.42318 Y-40.22783
G01 X-4.57665 Y-40.22979
G01 X-4.72892 Y-40.24871
G01 X-4.87708 Y-40.28905
G01 X-5.01917 Y-40.34724
G01 X-5.15148 Y-40.42491
G01 X-5.27446 Y-40.51681
G01 X-5.38165 Y-40.62674
G01 X-5.47594 Y-40.74780
G01 X-5.55274 Y-40.88087
G01 X-5.61045 Y-41.02303
G01 X-5.65122 Y-41.17094
G01 X-5.67126 Y-41.32323
G01 X-5.67014 Y-41.47670
G01 X-5.65122 Y-41.62892
G01 X-5.61091 Y-41.77708
G01 X-5.55269 Y-41.91917
G01 X-5.47505 Y-42.05148
G01 X-5.38312 Y-42.17446
G01 X-5.27319 Y-42.28165
G01 X-5.15214 Y-42.37594
G01 X-5.01907 Y-42.45275
G01 X-4.87690 Y-42.51046
G01 X-4.72902 Y-42.55122
G01 X-4.57672 Y-42.57126
G01 X-4.42326 Y-42.57015
G01 X-4.27098 Y-42.55122
G01 X-4.12265 Y-42.51147
G01 X-3.98130 Y-42.45173
G01 X-3.84787 Y-42.37596
G01 X-3.72600 Y-42.28244
G01 X-3.61828 Y-42.17319
G01 X-3.52400 Y-42.05214
G01 X-3.44721 Y-41.91912
G01 X-3.38953 Y-41.77693
G01 X-3.34874 Y-41.62900
G01 X-3.32981 Y-41.47670
G01 X-3.55656 Y-41.46184
G01 X-3.55656 Y-41.33812
G01 X-3.57160 Y-41.21534
G01 X-3.60423 Y-41.09590
G01 X-3.65105 Y-40.98127
G01 X-3.71384 Y-40.87475
G01 X-3.78767 Y-40.77531
G01 X-3.87657 Y-40.68915
G01 X-3.97406 Y-40.61297
G01 X-4.08160 Y-40.55161
G01 X-4.19578 Y-40.50365
G01 X-4.31554 Y-40.47269
G01 X-4.43804 Y-40.45458
G01 X-4.56179 Y-40.45654
G01 X-4.68457 Y-40.47160
G01 X-4.80403 Y-40.50424
G01 X-4.91866 Y-40.55105
G01 X-5.02524 Y-40.61386
G01 X-5.12465 Y-40.68768
G01 X-5.21081 Y-40.77658
G01 X-5.28698 Y-40.87406
G01 X-5.34894 Y-40.98138
G01 X-5.39526 Y-41.09608
G01 X-5.42834 Y-41.21526
G01 X-5.44449 Y-41.33809
G01 X-5.44340 Y-41.46184
G01 X-5.42834 Y-41.58460
G01 X-5.39572 Y-41.70403
G01 X-5.34888 Y-41.81866
G01 X-5.28610 Y-41.92521
G01 X-5.21226 Y-42.02466
G01 X-5.12336 Y-42.11081
G01 X-5.02587 Y-42.18699
G01 X-4.91856 Y-42.24894
G01 X-4.80383 Y-42.29527
G01 X-4.68470 Y-42.32834
G01 X-4.56187 Y-42.34449
G01 X-4.43812 Y-42.34340
G01 X-4.31533 Y-42.32834
G01 X-4.19570 Y-42.29628
G01 X-4.08181 Y-42.24792
G01 X-3.97411 Y-42.18701
G01 X-3.87627 Y-42.11117
G01 X-3.78828 Y-42.02405
G01 X-3.71386 Y-41.92524
G01 X-3.65026 Y-41.81902
G01 X-3.60472 Y-41.70390
G01 X-3.57162 Y-41.58468
G01 X-3.55656 Y-41.46184
G01 X-3.78330 Y-41.44698
G01 X-3.78221 Y-41.35293
G01 X-3.79451 Y-41.25961
G01 X-3.81988 Y-41.16911
G01 X-3.85409 Y-41.08143
G01 X-3.90279 Y-41.00098
G01 X-3.95915 Y-40.92575
G01 X-4.02608 Y-40.85963
G01 X-4.10035 Y-40.80190
G01 X-4.18231 Y-40.75585
G01 X-4.26875 Y-40.71884
G01 X-4.35971 Y-40.69448
G01 X-4.45303 Y-40.68328
G01 X-4.54696 Y-40.68219
G01 X-4.64030 Y-40.69448
G01 X-4.73083 Y-40.71988
G01 X-4.81853 Y-40.75410
G01 X-4.89900 Y-40.80279
G01 X-4.97421 Y-40.85915
G01 X-5.04033 Y-40.92608
G01 X-5.09806 Y-41.00035
G01 X-5.14411 Y-41.08232
G01 X-5.18193 Y-41.16850
G01 X-5.20438 Y-41.25984
G01 X-5.21774 Y-41.35288
G01 X-5.21713 Y-41.44701
G01 X-5.20545 Y-41.54035
G01 X-5.18008 Y-41.63083
G01 X-5.14586 Y-41.71848
G01 X-5.09714 Y-41.79898
G01 X-5.04078 Y-41.87421
G01 X-4.97385 Y-41.94033
G01 X-4.89958 Y-41.99806
G01 X-4.81762 Y-42.04411
G01 X-4.73141 Y-42.08193
G01 X-4.64012 Y-42.10439
G01 X-4.54708 Y-42.11775
G01 X-4.45295 Y-42.11714
G01 X-4.35958 Y-42.10545
G01 X-4.26913 Y-42.08008
G01 X-4.18188 Y-42.04513
G01 X-4.10030 Y-41.99804
G01 X-4.02641 Y-41.93995
G01 X-3.95851 Y-41.87482
G01 X-3.90279 Y-41.79900
G01 X-3.85488 Y-41.71818
G01 X-3.81942 Y-41.63101
G01 X-3.79448 Y-41.54028
G01 X-3.78330 Y-41.44698
G01 X-4.01008 Y-41.43212
G01 X-4.01008 Y-41.36784
G01 X-4.01846 Y-41.30418
G01 X-4.03507 Y-41.24213
G01 X-4.03088 Y-41.24071
G01 X-4.03507 Y-41.24213
G01 X-4.05966 Y-41.18280
G01 X-4.09171 Y-41.12725
G01 X-4.13083 Y-41.07627
G01 X-4.12750 Y-41.07335
G01 X-4.13083 Y-41.07627
G01 X-4.17624 Y-41.03086
G01 X-4.22719 Y-40.99176
G01 X-4.28282 Y-40.95966
G01 X-4.28087 Y-40.95567
G01 X-4.28282 Y-40.95966
G01 X-4.34218 Y-40.93507
G01 X-4.40423 Y-40.91843
G01 X-4.46789 Y-40.91005
G01 X-4.46761 Y-40.90561
G01 X-4.46789 Y-40.91005
G01 X-4.53207 Y-40.91005
G01 X-4.59572 Y-40.91843
G01 X-4.65780 Y-40.93507
G01 X-4.65922 Y-40.93086
G01 X-4.65780 Y-40.93507
G01 X-4.71716 Y-40.95966
G01 X-4.77274 Y-40.99174
G01 X-4.82369 Y-41.03083
G01 X-4.82661 Y-41.02750
G01 X-4.82369 Y-41.03083
G01 X-4.86910 Y-41.07625
G01 X-4.90819 Y-41.12720
G01 X-4.94030 Y-41.18282
G01 X-4.94429 Y-41.18087
G01 X-4.94030 Y-41.18282
G01 X-4.96489 Y-41.24218
G01 X-4.98150 Y-41.30416
G01 X-4.98988 Y-41.36784
G01 X-4.99433 Y-41.36753
G01 X-4.98988 Y-41.36784
G01 X-4.98988 Y-41.43212
G01 X-4.98150 Y-41.49578
G01 X-4.96489 Y-41.55778
G01 X-4.96910 Y-41.55920
G01 X-4.96489 Y-41.55778
G01 X-4.94030 Y-41.61711
G01 X-4.90822 Y-41.67271
G01 X-4.86910 Y-41.72369
G01 X-4.87243 Y-41.72661
G01 X-4.86910 Y-41.72369
G01 X-4.82369 Y-41.76911
G01 X-4.77274 Y-41.80820
G01 X-4.71711 Y-41.84030
G01 X-4.71907 Y-41.84429
G01 X-4.71711 Y-41.84030
G01 X-4.65773 Y-41.86491
G01 X-4.59577 Y-41.88150
G01 X-4.53212 Y-41.88988
G01 X-4.53243 Y-41.89433
G01 X-4.53212 Y-41.88988
G01 X-4.46783 Y-41.88988
G01 X-4.40416 Y-41.88150
G01 X-4.34218 Y-41.86489
G01 X-4.34076 Y-41.86911
G01 X-4.34218 Y-41.86489
G01 X-4.28282 Y-41.84030
G01 X-4.22719 Y-41.80820
G01 X-4.17624 Y-41.76911
G01 X-4.17332 Y-41.77243
G01 X-4.17624 Y-41.76911
G01 X-4.13083 Y-41.72369
G01 X-4.09174 Y-41.67274
G01 X-4.05966 Y-41.61716
G01 X-4.05567 Y-41.61912
G01 X-4.05966 Y-41.61716
G01 X-4.03507 Y-41.55780
G01 X-4.01846 Y-41.49578
G01 X-4.01008 Y-41.43212
G01 X-4.23240 Y-41.41754
G01 X-4.45049 Y-41.42445
G01 X-4.46728 Y-41.41615
G01 X-4.46359 Y-41.40241
G01 X-4.46545 Y-41.38821
G01 X-4.44772 Y-41.38219
G01 X-4.46545 Y-41.38821
G01 X-4.47253 Y-41.37594
G01 X-4.48386 Y-41.36725
G01 X-4.47561 Y-41.35054
G01 X-4.48386 Y-41.36725
G01 X-4.49763 Y-41.36357
G01 X-4.51170 Y-41.36545
G01 X-4.51772 Y-41.34775
G01 X-4.51170 Y-41.36545
G01 X-4.52402 Y-41.37254
G01 X-4.53271 Y-41.38386
G01 X-4.54944 Y-41.37558
G01 X-4.53271 Y-41.38386
G01 X-4.53636 Y-41.39753
G01 X-4.53453 Y-41.41168
G01 X-4.55224 Y-41.41770
G01 X-4.53453 Y-41.41168
G01 X-4.52740 Y-41.42402
G01 X-4.51607 Y-41.43271
G01 X-4.52432 Y-41.44942
G01 X-4.51607 Y-41.43271
G01 X-4.50243 Y-41.43637
G01 X-4.48828 Y-41.43454
G01 X-4.48231 Y-41.45219
G01 X-4.48828 Y-41.43454
G01 X-4.47591 Y-41.42740
G01 X-4.46728 Y-41.41615
G01 X-4.45049 Y-41.42445
G01 X-4.23240 Y-41.41754
G01 X-4.23682 Y-41.41727
G01 X-4.24132 Y-41.34851
G01 X-4.25026 Y-41.31518
G01 X-4.24604 Y-41.31376
G01 X-4.25026 Y-41.31518
G01 X-4.28066 Y-41.25349
G01 X-4.30169 Y-41.22610
G01 X-4.29834 Y-41.22318
G01 X-4.30169 Y-41.22610
G01 X-4.35343 Y-41.18072
G01 X-4.38333 Y-41.16344
G01 X-4.38137 Y-41.15948
G01 X-4.38333 Y-41.16344
G01 X-4.41523 Y-41.15024
G01 X-4.48277 Y-41.13680
G01 X-4.48246 Y-41.13238
G01 X-4.48277 Y-41.13680
G01 X-4.51719 Y-41.13680
G01 X-4.58475 Y-41.15026
G01 X-4.58617 Y-41.14604
G01 X-4.58475 Y-41.15026
G01 X-4.64650 Y-41.18069
G01 X-4.67385 Y-41.20170
G01 X-4.67680 Y-41.19834
G01 X-4.67385 Y-41.20170
G01 X-4.71924 Y-41.25344
G01 X-4.73652 Y-41.28333
G01 X-4.74048 Y-41.28138
G01 X-4.73652 Y-41.28333
G01 X-4.74972 Y-41.31523
G01 X-4.76313 Y-41.38270
G01 X-4.76755 Y-41.38239
G01 X-4.76313 Y-41.38270
G01 X-4.75864 Y-41.45143
G01 X-4.74970 Y-41.48473
G01 X-4.75391 Y-41.48615
G01 X-4.74970 Y-41.48473
G01 X-4.73652 Y-41.51660
G01 X-4.69824 Y-41.57386
G01 X-4.70159 Y-41.57678
G01 X-4.69824 Y-41.57386
G01 X-4.64650 Y-41.61925
G01 X-4.61660 Y-41.63652
G01 X-4.61856 Y-41.64048
G01 X-4.61660 Y-41.63652
G01 X-4.55145 Y-41.65864
G01 X-4.51726 Y-41.66314
G01 X-4.51757 Y-41.66756
G01 X-4.51726 Y-41.66314
G01 X-4.48269 Y-41.66314
G01 X-4.41523 Y-41.64973
G01 X-4.41381 Y-41.65394
G01 X-4.41523 Y-41.64973
G01 X-4.38333 Y-41.63652
G01 X-4.32608 Y-41.59824
G01 X-4.32316 Y-41.60159
G01 X-4.32608 Y-41.59824
G01 X-4.28069 Y-41.54650
G01 X-4.26347 Y-41.51666
G01 X-4.25948 Y-41.51864
G01 X-4.26347 Y-41.51666
G01 X-4.24132 Y-41.45143
G01 X-4.23682 Y-41.41727
G04 P0 ( dwell for no time -- G64 should not smooth over this point )
G00 Z2.00000 ( retract )

G00 X-4.27678 Y-36.62317 ( rapid move to begin. )
G01 F60.00000
( Mill infeed pass 1/1 )
G01 Z-0.10000
G04 P0 ( dwell for no time -- G64 should not smooth over this point )
G01 F120.00000
G01 X-4.27678 Y-36.62317
G01 X-4.27678 Y-36.57679
G01 X-4.64998 Y-36.57679
G01 X-4.69422 Y-36.57242
G01 X-4.73677 Y-36.55952
G01 X-4.77599 Y-36.53856
G01 X-4.81035 Y-36.51037
G01 X-4.83857 Y-36.47600
G01 X-4.85953 Y-36.43678
G01 X-4.87243 Y-36.39424
G01 X-4.87680 Y-36.34999
G01 X-4.87680 Y-35.97679
G01 X-4.92315 Y-35.97679
G01 X-4.92110 Y-36.40478
G01 X-4.89222 Y-36.48225
G01 X-4.84515 Y-36.54514
G01 X-4.78224 Y-36.59223
G01 X-4.70479 Y-36.62111
G01 X-4.27678 Y-36.62317
G04 P0 ( dwell for no time -- G64 should not smooth over this point )
G00 Z2.00000 ( retract )

G00 X-6.75843 Y-35.02317 ( rapid move to begin. )
G01 F60.00000
( Mill infeed pass 1/1 )
G01 Z-0.10000
G04 P0 ( dwell for no time -- G64 should not smooth over this point )
G01 F120.00000
G01 X-6.75843 Y-35.02317
G01 X-6.80209 Y-34.93747
G01 X-6.90138 Y-34.80082
G01 X-7.02084 Y-34.68136
G01 X-7.15749 Y-34.58210
G01 X-7.24317 Y-34.53844
G01 X-7.24317 Y-34.59310
G01 X-7.18668 Y-34.62368
G01 X-7.05137 Y-34.72198
G01 X-7.01614 Y-34.75370
G01 X-6.88929 Y-34.89645
G01 X-6.81469 Y-35.02317
G01 X-6.75843 Y-35.02317
G04 P0 ( dwell for no time -- G64 should not smooth over this point )
G00 Z2.00000 ( retract )

G00 X-6.75843 Y-35.97679 ( rapid move to begin. )
G01 F60.00000
( Mill infeed pass 1/1 )
G01 Z-0.10000
G04 P0 ( dwell for no time -- G64 should not smooth over this point )
G01 F120.00000
G01 X-6.75843 Y-35.97679
G01 X-6.81467 Y-35.97679
G01 X-6.88929 Y-36.10353
G01 X-7.01614 Y-36.24626
G01 X-7.05137 Y-36.27798
G01 X-7.18668 Y-36.37631
G01 X-7.24317 Y-36.40686
G01 X-7.24317 Y-36.46152
G01 X-7.15749 Y-36.41786
G01 X-7.02084 Y-36.31857
G01 X-6.90138 Y-36.19911
G01 X-6.80209 Y-36.06244
G01 X-6.75843 Y-35.97679
G04 P0 ( dwell for no time -- G64 should not smooth over this point )
G00 Z2.00000 ( retract )

G00 X-8.19678 Y-34.59310 ( rapid move to begin. )
G01 F60.00000
( Mill infeed pass 1/1 )
G01 Z-0.10000
G04 P0 ( dwell for no time -- G64 should not smooth over this point )
G01 F120.00000
G01 X-8.19678 Y-34.59310
G01 X-8.25330 Y-34.62368
G01 X-8.38860 Y-34.72198
G01 X-8.42383 Y-34.75370
G01 X-8.55068 Y-34.89645
G01 X-8.62528 Y-35.02317
G01 X-8.68152 Y-35.02317
G01 X-8.63785 Y-34.93747
G01 X-8.53857 Y-34.80082
G01 X-8.41911 Y-34.68136
G01 X-8.28246 Y-34.58210
G01 X-8.19678 Y-34.53844
G01 X-8.19678 Y-34.59310
G04 P0 ( dwell for no time -- G64 should not smooth over this point )
G00 Z2.00000 ( retract )

G00 X-8.19678 Y-36.46152 ( rapid move to begin. )
G01 F60.00000
( Mill infeed pass 1/1 )
G01 Z-0.10000
G04 P0 ( dwell for no time -- G64 should not smooth over this point )
G01 F120.00000
G01 X-8.19678 Y-36.46152
G01 X-8.28246 Y-36.41786
G01 X-8.41911 Y-36.31857
G01 X-8.53857 Y-36.19911
G01 X-8.63785 Y-36.06244
G01 X-8.68152 Y-35.97679
G01 X-8.62531 Y-35.97679
G01 X-8.55068 Y-36.10353
G01 X-8.42383 Y-36.24626
G01 X-8.38860 Y-36.27798
G01 X-8.25330 Y-36.37631
G01 X-8.19678 Y-36.40689
G01 X-8.19678 Y-36.46152
G04 P0 ( dwell for no time -- G64 should not smooth over this point )
G00 Z2.00000 ( retract )

G00 X-15.27630 Y-41.50639 ( rapid move to begin. )
G01 F60.00000
( Mill infeed pass 1/1 )
G01 Z-0.10000
G04 P0 ( dwell for no time -- G64 should not smooth over this point )
G01 F120.00000
G01 X-15.27630 Y-41.50639
G01 X-15.27630 Y-41.29354
G01 X-15.30406 Y-41.08252
G01 X-15.35915 Y-40.87696
G01 X-15.44058 Y-40.68028
G01 X-15.54701 Y-40.49598
G01 X-15.67658 Y-40.32712
G01 X-15.82710 Y-40.17660
G01 X-15.99595 Y-40.04704
G01 X-16.18028 Y-39.94061
G01 X-16.37693 Y-39.85915
G01 X-16.58252 Y-39.80406
G01 X-16.79357 Y-39.77627
G01 X-17.00639 Y-39.77627
G01 X-17.21742 Y-39.80406
G01 X-17.42300 Y-39.85915
G01 X-17.61965 Y-39.94059
G01 X-17.80398 Y-40.04701
G01 X-17.97284 Y-40.17658
G01 X-18.12336 Y-40.32710
G01 X-18.25292 Y-40.49596
G01 X-18.35935 Y-40.68028
G01 X-18.44081 Y-40.87693
G01 X-18.49590 Y-41.08252
G01 X-18.52366 Y-41.29354
G01 X-18.52366 Y-41.50639
G01 X-18.49590 Y-41.71742
G01 X-18.44081 Y-41.92300
G01 X-18.35935 Y-42.11968
G01 X-18.25292 Y-42.30398
G01 X-18.12336 Y-42.47284
G01 X-17.97284 Y-42.62336
G01 X-17.80398 Y-42.75292
G01 X-17.61965 Y-42.85935
G01 X-17.42300 Y-42.94081
G01 X-17.21742 Y-42.99590
G01 X-17.00639 Y-43.02366
G01 X-16.79354 Y-43.02366
G01 X-16.58252 Y-42.99590
G01 X-16.37693 Y-42.94081
G01 X-16.18028 Y-42.85935
G01 X-15.99595 Y-42.75292
G01 X-15.82710 Y-42.62336
G01 X-15.67658 Y-42.47284
G01 X-15.54701 Y-42.30398
G01 X-15.44058 Y-42.11965
G01 X-15.35915 Y-41.92300
G01 X-15.30406 Y-41.71742
G01 X-15.27630 Y-41.50639
G01 X-15.50304 Y-41.49156
G01 X-15.50256 Y-41.30838
G01 X-15.52646 Y-41.12677
G01 X-15.57388 Y-40.94983
G01 X-15.64396 Y-40.78056
G01 X-15.73555 Y-40.62197
G01 X-15.84706 Y-40.47663
G01 X-15.97660 Y-40.34709
G01 X-16.12194 Y-40.23558
G01 X-16.28059 Y-40.14399
G01 X-16.44983 Y-40.07386
G01 X-16.62676 Y-40.02646
G01 X-16.80840 Y-40.00254
G01 X-16.99156 Y-40.00254
G01 X-17.17317 Y-40.02646
G01 X-17.35013 Y-40.07388
G01 X-17.51937 Y-40.14396
G01 X-17.67799 Y-40.23556
G01 X-17.82333 Y-40.34706
G01 X-17.95287 Y-40.47660
G01 X-18.06438 Y-40.62194
G01 X-18.15597 Y-40.78059
G01 X-18.22610 Y-40.94983
G01 X-18.27350 Y-41.12674
G01 X-18.29740 Y-41.30838
G01 X-18.29740 Y-41.49159
G01 X-18.27350 Y-41.67317
G01 X-18.22607 Y-41.85011
G01 X-18.15597 Y-42.01937
G01 X-18.06438 Y-42.17800
G01 X-17.95287 Y-42.32333
G01 X-17.82333 Y-42.45287
G01 X-17.67799 Y-42.56438
G01 X-17.51935 Y-42.65597
G01 X-17.35010 Y-42.72610
G01 X-17.17317 Y-42.77350
G01 X-16.99158 Y-42.79740
G01 X-16.80837 Y-42.79740
G01 X-16.62674 Y-42.77350
G01 X-16.44983 Y-42.72610
G01 X-16.28059 Y-42.65597
G01 X-16.12194 Y-42.56438
G01 X-15.97660 Y-42.45287
G01 X-15.84706 Y-42.32333
G01 X-15.73555 Y-42.17800
G01 X-15.64396 Y-42.01937
G01 X-15.57388 Y-41.85013
G01 X-15.52646 Y-41.67317
G01 X-15.50304 Y-41.49156
G01 X-15.72981 Y-41.47670
G01 X-15.72981 Y-41.32326
G01 X-15.74874 Y-41.17101
G01 X-15.78907 Y-41.02288
G01 X-15.84724 Y-40.88077
G01 X-15.92489 Y-40.74848
G01 X-16.01681 Y-40.62550
G01 X-16.12674 Y-40.51831
G01 X-16.24780 Y-40.42402
G01 X-16.38109 Y-40.34780
G01 X-16.52273 Y-40.28846
G01 X-16.67121 Y-40.24981
G01 X-16.82318 Y-40.22783
G01 X-16.97665 Y-40.22979
G01 X-17.12892 Y-40.24871
G01 X-17.27708 Y-40.28905
G01 X-17.41917 Y-40.34724
G01 X-17.55148 Y-40.42491
G01 X-17.67446 Y-40.51681
G01 X-17.78165 Y-40.62674
G01 X-17.87594 Y-40.74780
G01 X-17.95275 Y-40.88087
G01 X-18.01045 Y-41.02303
G01 X-18.05122 Y-41.17094
G01 X-18.07126 Y-41.32323
G01 X-18.07014 Y-41.47670
G01 X-18.05122 Y-41.62892
G01 X-18.01091 Y-41.77708
G01 X-17.95269 Y-41.91917
G01 X-17.87505 Y-42.05148
G01 X-17.78312 Y-42.17446
G01 X-17.67319 Y-42.28165
G01 X-17.55214 Y-42.37594
G01 X-17.41907 Y-42.45275
G01 X-17.27690 Y-42.51046
G01 X-17.12900 Y-42.55122
G01 X-16.97673 Y-42.57126
G01 X-16.82326 Y-42.57015
G01 X-16.67099 Y-42.55122
G01 X-16.52265 Y-42.51147
G01 X-16.38130 Y-42.45173
G01 X-16.24787 Y-42.37596
G01 X-16.12600 Y-42.28244
G01 X-16.01828 Y-42.17319
G01 X-15.92400 Y-42.05214
G01 X-15.84721 Y-41.91912
G01 X-15.78953 Y-41.77693
G01 X-15.74874 Y-41.62900
G01 X-15.72981 Y-41.47670
G01 X-15.95656 Y-41.46184
G01 X-15.95547 Y-41.33809
G01 X-15.97162 Y-41.21526
G01 X-16.00472 Y-41.09606
G01 X-16.05026 Y-40.98092
G01 X-16.11384 Y-40.87475
G01 X-16.18828 Y-40.77592
G01 X-16.27627 Y-40.68879
G01 X-16.37411 Y-40.61295
G01 X-16.48181 Y-40.55204
G01 X-16.59545 Y-40.50284
G01 X-16.71554 Y-40.47269
G01 X-16.83807 Y-40.45544
G01 X-16.96182 Y-40.45605
G01 X-17.08465 Y-40.47162
G01 X-17.20388 Y-40.50469
G01 X-17.31902 Y-40.55026
G01 X-17.42524 Y-40.61386
G01 X-17.52404 Y-40.68829
G01 X-17.61117 Y-40.77627
G01 X-17.68701 Y-40.87411
G01 X-17.74792 Y-40.98181
G01 X-17.79628 Y-41.09570
G01 X-17.82834 Y-41.21534
G01 X-17.84340 Y-41.33812
G01 X-17.84449 Y-41.46187
G01 X-17.82834 Y-41.58468
G01 X-17.79527 Y-41.70388
G01 X-17.74967 Y-41.81899
G01 X-17.68610 Y-41.92521
G01 X-17.61165 Y-42.02405
G01 X-17.52366 Y-42.11117
G01 X-17.42582 Y-42.18701
G01 X-17.31813 Y-42.24792
G01 X-17.20423 Y-42.29628
G01 X-17.08460 Y-42.32834
G01 X-16.96184 Y-42.34340
G01 X-16.83809 Y-42.34449
G01 X-16.71526 Y-42.32834
G01 X-16.59608 Y-42.29527
G01 X-16.48137 Y-42.24894
G01 X-16.37406 Y-42.18699
G01 X-16.27657 Y-42.11081
G01 X-16.18767 Y-42.02466
G01 X-16.11386 Y-41.92524
G01 X-16.05105 Y-41.81866
G01 X-16.00424 Y-41.70406
G01 X-15.97162 Y-41.58460
G01 X-15.95656 Y-41.46184
G01 X-16.18331 Y-41.44698
G01 X-16.18221 Y-41.35293
G01 X-16.19451 Y-41.25961
G01 X-16.21988 Y-41.16911
G01 X-16.25409 Y-41.08143
G01 X-16.30279 Y-41.00098
G01 X-16.35915 Y-40.92575
G01 X-16.42608 Y-40.85963
G01 X-16.50035 Y-40.80190
G01 X-16.58231 Y-40.75585
G01 X-16.66875 Y-40.71884
G01 X-16.75971 Y-40.69448
