( pcb2gcode 2.5.0 )
( Software-independent Gcode )

( This file uses 2 drill bit sizes. )
( Bit sizes: [0.8mm] [1mm] )

G94       (Millimeters per minute feed rate.)
G21       (Units == Millimeters.)
G91.1     (Incremental arc distance mode.)
G90       (Absolute coordinates.)
G00 S13000     (RPM spindle speed.)

G00 Z15.00000 (Retract)
T1
M5      (Spindle stop.)
G04 P1.00000
(MSG, Change tool bit to drill size 0.8mm)
M6      (Tool change.)
M0      (Temporary machine stop.)
M3      (Spindle on clockwise.)
G0 Z2.00000
G04 P1.00000

G1 F120.00000
G0 X-7.82000 Y-15.10000
G1 Z-2.50000
G1 Z2.00000
G0 X-11.37000 Y-18.66000
G1 Z-2.50000
G1 Z2.00000
G0 X-8.83000 Y-21.20000
G1 Z-2.50000
G1 Z2.00000
G0 X-11.37000 Y-23.74000
G1 Z-2.50000
G1 Z2.00000
G0 X-11.37000 Y-26.84000
G1 Z-2.50000
G1 Z2.00000
G0 X-8.83000 Y-29.38000
G1 Z-2.50000
G1 Z2.00000
G0 X-7.72000 Y-35.50000
G1 Z-2.50000
G1 Z2.00000
G0 X-11.37000 Y-31.92000
G1 Z-2.50000
G1 Z2.00000
G0 X-17.88000 Y-35.50000
G1 Z-2.50000
G1 Z2.00000
G0 X-15.43000 Y-23.74000
G1 Z-2.50000
G1 Z2.00000
G0 X-17.97000 Y-21.20000
G1 Z-2.50000
G1 Z2.00000
G0 X-15.43000 Y-18.66000
G1 Z-2.50000
G1 Z2.00000
G0 X-17.98000 Y-15.10000
G1 Z-2.50000
G1 Z2.00000

G00 Z15.00000 (Retract)
T2
M5      (Spindle stop.)
G04 P1.00000
(MSG, Change tool bit to drill size 1mm)
M6      (Tool change.)
M0      (Temporary machine stop.)
M3      (Spindle on clockwise.)
G0 Z2.00000
G04 P1.00000

G1 F120.00000
G0 X-3.80000 Y-10.80000
G1 Z-2.50000
G1 Z2.00000
G0 X-3.80000 Y-13.34000
G1 Z-2.50000
G1 Z2.00000
G0 X-3.80000 Y-15.88000
G1 Z-2.50000
G1 Z2.00000
G0 X-3.80000 Y-18.42000
G1 Z-2.50000
G1 Z2.00000
G0 X-11.62500 Y-10.80000
G1 Z-2.50000
G1 Z2.00000
G0 X-14.16500 Y-10.80000
G1 Z-2.50000
G1 Z2.00000
G0 X-3.80000 Y-27.88000
G1 Z-2.50000
G1 Z2.00000
G0 X-3.80000 Y-30.42000
G1 Z-2.50000
G1 Z2.00000
G0 X-3.80000 Y-32.96000
G1 Z-2.50000
G1 Z2.00000
G0 X-3.80000 Y-35.50000
G1 Z-2.50000
G1 Z2.00000

G00 Z15.000 ( All done -- retract )

M5      (Spindle off.)
G04 P1.000000
M9      (Coolant off.)
M2      (Program end.)

