( pcb2gcode 2.5.0 )
( Software-independent Gcode )

G94 ( Millimeters per minute feed rate. )
G21 ( Units == Millimeters. )

G90 ( Absolute coordinates. )
G00 S13000 ( RPM spindle speed. )
G01 F120.00000 ( Feedrate. )


G00 Z15.00000 (Retract to tool change height)
T0
M5      (Spindle stop.)
G04 P1.00000 (Wait for spindle to stop)
(MSG, Change tool bit to cutter diameter 1.00000mm)
M6      (Tool change.)
M0      (Temporary machine stop.)
M3 ( Spindle on clockwise. )
G04 P1.00000 (Wait for spindle to get up to speed)
G04 P0 ( dwell for no time -- G64 should not smooth over this point )
G00 Z2.00000 ( retract )

G00 X-0.49997 Y-41.39999 ( rapid move to begin. )
G01 Z-0.50000 F60.00000 ( plunge. )
G04 P0 ( dwell for no time -- G64 should not smooth over this point )
G01 F120.00000
G01 X-0.49997 Y-4.49999
G01 X-0.57683 Y-3.71960
G01 X-0.78793 Y-3.01544
G01 X-0.82545 Y-2.92489
G01 X-1.14887 Y-2.31978
G01 X-1.20332 Y-2.23827
G01 X-1.63860 Y-1.70790
G01 X-1.70790 Y-1.63860
G01 X-2.23827 Y-1.20332
G01 X-2.31978 Y-1.14887
G01 X-2.92489 Y-0.82545
G01 X-3.01544 Y-0.78793
G01 X-3.67200 Y-0.58875
G01 X-3.76817 Y-0.56962
G01 X-4.49999 Y-0.49997
G01 X-16.89999 Y-0.49997
G01 X-17.68033 Y-0.57683
G01 X-18.38452 Y-0.78793
G01 X-18.47507 Y-0.82545
G01 X-19.12226 Y-1.17409
G01 X-19.69206 Y-1.63860
G01 X-19.76135 Y-1.70792
G01 X-20.19661 Y-2.23830
G01 X-20.25106 Y-2.31978
G01 X-20.57451 Y-2.92489
G01 X-20.61202 Y-3.01544
G01 X-20.81119 Y-3.67200
G01 X-20.83031 Y-3.76814
G01 X-20.89757 Y-4.45097
G01 X-20.89998 Y-41.39999
G01 X-20.83031 Y-42.13179
G01 X-20.81119 Y-42.22791
G01 X-20.59549 Y-42.93072
G01 X-20.25106 Y-43.58018
G01 X-20.19661 Y-43.66166
G01 X-19.72841 Y-44.22841
G01 X-19.16166 Y-44.69661
G01 X-19.08018 Y-44.75107
G01 X-18.43072 Y-45.09549
G01 X-17.72790 Y-45.31119
G01 X-17.63179 Y-45.33031
G01 X-16.89999 Y-45.39999
G01 X-4.45097 Y-45.39757
G01 X-3.76814 Y-45.33031
G01 X-3.67200 Y-45.31119
G01 X-2.96923 Y-45.09549
G01 X-2.31978 Y-44.75107
G01 X-2.23830 Y-44.69661
G01 X-1.67155 Y-44.22841
G01 X-1.17409 Y-43.62226
G01 X-0.82545 Y-42.97507
G01 X-0.78793 Y-42.88452
G01 X-0.57683 Y-42.18033
G01 X-0.49997 Y-41.39999
G01 Z-1.00000 F60.00000 ( plunge. )
G04 P0 ( dwell for no time -- G64 should not smooth over this point )
G01 F120.00000
G01 X-0.49997 Y-4.49999
G01 X-0.57683 Y-3.71960
G01 X-0.78793 Y-3.01544
G01 X-0.82545 Y-2.92489
G01 X-1.14887 Y-2.31978
G01 X-1.20332 Y-2.23827
G01 X-1.63860 Y-1.70790
G01 X-1.70790 Y-1.63860
G01 X-2.23827 Y-1.20332
G01 X-2.31978 Y-1.14887
G01 X-2.92489 Y-0.82545
G01 X-3.01544 Y-0.78793
G01 X-3.67200 Y-0.58875
G01 X-3.76817 Y-0.56962
G01 X-4.49999 Y-0.49997
G01 X-16.89999 Y-0.49997
G01 X-17.68033 Y-0.57683
G01 X-18.38452 Y-0.78793
G01 X-18.47507 Y-0.82545
G01 X-19.12226 Y-1.17409
G01 X-19.69206 Y-1.63860
G01 X-19.76135 Y-1.70792
G01 X-20.19661 Y-2.23830
G01 X-20.25106 Y-2.31978
G01 X-20.57451 Y-2.92489
G01 X-20.61202 Y-3.01544
G01 X-20.81119 Y-3.67200
G01 X-20.83031 Y-3.76814
G01 X-20.89757 Y-4.45097
G01 X-20.89998 Y-41.39999
G01 X-20.83031 Y-42.13179
G01 X-20.81119 Y-42.22791
G01 X-20.59549 Y-42.93072
G01 X-20.25106 Y-43.58018
G01 X-20.19661 Y-43.66166
G01 X-19.72841 Y-44.22841
G01 X-19.16166 Y-44.69661
G01 X-19.08018 Y-44.75107
G01 X-18.43072 Y-45.09549
G01 X-17.72790 Y-45.31119
G01 X-17.63179 Y-45.33031
G01 X-16.89999 Y-45.39999
G01 X-4.45097 Y-45.39757
G01 X-3.76814 Y-45.33031
G01 X-3.67200 Y-45.31119
G01 X-2.96923 Y-45.09549
G01 X-2.31978 Y-44.75107
G01 X-2.23830 Y-44.69661
G01 X-1.67155 Y-44.22841
G01 X-1.17409 Y-43.62226
G01 X-0.82545 Y-42.97507
G01 X-0.78793 Y-42.88452
G01 X-0.57683 Y-42.18033
G01 X-0.49997 Y-41.39999
G01 Z-1.50000 F60.00000 ( plunge. )
G04 P0 ( dwell for no time -- G64 should not smooth over this point )
G01 F120.00000
G01 X-0.49997 Y-4.49999
G01 X-0.57683 Y-3.71960
G01 X-0.78793 Y-3.01544
G01 X-0.82545 Y-2.92489
G01 X-1.14887 Y-2.31978
G01 X-1.20332 Y-2.23827
G01 X-1.63860 Y-1.70790
G01 X-1.70790 Y-1.63860
G01 X-2.23827 Y-1.20332
G01 X-2.31978 Y-1.14887
G01 X-2.92489 Y-0.82545
G01 X-3.01544 Y-0.78793
G01 X-3.67200 Y-0.58875
G01 X-3.76817 Y-0.56962
G01 X-4.49999 Y-0.49997
G01 X-16.89999 Y-0.49997
G01 X-17.68033 Y-0.57683
G01 X-18.38452 Y-0.78793
G01 X-18.47507 Y-0.82545
G01 X-19.12226 Y-1.17409
G01 X-19.69206 Y-1.63860
G01 X-19.76135 Y-1.70792
G01 X-20.19661 Y-2.23830
G01 X-20.25106 Y-2.31978
G01 X-20.57451 Y-2.92489
G01 X-20.61202 Y-3.01544
G01 X-20.81119 Y-3.67200
G01 X-20.83031 Y-3.76814
G01 X-20.89757 Y-4.45097
G01 X-20.89998 Y-41.39999
G01 X-20.83031 Y-42.13179
G01 X-20.81119 Y-42.22791
G01 X-20.59549 Y-42.93072
G01 X-20.25106 Y-43.58018
G01 X-20.19661 Y-43.66166
G01 X-19.72841 Y-44.22841
G01 X-19.16166 Y-44.69661
G01 X-19.08018 Y-44.75107
G01 X-18.43072 Y-45.09549
G01 X-17.72790 Y-45.31119
G01 X-17.63179 Y-45.33031
G01 X-16.89999 Y-45.39999
G01 X-4.45097 Y-45.39757
G01 X-3.76814 Y-45.33031
G01 X-3.67200 Y-45.31119
G01 X-2.96923 Y-45.09549
G01 X-2.31978 Y-44.75107
G01 X-2.23830 Y-44.69661
G01 X-1.67155 Y-44.22841
G01 X-1.17409 Y-43.62226
G01 X-0.82545 Y-42.97507
G01 X-0.78793 Y-42.88452
G01 X-0.57683 Y-42.18033
G01 X-0.49997 Y-41.39999
G01 Z-2.00000 F60.00000 ( plunge. )
G04 P0 ( dwell for no time -- G64 should not smooth over this point )
G01 F120.00000
G01 X-0.49997 Y-4.49999
G01 X-0.57683 Y-3.71960
G01 X-0.78793 Y-3.01544
G01 X-0.82545 Y-2.92489
G01 X-1.14887 Y-2.31978
G01 X-1.20332 Y-2.23827
G01 X-1.63860 Y-1.70790
G01 X-1.70790 Y-1.63860
G01 X-2.23827 Y-1.20332
G01 X-2.31978 Y-1.14887
G01 X-2.92489 Y-0.82545
G01 X-3.01544 Y-0.78793
G01 X-3.67200 Y-0.58875
G01 X-3.76817 Y-0.56962
G01 X-4.49999 Y-0.49997
G01 X-16.89999 Y-0.49997
G01 X-17.68033 Y-0.57683
G01 X-18.38452 Y-0.78793
G01 X-18.47507 Y-0.82545
G01 X-19.12226 Y-1.17409
G01 X-19.69206 Y-1.63860
G01 X-19.76135 Y-1.70792
G01 X-20.19661 Y-2.23830
G01 X-20.25106 Y-2.31978
G01 X-20.57451 Y-2.92489
G01 X-20.61202 Y-3.01544
G01 X-20.81119 Y-3.67200
G01 X-20.83031 Y-3.76814
G01 X-20.89757 Y-4.45097
G01 X-20.89998 Y-41.39999
G01 X-20.83031 Y-42.13179
G01 X-20.81119 Y-42.22791
G01 X-20.59549 Y-42.93072
G01 X-20.25106 Y-43.58018
G01 X-20.19661 Y-43.66166
G01 X-19.72841 Y-44.22841
G01 X-19.16166 Y-44.69661
G01 X-19.08018 Y-44.75107
G01 X-18.43072 Y-45.09549
G01 X-17.72790 Y-45.31119
G01 X-17.63179 Y-45.33031
G01 X-16.89999 Y-45.39999
G01 X-4.45097 Y-45.39757
G01 X-3.76814 Y-45.33031
G01 X-3.67200 Y-45.31119
G01 X-2.96923 Y-45.09549
G01 X-2.31978 Y-44.75107
G01 X-2.23830 Y-44.69661
G01 X-1.67155 Y-44.22841
G01 X-1.17409 Y-43.62226
G01 X-0.82545 Y-42.97507
G01 X-0.78793 Y-42.88452
G01 X-0.57683 Y-42.18033
G01 X-0.49997 Y-41.39999
G01 Z-2.50000 F60.00000 ( plunge. )
G04 P0 ( dwell for no time -- G64 should not smooth over this point )
G01 F120.00000
G01 X-0.49997 Y-4.49999
G01 X-0.57683 Y-3.71960
G01 X-0.78793 Y-3.01544
G01 X-0.82545 Y-2.92489
G01 X-1.14887 Y-2.31978
G01 X-1.20332 Y-2.23827
G01 X-1.63860 Y-1.70790
G01 X-1.70790 Y-1.63860
G01 X-2.23827 Y-1.20332
G01 X-2.31978 Y-1.14887
G01 X-2.92489 Y-0.82545
G01 X-3.01544 Y-0.78793
G01 X-3.67200 Y-0.58875
G01 X-3.76817 Y-0.56962
G01 X-4.49999 Y-0.49997
G01 X-16.89999 Y-0.49997
G01 X-17.68033 Y-0.57683
G01 X-18.38452 Y-0.78793
G01 X-18.47507 Y-0.82545
G01 X-19.12226 Y-1.17409
G01 X-19.69206 Y-1.63860
G01 X-19.76135 Y-1.70792
G01 X-20.19661 Y-2.23830
G01 X-20.25106 Y-2.31978
G01 X-20.57451 Y-2.92489
G01 X-20.61202 Y-3.01544
G01 X-20.81119 Y-3.67200
G01 X-20.83031 Y-3.76814
G01 X-20.89757 Y-4.45097
G01 X-20.89998 Y-41.39999
G01 X-20.83031 Y-42.13179
G01 X-20.81119 Y-42.22791
G01 X-20.59549 Y-42.93072
G01 X-20.25106 Y-43.58018
G01 X-20.19661 Y-43.66166
G01 X-19.72841 Y-44.22841
G01 X-19.16166 Y-44.69661
G01 X-19.08018 Y-44.75107
G01 X-18.43072 Y-45.09549
G01 X-17.72790 Y-45.31119
G01 X-17.63179 Y-45.33031
G01 X-16.89999 Y-45.39999
G01 X-4.45097 Y-45.39757
G01 X-3.76814 Y-45.33031
G01 X-3.67200 Y-45.31119
G01 X-2.96923 Y-45.09549
G01 X-2.31978 Y-44.75107
G01 X-2.23830 Y-44.69661
G01 X-1.67155 Y-44.22841
G01 X-1.17409 Y-43.62226
G01 X-0.82545 Y-42.97507
G01 X-0.78793 Y-42.88452
G01 X-0.57683 Y-42.18033
G01 X-0.49997 Y-41.39999

G04 P0 ( dwell for no time -- G64 should not smooth over this point )
G00 Z15.000000 ( retract )

M5 ( Spindle off. )
G04 P1.000000
M9 ( Coolant off. )
M2 ( Program end. )

