(Block-name: Header)
(Block-expand: 0)
(Block-enable: 1)
( pcb2gcode 2.5.0 )
( Software-independent Gcode )

G94 ( Millimeters per minute feed rate. )
G21 ( Units == Millimeters. )

G90 ( Absolute coordinates. )
(Block-name: block)
(Block-expand: 0)
(Block-enable: 1)
G00 S13000 ( RPM spindle speed. )
G01 F120.00000 ( Feedrate. )


G00 Z15.00000 (Retract to tool change height)
(Block-name: block)
(Block-expand: 0)
(Block-enable: 1)
T0
M5      (Spindle stop.)
G04 P1.00000 (Wait for spindle to stop)
(MSG, Change tool bit to mill diameter 0.45360mm)
M6      (Tool change.)
M0      (Temporary machine stop.)
M3 ( Spindle on clockwise. )
G04 P1.00000 (Wait for spindle to get up to speed)
G04 P0 ( dwell for no time -- G64 should not smooth over this point )
G00 Z2.00000 ( retract )

G0 X-4.5024 Y4.4636
G01 F60.00000
( Mill infeed pass 1/1 )
G01 Z-0.10000
G04 P0 ( dwell for no time -- G64 should not smooth over this point )
G01 F120.00000
G1 X-4.5024 Y4.4636
G1 X-4.5161 Y4.4673
G1 X-4.5274 Y4.4759
G1 X-4.5415 Y4.4636
G1 X-4.5274 Y4.4759
G1 X-4.5345 Y4.4883
G1 X-4.5364 Y4.5024
G1 X-4.555 Y4.5037
G1 X-4.5364 Y4.5024
G1 X-4.5327 Y4.5161
G1 X-4.524 Y4.5274
G1 X-4.5363 Y4.5414
G1 X-4.524 Y4.5274
G1 X-4.5117 Y4.5345
G1 X-4.4975 Y4.5364
G1 X-4.4963 Y4.555
G1 X-4.4975 Y4.5364
G1 X-4.4839 Y4.5327
G1 X-4.4725 Y4.524
G1 X-4.4584 Y4.5364
G1 X-4.4725 Y4.524
G1 X-4.4654 Y4.5117
G1 X-4.4636 Y4.4975
G1 X-4.445 Y4.4963
G1 X-4.4636 Y4.4975
G1 X-4.4672 Y4.4839
G1 X-4.4759 Y4.4725
G1 X-4.4636 Y4.4584
G1 X-4.4759 Y4.4725
G1 X-4.4882 Y4.4654
G1 X-4.5024 Y4.4636
G1 X-4.5173 Y4.2368
G1 X-4.5514 Y4.2413
G1 X-4.5523 Y4.237
G1 X-4.5514 Y4.2413
G1 X-4.6166 Y4.2635
G1 X-4.6465 Y4.2807
G1 X-4.649 Y4.277
G1 X-4.6465 Y4.2807
G1 X-4.6738 Y4.3017
G1 X-4.7192 Y4.3534
G1 X-4.7229 Y4.351
G1 X-4.7192 Y4.3534
G1 X-4.7365 Y4.3833
G1 X-4.7586 Y4.4485
G1 X-4.763 Y4.4476
G1 X-4.7586 Y4.4485
G1 X-4.7631 Y4.4827
G1 X-4.7586 Y4.5514
G1 X-4.763 Y4.5523
G1 X-4.7586 Y4.5514
G1 X-4.7365 Y4.6166
G1 X-4.7192 Y4.6465
G1 X-4.7229 Y4.649
G1 X-4.7192 Y4.6465
G1 X-4.6982 Y4.6738
G1 X-4.6465 Y4.7193
G1 X-4.6489 Y4.7229
G1 X-4.6465 Y4.7193
G1 X-4.6166 Y4.7365
G1 X-4.5514 Y4.7586
G1 X-4.5523 Y4.763
G1 X-4.5514 Y4.7586
G1 X-4.4827 Y4.7631
G1 X-4.4485 Y4.7586
G1 X-4.4476 Y4.763
G1 X-4.4485 Y4.7586
G1 X-4.3833 Y4.7365
G1 X-4.3534 Y4.7192
G1 X-4.351 Y4.7229
G1 X-4.3534 Y4.7192
G1 X-4.3261 Y4.6982
G1 X-4.2807 Y4.6465
G1 X-4.277 Y4.649
G1 X-4.2807 Y4.6465
G1 X-4.2635 Y4.6166
G1 X-4.2413 Y4.5514
G1 X-4.237 Y4.5523
G1 X-4.2413 Y4.5514
G1 X-4.2368 Y4.4827
G1 X-4.2413 Y4.4485
G1 X-4.237 Y4.4476
G1 X-4.2413 Y4.4485
G1 X-4.2634 Y4.3833
G1 X-4.2807 Y4.3534
G1 X-4.277 Y4.351
G1 X-4.2807 Y4.3534
G1 X-4.3017 Y4.3261
G1 X-4.3535 Y4.2807
G1 X-4.351 Y4.277
G1 X-4.3535 Y4.2807
G1 X-4.3833 Y4.2635
G1 X-4.4485 Y4.2413
G1 X-4.4476 Y4.237
G1 X-4.4485 Y4.2413
G1 X-4.5173 Y4.2368
G1 X-4.5321 Y4.0101
G1 X-4.5958 Y4.0185
G1 X-4.5966 Y4.0141
G1 X-4.5958 Y4.0185
G1 X-4.6578 Y4.0351
G1 X-4.7172 Y4.0597
G1 X-4.7727 Y4.0917
G1 X-4.7752 Y4.088
G1 X-4.7727 Y4.0917
G1 X-4.8237 Y4.1308
G1 X-4.8691 Y4.1762
G1 X-4.9082 Y4.2272
G1 X-4.9119 Y4.2247
G1 X-4.9082 Y4.2272
G1 X-4.9403 Y4.2828
G1 X-4.9649 Y4.3422
G1 X-4.9815 Y4.4042
G1 X-4.9859 Y4.4033
G1 X-4.9815 Y4.4042
G1 X-4.9899 Y4.4678
G1 X-4.9899 Y4.5321
G1 X-4.9815 Y4.5958
G1 X-4.9859 Y4.5966
G1 X-4.9815 Y4.5958
G1 X-4.9649 Y4.6577
G1 X-4.9403 Y4.7171
G1 X-4.9082 Y4.7727
G1 X-4.9119 Y4.7752
G1 X-4.9082 Y4.7727
G1 X-4.8691 Y4.8237
G1 X-4.8237 Y4.8691
G1 X-4.7727 Y4.9082
G1 X-4.7752 Y4.9119
G1 X-4.7727 Y4.9082
G1 X-4.7171 Y4.9403
G1 X-4.6578 Y4.9649
G1 X-4.5958 Y4.9815
G1 X-4.5966 Y4.9859
G1 X-4.5958 Y4.9815
G1 X-4.5321 Y4.9899
G1 X-4.4678 Y4.9899
G1 X-4.4042 Y4.9815
G1 X-4.4033 Y4.9859
G1 X-4.4042 Y4.9815
G1 X-4.3422 Y4.9649
G1 X-4.2828 Y4.9403
G1 X-4.2272 Y4.9082
G1 X-4.2247 Y4.9119
G1 X-4.2272 Y4.9082
G1 X-4.1762 Y4.8691
G1 X-4.1308 Y4.8237
G1 X-4.0917 Y4.7727
G1 X-4.088 Y4.7752
G1 X-4.0917 Y4.7727
G1 X-4.0597 Y4.7172
G1 X-4.0351 Y4.6578
G1 X-4.0185 Y4.5958
G1 X-4.0141 Y4.5966
G1 X-4.0185 Y4.5958
G1 X-4.0101 Y4.5321
G1 X-4.0101 Y4.4678
G1 X-4.0185 Y4.4042
G1 X-4.0141 Y4.4033
G1 X-4.0185 Y4.4042
G1 X-4.0351 Y4.3422
G1 X-4.0597 Y4.2828
G1 X-4.0918 Y4.2272
G1 X-4.0881 Y4.2247
G1 X-4.0918 Y4.2272
G1 X-4.1308 Y4.1762
G1 X-4.1763 Y4.1308
G1 X-4.2272 Y4.0917
G1 X-4.2248 Y4.088
G1 X-4.2272 Y4.0917
G1 X-4.2828 Y4.0597
G1 X-4.3421 Y4.0351
G1 X-4.4042 Y4.0185
G1 X-4.4033 Y4.0141
G1 X-4.4042 Y4.0185
G1 X-4.4678 Y4.0101
G1 X-4.5321 Y4.0101
G1 X-4.547 Y3.7833
G1 X-4.6405 Y3.7936
G1 X-4.7308 Y3.8199
G1 X-4.8181 Y3.8548
G1 X-4.8996 Y3.9019
G1 X-4.9735 Y3.96
G1 X-5.0408 Y4.0257
G1 X-5.0976 Y4.1007
G1 X-5.1451 Y4.1819
G1 X-5.1801 Y4.2691
G1 X-5.2054 Y4.3596
G1 X-5.2177 Y4.4529
G1 X-5.2166 Y4.547
G1 X-5.2063 Y4.6405
G1 X-5.1801 Y4.7308
G1 X-5.1451 Y4.8181
G1 X-5.098 Y4.8996
G1 X-5.0399 Y4.9735
G1 X-4.9743 Y5.0408
G1 X-4.8992 Y5.0976
G1 X-4.8181 Y5.1451
G1 X-4.7308 Y5.1801
G1 X-4.6405 Y5.2063
G1 X-4.547 Y5.2166
G1 X-4.4529 Y5.2177
G1 X-4.3596 Y5.2054
G1 X-4.2691 Y5.1801
G1 X-4.1819 Y5.1451
G1 X-4.1007 Y5.0976
G1 X-4.0257 Y5.0408
G1 X-3.96 Y4.9735
G1 X-3.9019 Y4.8996
G1 X-3.8548 Y4.8181
G1 X-3.8199 Y4.7308
G1 X-3.7936 Y4.6405
G1 X-3.7833 Y4.547
G1 X-3.7822 Y4.4529
G1 X-3.7945 Y4.3596
G1 X-3.8199 Y4.2691
G1 X-3.8548 Y4.1819
G1 X-3.9019 Y4.1003
G1 X-3.96 Y4.0264
G1 X-4.0257 Y3.9592
G1 X-4.1007 Y3.9024
G1 X-4.1818 Y3.8548
G1 X-4.2691 Y3.8199
G1 X-4.3596 Y3.7945
G1 X-4.4529 Y3.7822
G1 X-4.547 Y3.7833
G1 X-4.5618 Y3.5566
G1 X-4.6846 Y3.5716
G1 X-4.804 Y3.6042
G1 X-4.9187 Y3.6511
G1 X-5.0252 Y3.7139
G1 X-5.1246 Y3.7877
G1 X-5.2108 Y3.8766
G1 X-5.287 Y3.9741
G1 X-5.3489 Y4.0814
G1 X-5.3953 Y4.1961
G1 X-5.4283 Y4.3153
G1 X-5.4445 Y4.4381
G1 X-5.4434 Y4.5618
G1 X-5.4284 Y4.6846
G1 X-5.3963 Y4.8042
G1 X-5.3479 Y4.9181
G1 X-5.287 Y5.0258
G1 X-5.2112 Y5.1237
G1 X-5.124 Y5.2116
G1 X-5.0252 Y5.2861
G1 X-4.919 Y5.3497
G1 X-4.8038 Y5.3953
G1 X-4.6847 Y5.4283
G1 X-4.5619 Y5.4445
G1 X-4.4381 Y5.4434
G1 X-4.3153 Y5.4283
G1 X-4.1957 Y5.3963
G1 X-4.0818 Y5.3479
G1 X-3.9741 Y5.287
G1 X-3.8763 Y5.2112
G1 X-3.7883 Y5.124
G1 X-3.7139 Y5.0252
G1 X-3.6503 Y4.919
G1 X-3.6047 Y4.8039
G1 X-3.5716 Y4.6847
G1 X-3.5555 Y4.5619
G1 X-3.5566 Y4.4381
G1 X-3.5716 Y4.3153
G1 X-3.6037 Y4.1957
G1 X-3.652 Y4.0818
G1 X-3.713 Y3.9741
G1 X-3.7888 Y3.8763
G1 X-3.8759 Y3.7883
G1 X-3.9747 Y3.7138
G1 X-4.0809 Y3.6503
G1 X-4.196 Y3.6047
G1 X-4.3153 Y3.5716
G1 X-4.4381 Y3.5555
G1 X-4.5618 Y3.5566
G1 X-4.5767 Y3.3298
G1 X-4.729 Y3.3487
G1 X-4.8769 Y3.3895
G1 X-5.0191 Y3.4472
G1 X-5.1521 Y3.524
G1 X-5.2732 Y3.6183
G1 X-5.3824 Y3.726
G1 X-5.476 Y3.8479
G1 X-5.5517 Y3.9813
G1 X-5.6115 Y4.1227
G1 X-5.6512 Y4.271
G1 X-5.6701 Y4.4233
G1 X-5.6713 Y4.5767
G1 X-5.6512 Y4.729
G1 X-5.6105 Y4.8769
G1 X-5.5527 Y5.0191
G1 X-5.4759 Y5.1521
G1 X-5.3816 Y5.2732
G1 X-5.2745 Y5.3831
G1 X-5.1515 Y5.4751
G1 X-5.0192 Y5.5527
G1 X-4.877 Y5.6109
G1 X-4.729 Y5.6512
G1 X-4.5767 Y5.6701
G1 X-4.4232 Y5.6713
G1 X-4.2709 Y5.6512
G1 X-4.123 Y5.6105
G1 X-3.9809 Y5.5527
G1 X-3.8478 Y5.4759
G1 X-3.7267 Y5.3816
G1 X-3.6168 Y5.2745
G1 X-3.5249 Y5.1515
G1 X-3.4472 Y5.0192
G1 X-3.3891 Y4.8771
G1 X-3.3487 Y4.729
G1 X-3.3298 Y4.5767
G1 X-3.3287 Y4.4232
G1 X-3.3487 Y4.2709
G1 X-3.3895 Y4.123
G1 X-3.4472 Y3.9809
G1 X-3.524 Y3.8478
G1 X-3.6183 Y3.7267
G1 X-3.7255 Y3.6168
G1 X-3.8485 Y3.5249
G1 X-3.9808 Y3.4472
G1 X-4.1229 Y3.3891
G1 X-4.271 Y3.3487
G1 X-4.4233 Y3.3298
G1 X-4.5767 Y3.3298
G1 X-4.5916 Y3.103
G1 X-4.7732 Y3.1265
G1 X-4.9501 Y3.1739
G1 X-5.1194 Y3.244
G1 X-5.278 Y3.3356
G1 X-5.4233 Y3.4471
G1 X-5.5529 Y3.5766
G1 X-5.6644 Y3.7219
G1 X-5.756 Y3.8806
G1 X-5.8261 Y4.0498
G1 X-5.8735 Y4.2267
G1 X-5.8974 Y4.4084
G1 X-5.8974 Y4.5916
G1 X-5.8735 Y4.7732
G1 X-5.8261 Y4.9501
G1 X-5.756 Y5.1193
G1 X-5.6644 Y5.278
G1 X-5.5529 Y5.4233
G1 X-5.4233 Y5.5529
G1 X-5.278 Y5.6644
G1 X-5.1194 Y5.756
G1 X-4.9501 Y5.8261
G1 X-4.7732 Y5.8735
G1 X-4.5916 Y5.8974
G1 X-4.4084 Y5.8974
G1 X-4.2267 Y5.8735
G1 X-4.0498 Y5.8261
G1 X-3.8806 Y5.756
G1 X-3.7219 Y5.6644
G1 X-3.5766 Y5.5529
G1 X-3.4471 Y5.4233
G1 X-3.3356 Y5.278
G1 X-3.244 Y5.1194
G1 X-3.1739 Y4.9501
G1 X-3.1265 Y4.7732
G1 X-3.1026 Y4.5916
G1 X-3.1026 Y4.4084
G1 X-3.1265 Y4.2267
G1 X-3.1739 Y4.0498
G1 X-3.244 Y3.8806
G1 X-3.3356 Y3.7219
G1 X-3.4471 Y3.5766
G1 X-3.5766 Y3.4471
G1 X-3.722 Y3.3356
G1 X-3.8806 Y3.244
G1 X-4.0498 Y3.1739
G1 X-4.2268 Y3.1265
G1 X-4.4084 Y3.1026
G1 X-4.5916 Y3.103
G1 X-4.6064 Y2.8763
G1 X-4.8174 Y2.9041
G1 X-5.023 Y2.9592
G1 X-5.2196 Y3.0406
G1 X-5.404 Y3.147
G1 X-5.5728 Y3.2766
G1 X-5.7234 Y3.4271
G1 X-5.8529 Y3.596
G1 X-5.9593 Y3.7803
G1 X-6.0408 Y3.9769
G1 X-6.0959 Y4.1825
G1 X-6.1237 Y4.3935
G1 X-6.1237 Y4.6064
G1 X-6.0959 Y4.8174
G1 X-6.0408 Y5.023
G1 X-5.9593 Y5.2196
G1 X-5.8529 Y5.404
G1 X-5.7234 Y5.5728
G1 X-5.5728 Y5.7234
G1 X-5.404 Y5.8529
G1 X-5.2197 Y5.9593
G1 X-5.023 Y6.0408
G1 X-4.8174 Y6.0959
G1 X-4.6064 Y6.1237
G1 X-4.3935 Y6.1237
G1 X-4.1825 Y6.0959
G1 X-3.9769 Y6.0408
G1 X-3.7803 Y5.9593
G1 X-3.596 Y5.8529
G1 X-3.4271 Y5.7234
G1 X-3.2766 Y5.5728
G1 X-3.147 Y5.404
G1 X-3.0406 Y5.2196
G1 X-2.9592 Y5.023
G1 X-2.9041 Y4.8174
G1 X-2.8763 Y4.6064
G1 X-2.8763 Y4.3935
G1 X-2.9041 Y4.1825
G1 X-2.9592 Y3.9769
G1 X-3.0406 Y3.7803
G1 X-3.147 Y3.596
G1 X-3.2766 Y3.4271
G1 X-3.4271 Y3.2766
G1 X-3.596 Y3.147
G1 X-3.7803 Y3.0406
G1 X-3.9769 Y2.9592
G1 X-4.1825 Y2.9041
G1 X-4.3935 Y2.8763
G1 X-4.6064 Y2.8763
G04 P0 ( dwell for no time -- G64 should not smooth over this point )
G00 Z2.00000 ( retract )
(Block-name: block)
(Block-expand: 0)
(Block-enable: 1)

G0 X-9.7232 Y4.2768
G01 F60.00000
( Mill infeed pass 1/1 )
G01 Z-0.10000
G04 P0 ( dwell for no time -- G64 should not smooth over this point )
G01 F120.00000
G1 X-9.7232 Y4.2768
G1 X-9.6768 Y4.2768
G1 X-9.6768 Y4.6857
G1 X-9.6789 Y4.7048
G1 X-9.7077 Y4.7823
G1 X-9.7548 Y4.8452
G1 X-9.8177 Y4.8922
G1 X-9.8951 Y4.9211
G1 X-10.3232 Y4.9231
G1 X-10.3232 Y4.8768
G1 X-9.95 Y4.8768
G1 X-9.9057 Y4.8724
G1 X-9.8632 Y4.8595
G1 X-9.824 Y4.8386
G1 X-9.7896 Y4.8103
G1 X-9.7614 Y4.776
G1 X-9.7404 Y4.7368
G1 X-9.7275 Y4.6942
G1 X-9.7232 Y4.65
G1 X-9.7232 Y4.2768
G04 P0 ( dwell for no time -- G64 should not smooth over this point )
G00 Z2.00000 ( retract )
(Block-name: block)
(Block-expand: 0)
(Block-enable: 1)

G0 X-10.3232 Y2.6768
G01 F60.00000
( Mill infeed pass 1/1 )
G01 Z-0.10000
G04 P0 ( dwell for no time -- G64 should not smooth over this point )
G01 F120.00000
G1 X-10.3232 Y2.6768
G1 X-9.8952 Y2.6788
G1 X-9.8177 Y2.7077
G1 X-9.7548 Y2.7548
G1 X-9.7077 Y2.8177
G1 X-9.6789 Y2.8952
G1 X-9.6768 Y3.3232
G1 X-9.7232 Y3.3232
G1 X-9.7232 Y2.95
G1 X-9.7275 Y2.9057
G1 X-9.7404 Y2.8632
G1 X-9.7614 Y2.824
G1 X-9.7896 Y2.7896
G1 X-9.824 Y2.7614
G1 X-9.8632 Y2.7405
G1 X-9.9057 Y2.7275
G1 X-9.95 Y2.7232
G1 X-10.3232 Y2.7232
G1 X-10.3232 Y2.6768
G04 P0 ( dwell for no time -- G64 should not smooth over this point )
G00 Z2.00000 ( retract )
(Block-name: block)
(Block-expand: 0)
(Block-enable: 1)

G0 X-11.6857 Y2.6768
G01 F60.00000
( Mill infeed pass 1/1 )
G01 Z-0.10000
G04 P0 ( dwell for no time -- G64 should not smooth over this point )
G01 F120.00000
G1 X-11.6857 Y2.6768
G1 X-11.2768 Y2.6768
G1 X-11.2768 Y2.7232
G1 X-11.65 Y2.7232
G1 X-11.6942 Y2.7275
G1 X-11.7368 Y2.7405
G1 X-11.776 Y2.7614
G1 X-11.8104 Y2.7896
G1 X-11.8386 Y2.824
G1 X-11.8595 Y2.8632
G1 X-11.8724 Y2.9057
G1 X-11.8768 Y2.95
G1 X-11.8768 Y3.3232
G1 X-12.3793 Y3.3232
G1 X-12.4067 Y3.263
G1 X-12.4204 Y3.2416
G1 X-12.5398 Y3.0795
G1 X-12.7071 Y2.9289
G1 X-12.8632 Y2.8373
G1 X-12.8632 Y2.7823
G1 X-12.7506 Y2.8397
G1 X-12.5561 Y2.9788
G1 X-12.5253 Y2.9973
G1 X-12.4919 Y3.0107
G1 X-12.3991 Y3.0397
G1 X-12.3557 Y3.0488
G1 X-12.3112 Y3.0492
G1 X-12.2144 Y3.0405
G1 X-12.1851 Y3.036
G1 X-12.1295 Y3.0156
G1 X-12.0434 Y2.9705
G1 X-12.0063 Y2.9461
G1 X-11.9225 Y2.8581
G1 X-11.8451 Y2.7548
G1 X-11.7822 Y2.7077
G1 X-11.7048 Y2.6788
G1 X-11.6857 Y2.6768
G04 P0 ( dwell for no time -- G64 should not smooth over this point )
G00 Z2.00000 ( retract )
(Block-name: block)
(Block-expand: 0)
(Block-enable: 1)

G0 X-12.3793 Y4.2768
G01 F60.00000
( Mill infeed pass 1/1 )
G01 Z-0.10000
G04 P0 ( dwell for no time -- G64 should not smooth over this point )
G01 F120.00000
G1 X-12.3793 Y4.2768
G1 X-11.8768 Y4.2768
G1 X-11.8768 Y4.65
G1 X-11.8724 Y4.6942
G1 X-11.8595 Y4.7368
G1 X-11.8386 Y4.776
G1 X-11.8104 Y4.8103
G1 X-11.776 Y4.8386
G1 X-11.7368 Y4.8595
G1 X-11.6942 Y4.8724
G1 X-11.65 Y4.8768
G1 X-11.2768 Y4.8768
G1 X-11.2768 Y4.9231
G1 X-11.6857 Y4.9231
G1 X-11.7048 Y4.9211
G1 X-11.7822 Y4.8922
G1 X-11.8452 Y4.8451
G1 X-11.9532 Y4.7041
G1 X-12.0514 Y4.6242
G1 X-12.1023 Y4.594
G1 X-12.1303 Y4.5841
G1 X-12.2238 Y4.5577
G1 X-12.2675 Y4.5499
G1 X-12.312 Y4.5508
G1 X-12.4084 Y4.5622
G1 X-12.4519 Y4.5717
G1 X-12.4926 Y4.5895
G1 X-12.5859 Y4.6405
G1 X-12.7513 Y4.7606
G1 X-12.8632 Y4.8176
G1 X-12.8632 Y4.7627
G1 X-12.7071 Y4.6711
G1 X-12.5398 Y4.5205
G1 X-12.4204 Y4.3583
G1 X-12.4067 Y4.337
G1 X-12.3793 Y4.2768
G04 P0 ( dwell for no time -- G64 should not smooth over this point )
G00 Z2.00000 ( retract )
(Block-name: block)
(Block-expand: 0)
(Block-enable: 1)

G0 X-14.9193 Y4.2768
G01 F60.00000
( Mill infeed pass 1/1 )
G01 Z-0.10000
G04 P0 ( dwell for no time -- G64 should not smooth over this point )
G01 F120.00000
G1 X-14.9193 Y4.2768
G1 X-14.3007 Y4.2768
G1 X-14.2733 Y4.337
G1 X-14.2596 Y4.3583
G1 X-14.1402 Y4.5205
G1 X-13.9729 Y4.6711
G1 X-13.8168 Y4.7627
G1 X-13.8168 Y4.8176
G1 X-13.9287 Y4.7606
G1 X-14.0717 Y4.6567
G1 X-14.1967 Y4.5317
G1 X-14.2482 Y4.4656
G1 X-14.3339 Y4.3848
G1 X-14.4569 Y4.3243
G1 X-14.4989 Y4.3097
G1 X-14.5429 Y4.3036
G1 X-14.64 Y4.2998
G1 X-14.6844 Y4.3024
G1 X-14.7274 Y4.3136
G1 X-14.8186 Y4.3473
G1 X-14.871 Y4.3749
G1 X-14.9654 Y4.4595
G1 X-15.0232 Y4.5317
G1 X-15.1483 Y4.6567
G1 X-15.2913 Y4.7606
G1 X-15.4032 Y4.8176
G1 X-15.4032 Y4.7627
G1 X-15.2471 Y4.6711
G1 X-15.0798 Y4.5205
G1 X-14.9604 Y4.3583
G1 X-14.9467 Y4.337
G1 X-14.9193 Y4.2768
G04 P0 ( dwell for no time -- G64 should not smooth over this point )
G00 Z2.00000 ( retract )
(Block-name: block)
(Block-expand: 0)
(Block-enable: 1)

G0 X-15.4032 Y2.7823
G01 F60.00000
( Mill infeed pass 1/1 )
G01 Z-0.10000
G04 P0 ( dwell for no time -- G64 should not smooth over this point )
G01 F120.00000
G1 X-15.4032 Y2.7823
G1 X-15.4032 Y2.8373
G1 X-15.2471 Y2.9289
G1 X-15.0798 Y3.0795
G1 X-14.9604 Y3.2416
G1 X-14.9467 Y3.263
G1 X-14.9193 Y3.3232
G1 X-14.3007 Y3.3232
G1 X-14.2733 Y3.263
G1 X-14.2596 Y3.2416
G1 X-14.1402 Y3.0795
G1 X-13.9729 Y2.9289
G1 X-13.8168 Y2.8373
G1 X-13.8168 Y2.7823
G1 X-13.9287 Y2.8393
G1 X-14.0717 Y2.9432
G1 X-14.1967 Y3.0682
G1 X-14.2546 Y3.1405
G1 X-14.349 Y3.2251
G1 X-14.4014 Y3.2527
G1 X-14.4925 Y3.2863
G1 X-14.5356 Y3.2976
G1 X-14.5799 Y3.3001
G1 X-14.677 Y3.2964
G1 X-14.7354 Y3.2863
G1 X-14.8513 Y3.235
G1 X-14.886 Y3.2151
G1 X-14.9718 Y3.1343
G1 X-15.0232 Y3.0683
G1 X-15.1483 Y2.9432
G1 X-15.2913 Y2.8393
G1 X-15.4032 Y2.7823
G04 P0 ( dwell for no time -- G64 should not smooth over this point )
G00 Z2.00000 ( retract )
(Block-name: block)
(Block-expand: 0)
(Block-enable: 1)

G0 X-17.4593 Y4.2768
G01 F60.00000
( Mill infeed pass 1/1 )
G01 Z-0.10000
G04 P0 ( dwell for no time -- G64 should not smooth over this point )
G01 F120.00000
G1 X-17.4593 Y4.2768
G1 X-16.8407 Y4.2768
G1 X-16.8133 Y4.337
G1 X-16.7996 Y4.3583
G1 X-16.6802 Y4.5205
G1 X-16.5129 Y4.6711
G1 X-16.3568 Y4.7627
G1 X-16.3568 Y4.8176
G1 X-16.4687 Y4.7606
G1 X-16.6117 Y4.6567
G1 X-16.7367 Y4.5317
G1 X-16.7882 Y4.4656
G1 X-16.8739 Y4.3848
G1 X-16.9969 Y4.3243
G1 X-17.0389 Y4.3097
G1 X-17.083 Y4.3036
G1 X-17.18 Y4.2998
G1 X-17.2244 Y4.3024
G1 X-17.2674 Y4.3136
G1 X-17.3586 Y4.3473
G1 X-17.411 Y4.3749
G1 X-17.5054 Y4.4595
G1 X-17.5632 Y4.5317
G1 X-17.6883 Y4.6567
G1 X-17.8313 Y4.7606
G1 X-17.9432 Y4.8176
G1 X-17.9432 Y4.7627
G1 X-17.7871 Y4.6711
G1 X-17.6198 Y4.5205
G1 X-17.5004 Y4.3583
G1 X-17.4867 Y4.337
G1 X-17.4593 Y4.2768
G04 P0 ( dwell for no time -- G64 should not smooth over this point )
G00 Z2.00000 ( retract )
(Block-name: block)
(Block-expand: 0)
(Block-enable: 1)

G0 X-18.8968 Y2.7823
G01 F60.00000
( Mill infeed pass 1/1 )
G01 Z-0.10000
G04 P0 ( dwell for no time -- G64 should not smooth over this point )
G01 F120.00000
G1 X-18.8968 Y2.7823
G1 X-18.8968 Y2.8373
G1 X-19.0529 Y2.9289
G1 X-19.2202 Y3.0795
G1 X-19.3396 Y3.2416
G1 X-19.3533 Y3.263
G1 X-19.3807 Y3.3232
G1 X-19.4376 Y3.3232
G1 X-19.3806 Y3.2113
G1 X-19.2767 Y3.0682
G1 X-19.1517 Y2.9432
G1 X-19.0087 Y2.8393
G1 X-18.8968 Y2.7823
G04 P0 ( dwell for no time -- G64 should not smooth over this point )
G00 Z2.00000 ( retract )
(Block-name: block)
(Block-expand: 0)
(Block-enable: 1)

G0 X-17.9432 Y2.7823
G01 F60.00000
( Mill infeed pass 1/1 )
G01 Z-0.10000
G04 P0 ( dwell for no time -- G64 should not smooth over this point )
G01 F120.00000
G1 X-17.9432 Y2.7823
G1 X-17.9432 Y2.8373
G1 X-17.7871 Y2.9289
G1 X-17.6198 Y3.0795
G1 X-17.5004 Y3.2416
G1 X-17.4867 Y3.263
G1 X-17.4593 Y3.3232
G1 X-16.8407 Y3.3232
G1 X-16.8133 Y3.263
G1 X-16.7996 Y3.2416
G1 X-16.6802 Y3.0795
G1 X-16.5129 Y2.9289
G1 X-16.3568 Y2.8373
G1 X-16.3568 Y2.7823
G1 X-16.4687 Y2.8393
G1 X-16.6117 Y2.9432
G1 X-16.7367 Y3.0682
G1 X-16.7946 Y3.1405
G1 X-16.889 Y3.2251
G1 X-16.9414 Y3.2527
G1 X-17.0325 Y3.2863
G1 X-17.0756 Y3.2976
G1 X-17.1199 Y3.3001
G1 X-17.217 Y3.2964
G1 X-17.2754 Y3.2863
G1 X-17.3913 Y3.235
G1 X-17.4261 Y3.2151
G1 X-17.5118 Y3.1343
G1 X-17.5632 Y3.0683
G1 X-17.6883 Y2.9432
G1 X-17.8313 Y2.8393
G1 X-17.9432 Y2.7823
G04 P0 ( dwell for no time -- G64 should not smooth over this point )
G00 Z2.00000 ( retract )
(Block-name: block)
(Block-expand: 0)
(Block-enable: 1)

G0 X-19.4376 Y4.2768
G01 F60.00000
( Mill infeed pass 1/1 )
G01 Z-0.10000
G04 P0 ( dwell for no time -- G64 should not smooth over this point )
G01 F120.00000
G1 X-19.4376 Y4.2768
G1 X-19.3807 Y4.2768
G1 X-19.3533 Y4.337
G1 X-19.3396 Y4.3583
G1 X-19.2202 Y4.5205
G1 X-19.0529 Y4.6711
G1 X-18.8968 Y4.7627
G1 X-18.8968 Y4.8176
G1 X-19.0087 Y4.7606
G1 X-19.1517 Y4.6567
G1 X-19.2767 Y4.5317
G1 X-19.3806 Y4.3887
G1 X-19.4376 Y4.2768
G04 P0 ( dwell for no time -- G64 should not smooth over this point )
G00 Z2.00000 ( retract )
(Block-name: block)
(Block-expand: 0)
(Block-enable: 1)

G0 X-16.117 Y7.4772
G01 F60.00000
( Mill infeed pass 1/1 )
G01 Z-0.10000
G04 P0 ( dwell for no time -- G64 should not smooth over this point )
G01 F120.00000
G1 X-16.117 Y7.4772
G1 X-16.0797 Y7.5145
G1 X-16.1174 Y7.6892
G1 X-16.1224 Y7.7364
G1 X-16.1212 Y7.9273
G1 X-16.0797 Y8.1254
G1 X-16.117 Y8.1627
G1 X-16.1468 Y8.0713
G1 X-16.1732 Y7.9044
G1 X-16.1732 Y7.7355
G1 X-16.1468 Y7.5687
G1 X-16.117 Y7.4772
G04 P0 ( dwell for no time -- G64 should not smooth over this point )
G00 Z2.00000 ( retract )
(Block-name: block)
(Block-expand: 0)
(Block-enable: 1)

G0 X-15.1844 Y6.7468
G01 F60.00000
( Mill infeed pass 1/1 )
G01 Z-0.10000
G04 P0 ( dwell for no time -- G64 should not smooth over this point )
G01 F120.00000
G1 X-15.1844 Y6.7468
G1 X-15.0155 Y6.7468
G1 X-14.8487 Y6.7732
G1 X-14.7572 Y6.8029
G1 X-14.7975 Y6.8432
G1 X-14.8865 Y6.8156
G1 X-15.1 Y6.7932
G1 X-15.3135 Y6.8156
G1 X-15.4024 Y6.8432
G1 X-15.4427 Y6.8029
G1 X-15.3513 Y6.7732
G1 X-15.1844 Y6.7468
G04 P0 ( dwell for no time -- G64 should not smooth over this point )
G00 Z2.00000 ( retract )
(Block-name: block)
(Block-expand: 0)
(Block-enable: 1)

G0 X-14.0829 Y7.4772
G01 F60.00000
( Mill infeed pass 1/1 )
G01 Z-0.10000
G04 P0 ( dwell for no time -- G64 should not smooth over this point )
G01 F120.00000
G1 X-14.0829 Y7.4772
G1 X-14.1203 Y7.5146
G1 X-14.0825 Y7.6892
G1 X-14.0776 Y7.7364
G1 X-14.0788 Y7.9273
G1 X-14.1203 Y8.1254
G1 X-14.0829 Y8.1628
G1 X-14.0532 Y8.0713
G1 X-14.0268 Y7.9044
G1 X-14.0268 Y7.7355
G1 X-14.0532 Y7.5687
G1 X-14.0829 Y7.4772
G04 P0 ( dwell for no time -- G64 should not smooth over this point )
G00 Z2.00000 ( retract )
(Block-name: block)
(Block-expand: 0)
(Block-enable: 1)

G0 X-4.5161 Y16.8673
G01 F60.00000
( Mill infeed pass 1/1 )
G01 Z-0.10000
G04 P0 ( dwell for no time -- G64 should not smooth over this point )
G01 F120.00000
G1 X-4.5161 Y16.8673
G1 X-4.5274 Y16.8759
G1 X-4.5345 Y16.8883
G1 X-4.5522 Y16.8823
G1 X-4.5345 Y16.8883
G1 X-4.5364 Y16.9024
G1 X-4.5327 Y16.9161
G1 X-4.5494 Y16.9243
G1 X-4.5327 Y16.9161
G1 X-4.524 Y16.9274
G1 X-4.5117 Y16.9345
G1 X-4.5177 Y16.9523
G1 X-4.5117 Y16.9345
G1 X-4.4975 Y16.9364
G1 X-4.4839 Y16.9327
G1 X-4.4756 Y16.9494
G1 X-4.4839 Y16.9327
G1 X-4.4725 Y16.924
G1 X-4.4654 Y16.9117
G1 X-4.4477 Y16.9177
G1 X-4.4654 Y16.9117
G1 X-4.4636 Y16.8975
G1 X-4.4672 Y16.8839
G1 X-4.4505 Y16.8756
G1 X-4.4672 Y16.8839
G1 X-4.4759 Y16.8725
G1 X-4.4882 Y16.8654
G1 X-4.4822 Y16.8477
G1 X-4.4882 Y16.8654
G1 X-4.5024 Y16.8636
G1 X-4.5161 Y16.8673
G1 X-4.5244 Y16.8505
G1 X-4.5173 Y16.6368
G1 X-4.5514 Y16.6413
G1 X-4.5523 Y16.637
G1 X-4.5514 Y16.6413
G1 X-4.6166 Y16.6635
G1 X-4.6465 Y16.6807
G1 X-4.649 Y16.677
G1 X-4.6465 Y16.6807
G1 X-4.6738 Y16.7017
G1 X-4.7192 Y16.7534
G1 X-4.7229 Y16.751
G1 X-4.7192 Y16.7534
G1 X-4.7365 Y16.7833
G1 X-4.7586 Y16.8485
G1 X-4.763 Y16.8476
G1 X-4.7586 Y16.8485
G1 X-4.7631 Y16.8827
G1 X-4.7586 Y16.9514
G1 X-4.763 Y16.9523
G1 X-4.7586 Y16.9514
G1 X-4.7365 Y17.0166
G1 X-4.7192 Y17.0465
G1 X-4.7229 Y17.049
G1 X-4.7192 Y17.0465
G1 X-4.6982 Y17.0739
G1 X-4.6465 Y17.1193
G1 X-4.6489 Y17.1229
G1 X-4.6465 Y17.1193
G1 X-4.6166 Y17.1365
G1 X-4.5514 Y17.1586
G1 X-4.5523 Y17.163
G1 X-4.5514 Y17.1586
G1 X-4.4827 Y17.1631
G1 X-4.4485 Y17.1586
G1 X-4.4476 Y17.163
G1 X-4.4485 Y17.1586
G1 X-4.3833 Y17.1365
G1 X-4.3534 Y17.1192
G1 X-4.351 Y17.1229
G1 X-4.3534 Y17.1192
G1 X-4.3017 Y17.0739
G1 X-4.2807 Y17.0465
G1 X-4.277 Y17.049
G1 X-4.2807 Y17.0465
G1 X-4.2635 Y17.0166
G1 X-4.2413 Y16.9515
G1 X-4.237 Y16.9523
G1 X-4.2413 Y16.9515
G1 X-4.2368 Y16.8827
G1 X-4.2413 Y16.8485
G1 X-4.237 Y16.8476
G1 X-4.2413 Y16.8485
G1 X-4.2634 Y16.7833
G1 X-4.2807 Y16.7534
G1 X-4.277 Y16.751
G1 X-4.2807 Y16.7534
G1 X-4.3017 Y16.7261
G1 X-4.3535 Y16.6807
G1 X-4.351 Y16.677
G1 X-4.3535 Y16.6807
G1 X-4.3833 Y16.6635
G1 X-4.4485 Y16.6413
G1 X-4.4476 Y16.637
G1 X-4.4485 Y16.6413
G1 X-4.5173 Y16.6368
G1 X-4.5321 Y16.4101
G1 X-4.5958 Y16.4185
G1 X-4.5966 Y16.4141
G1 X-4.5958 Y16.4185
G1 X-4.6578 Y16.4351
G1 X-4.7172 Y16.4597
G1 X-4.7727 Y16.4917
G1 X-4.7752 Y16.4881
G1 X-4.7727 Y16.4917
G1 X-4.8237 Y16.5308
G1 X-4.8691 Y16.5762
G1 X-4.9082 Y16.6272
G1 X-4.9119 Y16.6247
G1 X-4.9082 Y16.6272
G1 X-4.9403 Y16.6828
G1 X-4.9649 Y16.7422
G1 X-4.9815 Y16.8042
G1 X-4.9859 Y16.8033
G1 X-4.9815 Y16.8042
G1 X-4.9899 Y16.8678
G1 X-4.9899 Y16.9321
G1 X-4.9815 Y16.9958
G1 X-4.9859 Y16.9966
G1 X-4.9815 Y16.9958
G1 X-4.9649 Y17.0577
G1 X-4.9403 Y17.1171
G1 X-4.9082 Y17.1727
G1 X-4.9119 Y17.1752
G1 X-4.9082 Y17.1727
G1 X-4.8691 Y17.2237
G1 X-4.8237 Y17.2691
G1 X-4.7727 Y17.3082
G1 X-4.7752 Y17.3119
G1 X-4.7727 Y17.3082
G1 X-4.7171 Y17.3403
G1 X-4.6578 Y17.3649
G1 X-4.5958 Y17.3815
G1 X-4.5966 Y17.3859
G1 X-4.5958 Y17.3815
G1 X-4.5321 Y17.3899
G1 X-4.4678 Y17.3899
G1 X-4.4042 Y17.3815
G1 X-4.4033 Y17.3859
G1 X-4.4042 Y17.3815
G1 X-4.3422 Y17.3649
G1 X-4.2828 Y17.3403
G1 X-4.2272 Y17.3082
G1 X-4.2247 Y17.3119
G1 X-4.2272 Y17.3082
G1 X-4.1762 Y17.2691
G1 X-4.1308 Y17.2237
G1 X-4.0917 Y17.1727
G1 X-4.088 Y17.1752
G1 X-4.0917 Y17.1727
G1 X-4.0597 Y17.1172
G1 X-4.0351 Y17.0578
G1 X-4.0185 Y16.9958
G1 X-4.0141 Y16.9966
G1 X-4.0185 Y16.9958
G1 X-4.0101 Y16.9321
G1 X-4.0101 Y16.8678
G1 X-4.0185 Y16.8042
G1 X-4.0141 Y16.8033
G1 X-4.0185 Y16.8042
G1 X-4.0351 Y16.7422
G1 X-4.0597 Y16.6828
G1 X-4.0918 Y16.6272
G1 X-4.0881 Y16.6247
G1 X-4.0918 Y16.6272
G1 X-4.1308 Y16.5762
G1 X-4.1763 Y16.5308
G1 X-4.2272 Y16.4917
G1 X-4.2248 Y16.488
G1 X-4.2272 Y16.4917
G1 X-4.2828 Y16.4597
G1 X-4.3421 Y16.4351
G1 X-4.4042 Y16.4185
G1 X-4.4033 Y16.4141
G1 X-4.4042 Y16.4185
G1 X-4.4678 Y16.4101
G1 X-4.5321 Y16.4101
G1 X-4.547 Y16.1833
G1 X-4.6403 Y16.1945
G1 X-4.731 Y16.2194
G1 X-4.8182 Y16.2549
G1 X-4.899 Y16.3028
G1 X-4.9748 Y16.3585
G1 X-5.0399 Y16.4264
G1 X-5.098 Y16.5003
G1 X-5.1451 Y16.5819
G1 X-5.1801 Y16.6691
G1 X-5.2054 Y16.7596
G1 X-5.2171 Y16.8529
G1 X-5.2177 Y16.9471
G1 X-5.2044 Y17.0401
G1 X-5.1819 Y17.1314
G1 X-5.1441 Y17.2176
G1 X-5.0981 Y17.2996
G1 X-5.0403 Y17.3739
G1 X-4.9742 Y17.4408
G1 X-4.899 Y17.4972
G1 X-4.8185 Y17.5459
G1 X-4.7308 Y17.5801
G1 X-4.6403 Y17.6055
G1 X-4.547 Y17.6171
G1 X-4.4529 Y17.6177
G1 X-4.3598 Y17.6044
G1 X-4.2685 Y17.5819
G1 X-4.1823 Y17.5441
G1 X-4.1003 Y17.4981
G1 X-4.0261 Y17.4403
G1 X-3.9592 Y17.3742
G1 X-3.9028 Y17.299
G1 X-3.8541 Y17.2185
G1 X-3.8199 Y17.1308
G1 X-3.7945 Y17.0404
G1 X-3.7828 Y16.947
G1 X-3.7822 Y16.8529
G1 X-3.7956 Y16.7598
G1 X-3.818 Y16.6685
G1 X-3.8559 Y16.5823
G1 X-3.9019 Y16.5004
G1 X-3.9596 Y16.4261
G1 X-4.0258 Y16.3591
G1 X-4.101 Y16.3028
G1 X-4.1814 Y16.2541
G1 X-4.2691 Y16.2199
G1 X-4.3596 Y16.1945
G1 X-4.4529 Y16.1822
G1 X-4.547 Y16.1833
G1 X-4.5618 Y15.9566
G1 X-4.6846 Y15.9716
G1 X-4.804 Y16.0042
G1 X-4.9187 Y16.0511
G1 X-5.0252 Y16.1139
G1 X-5.1246 Y16.1877
G1 X-5.2108 Y16.2766
G1 X-5.287 Y16.3741
G1 X-5.3489 Y16.4814
G1 X-5.3953 Y16.5961
G1 X-5.4283 Y16.7153
G1 X-5.4445 Y16.8381
G1 X-5.4434 Y16.9618
G1 X-5.4283 Y17.0846
G1 X-5.3963 Y17.2042
G1 X-5.3479 Y17.3181
G1 X-5.287 Y17.4258
G1 X-5.2112 Y17.5237
G1 X-5.124 Y17.6117
G1 X-5.0252 Y17.6861
G1 X-4.919 Y17.7497
G1 X-4.8038 Y17.7953
G1 X-4.6847 Y17.8283
G1 X-4.5619 Y17.8445
G1 X-4.4381 Y17.8434
G1 X-4.3153 Y17.8283
G1 X-4.1957 Y17.7963
G1 X-4.0818 Y17.7479
G1 X-3.9741 Y17.687
G1 X-3.8763 Y17.6112
G1 X-3.7883 Y17.524
G1 X-3.7139 Y17.4252
G1 X-3.6503 Y17.319
G1 X-3.6047 Y17.2039
G1 X-3.5716 Y17.0847
G1 X-3.5555 Y16.9619
G1 X-3.5566 Y16.8381
G1 X-3.5716 Y16.7153
G1 X-3.6037 Y16.5957
G1 X-3.652 Y16.4818
G1 X-3.713 Y16.3741
G1 X-3.7888 Y16.2763
G1 X-3.8759 Y16.1883
G1 X-3.9747 Y16.1138
G1 X-4.0809 Y16.0503
G1 X-4.196 Y16.0047
G1 X-4.3153 Y15.9716
G1 X-4.4381 Y15.9555
G1 X-4.5618 Y15.9566
G1 X-4.5767 Y15.7298
G1 X-4.729 Y15.7487
G1 X-4.8769 Y15.7895
G1 X-5.0191 Y15.8472
G1 X-5.1521 Y15.924
G1 X-5.2732 Y16.0183
G1 X-5.3824 Y16.126
G1 X-5.476 Y16.2479
G1 X-5.5517 Y16.3813
G1 X-5.6115 Y16.5226
G1 X-5.6512 Y16.671
G1 X-5.6701 Y16.8233
G1 X-5.6713 Y16.9767
G1 X-5.6512 Y17.129
G1 X-5.6105 Y17.2769
G1 X-5.5527 Y17.4191
G1 X-5.4759 Y17.5521
G1 X-5.3816 Y17.6732
G1 X-5.2745 Y17.7831
G1 X-5.1515 Y17.8751
G1 X-5.0192 Y17.9527
G1 X-4.877 Y18.0109
G1 X-4.729 Y18.0512
G1 X-4.5767 Y18.0701
G1 X-4.4232 Y18.0713
G1 X-4.2709 Y18.0512
G1 X-4.123 Y18.0104
G1 X-3.9809 Y17.9528
G1 X-3.8478 Y17.8759
G1 X-3.7267 Y17.7816
G1 X-3.6168 Y17.6745
G1 X-3.5249 Y17.5515
G1 X-3.4472 Y17.4192
G1 X-3.3891 Y17.2771
G1 X-3.3487 Y17.1289
G1 X-3.3298 Y16.9767
G1 X-3.3287 Y16.8232
G1 X-3.3487 Y16.6709
G1 X-3.3895 Y16.523
G1 X-3.4472 Y16.3809
G1 X-3.524 Y16.2478
G1 X-3.6183 Y16.1267
G1 X-3.7255 Y16.0168
G1 X-3.8485 Y15.9249
G1 X-3.9808 Y15.8472
G1 X-4.1229 Y15.7891
G1 X-4.271 Y15.7487
G1 X-4.4233 Y15.7298
G1 X-4.5767 Y15.7298
G1 X-4.5916 Y15.503
G1 X-4.7732 Y15.5265
G1 X-4.9501 Y15.5739
G1 X-5.1194 Y15.644
G1 X-5.278 Y15.7355
G1 X-5.4233 Y15.8471
G1 X-5.5529 Y15.9766
G1 X-5.6644 Y16.1219
G1 X-5.756 Y16.2806
G1 X-5.8261 Y16.4498
G1 X-5.8735 Y16.6267
G1 X-5.8974 Y16.8084
G1 X-5.8974 Y16.9916
G1 X-5.8735 Y17.1732
G1 X-5.8261 Y17.3501
G1 X-5.756 Y17.5193
G1 X-5.6644 Y17.678
G1 X-5.5529 Y17.8233
G1 X-5.4233 Y17.9529
G1 X-5.278 Y18.0644
G1 X-5.1194 Y18.156
G1 X-4.9501 Y18.2261
G1 X-4.7732 Y18.2735
G1 X-4.5916 Y18.2974
G1 X-4.4084 Y18.2974
G1 X-4.2267 Y18.2735
G1 X-4.0498 Y18.2261
G1 X-3.8806 Y18.156
G1 X-3.7219 Y18.0644
G1 X-3.5766 Y17.9529
G1 X-3.4471 Y17.8233
G1 X-3.3356 Y17.678
G1 X-3.244 Y17.5194
G1 X-3.1739 Y17.3501
G1 X-3.1265 Y17.1732
G1 X-3.1026 Y16.9916
G1 X-3.1026 Y16.8084
G1 X-3.1265 Y16.6267
G1 X-3.1739 Y16.4498
G1 X-3.244 Y16.2806
G1 X-3.3356 Y16.1219
G1 X-3.4471 Y15.9766
G1 X-3.5766 Y15.8471
G1 X-3.722 Y15.7355
G1 X-3.8806 Y15.644
G1 X-4.0498 Y15.5739
G1 X-4.2268 Y15.5265
G1 X-4.4084 Y15.5026
G1 X-4.5916 Y15.503
G1 X-4.6064 Y15.2763
G1 X-4.8174 Y15.3041
G1 X-5.023 Y15.3591
G1 X-5.2196 Y15.4406
G1 X-5.404 Y15.547
G1 X-5.5728 Y15.6766
G1 X-5.7234 Y15.8271
G1 X-5.8529 Y15.996
G1 X-5.9593 Y16.1803
G1 X-6.0408 Y16.3769
G1 X-6.0959 Y16.5825
G1 X-6.1237 Y16.7935
G1 X-6.1237 Y17.0064
G1 X-6.0959 Y17.2174
G1 X-6.0408 Y17.423
G1 X-5.9593 Y17.6197
G1 X-5.8529 Y17.804
G1 X-5.7234 Y17.9728
G1 X-5.5728 Y18.1234
G1 X-5.404 Y18.2529
G1 X-5.2197 Y18.3593
G1 X-5.023 Y18.4408
G1 X-4.8174 Y18.4959
G1 X-4.6064 Y18.5237
G1 X-4.3935 Y18.5237
G1 X-4.1825 Y18.4959
G1 X-3.9769 Y18.4408
G1 X-3.7803 Y18.3593
G1 X-3.596 Y18.2529
G1 X-3.4271 Y18.1234
G1 X-3.2766 Y17.9728
G1 X-3.147 Y17.804
G1 X-3.0406 Y17.6197
G1 X-2.9592 Y17.423
G1 X-2.9041 Y17.2174
G1 X-2.8763 Y17.0064
G1 X-2.8763 Y16.7935
G1 X-2.9041 Y16.5825
G1 X-2.9592 Y16.3769
G1 X-3.0406 Y16.1803
G1 X-3.147 Y15.996
G1 X-3.2766 Y15.8271
G1 X-3.4271 Y15.6766
G1 X-3.596 Y15.547
G1 X-3.7803 Y15.4406
G1 X-3.9769 Y15.3591
G1 X-4.1825 Y15.3041
G1 X-4.3935 Y15.2763
G1 X-4.6064 Y15.2763
G04 P0 ( dwell for no time -- G64 should not smooth over this point )
G00 Z2.00000 ( retract )
(Block-name: block)
(Block-expand: 0)
(Block-enable: 1)

G0 X-10.3232 Y10.5018
G01 F60.00000
( Mill infeed pass 1/1 )
G01 Z-0.10000
G04 P0 ( dwell for no time -- G64 should not smooth over this point )
G01 F120.00000
G1 X-10.3232 Y10.5018
G1 X-10.3232 Y10.5482
G1 X-9.95 Y10.5482
G1 X-9.9057 Y10.5526
G1 X-9.8632 Y10.5655
G1 X-9.824 Y10.5864
G1 X-9.7896 Y10.6146
G1 X-9.7614 Y10.649
G1 X-9.7404 Y10.6882
G1 X-9.7275 Y10.7307
G1 X-9.7232 Y10.775
G1 X-9.7232 Y11.1482
G1 X-9.6768 Y11.1482
G1 X-9.6789 Y10.7202
G1 X-9.7077 Y10.6427
G1 X-9.7548 Y10.5798
G1 X-9.8177 Y10.5327
G1 X-9.8952 Y10.5038
G1 X-10.3232 Y10.5018
G04 P0 ( dwell for no time -- G64 should not smooth over this point )
G00 Z2.00000 ( retract )
(Block-name: block)
(Block-expand: 0)
(Block-enable: 1)

G0 X-11.6857 Y10.5018
G01 F60.00000
( Mill infeed pass 1/1 )
G01 Z-0.10000
G04 P0 ( dwell for no time -- G64 should not smooth over this point )
G01 F120.00000
G1 X-11.6857 Y10.5018
G1 X-11.7048 Y10.5038
G1 X-11.7822 Y10.5327
G1 X-11.8451 Y10.5798
G1 X-11.8922 Y10.6427
G1 X-11.9211 Y10.7202
G1 X-11.9232 Y11.1482
G1 X-11.8768 Y11.1482
G1 X-11.8768 Y10.775
G1 X-11.8724 Y10.7307
G1 X-11.8595 Y10.6882
G1 X-11.8386 Y10.649
G1 X-11.8104 Y10.6146
G1 X-11.776 Y10.5864
G1 X-11.7368 Y10.5655
G1 X-11.6942 Y10.5526
G1 X-11.65 Y10.5482
G1 X-11.2768 Y10.5482
G1 X-11.2768 Y10.5018
G1 X-11.6857 Y10.5018
G04 P0 ( dwell for no time -- G64 should not smooth over this point )
G00 Z2.00000 ( retract )
(Block-name: block)
(Block-expand: 0)
(Block-enable: 1)

G0 X-14.7975 Y8.7967
G01 F60.00000
( Mill infeed pass 1/1 )
G01 Z-0.10000
G04 P0 ( dwell for no time -- G64 should not smooth over this point )
G01 F120.00000
G1 X-14.7975 Y8.7967
G1 X-14.7572 Y8.837
G1 X-14.8487 Y8.8667
G1 X-15.0155 Y8.8932
G1 X-15.1844 Y8.8932
G1 X-15.3513 Y8.8667
G1 X-15.4427 Y8.837
G1 X-15.4024 Y8.7968
G1 X-15.3135 Y8.8243
G1 X-15.1 Y8.8468
G1 X-14.8865 Y8.8243
G1 X-14.7975 Y8.7967
G04 P0 ( dwell for no time -- G64 should not smooth over this point )
G00 Z2.00000 ( retract )
(Block-name: block)
(Block-expand: 0)
(Block-enable: 1)

G0 X-18.3214 Y12.4978
G01 F60.00000
( Mill infeed pass 1/1 )
G01 Z-0.10000
G04 P0 ( dwell for no time -- G64 should not smooth over this point )
G01 F120.00000
G1 X-18.3214 Y12.4978
G1 X-18.4866 Y12.6458
G1 X-18.6374 Y12.7963
G1 X-19.0941 Y13.2974
G1 X-19.0843 Y13.3363
G1 X-19.062 Y13.3483
G1 X-19.0925 Y13.2955
G1 X-19.062 Y13.3483
G1 X-18.9883 Y13.3877
G1 X-18.7817 Y13.4861
G1 X-18.5804 Y13.5588
G1 X-18.6906 Y13.4684
G1 X-18.8034 Y13.331
G1 X-18.8573 Y13.2502
G1 X-18.9167 Y13.1474
G1 X-18.9299 Y13.1157
G1 X-18.9167 Y13.1474
G1 X-18.8573 Y13.2502
G1 X-18.8034 Y13.331
G1 X-18.6906 Y13.4684
G1 X-18.5804 Y13.5588
G1 X-18.4867 Y13.5876
G1 X-18.129 Y13.6595
G1 X-18.0402 Y13.6682
G1 X-17.8703 Y13.6766
G1 X-12.7668 Y13.6766
G1 X-12.4281 Y13.5363
G1 X-12.2374 Y13.4446
G1 X-12.0173 Y13.247
G1 X-12.2374 Y13.4446
G1 X-12.3491 Y13.5009
G1 X-12.5344 Y13.5803
G1 X-17.8731 Y13.5803
G1 X-17.9398 Y13.577
G1 X-18.1012 Y13.5482
G1 X-18.2288 Y13.5095
G1 X-18.3464 Y13.4467
G1 X-18.4272 Y13.3927
G1 X-18.5302 Y13.3081
G1 X-18.6148 Y13.205
G1 X-18.6688 Y13.1243
G1 X-18.7133 Y13.0472
G1 X-18.7474 Y12.9649
G1 X-18.7577 Y12.9264
G1 X-18.6374 Y12.7963
G1 X-18.5292 Y12.6868
G1 X-18.5682 Y12.7264
G1 X-18.548 Y12.8347
G1 X-18.5327 Y12.892
G1 X-18.5099 Y12.9469
G1 X-18.4803 Y12.9983
G1 X-18.4263 Y13.079
G1 X-18.3699 Y13.1478
G1 X-18.3012 Y13.2041
G1 X-18.2204 Y13.2581
G1 X-18.142 Y13.3
G1 X-18.057 Y13.3258
G1 X-17.9617 Y13.3448
G1 X-17.8731 Y13.3535
G1 X-12.3832 Y13.3535
G1 X-12.3307 Y13.3505
G1 X-12.204 Y13.3301
G1 X-12.1375 Y13.3059
G1 X-12.0491 Y13.2655
G1 X-12.0173 Y13.247
G1 X-11.9587 Y13.1919
G1 X-11.8499 Y13.0789
G1 X-11.7405 Y12.9572
G1 X-11.7232 Y12.945
G1 X-11.6741 Y12.9261
G1 X-11.7232 Y12.945
G1 X-11.7276 Y12.9376
G1 X-11.7232 Y12.945
G1 X-11.7405 Y12.9572
G1 X-11.7676 Y12.9876
G1 X-11.7387 Y12.9198
G1 X-11.7665 Y12.8728
G1 X-11.7387 Y12.9198
G1 X-11.6741 Y12.9261
G1 X-11.4142 Y12.8534
G1 X-11.3081 Y12.8312
G1 X-11.1305 Y12.8027
G1 X-11.0276 Y12.7922
G1 X-10.844 Y12.7823
G1 X-10.75 Y12.7829
G1 X-10.5664 Y12.7927
G1 X-10.4695 Y12.8026
G1 X-10.2859 Y12.8323
G1 X-10.1858 Y12.8534
G1 X-10.0024 Y12.9026
G1 X-9.8945 Y12.9367
G1 X-9.8602 Y12.9558
G1 X-9.8243 Y12.9948
G1 X-9.8602 Y12.9558
G1 X-9.8945 Y12.9367
G1 X-9.892 Y12.9319
G1 X-9.8945 Y12.9367
G1 X-9.9258 Y12.9262
G1 X-9.8646 Y12.9201
G1 X-9.8433 Y12.8799
G1 X-9.8646 Y12.9201
G1 X-9.8536 Y12.9469
G1 X-9.8243 Y12.9948
G1 X-9.6266 Y13.0116
G1 X-9.517 Y13.0168
G1 X-9.5532 Y12.9874
G1 X-9.5814 Y12.9531
G1 X-9.6502 Y12.8466
G1 X-9.6692 Y12.7905
G1 X-9.6882 Y12.6952
G1 X-9.6924 Y12.6594
G1 X-9.6908 Y12.6233
G1 X-9.6768 Y12.5089
G1 X-9.6768 Y12.1018
G1 X-9.7232 Y12.1018
G1 X-9.7232 Y12.475
G1 X-9.7275 Y12.5192
G1 X-9.7404 Y12.5618
G1 X-9.7614 Y12.601
G1 X-9.7896 Y12.6354
G1 X-9.824 Y12.6636
G1 X-9.8632 Y12.6845
G1 X-9.9057 Y12.6974
G1 X-9.95 Y12.7018
G1 X-11.65 Y12.7018
G1 X-11.6942 Y12.6974
G1 X-11.7368 Y12.6845
G1 X-11.776 Y12.6636
G1 X-11.8104 Y12.6354
G1 X-11.8386 Y12.601
G1 X-11.8595 Y12.5618
G1 X-11.8724 Y12.5192
G1 X-11.8768 Y12.475
G1 X-11.8768 Y12.1018
G1 X-11.9232 Y12.1018
G1 X-11.9232 Y12.5083
G1 X-11.9142 Y12.5856
G1 X-11.9108 Y12.6827
G1 X-11.9135 Y12.7271
G1 X-11.9249 Y12.77
G1 X-11.9588 Y12.861
G1 X-11.9866 Y12.9134
G1 X-12.0054 Y12.9364
G1 X-12.0716 Y13.0075
G1 X-12.1049 Y13.0369
G1 X-12.1434 Y13.0593
G1 X-12.265 Y13.1118
G1 X-12.3569 Y13.1252
G1 X-17.8731 Y13.1268
G1 X-17.9174 Y13.1224
G1 X-18.0127 Y13.1035
G1 X-18.0552 Y13.0905
G1 X-18.0944 Y13.0696
G1 X-18.1752 Y13.0156
G1 X-18.2095 Y12.9874
G1 X-18.2378 Y12.9531
G1 X-18.2917 Y12.8723
G1 X-18.3179 Y12.8192
G1 X-18.3256 Y12.7905
G1 X-18.3445 Y12.6952
G1 X-18.3489 Y12.6509
G1 X-18.3445 Y12.6067
G1 X-18.3256 Y12.5115
G1 X-18.3127 Y12.4689
G1 X-18.2917 Y12.4297
G1 X-18.2134 Y12.3185
G1 X-18.1842 Y12.2927
G1 X-17.9938 Y12.1516
G1 X-17.8791 Y12.0369
G1 X-17.7844 Y11.9065
G1 X-17.7113 Y11.7629
G1 X-17.6615 Y11.6097
G1 X-17.6363 Y11.4505
G1 X-17.6363 Y8.5515
G1 X-17.6615 Y8.3924
G1 X-17.7113 Y8.2391
G1 X-17.7844 Y8.0955
G1 X-17.8791 Y7.9652
G1 X-19.7312 Y6.1131
G1 X-19.8615 Y6.0184
G1 X-20.0051 Y5.9453
G1 X-20.1587 Y5.8954
G1 X-20.3711 Y5.8594
G1 X-20.4679 Y5.8209
G1 X-20.5069 Y5.8
G1 X-20.5577 Y5.7609
G1 X-20.6128 Y5.7058
G1 X-20.6415 Y5.6707
G1 X-20.6109 Y5.7077
G1 X-20.6425 Y5.6946
G1 X-20.6415 Y5.6707
G1 X-20.6633 Y5.6361
G1 X-20.7026 Y5.5439
G1 X-20.7183 Y5.4839
G1 X-20.7268 Y5.3991
G1 X-20.7268 Y1.7495
G1 X-20.7224 Y1.7052
G1 X-20.7035 Y1.6099
G1 X-20.6958 Y1.5813
G1 X-20.6696 Y1.5282
G1 X-20.6156 Y1.4474
G1 X-20.5766 Y1.4029
G1 X-20.4722 Y1.3309
G1 X-20.4331 Y1.3099
G1 X-20.3905 Y1.297
G1 X-20.2953 Y1.278
G1 X-20.251 Y1.2737
G1 X-4.5065 Y1.2737
G1 X-4.1381 Y1.2949
G1 X-3.8315 Y1.3447
G1 X-3.5279 Y1.4246
G1 X-3.1871 Y1.554
G1 X-2.8649 Y1.7198
G1 X-2.5833 Y1.9059
G1 X-2.3402 Y2.1045
G1 X-2.1016 Y2.3434
G1 X-1.8919 Y2.6024
G1 X-1.7078 Y2.8854
G1 X-1.5543 Y3.1862
G1 X-1.4331 Y3.5013
G1 X-1.3456 Y3.8273
G1 X-1.2925 Y4.161
G1 X-1.2737 Y4.5065
G1 X-1.2737 Y12.651
G1 X-1.278 Y12.6952
G1 X-1.297 Y12.7905
G1 X-1.3099 Y12.8331
G1 X-1.3309 Y12.8723
G1 X-1.3848 Y12.9531
G1 X-1.413 Y12.9874
G1 X-1.4829 Y13.0393
G1 X-1 Y13.0393
G1 X-1 Y4.5
G1 X-1.0672 Y3.8172
G1 X-1.2664 Y3.1606
G1 X-1.5898 Y2.5555
G1 X-2.0251 Y2.0251
G1 X-2.5555 Y1.5898
G1 X-3.1606 Y1.2664
G1 X-3.8172 Y1.0672
G1 X-4.5 Y1
G1 X-20.6394 Y1
G1 X-20.6394 Y1.1698
G1 X-20.6394 Y1
G1 X-20.251 Y1.0469
G1 X-20.251 Y1.2737
G1 X-20.2953 Y1.278
G1 X-20.3905 Y1.297
G1 X-20.4331 Y1.3099
G1 X-20.4722 Y1.3309
G1 X-20.5766 Y1.4029
G1 X-20.5975 Y1.4239
G1 X-20.6394 Y1.4829
G1 X-20.6394 Y1.1698
G1 X-20.5982 Y1.1423
G1 X-20.5199 Y1.1004
G1 X-20.4348 Y1.0746
G1 X-20.3396 Y1.0556
G1 X-20.251 Y1.0469
G1 X-4.5065 Y1.0469
G1 X-4.1026 Y1.071
G1 X-3.7737 Y1.1254
G1 X-3.4702 Y1.2053
G1 X-3.1058 Y1.3423
G1 X-3.0607 Y1.3625
G1 X-2.7406 Y1.5301
G1 X-2.4781 Y1.7022
G1 X-2.1967 Y1.9289
G1 X-1.9102 Y2.2176
G1 X-1.7022 Y2.4781
G1 X-1.5301 Y2.7406
G1 X-1.343 Y3.104
G1 X-1.2144 Y3.4416
G1 X-1.1318 Y3.7445
G1 X-1.0713 Y4.1006
G1 X-1.0469 Y4.5065
G1 X-1.0469 Y12.651
G1 X-1.0556 Y12.7395
G1 X-1.0746 Y12.8348
G1 X-1.1004 Y12.9199
G1 X-1.1423 Y12.9983
G1 X-1.1698 Y13.0393
G1 X-1.4829 Y13.0393
G1 X-1.5674 Y13.0905
G1 X-1.6099 Y13.1035
G1 X-1.7052 Y13.1224
G1 X-1.7495 Y13.1268
G1 X-9.2167 Y13.1268
G1 X-9.261 Y13.1224
G1 X-9.3563 Y13.1035
G1 X-9.3988 Y13.0905
G1 X-9.4381 Y13.0696
G1 X-9.517 Y13.0168
G1 X-9.9488 Y13.5126
G1 X-9.9689 Y13.3796
G1 X-9.989 Y13.151
G1 X-9.9973 Y13.1414
G1 X-10.236 Y13.0747
G1 X-10.3303 Y13.0547
G1 X-10.5021 Y13.0275
G1 X-10.5872 Y13.0185
G1 X-10.7589 Y13.0095
G1 X-10.841 Y13.0095
G1 X-11.0128 Y13.0185
G1 X-11.0979 Y13.0275
G1 X-11.2697 Y13.0547
G1 X-11.364 Y13.0747
G1 X-11.6004 Y13.1407
G1 X-11.8005 Y13.3544
G1 X-11.9181 Y13.465
G1 X-12.1088 Y13.6324
G1 X-12.1968 Y13.6791
G1 X-12.3369 Y13.7439
G1 X-12.7009 Y13.8947
G1 X-12.7295 Y13.9024
G1 X-12.7287 Y13.9065
G1 X-12.7295 Y13.9024
G1 X-17.8731 Y13.9033
G1 X-18.0542 Y13.8946
G1 X-18.1682 Y13.8836
G1 X-18.5367 Y13.8088
G1 X-18.6445 Y13.7767
G1 X-18.8744 Y13.6936
G1 X-19.0882 Y13.5913
G1 X-19.1617 Y13.5521
G1 X-19.3271 Y13.7175
G1 X-19.5462 Y13.9678
G1 X-19.3756 Y13.7729
G1 X-18.6552 Y13.7729
G1 X-19.3756 Y13.7729
G1 X-19.5462 Y13.9678
G1 X-19.6978 Y14.2104
G1 X-19.7729 Y14.4107
G1 X-19.6978 Y14.2104
G1 X-19.5816 Y14.0246
G1 X-19.5427 Y14.0128
G1 X-19.41 Y13.9997
G1 X-12.6574 Y13.9997
G1 X-12.6503 Y14.0169
G1 X-12.6574 Y13.9997
G1 X-12.4476 Y13.7898
G1 X-12.2548 Y13.7071
G1 X-12.1074 Y13.6346
G1 X-11.8005 Y13.3544
G1 X-11.8513 Y13.4022
G1 X-11.9289 Y13.5132
G1 X-11.9969 Y13.6598
G1 X-11.994 Y13.6618
G1 X-11.9969 Y13.6598
G1 X-12.5635 Y14.2264
G1 X-12.5564 Y14.2437
G1 X-12.5635 Y14.2264
G1 X-19.41 Y14.2264
G1 X-19.4985 Y14.2352
G1 X-19.5835 Y14.261
G1 X-19.662 Y14.3029
G1 X-19.7307 Y14.3593
G1 X-19.7729 Y14.4107
G1 X-19.7866 Y14.4473
G1 X-19.8166 Y14.687
G1 X-19.8166 Y16.174
G1 X-19.7954 Y16.3757
G1 X-19.7476 Y16.5268
G1 X-19.6674 Y16.5513
G1 X-19.7015 Y16.5274
G1 X-19.7574 Y16.4715
G1 X-19.7714 Y16.4516
G1 X-19.7574 Y16.4715
G1 X-19.7015 Y16.5274
G1 X-19.6674 Y16.5513
G1 X-19.6014 Y16.5715
G1 X-19.4042 Y16.5916
G1 X-15.4584 Y16.5916
G1 X-15.3256 Y16.5769
G1 X-15.1584 Y16.5681
G1 X-15.0475 Y16.5674
G1 X-14.8684 Y16.5774
G1 X-14.7327 Y16.593
G1 X-14.5926 Y16.5001
G1 X-14.4856 Y16.444
G1 X-14.3966 Y16.4068
G1 X-19.41 Y16.4068
G1 X-19.4494 Y16.4033
G1 X-19.4876 Y16.3931
G1 X-19.5234 Y16.3764
G1 X-19.5558 Y16.3537
G1 X-19.5837 Y16.3258
G1 X-19.6064 Y16.2934
G1 X-19.6231 Y16.2575
G1 X-19.6333 Y16.2194
G1 X-19.6368 Y16.18
G1 X-19.6368 Y14.68
G1 X-19.6324 Y14.6357
G1 X-19.6195 Y14.5932
G1 X-19.5986 Y14.554
G1 X-19.5704 Y14.5196
G1 X-19.536 Y14.4914
G1 X-19.4968 Y14.4705
G1 X-19.4542 Y14.4575
G1 X-19.41 Y14.4532
G1 X-12.4696 Y14.4532
G1 X-11.8068 Y13.7904
G1 X-11.7325 Y13.6266
G1 X-11.6151 Y13.4629
G1 X-11.5834 Y13.4277
G1 X-11.4514 Y13.3088
G1 X-11.413 Y13.2809
G1 X-11.2379 Y13.1813
G1 X-11.0468 Y13.1179
G1 X-11.0004 Y13.108
G1 X-10.8 Y13.0882
G1 X-10.841 Y13.0095
G1 X-10.8 Y13.0882
G1 X-10.5761 Y13.1117
G1 X-10.362 Y13.1813
G1 X-10.1671 Y13.2938
G1 X-9.9998 Y13.4445
G1 X-9.8674 Y13.6266
G1 X-9.7759 Y13.8322
G1 X-9.7291 Y14.0524
G1 X-9.7291 Y14.2775
G1 X-9.7759 Y14.4977
G1 X-9.8567 Y14.6822
G1 X-9.8804 Y14.7233
G1 X-9.9848 Y14.8671
G1 X-10.0166 Y14.9023
G1 X-10.1671 Y15.0361
G1 X-10.3409 Y15.1379
G1 X-10.4236 Y15.17
G1 X-11.3908 Y16.1356
G1 X-11.5045 Y16.2289
G1 X-11.5414 Y16.2536
G1 X-11.6711 Y16.3229
G1 X-11.7121 Y16.3399
G1 X-11.8528 Y16.3826
G1 X-11.8964 Y16.3913
G1 X-12.065 Y16.4068
G1 X-14.3966 Y16.4068
G1 X-14.6208 Y17.0761
G1 X-14.6814 Y16.9829
G1 X-14.7778 Y16.8154
G1 X-14.8892 Y16.8032
G1 X-15.0505 Y16.7947
G1 X-15.1495 Y16.7947
G1 X-15.3108 Y16.8032
G1 X-15.4495 Y16.8184
G1 X-19.41 Y16.8189
G1 X-19.6354 Y16.796
G1 X-19.8709 Y16.7263
G1 X-19.9094 Y16.7057
G1 X-19.9373 Y16.6721
G1 X-19.9459 Y16.652
G1 X-19.9964 Y16.492
G1 X-19.9481 Y16.653
G1 X-19.925 Y16.6903
G1 X-19.9094 Y16.7057
G1 X-19.9169 Y16.7155
G1 X-19.9094 Y16.7057
G1 X-19.8709 Y16.7263
G1 X-19.7067 Y16.7764
G1 X-19.9964 Y16.7764
G1 X-20.0628 Y16.8428
G1 X-19.9964 Y16.7764
G1 X-19.9964 Y16.492
G1 X-20.0206 Y16.4109
G1 X-20.0436 Y16.18
G1 X-20.0439 Y14.6799
G1 X-20.0075 Y14.3929
G1 X-19.9026 Y14.1093
G1 X-19.7336 Y13.8399
G1 X-19.4954 Y13.5652
G1 X-19.3078 Y13.3775
G1 X-19.3161 Y13.3445
G1 X-19.3161 Y13.3858
G1 X-19.3161 Y13.3445
G1 X-19.3232 Y13.3165
G1 X-19.3794 Y13.2405
G1 X-19.5226 Y13.0269
G1 X-19.6138 Y12.8751
G1 X-19.7096 Y12.6967
G1 X-19.7697 Y12.5701
G1 X-19.7096 Y12.6967
G1 X-19.6165 Y12.8704
G1 X-19.5429 Y12.9933
G1 X-19.5429 Y13.6195
G1 X-19.7228 Y13.8253
G1 X-19.7697 Y13.8976
G1 X-19.7697 Y12.5701
G1 X-19.8408 Y12.4057
G1 X-19.9063 Y12.2208
G1 X-19.9585 Y12.0391
G1 X-19.9964 Y11.8679
G1 X-19.9964 Y14.3609
G1 X-19.9964 Y11.8679
G1 X-20.0148 Y11.7569
G1 X-20.0326 Y11.6074
G1 X-20.0429 Y11.4
G1 X-20.0433 Y9.1806
G1 X-20.1703 Y8.8741
G1 X-20.2272 Y8.7482
G1 X-20.2449 Y8.6263
G1 X-20.2673 Y8.5409
G1 X-20.2942 Y8.4645
G1 X-20.3471 Y8.3546
G1 X-20.3928 Y8.2806
G1 X-20.3471 Y8.3546
G1 X-20.3037 Y8.4426
G1 X-20.2673 Y8.5409
G1 X-20.2401 Y8.6497
G1 X-20.2276 Y8.7397
G1 X-20.2232 Y8.83
G1 X-20.2232 Y17.0032
G1 X-15.4023 Y17.0032
G1 X-15.3135 Y16.9756
G1 X-15.1 Y16.9532
G1 X-14.8865 Y16.9756
G1 X-14.6823 Y17.0419
G1 X-14.4964 Y17.1493
G1 X-14.3537 Y17.2761
G1 X-14.322 Y17.3114
G1 X-14.2237 Y17.4467
G1 X-14.2 Y17.4877
G1 X-14.1234 Y17.6627
G1 X-14.0788 Y17.8727
G1 X-14.0788 Y18.0873
G1 X-14.1173 Y18.2744
G1 X-14.1319 Y18.3194
G1 X-14.2 Y18.4722
G1 X-14.2237 Y18.5133
G1 X-14.3369 Y18.667
G1 X-14.4964 Y18.8107
G1 X-14.6612 Y18.9072
G1 X-14.7045 Y18.9265
G1 X-14.8865 Y18.9843
G1 X-15.1 Y19.0068
G1 X-15.3135 Y18.9843
G1 X-15.4023 Y18.9568
G1 X-21.2122 Y18.9557
G1 X-21.3585 Y18.9413
G1 X-21.4021 Y18.9326
G1 X-21.5428 Y18.8899
G1 X-21.5839 Y18.8729
G1 X-21.7136 Y18.8036
G1 X-21.7505 Y18.7789
G1 X-21.8837 Y18.6676
G1 X-21.9364 Y18.611
G1 X-22.0161 Y18.5065
G1 X-22.0529 Y18.4453
G1 X-22.0963 Y18.3573
G1 X-22.126 Y18.2803
G1 X-22.155 Y18.1735
G1 X-22.1724 Y18.0602
G1 X-22.1768 Y17.97
G1 X-22.1768 Y14.7873
G1 X-22.1768 Y16.0726
G1 X-22.2186 Y15.9741
G1 X-22.27 Y15.8766
G1 X-22.3731 Y15.7232
G1 X-22.3618 Y15.5927
G1 X-22.3566 Y15.4027
G1 X-22.3619 Y15.2644
G1 X-22.3731 Y15.1367
G1 X-22.27 Y14.9833
G1 X-22.2186 Y14.8859
G1 X-22.1768 Y14.7873
G1 X-22.1768 Y12.3744
G1 X-22.5071 Y12.2513
G1 X-22.6388 Y12.342
G1 X-22.5155 Y12.373
G1 X-22.4633 Y12.4011
G1 X-22.3888 Y12.4549
G1 X-22.4633 Y12.4011
G1 X-22.5155 Y12.373
G1 X-22.6385 Y12.342
G1 X-22.6825 Y12.3361
G1 X-22.7268 Y12.3388
G1 X-22.8227 Y12.3544
G1 X-22.8657 Y12.3657
G1 X-22.9351 Y12.3916
G1 X-22.9543 Y12.3937
G1 X-32.7057 Y12.3937
G1 X-32.7249 Y12.3916
G1 X-32.8025 Y12.3627
G1 X-32.8655 Y12.3155
G1 X-32.9127 Y12.2525
G1 X-32.9416 Y12.1748
G1 X-32.9416 Y10.5651
G1 X-32.9127 Y10.4874
G1 X-32.8655 Y10.4244
G1 X-32.8025 Y10.3773
G1 X-32.7249 Y10.3483
G1 X-30.3201 Y10.3463
G1 X-30.2651 Y10.3427
G1 X-30.1175 Y10.3007
G1 X-30.0666 Y10.2704
G1 X-29.9903 Y10.2102
G1 X-29.9583 Y10.1795
G1 X-29.9329 Y10.143
G1 X-29.8727 Y10.0314
G1 X-29.86 Y9.9843
G1 X-29.643 Y9.7673
G1 X-29.5596 Y9.7892
G1 X-29.38 Y9.8068
G1 X-29.2004 Y9.7892
G1 X-29.117 Y9.7673
G1 X-28.8968 Y9.9874
G1 X-28.8794 Y10.0525
G1 X-28.8585 Y10.0917
G1 X-28.7985 Y10.1803
G1 X-28.8737 Y10.1488
G1 X-28.9628 Y10.1012
G1 X-29.0952 Y10.0202
G1 X-29.1887 Y9.9828
G1 X-29.2221 Y9.9796
G1 X-29.3284 Y9.9852
G1 X-29.4315 Y9.9852
G1 X-29.5378 Y9.9796
G1 X-29.5712 Y9.9828
G1 X-29.6644 Y10.0201
G1 X-29.839 Y10.1246
G1 X-29.9599 Y10.181
G1 X-29.839 Y10.1246
G1 X-29.6647 Y10.0195
G1 X-29.5872 Y9.9881
G1 X-29.5546 Y9.98
G1 X-29.5553 Y9.9763
G1 X-29.5546 Y9.98
G1 X-29.4315 Y9.9852
G1 X-29.3284 Y9.9852
G1 X-29.2221 Y9.9796
G1 X-29.1887 Y9.9828
G1 X-29.1873 Y9.9768
G1 X-29.1887 Y9.9828
G1 X-29.0785 Y10.0288
G1 X-28.9628 Y10.1012
G1 X-28.8737 Y10.1488
G1 X-28.7985 Y10.1803
G1 X-28.7655 Y10.2171
G1 X-28.7419 Y10.2351
G1 X-28.6611 Y10.2891
G1 X-28.6219 Y10.3101
G1 X-28.5793 Y10.323
G1 X-28.4841 Y10.3419
G1 X-28.4398 Y10.3463
G1 X-25.2395 Y10.3463
G1 X-25.1953 Y10.3419
G1 X-25.0713 Y10.3153
G1 X-25.0182 Y10.2891
G1 X-24.9139 Y10.2171
G1 X-24.8748 Y10.1725
G1 X-24.8209 Y10.0917
G1 X-24.7999 Y10.0526
G1 X-24.787 Y10.01
G1 X-24.7647 Y9.8927
G1 X-24.7636 Y8.5515
G1 X-24.7385 Y8.3923
G1 X-24.6887 Y8.2391
G1 X-24.6155 Y8.0955
G1 X-24.5208 Y7.9652
G1 X-22.6688 Y6.1131
G1 X-22.5384 Y6.0184
G1 X-22.3949 Y5.9453
G1 X-22.2416 Y5.8955
G1 X-22.0825 Y5.8703
G1 X-21.2545 Y5.8703
G1 X-21.2102 Y5.8659
G1 X-21.1149 Y5.8469
G1 X-21.0724 Y5.8341
G1 X-21.0332 Y5.8131
G1 X-20.9524 Y5.7591
G1 X-20.918 Y5.7309
G1 X-20.8684 Y5.6644
G1 X-20.8964 Y5.7046
G1 X-20.8694 Y5.6933
G1 X-20.8684 Y5.6644
G1 X-20.821 Y5.5901
G1 X-20.802 Y5.534
G1 X-20.783 Y5.4387
G1 X-20.7787 Y5.3945
G1 X-20.7787 Y1.7495
G1 X-20.783 Y1.7052
G1 X-20.8097 Y1.5813
G1 X-20.821 Y1.5539
G1 X-20.8661 Y1.4829
G1 X-20.918 Y1.413
G1 X-20.9524 Y1.3848
G1 X-21.0332 Y1.3309
G1 X-21.0724 Y1.3099
G1 X-21.1149 Y1.297
G1 X-21.2102 Y1.278
G1 X-21.2545 Y1.2737
G1 X-41.3935 Y1.2737
G1 X-41.735 Y1.292
G1 X-42.0694 Y1.3449
G1 X-42.3978 Y1.4329
G1 X-42.7138 Y1.5543
G1 X-43.0116 Y1.7062
G1 X-43.2967 Y1.8913
G1 X-43.5598 Y2.1045
G1 X-43.7983 Y2.3434
G1 X-43.9947 Y2.584
G1 X-44.2061 Y2.9097
G1 X-44.3474 Y3.1901
G1 X-44.4597 Y3.4796
G1 X-44.5601 Y3.8547
G1 X-44.6102 Y4.1879
G1 X-44.6263 Y4.5065
G1 X-44.6263 Y16.8935
G1 X-44.6049 Y17.2629
G1 X-44.5496 Y17.5949
G1 X-44.4681 Y17.8946
G1 X-44.3569 Y18.1882
G1 X-44.1926 Y18.5136
G1 X-44.0081 Y18.7975
G1 X-43.7802 Y19.0766
G1 X-43.5598 Y19.2954
G1 X-43.3167 Y19.494
G1 X-43.0116 Y19.6937
G1 X-42.7138 Y19.8456
G1 X-42.3978 Y19.967
G1 X-42.0694 Y20.055
G1 X-41.735 Y20.1079
G1 X-41.3934 Y20.1263
G1 X-4.4935 Y20.1259
G1 X-4.165 Y20.1079
G1 X-3.8547 Y20.0601
G1 X-3.5022 Y19.9671
G1 X-3.1861 Y19.8456
G1 X-2.8883 Y19.6938
G1 X-2.584 Y19.4947
G1 X-2.3434 Y19.2983
G1 X-2.1205 Y19.0773
G1 X-1.89 Y18.7948
G1 X-1.7078 Y18.5145
G1 X-1.554 Y18.2129
G1 X-1.4322 Y17.8955
G1 X-1.3447 Y17.5685
G1 X-1.2949 Y17.2619
G1 X-1.274 Y16.9065
G1 X-1.2748 Y13.6322
G1 X-1.297 Y13.5149
G1 X-1.3099 Y13.4724
G1 X-1.3309 Y13.4332
G1 X-1.4029 Y13.3289
G1 X-1.4239 Y13.3079
G1 X-1.4829 Y13.2661
G1 X-1.1698 Y13.2661
G1 X-1.1423 Y13.3072
G1 X-1.1004 Y13.3856
G1 X-1.0746 Y13.4706
G1 X-1.0556 Y13.5659
G1 X-1.0469 Y13.6545
G1 X-1.048 Y16.9321
G1 X-1.071 Y17.2974
G1 X-1.1254 Y17.6262
G1 X-1.2205 Y17.9768
G1 X-1.3625 Y18.3393
G1 X-1.5062 Y18.6183
G1 X-1.6859 Y18.8991
G1 X-1.9277 Y19.2017
G1 X-1.9608 Y19.2383
G1 X-2.1837 Y19.4594
G1 X-2.4414 Y19.6709
G1 X-2.7648 Y19.8839
G1 X-3.104 Y20.057
G1 X-3.4435 Y20.1861
G1 X-3.8202 Y20.2842
G1 X-4.1757 Y20.3367
G1 X-4.4935 Y20.3527
G1 X-41.3934 Y20.353
G1 X-41.7695 Y20.332
G1 X-42.1281 Y20.2741
G1 X-42.4564 Y20.1861
G1 X-42.7959 Y20.057
G1 X-43.1351 Y19.8839
G1 X-43.4202 Y19.6988
G1 X-43.7032 Y19.4711
G1 X-43.9711 Y19.2032
G1 X-44.1697 Y18.9601
G1 X-44.3698 Y18.6593
G1 X-44.549 Y18.3137
G1 X-44.569 Y18.2685
G1 X-44.6941 Y17.9317
G1 X-44.7782 Y17.6091
G1 X-44.8287 Y17.2993
G1 X-44.8523 Y16.9186
G1 X-44.853 Y4.5065
G1 X-44.8367 Y4.1762
G1 X-44.7842 Y3.8202
G1 X-44.6861 Y3.4435
G1 X-44.5683 Y3.1296
G1 X-44.4085 Y2.8077
G1 X-44.3839 Y2.7648
G1 X-44.1709 Y2.4414
G1 X-43.9594 Y2.1837
G1 X-43.7032 Y1.9289
G1 X-43.4202 Y1.7012
G1 X-43.1351 Y1.516
G1 X-42.8375 Y1.3616
G1 X-42.5034 Y1.2292
G1 X-42.1281 Y1.1259
G1 X-42.0797 Y1.1157
G1 X-41.7695 Y1.0679
G1 X-41.4167 Y1.0475
G1 X-21.2545 Y1.0469
G1 X-21.1659 Y1.0556
G1 X-21.0706 Y1.0746
G1 X-20.9856 Y1.1004
G1 X-20.9072 Y1.1423
G1 X-20.8661 Y1.1698
G1 X-20.8661 Y1.4829
G1 X-20.8661 Y1
G1 X-41.4 Y1
G1 X-41.3935 Y1.0469
G1 X-41.3935 Y1.2737
G1 X-41.3935 Y1.0469
G1 X-41.4 Y1
G1 X-42.0828 Y1.0672
G1 X-42.7394 Y1.2664
G1 X-43.3445 Y1.5898
G1 X-43.8749 Y2.0251
G1 X-44.3101 Y2.5555
G1 X-44.6336 Y3.1606
G1 X-44.8327 Y3.8172
G1 X-44.9 Y4.5
G1 X-44.9 Y16.9
G1 X-44.8327 Y17.5828
G1 X-44.6336 Y18.2394
G1 X-44.3101 Y18.8445
G1 X-43.8749 Y19.3749
G1 X-43.3445 Y19.8101
G1 X-42.7394 Y20.1336
G1 X-42.0828 Y20.3327
G1 X-41.4 Y20.4
G1 X-4.5 Y20.4
G1 X-3.8172 Y20.3327
G1 X-3.1606 Y20.1336
G1 X-2.5555 Y19.8101
G1 X-2.0251 Y19.3749
G1 X-1.5898 Y18.8445
G1 X-1.2664 Y18.2394
G1 X-1.0672 Y17.5828
G1 X-1 Y16.9
G1 X-1 Y13.2661
G1 X-1.4829 Y13.2661
G1 X-1.5539 Y13.221
G1 X-1.5813 Y13.2096
G1 X-1.7052 Y13.183
G1 X-1.7495 Y13.1787
G1 X-9.2057 Y13.1787
G1 X-9.2687 Y13.1739
G1 X-9.4186 Y13.1922
G1 X-9.4736 Y13.2142
G1 X-9.5584 Y13.2616
G1 X-9.5949 Y13.2871
G1 X-9.6257 Y13.3191
G1 X-9.7026 Y13.4199
G1 X-9.7255 Y13.4728
G1 X-9.7026 Y13.4199
G1 X-9.6257 Y13.3191
G1 X-9.5949 Y13.2871
G1 X-9.5259 Y13.2434
G1 X-9.7549 Y13.2281
G1 X-9.7433 Y13.3566
G1 X-9.7255 Y13.4728
G1 X-9.7524 Y13.5678
G1 X-9.7602 Y13.6115
G1 X-9.7593 Y13.656
G1 X-9.7442 Y13.7744
G1 X-9.7039 Y13.9018
G1 X-9.6763 Y14.0765
G1 X-9.6763 Y14.2534
G1 X-9.7039 Y14.4281
G1 X-9.7586 Y14.5963
G1 X-9.8389 Y14.7539
G1 X-9.9429 Y14.897
G1 X-10.0679 Y15.0221
G1 X-10.211 Y15.1261
G1 X-10.3525 Y15.1981
G1 X-10.4458 Y15.2625
G1 X-10.4728 Y15.2856
G1 X-11.3981 Y16.2108
G1 X-11.5284 Y16.3055
G1 X-11.672 Y16.3787
G1 X-11.8253 Y16.4285
G1 X-11.9844 Y16.4537
G1 X-13.9591 Y16.4537
G1 X-14.0034 Y16.458
G1 X-14.0987 Y16.477
G1 X-14.1548 Y16.496
G1 X-14.2612 Y16.5648
G1 X-14.3057 Y16.6039
G1 X-14.3238 Y16.6274
G1 X-14.3778 Y16.7082
G1 X-14.3987 Y16.7474
G1 X-14.4116 Y16.79
G1 X-14.4306 Y16.8852
G1 X-14.435 Y16.9295
G1 X-14.433 Y16.9488
G1 X-14.435 Y16.9295
G1 X-14.4306 Y16.8852
G1 X-14.4116 Y16.79
G1 X-14.3987 Y16.7474
G1 X-14.3778 Y16.7082
G1 X-14.3178 Y16.6196
G1 X-14.393 Y16.6511
G1 X-14.4807 Y16.698
G1 X-14.555 Y16.7472
G1 X-14.4884 Y16.8638
G1 X-14.433 Y16.9488
G1 X-14.4116 Y17.069
G1 X-14.3926 Y17.1251
G1 X-14.3238 Y17.2316
G1 X-14.281 Y17.2805
G1 X-14.1817 Y17.4172
G1 X-14.1049 Y17.5678
G1 X-14.0527 Y17.7285
G1 X-14.0263 Y17.8955
G1 X-14.0263 Y18.0645
G1 X-14.0527 Y18.2314
G1 X-14.1049 Y18.3921
G1 X-14.1817 Y18.5427
G1 X-14.281 Y18.6794
G1 X-14.4005 Y18.7989
G1 X-14.5373 Y18.8983
G1 X-14.6878 Y18.975
G1 X-14.8485 Y19.0272
G1 X-15.0155 Y19.0537
G1 X-15.1834 Y19.0537
G1 X-15.4616 Y19.0068
G1 X-15.4993 Y19.0037
G1 X-21.2705 Y19.0037
G1 X-21.4297 Y18.9785
G1 X-21.5829 Y18.9287
G1 X-21.7265 Y18.8555
G1 X-21.8569 Y18.7608
G1 X-21.9808 Y18.6369
G1 X-22.0755 Y18.5065
G1 X-22.1487 Y18.3629
G1 X-22.1985 Y18.2097
G1 X-22.2236 Y18.0505
G1 X-22.2236 Y16.5101
G1 X-22.228 Y16.4658
G1 X-22.247 Y16.3705
G1 X-22.2599 Y16.328
G1 X-22.2809 Y16.2888
G1 X-22.3348 Y16.208
G1 X-22.3631 Y16.1736
G1 X-22.3974 Y16.1454
G1 X-22.4782 Y16.0915
G1 X-22.5313 Y16.0653
G1 X-22.6552 Y16.0387
G1 X-22.6995 Y16.0343
G1 X-22.7271 Y16.037
G1 X-22.6995 Y16.0343
G1 X-22.6552 Y16.0387
G1 X-22.5313 Y16.0653
G1 X-22.4782 Y16.0915
G1 X-22.3894 Y16.152
G1 X-22.4211 Y16.0762
G1 X-22.4678 Y15.9888
G1 X-22.5244 Y15.9046
G1 X-22.6456 Y15.9781
G1 X-22.7271 Y16.037
G1 X-22.839 Y16.0576
G1 X-22.8951 Y16.0766
G1 X-23.0016 Y16.1454
G1 X-23.0731 Y16.2108
G1 X-23.2034 Y16.3055
G1 X-23.347 Y16.3787
G1 X-23.5003 Y16.4285
G1 X-23.6594 Y16.4537
G1 X-32.4289 Y16.4537
G1 X-32.4731 Y16.458
G1 X-32.5684 Y16.477
G1 X-32.6245 Y16.496
G1 X-32.7309 Y16.5648
G1 X-32.7653 Y16.593
G1 X-34.4938 Y18.3215
G1 X-34.5182 Y18.3504
G1 X-34.6818 Y18.5802
G1 X-34.8005 Y18.6989
G1 X-34.9372 Y18.7983
G1 X-35.0878 Y18.875
G1 X-35.2486 Y18.9272
G1 X-35.4155 Y18.9537
G1 X-35.5845 Y18.9537
G1 X-35.7514 Y18.9272
G1 X-35.9121 Y18.875
G1 X-36.0627 Y18.7983
G1 X-36.1994 Y18.6989
G1 X-36.319 Y18.5794
G1 X-36.4183 Y18.4427
G1 X-36.495 Y18.2921
G1 X-36.5472 Y18.1314
G1 X-36.5737 Y17.9645
G1 X-36.5737 Y17.7955
G1 X-36.5472 Y17.6285
G1 X-36.495 Y17.4678
G1 X-36.4183 Y17.3172
G1 X-36.319 Y17.1805
G1 X-36.2002 Y17.0618
G1 X-35.9703 Y16.8982
G1 X-35.9415 Y16.8738
G1 X-33.7169 Y14.6492
G1 X-33.5865 Y14.5544
G1 X-33.4429 Y14.4813
G1 X-33.2897 Y14.4315
G1 X-33.1305 Y14.4063
G1 X-23.6594 Y14.4063
G1 X-23.5003 Y14.4315
G1 X-23.347 Y14.4813
G1 X-23.2034 Y14.5544
G1 X-23.0731 Y14.6491
G1 X-23.0016 Y14.7145
G1 X-22.9208 Y14.7685
G1 X-22.8677 Y14.7947
G1 X-22.839 Y14.8024
G1 X-22.7437 Y14.8213
G1 X-22.6995 Y14.8257
G1 X-22.6552 Y14.8213
G1 X-22.56 Y14.8024
G1 X-22.5039 Y14.7833
G1 X-22.3896 Y14.7085
G1 X-22.4782 Y14.7685
G1 X-22.5313 Y14.7947
G1 X-22.6552 Y14.8213
G1 X-22.6995 Y14.8257
G1 X-22.7437 Y14.8213
G1 X-22.7271 Y14.823
G1 X-22.6457 Y14.8818
G1 X-22.5244 Y14.9553
G1 X-22.4678 Y14.8711
G1 X-22.4211 Y14.7837
G1 X-22.3896 Y14.7085
G1 X-22.3529 Y14.6755
G1 X-22.3348 Y14.6519
G1 X-22.2809 Y14.5711
G1 X-22.2599 Y14.532
G1 X-22.247 Y14.4894
G1 X-22.2248 Y14.3721
G1 X-22.2236 Y12.8116
G1 X-22.243 Y12.6842
G1 X-22.2544 Y12.6434
G1 X-22.2732 Y12.6054
G1 X-22.3243 Y12.5227
G1 X-22.3512 Y12.4874
G1 X-22.3888 Y12.4549
G1 X-22.4112 Y12.3985
G1 X-22.4559 Y12.3112
G1 X-22.4986 Y12.2451
G1 X-22.5071 Y12.2513
G1 X-22.7666 Y12.1546
G1 X-22.5833 Y12.0257
G1 X-22.5833 Y9.1581
G1 X-22.5875 Y9.1573
G1 X-22.5833 Y9.1581
G1 X-22.5747 Y9.1147
G1 X-22.4388 Y8.7866
G1 X-22.3779 Y8.6514
G1 X-22.0073 Y8.2808
G1 X-21.8886 Y8.1497
G1 X-21.7598 Y8.0318
G1 X-21.7235 Y8.0063
G1 X-21.5939 Y7.937
G1 X-21.5542 Y7.9205
G1 X-21.4231 Y7.8798
G1 X-21.3795 Y7.8708
G1 X-21.2228 Y7.8626
G1 X-21.0205 Y7.8708
G1 X-20.974 Y7.8807
G1 X-20.8027 Y7.9376
G1 X-20.6477 Y8.0257
G1 X-20.5113 Y8.1497
G1 X-20.3925 Y8.281
G1 X-19.6368 Y9.0367
G1 X-19.6368 Y11.37
G1 X-19.6324 Y11.4602
G1 X-19.615 Y11.5735
G1 X-19.5927 Y11.659
G1 X-19.5656 Y11.7356
G1 X-19.502 Y11.8649
G1 X-19.4626 Y11.9258
G1 X-19.3964 Y12.011
G1 X-19.3342 Y12.0756
G1 X-19.2026 Y12.1821
G1 X-19.0539 Y12.2629
G1 X-19.0128 Y12.2799
G1 X-18.8721 Y12.3226
G1 X-18.8286 Y12.3313
G1 X-18.6593 Y12.3468
G1 X-18.4583 Y12.3257
G1 X-18.3057 Y12.2795
G1 X-18.266 Y12.2629
G1 X-18.1173 Y12.1821
G1 X-17.9858 Y12.0756
G1 X-17.9236 Y12.0111
G1 X-17.8573 Y11.9259
G1 X-17.8179 Y11.8648
G1 X-17.7637 Y11.7573
G1 X-17.7339 Y11.6802
G1 X-17.7049 Y11.5736
G1 X-17.6899 Y11.4824
G1 X-17.6835 Y11.3819
G1 X-17.6839 Y8.6143
G1 X-17.6987 Y8.4618
G1 X-17.7262 Y8.3473
G1 X-17.7822 Y8.2048
G1 X-17.8598 Y8.0727
G1 X-17.9693 Y7.9413
G1 X-19.7074 Y6.2033
G1 X-19.8375 Y6.0951
G1 X-19.8745 Y6.0704
G1 X-20.0041 Y6.0011
G1 X-20.0452 Y5.984
G1 X-20.1859 Y5.9414
G1 X-20.2295 Y5.9327
G1 X-20.3981 Y5.9172
G1 X-20.817 Y5.9172
G1 X-20.6977 Y5.9172
G1 X-20.7571 Y5.8921
G1 X-20.817 Y5.9172
G1 X-22.0197 Y5.9179
G1 X-22.1722 Y5.9327
G1 X-22.3205 Y5.9712
G1 X-22.4292 Y6.0162
G1 X-22.5613 Y6.0938
G1 X-22.6926 Y6.2033
G1 X-24.4307 Y7.9414
G1 X-24.5389 Y8.0715
G1 X-24.5636 Y8.1085
G1 X-24.6329 Y8.2381
G1 X-24.6499 Y8.2792
G1 X-24.6926 Y8.4199
G1 X-24.7013 Y8.4635
G1 X-24.7157 Y8.6098
G1 X-24.7168 Y10.3932
G1 X-24.7943 Y10.3932
G1 X-24.7531 Y10.371
G1 X-24.7275 Y10.3405
G1 X-24.7168 Y10.3157
G1 X-24.7389 Y10.3568
G1 X-24.7342 Y10.3611
G1 X-24.7389 Y10.3568
G1 X-24.7531 Y10.371
G1 X-24.7868 Y10.3932
G1 X-29.8784 Y10.3932
G1 X-28.8773 Y10.3932
G1 X-28.9759 Y10.3513
G1 X-29.0798 Y10.2955
G1 X-29.1907 Y10.2261
G1 X-29.2359 Y10.2074
G1 X-29.3255 Y10.2119
G1 X-29.5241 Y10.2074
G1 X-29.5685 Y10.2258
G1 X-29.7384 Y10.3279
G1 X-29.8784 Y10.3932
G1 X-32.67 Y10.3932
G1 X-32.7142 Y10.3975
G1 X-32.7568 Y10.4104
G1 X-32.796 Y10.4314
G1 X-32.8304 Y10.4596
G1 X-32.8586 Y10.494
G1 X-32.8795 Y10.5332
G1 X-32.8924 Y10.5757
G1 X-32.8968 Y10.62
G1 X-32.8968 Y12.12
G1 X-32.8924 Y12.1642
G1 X-32.8795 Y12.2068
G1 X-32.8586 Y12.246
G1 X-32.8304 Y12.2804
G1 X-32.796 Y12.3086
G1 X-32.7568 Y12.3295
G1 X-32.7142 Y12.3424
G1 X-32.67 Y12.3468
G1 X-22.99 Y12.3468
G1 X-22.9458 Y12.3424
G1 X-22.9032 Y12.3295
G1 X-22.864 Y12.3086
G1 X-22.8296 Y12.2804
G1 X-22.8014 Y12.246
G1 X-22.7804 Y12.2068
G1 X-22.7675 Y12.1642
G1 X-22.7632 Y12.12
G1 X-22.7632 Y9.0367
G1 X-22.0073 Y8.2808
G1 X-22.0529 Y8.3547
G1 X-22.1057 Y8.4644
G1 X-22.1328 Y8.541
G1 X-22.155 Y8.6264
G1 X-22.1728 Y8.7482
G1 X-22.2296 Y8.874
G1 X-22.3566 Y9.1806
G1 X-22.3566 Y12.0471
G1 X-22.2562 Y12.2026
G1 X-22.2069 Y12.3
G1 X-22.1768 Y12.3744
G1 X-22.1768 Y8.83
G1 X-22.1701 Y8.7175
G1 X-22.155 Y8.6264
G1 X-22.126 Y8.5197
G1 X-22.0963 Y8.4427
G1 X-22.0529 Y8.3547
G1 X-22.0162 Y8.2935
G1 X-21.8886 Y8.1497
G1 X-21.7515 Y8.025
G1 X-21.5973 Y7.8708
G1 X-21.3795 Y7.8708
G1 X-21.2228 Y7.8626
G1 X-21.0205 Y7.8708
G1 X-20.8027 Y7.8708
G1 X-20.648 Y8.0255
G1 X-20.5113 Y8.1497
G1 X-20.3925 Y8.281
G1 X-20.022 Y8.6515
G1 X-19.9611 Y8.7866
G1 X-19.8204 Y9.1287
G1 X-19.816 Y9.1279
G1 X-19.8204 Y9.1287
G1 X-19.8166 Y9.1581
G1 X-19.8162 Y11.3948
G1 X-19.8068 Y11.5859
G1 X-19.7905 Y11.7239
G1 X-19.7738 Y11.8248
G1 X-19.7163 Y11.9455
G1 X-19.6686 Y12.0263
G1 X-19.5754 Y12.1502
G1 X-19.5191 Y12.2127
G1 X-19.3644 Y12.3442
G1 X-19.2905 Y12.3936
G1 X-19.1608 Y12.4629
G1 X-19.0786 Y12.4969
G1 X-18.938 Y12.5396
G1 X-18.8508 Y12.5569
G1 X-18.7313 Y12.5687
G1 X-18.6405 Y12.4793
G1 X-18.4719 Y12.3278
G1 X-18.6427 Y12.4814
G1 X-18.7996 Y12.638
G1 X-19.2098 Y13.0862
G1 X-19.3327 Y12.9031
G1 X-19.4179 Y12.7608
G1 X-19.5084 Y12.5921
G1 X-19.5647 Y12.4732
G1 X-19.5084 Y12.5921
G1 X-19.4179 Y12.7608
G1 X-19.3509 Y12.8726
G1 X-19.2103 Y12.9309
G1 X-19.099 Y12.9646
G1 X-18.9241 Y12.7724
G1 X-19.0038 Y12.7566
G1 X-19.1445 Y12.7139
G1 X-19.2677 Y12.6629
G1 X-19.3973 Y12.5936
G1 X-19.5082 Y12.5195
G1 X-19.5647 Y12.4732
G1 X-19.6297 Y12.3229
G1 X-19.6904 Y12.1513
G1 X-19.7387 Y11.9835
G1 X-19.7738 Y11.8248
G04 P0 ( dwell for no time -- G64 should not smooth over this point )
G00 Z2.00000 ( retract )
(Block-name: block)
(Block-expand: 0)
(Block-enable: 1)

G0 X-22.8871 Y15.9053
G01 F60.00000
( Mill infeed pass 1/1 )
G01 Z-0.10000
G04 P0 ( dwell for no time -- G64 should not smooth over this point )
G01 F120.00000
G1 X-22.8871 Y15.9053
G1 X-22.9373 Y15.9859
G1 X-23.0181 Y16.0879
G1 X-23.0624 Y16.1328
G1 X-23.1519 Y16.2092
G1 X-23.1858 Y16.2332
G1 X-23.3427 Y16.3223
G1 X-23.514 Y16.3793
G1 X-23.5603 Y16.3892
G1 X-23.74 Y16.4068
G1 X-32.6454 Y16.4068
G1 X-34.5913 Y18.3527
G1 X-34.6237 Y18.4133
G1 X-34.722 Y18.5486
G1 X-34.7537 Y18.5838
G1 X-34.8965 Y18.7107
G1 X-35.0612 Y18.8072
G1 X-35.1045 Y18.8265
G1 X-35.2636 Y18.8782
G1 X-35.31 Y18.8881
G1 X-35.5 Y18.9068
G1 X-35.7135 Y18.8843
G1 X-35.9176 Y18.818
G1 X-36.1035 Y18.7107
G1 X-36.263 Y18.567
G1 X-36.3892 Y18.3934
G1 X-36.4765 Y18.1973
G1 X-36.5212 Y17.9873
G1 X-36.5212 Y17.7727
G1 X-36.4765 Y17.5627
G1 X-36.3892 Y17.3666
G1 X-36.263 Y17.1929
G1 X-36.1035 Y17.0493
G1 X-35.9751 Y16.9737
G1 X-33.7276 Y14.7272
G1 X-33.6093 Y14.6298
G1 X-33.4773 Y14.5522
G1 X-33.3347 Y14.4962
G1 X-33.2203 Y14.4687
G1 X-33.05 Y14.4532
G1 X-23.74 Y14.4532
G1 X-23.5714 Y14.4687
G1 X-23.5278 Y14.4774
G1 X-23.3871 Y14.52
G1 X-23.3461 Y14.5371
G1 X-23.2164 Y14.6064
G1 X-23.1694 Y14.6372
G1 X-23.0624 Y14.7272
G1 X-23.0036 Y14.7889
G1 X-22.9237 Y14.8936
G1 X-22.8871 Y14.9546
G1 X-22.8622 Y15.0051
G1 X-22.7697 Y15.0716
G1 X-22.597 Y15.1763
G1 X-22.5881 Y15.2801
G1 X-22.5837 Y15.4042
G1 X-22.5857 Y15.5314
G1 X-22.597 Y15.6837
G1 X-22.7279 Y15.7616
G1 X-22.8355 Y15.8344
G1 X-22.8622 Y15.8549
G1 X-22.8871 Y15.9053
G1 X-22.8343 Y15.7955
G1 X-22.8072 Y15.719
G1 X-22.7801 Y15.6103
G1 X-22.7676 Y15.5203
G1 X-22.7635 Y15.4419
G1 X-22.7676 Y15.3397
G1 X-22.7849 Y15.2264
G1 X-22.8139 Y15.1198
G1 X-22.8342 Y15.0645
G1 X-22.8622 Y15.0051
G04 P0 ( dwell for no time -- G64 should not smooth over this point )
G00 Z2.00000 ( retract )
(Block-name: block)
(Block-expand: 0)
(Block-enable: 1)

G0 X-28.4026 Y8.5269
G01 F60.00000
( Mill infeed pass 1/1 )
G01 Z-0.10000
G04 P0 ( dwell for no time -- G64 should not smooth over this point )
G01 F120.00000
G1 X-28.4026 Y8.5269
G1 X-28.4417 Y8.566
G1 X-28.4123 Y8.7044
G1 X-28.4073 Y8.7516
G1 X-28.4085 Y8.9321
G1 X-28.4417 Y9.094
G1 X-28.4026 Y9.1331
G1 X-28.382 Y9.0696
G1 X-28.3568 Y8.9105
G1 X-28.3568 Y8.7494
G1 X-28.382 Y8.5904
G1 X-28.4026 Y8.5269
G04 P0 ( dwell for no time -- G64 should not smooth over this point )
G00 Z2.00000 ( retract )
(Block-name: block)
(Block-expand: 0)
(Block-enable: 1)

G0 X-29.4605 Y7.8068
G01 F60.00000
( Mill infeed pass 1/1 )
G01 Z-0.10000
G04 P0 ( dwell for no time -- G64 should not smooth over this point )
G01 F120.00000
G1 X-29.4605 Y7.8068
G1 X-29.6196 Y7.832
G1 X-29.6831 Y7.8526
G1 X-29.643 Y7.8927
G1 X-29.5596 Y7.8708
G1 X-29.38 Y7.8532
G1 X-29.2004 Y7.8708
G1 X-29.117 Y7.8927
G1 X-29.0769 Y7.8526
G1 X-29.1404 Y7.832
G1 X-29.2994 Y7.8068
G1 X-29.4605 Y7.8068
G04 P0 ( dwell for no time -- G64 should not smooth over this point )
G00 Z2.00000 ( retract )
(Block-name: block)
(Block-expand: 0)
(Block-enable: 1)

G0 X-30.3573 Y8.5269
G01 F60.00000
( Mill infeed pass 1/1 )
G01 Z-0.10000
G04 P0 ( dwell for no time -- G64 should not smooth over this point )
G01 F120.00000
G1 X-30.3573 Y8.5269
G1 X-30.3183 Y8.566
G1 X-30.3477 Y8.7044
G1 X-30.3527 Y8.7516
G1 X-30.3514 Y8.9321
G1 X-30.3183 Y9.094
G1 X-30.3573 Y9.1331
G1 X-30.378 Y9.0696
G1 X-30.4032 Y8.9105
G1 X-30.4032 Y8.7494
G1 X-30.378 Y8.5904
G1 X-30.3573 Y8.5269
G04 P0 ( dwell for no time -- G64 should not smooth over this point )
G00 Z2.00000 ( retract )
(Block-name: block)
(Block-expand: 0)
(Block-enable: 1)

G0 X-26.9193 Y4.2768
G01 F60.00000
( Mill infeed pass 1/1 )
G01 Z-0.10000
G04 P0 ( dwell for no time -- G64 should not smooth over this point )
G01 F120.00000
G1 X-26.9193 Y4.2768
G1 X-26.9467 Y4.337
G1 X-26.9604 Y4.3583
G1 X-27.0798 Y4.5205
G1 X-27.2471 Y4.6711
G1 X-27.4032 Y4.7627
G1 X-27.4032 Y4.8176
G1 X-27.2913 Y4.7606
G1 X-27.1483 Y4.6567
G1 X-27.0232 Y4.5317
G1 X-26.9193 Y4.3887
G1 X-26.8623 Y4.2768
G1 X-26.9193 Y4.2768
G04 P0 ( dwell for no time -- G64 should not smooth over this point )
G00 Z2.00000 ( retract )
(Block-name: block)
(Block-expand: 0)
(Block-enable: 1)

G0 X-27.4032 Y2.7823
G01 F60.00000
( Mill infeed pass 1/1 )
G01 Z-0.10000
G04 P0 ( dwell for no time -- G64 should not smooth over this point )
G01 F120.00000
G1 X-27.4032 Y2.7823
G1 X-27.2913 Y2.8393
G1 X-27.1483 Y2.9432
G1 X-27.0232 Y3.0682
G1 X-26.9193 Y3.2113
G1 X-26.8623 Y3.3232
G1 X-26.9193 Y3.3232
G1 X-26.9467 Y3.263
G1 X-26.9604 Y3.2416
G1 X-27.0798 Y3.0795
G1 X-27.2471 Y2.9289
G1 X-27.4032 Y2.8373
G1 X-27.4032 Y2.7823
G04 P0 ( dwell for no time -- G64 should not smooth over this point )
G00 Z2.00000 ( retract )
(Block-name: block)
(Block-expand: 0)
(Block-enable: 1)

G0 X-29.4593 Y4.2768
G01 F60.00000
( Mill infeed pass 1/1 )
G01 Z-0.10000
G04 P0 ( dwell for no time -- G64 should not smooth over this point )
G01 F120.00000
G1 X-29.4593 Y4.2768
G1 X-29.4867 Y4.337
G1 X-29.5004 Y4.3583
G1 X-29.6198 Y4.5205
G1 X-29.7871 Y4.6711
G1 X-29.9432 Y4.7627
G1 X-29.9432 Y4.8176
G1 X-29.8313 Y4.7606
G1 X-29.6883 Y4.6567
G1 X-29.6204 Y4.5888
G1 X-29.485 Y4.4364
G1 X-29.4268 Y4.3871
G1 X-29.3903 Y4.3619
G1 X-29.331 Y4.3338
G1 X-29.2368 Y4.3047
G1 X-29.1937 Y4.2987
G1 X-29.1494 Y4.298
G1 X-29.0513 Y4.3071
G1 X-29.0092 Y4.318
G1 X-28.9679 Y4.3343
G1 X-28.87 Y4.3876
G1 X-28.7882 Y4.4656
G1 X-28.7367 Y4.5317
G1 X-28.6117 Y4.6567
G1 X-28.4687 Y4.7606
G1 X-28.3568 Y4.8176
G1 X-28.3568 Y4.7627
G1 X-28.5129 Y4.6711
G1 X-28.6802 Y4.5205
G1 X-28.7996 Y4.3583
G1 X-28.8133 Y4.337
G1 X-28.8407 Y4.2768
G1 X-29.4593 Y4.2768
G04 P0 ( dwell for no time -- G64 should not smooth over this point )
G00 Z2.00000 ( retract )
(Block-name: block)
(Block-expand: 0)
(Block-enable: 1)

G0 X-29.9432 Y2.7823
G01 F60.00000
( Mill infeed pass 1/1 )
G01 Z-0.10000
G04 P0 ( dwell for no time -- G64 should not smooth over this point )
G01 F120.00000
G1 X-29.9432 Y2.7823
G1 X-29.8313 Y2.8393
G1 X-29.6883 Y2.9432
G1 X-29.5632 Y3.0683
G1 X-29.5118 Y3.1343
G1 X-29.426 Y3.2151
G1 X-29.3913 Y3.235
G1 X-29.2754 Y3.2863
G1 X-29.217 Y3.2964
G1 X-29.1199 Y3.3001
G1 X-29.0756 Y3.2976
G1 X-29.0325 Y3.2863
G1 X-28.9414 Y3.2527
G1 X-28.889 Y3.2251
G1 X-28.7946 Y3.1405
G1 X-28.7367 Y3.0682
G1 X-28.6117 Y2.9432
G1 X-28.4687 Y2.8393
G1 X-28.3568 Y2.7823
G1 X-28.3568 Y2.8373
G1 X-28.5129 Y2.9289
G1 X-28.6802 Y3.0795
G1 X-28.7996 Y3.2416
G1 X-28.8133 Y3.263
G1 X-28.8406 Y3.3232
G1 X-29.4593 Y3.3232
G1 X-29.4867 Y3.263
G1 X-29.5004 Y3.2416
G1 X-29.6198 Y3.0795
G1 X-29.7871 Y2.9289
G1 X-29.9432 Y2.8373
G1 X-29.9432 Y2.7823
G04 P0 ( dwell for no time -- G64 should not smooth over this point )
G00 Z2.00000 ( retract )
(Block-name: block)
(Block-expand: 0)
(Block-enable: 1)

G0 X-31.9993 Y4.2768
G01 F60.00000
( Mill infeed pass 1/1 )
G01 Z-0.10000
G04 P0 ( dwell for no time -- G64 should not smooth over this point )
G01 F120.00000
G1 X-31.9993 Y4.2768
G1 X-32.0267 Y4.337
G1 X-32.0404 Y4.3583
G1 X-32.1598 Y4.5205
G1 X-32.3271 Y4.6711
G1 X-32.4832 Y4.7627
G1 X-32.4832 Y4.8176
G1 X-32.3713 Y4.7606
G1 X-32.2283 Y4.6567
G1 X-32.1032 Y4.5317
G1 X-32.0453 Y4.4594
G1 X-31.974 Y4.3935
G1 X-31.9386 Y4.3667
G1 X-31.8986 Y4.3473
G1 X-31.8074 Y4.3137
G1 X-31.779 Y4.3052
G1 X-31.72 Y4.2998
G1 X-31.6229 Y4.3036
G1 X-31.5789 Y4.3097
G1 X-31.5369 Y4.3243
G1 X-31.4139 Y4.3848
G1 X-31.3282 Y4.4656
G1 X-31.2767 Y4.5317
G1 X-31.1517 Y4.6567
G1 X-31.0087 Y4.7606
G1 X-30.8968 Y4.8176
G1 X-30.8968 Y4.7627
G1 X-31.0529 Y4.6711
G1 X-31.2202 Y4.5205
G1 X-31.3396 Y4.3583
G1 X-31.3533 Y4.337
G1 X-31.3807 Y4.2768
G1 X-31.9993 Y4.2768
G04 P0 ( dwell for no time -- G64 should not smooth over this point )
G00 Z2.00000 ( retract )
(Block-name: block)
(Block-expand: 0)
(Block-enable: 1)

G0 X-32.4832 Y2.7823
G01 F60.00000
( Mill infeed pass 1/1 )
G01 Z-0.10000
G04 P0 ( dwell for no time -- G64 should not smooth over this point )
G01 F120.00000
G1 X-32.4832 Y2.7823
G1 X-32.3713 Y2.8393
G1 X-32.2283 Y2.9432
G1 X-32.1032 Y3.0683
G1 X-32.0518 Y3.1343
G1 X-31.966 Y3.2151
G1 X-31.9313 Y3.235
G1 X-31.8154 Y3.2863
G1 X-31.757 Y3.2964
G1 X-31.6599 Y3.3001
G1 X-31.6156 Y3.2976
G1 X-31.5725 Y3.2863
G1 X-31.4814 Y3.2527
G1 X-31.429 Y3.2251
G1 X-31.3346 Y3.1405
G1 X-31.2767 Y3.0682
G1 X-31.1517 Y2.9432
G1 X-31.0087 Y2.8393
G1 X-30.8968 Y2.7823
G1 X-30.8968 Y2.8373
G1 X-31.0529 Y2.9289
G1 X-31.2202 Y3.0795
G1 X-31.3396 Y3.2416
G1 X-31.3533 Y3.263
G1 X-31.3806 Y3.3232
G1 X-31.9993 Y3.3232
G1 X-32.0267 Y3.263
G1 X-32.0404 Y3.2416
G1 X-32.1598 Y3.0795
G1 X-32.3271 Y2.9289
G1 X-32.4832 Y2.8373
G1 X-32.4832 Y2.7823
G04 P0 ( dwell for no time -- G64 should not smooth over this point )
G00 Z2.00000 ( retract )
(Block-name: block)
(Block-expand: 0)
(Block-enable: 1)

G0 X-34.4232 Y4.2768
G01 F60.00000
( Mill infeed pass 1/1 )
G01 Z-0.10000
G04 P0 ( dwell for no time -- G64 should not smooth over this point )
G01 F120.00000
G1 X-34.4232 Y4.2768
G1 X-34.4232 Y4.65
G1 X-34.4275 Y4.6942
G1 X-34.4404 Y4.7368
G1 X-34.4614 Y4.776
G1 X-34.4896 Y4.8103
G1 X-34.524 Y4.8386
G1 X-34.5632 Y4.8595
G1 X-34.6058 Y4.8724
G1 X-34.65 Y4.8768
G1 X-35.0232 Y4.8768
G1 X-35.0232 Y4.9231
G1 X-34.5952 Y4.9211
G1 X-34.5177 Y4.8922
G1 X-34.4548 Y4.8452
G1 X-34.3775 Y4.7419
G1 X-34.3512 Y4.7124
G1 X-34.2936 Y4.6538
G1 X-34.2565 Y4.6294
G1 X-34.1704 Y4.5844
G1 X-34.1292 Y4.5677
G1 X-34.0855 Y4.5594
G1 X-33.9888 Y4.5507
G1 X-33.9591 Y4.55
G1 X-33.9007 Y4.5602
G1 X-33.7746 Y4.6027
G1 X-33.5494 Y4.7602
G1 X-33.4368 Y4.8176
G1 X-33.4368 Y4.7627
G1 X-33.5929 Y4.6711
G1 X-33.7602 Y4.5205
G1 X-33.8796 Y4.3583
G1 X-33.8933 Y4.337
G1 X-33.9207 Y4.2768
G1 X-34.4232 Y4.2768
G04 P0 ( dwell for no time -- G64 should not smooth over this point )
G00 Z2.00000 ( retract )
(Block-name: block)
(Block-expand: 0)
(Block-enable: 1)

G0 X-35.0232 Y2.6768
G01 F60.00000
( Mill infeed pass 1/1 )
G01 Z-0.10000
G04 P0 ( dwell for no time -- G64 should not smooth over this point )
G01 F120.00000
G1 X-35.0232 Y2.6768
G1 X-35.0232 Y2.7232
G1 X-34.65 Y2.7232
G1 X-34.6058 Y2.7275
G1 X-34.5632 Y2.7405
G1 X-34.524 Y2.7614
G1 X-34.4896 Y2.7896
G1 X-34.4614 Y2.824
G1 X-34.4404 Y2.8632
G1 X-34.4275 Y2.9057
G1 X-34.4232 Y2.95
G1 X-34.4232 Y3.3232
G1 X-33.9206 Y3.3232
G1 X-33.8933 Y3.263
G1 X-33.8796 Y3.2416
G1 X-33.7602 Y3.0795
G1 X-33.5929 Y2.9289
G1 X-33.4368 Y2.8373
G1 X-33.4368 Y2.7823
G1 X-33.5487 Y2.8393
G1 X-33.7141 Y2.9595
G1 X-33.8341 Y3.0232
G1 X-33.8915 Y3.0378
G1 X-33.988 Y3.0492
G1 X-34.0472 Y3.0484
G1 X-34.1698 Y3.0158
G1 X-34.2111 Y2.9996
G1 X-34.2486 Y2.9757
G1 X-34.3468 Y2.8958
G1 X-34.4548 Y2.7548
G1 X-34.5177 Y2.7077
G1 X-34.5952 Y2.6788
G1 X-34.6143 Y2.6768
G1 X-35.0232 Y2.6768
G04 P0 ( dwell for no time -- G64 should not smooth over this point )
G00 Z2.00000 ( retract )
(Block-name: block)
(Block-expand: 0)
(Block-enable: 1)

G0 X-36.3856 Y2.6768
G01 F60.00000
( Mill infeed pass 1/1 )
G01 Z-0.10000
G04 P0 ( dwell for no time -- G64 should not smooth over this point )
G01 F120.00000
G1 X-36.3856 Y2.6768
G1 X-36.4048 Y2.6788
G1 X-36.4823 Y2.7077
G1 X-36.5451 Y2.7548
G1 X-36.5922 Y2.8177
G1 X-36.6211 Y2.8952
G1 X-36.6232 Y3.3232
G1 X-36.5768 Y3.3232
G1 X-36.5768 Y2.95
G1 X-36.5724 Y2.9057
G1 X-36.5595 Y2.8632
G1 X-36.5386 Y2.824
G1 X-36.5104 Y2.7896
G1 X-36.476 Y2.7614
G1 X-36.4368 Y2.7405
G1 X-36.3942 Y2.7275
G1 X-36.35 Y2.7232
G1 X-35.9768 Y2.7232
G1 X-35.9768 Y2.6768
G1 X-36.3856 Y2.6768
G04 P0 ( dwell for no time -- G64 should not smooth over this point )
G00 Z2.00000 ( retract )
(Block-name: block)
(Block-expand: 0)
(Block-enable: 1)

G0 X-41.5064 Y2.8763
G01 F60.00000
( Mill infeed pass 1/1 )
G01 Z-0.10000
G04 P0 ( dwell for no time -- G64 should not smooth over this point )
G01 F120.00000
G1 X-41.5064 Y2.8763
G1 X-41.2935 Y2.8763
G1 X-41.0825 Y2.9041
G1 X-40.877 Y2.9592
G1 X-40.6803 Y3.0406
G1 X-40.496 Y3.147
G1 X-40.3271 Y3.2766
G1 X-40.1766 Y3.4271
G1 X-40.047 Y3.596
G1 X-39.9406 Y3.7803
G1 X-39.8591 Y3.9769
G1 X-39.8041 Y4.1825
G1 X-39.7763 Y4.3936
G1 X-39.7763 Y4.6064
G1 X-39.8041 Y4.8174
G1 X-39.8591 Y5.023
G1 X-39.9406 Y5.2196
G1 X-40.047 Y5.404
G1 X-40.1766 Y5.5728
G1 X-40.3271 Y5.7234
G1 X-40.496 Y5.8529
G1 X-40.6803 Y5.9593
G1 X-40.8769 Y6.0408
G1 X-41.0825 Y6.0959
G1 X-41.2935 Y6.1237
G1 X-41.5064 Y6.1237
G1 X-41.7174 Y6.0959
G1 X-41.923 Y6.0408
G1 X-42.1197 Y5.9593
G1 X-42.304 Y5.8529
G1 X-42.4728 Y5.7234
G1 X-42.6234 Y5.5728
G1 X-42.7529 Y5.404
G1 X-42.8593 Y5.2196
G1 X-42.9408 Y5.023
G1 X-42.9959 Y4.8174
G1 X-43.0237 Y4.6064
G1 X-43.0237 Y4.3935
G1 X-42.9959 Y4.1825
G1 X-42.9408 Y3.9769
G1 X-42.8593 Y3.7803
G1 X-42.7529 Y3.596
G1 X-42.6234 Y3.4271
G1 X-42.4728 Y3.2766
G1 X-42.304 Y3.147
G1 X-42.1197 Y3.0406
G1 X-41.923 Y2.9592
G1 X-41.7174 Y2.9041
G1 X-41.5064 Y2.8763
G1 X-41.4916 Y3.103
G1 X-41.3084 Y3.1026
G1 X-41.1268 Y3.1265
G1 X-40.9498 Y3.1739
G1 X-40.7806 Y3.244
G1 X-40.622 Y3.3356
G1 X-40.4766 Y3.4471
G1 X-40.3471 Y3.5766
G1 X-40.2356 Y3.7219
G1 X-40.144 Y3.8806
G1 X-40.0739 Y4.0498
G1 X-40.0265 Y4.2268
G1 X-40.0025 Y4.4084
G1 X-40.0025 Y4.5916
G1 X-40.0265 Y4.7732
G1 X-40.0739 Y4.9501
G1 X-40.144 Y5.1194
G1 X-40.2356 Y5.278
G1 X-40.3471 Y5.4233
G1 X-40.4766 Y5.5529
G1 X-40.6219 Y5.6644
G1 X-40.7806 Y5.756
G1 X-40.9498 Y5.8261
G1 X-41.1267 Y5.8735
G1 X-41.3084 Y5.8974
G1 X-41.4916 Y5.8974
G1 X-41.6732 Y5.8735
G1 X-41.8501 Y5.8261
G1 X-42.0194 Y5.756
G1 X-42.178 Y5.6644
G1 X-42.3233 Y5.5529
G1 X-42.4529 Y5.4233
G1 X-42.5644 Y5.278
G1 X-42.656 Y5.1193
G1 X-42.7261 Y4.9501
G1 X-42.7735 Y4.7732
G1 X-42.7974 Y4.5916
G1 X-42.7974 Y4.4084
G1 X-42.7735 Y4.2267
G1 X-42.7261 Y4.0498
G1 X-42.656 Y3.8806
G1 X-42.5644 Y3.7219
G1 X-42.4529 Y3.5766
G1 X-42.3233 Y3.4471
G1 X-42.178 Y3.3356
G1 X-42.0194 Y3.244
G1 X-41.8501 Y3.1739
G1 X-41.6732 Y3.1265
G1 X-41.4916 Y3.103
G1 X-41.4767 Y3.3298
G1 X-41.3233 Y3.3298
G1 X-41.171 Y3.3487
G1 X-41.0229 Y3.3891
G1 X-40.8808 Y3.4472
G1 X-40.7485 Y3.5249
G1 X-40.6255 Y3.6168
G1 X-40.5183 Y3.7267
G1 X-40.424 Y3.8478
G1 X-40.3478 Y3.9811
G1 X-40.2885 Y4.1227
G1 X-40.2498 Y4.2712
G1 X-40.2278 Y4.4232
G1 X-40.2298 Y4.5766
G1 X-40.2487 Y4.7289
G1 X-40.2891 Y4.8771
G1 X-40.3472 Y5.0192
G1 X-40.4249 Y5.1515
G1 X-40.5168 Y5.2745
G1 X-40.6267 Y5.3816
G1 X-40.7478 Y5.4759
G1 X-40.8809 Y5.5527
G1 X-41.023 Y5.6105
G1 X-41.1709 Y5.6512
G1 X-41.3232 Y5.6713
G1 X-41.4767 Y5.6701
G1 X-41.6289 Y5.6512
G1 X-41.7771 Y5.6109
G1 X-41.9192 Y5.5527
G1 X-42.0515 Y5.4751
G1 X-42.1745 Y5.3831
G1 X-42.2816 Y5.2732
G1 X-42.3759 Y5.1521
G1 X-42.4528 Y5.0191
G1 X-42.5105 Y4.8769
G1 X-42.5512 Y4.729
G1 X-42.5713 Y4.5767
G1 X-42.5701 Y4.4233
G1 X-42.5512 Y4.271
G1 X-42.5115 Y4.1227
G1 X-42.4517 Y3.9813
G1 X-42.376 Y3.8479
G1 X-42.2824 Y3.726
G1 X-42.1732 Y3.6183
G1 X-42.0521 Y3.524
G1 X-41.9191 Y3.4472
G1 X-41.7769 Y3.3895
G1 X-41.629 Y3.3487
G1 X-41.4767 Y3.3298
G1 X-41.4618 Y3.5566
G1 X-41.3381 Y3.5566
G1 X-41.2153 Y3.5716
G1 X-41.0959 Y3.6042
G1 X-40.9813 Y3.6511
G1 X-40.8747 Y3.7138
G1 X-40.7753 Y3.7877
G1 X-40.6891 Y3.8766
G1 X-40.613 Y3.9741
G1 X-40.5516 Y4.0816
G1 X-40.5037 Y4.1958
G1 X-40.4727 Y4.3155
G1 X-40.4546 Y4.438
G1 X-40.4565 Y4.5618
G1 X-40.4716 Y4.6846
G1 X-40.5042 Y4.804
G1 X-40.551 Y4.9187
G1 X-40.6139 Y5.0252
G1 X-40.6877 Y5.1246
G1 X-40.7766 Y5.2108
G1 X-40.8741 Y5.287
G1 X-40.9814 Y5.3489
G1 X-41.0961 Y5.3953
G1 X-41.2153 Y5.4283
G1 X-41.3381 Y5.4445
G1 X-41.4618 Y5.4434
G1 X-41.5846 Y5.4283
G1 X-41.704 Y5.3957
G1 X-41.8187 Y5.3489
G1 X-41.9252 Y5.2861
G1 X-42.0247 Y5.2123
G1 X-42.1108 Y5.1234
G1 X-42.187 Y5.0259
G1 X-42.2489 Y4.9186
G1 X-42.2953 Y4.8038
G1 X-42.3283 Y4.6847
G1 X-42.3445 Y4.5619
G1 X-42.3434 Y4.4381
G1 X-42.3283 Y4.3153
G1 X-42.2963 Y4.1957
G1 X-42.2479 Y4.0818
G1 X-42.187 Y3.9741
G1 X-42.1112 Y3.8763
G1 X-42.0241 Y3.7883
G1 X-41.9252 Y3.7139
G1 X-41.819 Y3.6503
G1 X-41.7039 Y3.6047
G1 X-41.5847 Y3.5716
G1 X-41.4618 Y3.5566
G1 X-41.447 Y3.7833
G1 X-41.3529 Y3.7822
G1 X-41.2596 Y3.7945
G1 X-41.1691 Y3.8199
G1 X-41.0814 Y3.8541
G1 X-41.001 Y3.9028
G1 X-40.9258 Y3.9592
G1 X-40.8596 Y4.0261
G1 X-40.8019 Y4.1003
G1 X-40.7559 Y4.1823
G1 X-40.7188 Y4.2687
G1 X-40.6945 Y4.3597
G1 X-40.6833 Y4.453
G1 X-40.6822 Y4.547
G1 X-40.6945 Y4.6403
G1 X-40.7199 Y4.7308
G1 X-40.7541 Y4.8185
G1 X-40.8028 Y4.899
G1 X-40.8591 Y4.9742
G1 X-40.9261 Y5.0403
G1 X-41.0003 Y5.0981
G1 X-41.0823 Y5.1441
G1 X-41.1685 Y5.1819
G1 X-41.2598 Y5.2044
G1 X-41.3529 Y5.2177
G1 X-41.447 Y5.2171
G1 X-41.5403 Y5.2054
G1 X-41.6308 Y5.1801
G1 X-41.7185 Y5.1459
G1 X-41.799 Y5.0971
G1 X-41.8742 Y5.0408
G1 X-41.9403 Y4.9738
G1 X-41.9981 Y4.8996
G1 X-42.0441 Y4.8176
G1 X-42.0819 Y4.7314
G1 X-42.1044 Y4.6401
G1 X-42.1178 Y4.5471
G1 X-42.1171 Y4.453
G1 X-42.1054 Y4.3596
G1 X-42.0801 Y4.2691
G1 X-42.0451 Y4.1819
G1 X-41.998 Y4.1003
G1 X-41.94 Y4.0264
G1 X-41.8748 Y3.9585
G1 X-41.799 Y3.9028
G1 X-41.7182 Y3.8549
G1 X-41.631 Y3.8194
G1 X-41.5403 Y3.7945
G1 X-41.447 Y3.7833
G1 X-41.4321 Y4.0101
G1 X-41.3678 Y4.0101
G1 X-41.3042 Y4.0185
G1 X-41.2421 Y4.0351
G1 X-41.2407 Y4.0309
G1 X-41.2421 Y4.0351
G1 X-41.1828 Y4.0597
G1 X-41.1272 Y4.0917
G1 X-41.0763 Y4.1308
G1 X-41.0733 Y4.1275
G1 X-41.0763 Y4.1308
G1 X-41.0309 Y4.1762
G1 X-40.9918 Y4.2272
G1 X-40.9597 Y4.2828
G1 X-40.9557 Y4.2809
G1 X-40.9597 Y4.2828
G1 X-40.9351 Y4.3422
G1 X-40.9184 Y4.4042
G1 X-40.91 Y4.4679
G1 X-40.9056 Y4.4676
G1 X-40.91 Y4.4679
G1 X-40.91 Y4.5321
G1 X-40.9184 Y4.5957
G1 X-40.9351 Y4.6578
G1 X-40.9309 Y4.6592
G1 X-40.9351 Y4.6578
G1 X-40.9597 Y4.7172
G1 X-40.9917 Y4.7727
G1 X-41.0308 Y4.8237
G1 X-41.0275 Y4.8266
G1 X-41.0308 Y4.8237
G1 X-41.0763 Y4.8691
G1 X-41.1272 Y4.9082
G1 X-41.1828 Y4.9403
G1 X-41.1809 Y4.9443
G1 X-41.1828 Y4.9403
G1 X-41.2422 Y4.9649
G1 X-41.3042 Y4.9815
G1 X-41.3678 Y4.9899
G1 X-41.3675 Y4.9943
G1 X-41.3678 Y4.9899
G1 X-41.4321 Y4.9899
G1 X-41.4958 Y4.9815
G1 X-41.5578 Y4.9649
G1 X-41.5592 Y4.9691
G1 X-41.5578 Y4.9649
G1 X-41.6171 Y4.9403
G1 X-41.6727 Y4.9082
G1 X-41.7237 Y4.8691
G1 X-41.7266 Y4.8724
G1 X-41.7237 Y4.8691
G1 X-41.7691 Y4.8237
G1 X-41.8082 Y4.7727
G1 X-41.8403 Y4.7171
G1 X-41.8443 Y4.7191
G1 X-41.8403 Y4.7171
G1 X-41.8649 Y4.6577
G1 X-41.8815 Y4.5958
G1 X-41.8899 Y4.5321
G1 X-41.8943 Y4.5324
G1 X-41.8899 Y4.5321
G1 X-41.8899 Y4.4678
G1 X-41.8815 Y4.4042
G1 X-41.8649 Y4.3422
G1 X-41.8691 Y4.3408
G1 X-41.8649 Y4.3422
G1 X-41.8403 Y4.2828
G1 X-41.8082 Y4.2272
G1 X-41.7691 Y4.1762
G1 X-41.7724 Y4.1733
G1 X-41.7691 Y4.1762
G1 X-41.7237 Y4.1308
G1 X-41.6727 Y4.0917
G1 X-41.6172 Y4.0597
G1 X-41.6191 Y4.0557
G1 X-41.6172 Y4.0597
G1 X-41.5578 Y4.0351
G1 X-41.4958 Y4.0185
G1 X-41.4321 Y4.0101
G1 X-41.4175 Y4.2324
G1 X-41.4245 Y4.4505
G1 X-41.4162 Y4.4673
G1 X-41.4024 Y4.4636
G1 X-41.3882 Y4.4654
G1 X-41.3822 Y4.4477
G1 X-41.3882 Y4.4654
G1 X-41.3759 Y4.4725
G1 X-41.3672 Y4.4839
G1 X-41.3505 Y4.4756
G1 X-41.3672 Y4.4839
G1 X-41.3636 Y4.4976
G1 X-41.3655 Y4.5117
G1 X-41.3477 Y4.5177
G1 X-41.3655 Y4.5117
G1 X-41.3725 Y4.524
G1 X-41.3839 Y4.5327
G1 X-41.3756 Y4.5494
G1 X-41.3839 Y4.5327
G1 X-41.3975 Y4.5364
G1 X-41.4117 Y4.5345
G1 X-41.4177 Y4.5522
G1 X-41.4117 Y4.5345
G1 X-41.424 Y4.5274
G1 X-41.4327 Y4.5161
G1 X-41.4494 Y4.5243
G1 X-41.4327 Y4.5161
G1 X-41.4364 Y4.5024
G1 X-41.4345 Y4.4883
G1 X-41.4522 Y4.4823
G1 X-41.4345 Y4.4883
G1 X-41.4274 Y4.4759
G1 X-41.4162 Y4.4673
G1 X-41.4245 Y4.4505
G1 X-41.4175 Y4.2324
G1 X-41.4173 Y4.2368
G1 X-41.3485 Y4.2413
G1 X-41.3152 Y4.2503
G1 X-41.3138 Y4.246
G1 X-41.3152 Y4.2503
G1 X-41.2535 Y4.2807
G1 X-41.2261 Y4.3017
G1 X-41.2232 Y4.2983
G1 X-41.2261 Y4.3017
G1 X-41.1807 Y4.3534
G1 X-41.1634 Y4.3833
G1 X-41.1595 Y4.3814
G1 X-41.1634 Y4.3833
G1 X-41.1502 Y4.4152
G1 X-41.1368 Y4.4828
G1 X-41.1324 Y4.4825
G1 X-41.1368 Y4.4828
G1 X-41.1368 Y4.5172
G1 X-41.1503 Y4.5847
G1 X-41.146 Y4.5862
G1 X-41.1503 Y4.5847
G1 X-41.1807 Y4.6465
G1 X-41.2017 Y4.6738
G1 X-41.1983 Y4.6768
G1 X-41.2017 Y4.6738
G1 X-41.2534 Y4.7192
G1 X-41.2833 Y4.7365
G1 X-41.2814 Y4.7405
G1 X-41.2833 Y4.7365
G1 X-41.3152 Y4.7497
G1 X-41.3827 Y4.7631
G1 X-41.3824 Y4.7675
G1 X-41.3827 Y4.7631
G1 X-41.4514 Y4.7586
G1 X-41.4847 Y4.7497
G1 X-41.4862 Y4.7539
G1 X-41.4847 Y4.7497
G1 X-41.5166 Y4.7365
G1 X-41.5739 Y4.6982
G1 X-41.5768 Y4.7016
G1 X-41.5739 Y4.6982
G1 X-41.6193 Y4.6465
G1 X-41.6365 Y4.6166
G1 X-41.6405 Y4.6186
G1 X-41.6365 Y4.6166
G1 X-41.6586 Y4.5514
G1 X-41.6631 Y4.5173
G1 X-41.6676 Y4.5176
G1 X-41.6631 Y4.5173
G1 X-41.6631 Y4.4827
G1 X-41.6497 Y4.4152
G1 X-41.6539 Y4.4138
G1 X-41.6497 Y4.4152
G1 X-41.6365 Y4.3833
G1 X-41.5982 Y4.3261
G1 X-41.6016 Y4.3232
G1 X-41.5982 Y4.3261
G1 X-41.5465 Y4.2807
G1 X-41.5167 Y4.2635
G1 X-41.5186 Y4.2595
G1 X-41.5167 Y4.2635
G1 X-41.4514 Y4.2413
G1 X-41.4173 Y4.2368
G04 P0 ( dwell for no time -- G64 should not smooth over this point )
G00 Z2.00000 ( retract )
(Block-name: block)
(Block-expand: 0)
(Block-enable: 1)

G0 X-36.6232 Y4.2768
G01 F60.00000
( Mill infeed pass 1/1 )
G01 Z-0.10000
G04 P0 ( dwell for no time -- G64 should not smooth over this point )
G01 F120.00000
G1 X-36.6232 Y4.2768
G1 X-36.5768 Y4.2768
G1 X-36.5768 Y4.65
G1 X-36.5724 Y4.6942
G1 X-36.5595 Y4.7368
G1 X-36.5386 Y4.776
G1 X-36.5104 Y4.8103
G1 X-36.476 Y4.8386
G1 X-36.4368 Y4.8595
G1 X-36.3942 Y4.8724
G1 X-36.35 Y4.8768
G1 X-35.9768 Y4.8768
G1 X-35.9768 Y4.9231
G1 X-36.4048 Y4.9211
G1 X-36.4823 Y4.8922
G1 X-36.5451 Y4.8452
G1 X-36.5922 Y4.7822
G1 X-36.6211 Y4.7048
G1 X-36.6232 Y4.2768
G04 P0 ( dwell for no time -- G64 should not smooth over this point )
G00 Z2.00000 ( retract )
(Block-name: block)
(Block-expand: 0)
(Block-enable: 1)

G0 X-35.0232 Y6.7584
G01 F60.00000
( Mill infeed pass 1/1 )
G01 Z-0.10000
G04 P0 ( dwell for no time -- G64 should not smooth over this point )
G01 F120.00000
G1 X-35.0232 Y6.7584
G1 X-34.9375 Y6.8021
G1 X-34.8008 Y6.9014
G1 X-34.6814 Y7.0208
G1 X-34.5821 Y7.1575
G1 X-34.5384 Y7.2432
G1 X-34.5931 Y7.2432
G1 X-34.6237 Y7.1867
G1 X-34.722 Y7.0514
G1 X-34.7537 Y7.0161
G1 X-34.8965 Y6.8893
G1 X-35.0232 Y6.8147
G1 X-35.0232 Y6.7584
G04 P0 ( dwell for no time -- G64 should not smooth over this point )
G00 Z2.00000 ( retract )
(Block-name: block)
(Block-expand: 0)
(Block-enable: 1)

G0 X-35.9768 Y6.7584
G01 F60.00000
( Mill infeed pass 1/1 )
G01 Z-0.10000
G04 P0 ( dwell for no time -- G64 should not smooth over this point )
G01 F120.00000
G1 X-35.9768 Y6.7584
G1 X-35.9768 Y6.8147
G1 X-36.1035 Y6.8893
G1 X-36.2463 Y7.0161
G1 X-36.278 Y7.0514
G1 X-36.3763 Y7.1867
G1 X-36.4069 Y7.2432
G1 X-36.4615 Y7.2432
G1 X-36.4179 Y7.1575
G1 X-36.3186 Y7.0208
G1 X-36.1991 Y6.9014
G1 X-36.0624 Y6.8021
G1 X-35.9768 Y6.7584
G04 P0 ( dwell for no time -- G64 should not smooth over this point )
G00 Z2.00000 ( retract )
(Block-name: block)
(Block-expand: 0)
(Block-enable: 1)

G0 X-34.5931 Y8.1968
G01 F60.00000
( Mill infeed pass 1/1 )
G01 Z-0.10000
G04 P0 ( dwell for no time -- G64 should not smooth over this point )
G01 F120.00000
G1 X-34.5931 Y8.1968
G1 X-34.6237 Y8.2533
G1 X-34.722 Y8.3886
G1 X-34.7537 Y8.4238
G1 X-34.8965 Y8.5507
G1 X-35.0232 Y8.6253
G1 X-35.0232 Y8.6815
G1 X-34.9375 Y8.6379
G1 X-34.8008 Y8.5386
G1 X-34.6814 Y8.4191
G1 X-34.5821 Y8.2825
G1 X-34.5384 Y8.1968
G1 X-34.5931 Y8.1968
G04 P0 ( dwell for no time -- G64 should not smooth over this point )
G00 Z2.00000 ( retract )
(Block-name: block)
(Block-expand: 0)
(Block-enable: 1)

G0 X-36.4615 Y8.1968
G01 F60.00000
( Mill infeed pass 1/1 )
G01 Z-0.10000
G04 P0 ( dwell for no time -- G64 should not smooth over this point )
G01 F120.00000
G1 X-36.4615 Y8.1968
G1 X-36.4179 Y8.2825
G1 X-36.3186 Y8.4191
G1 X-36.1991 Y8.5386
G1 X-36.0624 Y8.6379
G1 X-35.9768 Y8.6815
G1 X-35.9768 Y8.6253
G1 X-36.1035 Y8.5507
G1 X-36.2463 Y8.4238
G1 X-36.278 Y8.3886
G1 X-36.3763 Y8.2533
G1 X-36.4069 Y8.1968
G1 X-36.4615 Y8.1968
G04 P0 ( dwell for no time -- G64 should not smooth over this point )
G00 Z2.00000 ( retract )
(Block-name: block)
(Block-expand: 0)
(Block-enable: 1)

G0 X-41.5064 Y15.2763
G01 F60.00000
( Mill infeed pass 1/1 )
G01 Z-0.10000
G04 P0 ( dwell for no time -- G64 should not smooth over this point )
G01 F120.00000
G1 X-41.5064 Y15.2763
G1 X-41.2935 Y15.2763
G1 X-41.0825 Y15.3041
G1 X-40.877 Y15.3591
G1 X-40.6803 Y15.4406
G1 X-40.496 Y15.547
G1 X-40.3271 Y15.6766
G1 X-40.1766 Y15.8271
G1 X-40.047 Y15.996
G1 X-39.9406 Y16.1803
G1 X-39.8591 Y16.3769
G1 X-39.8041 Y16.5825
G1 X-39.7763 Y16.7936
G1 X-39.7763 Y17.0064
G1 X-39.8041 Y17.2174
G1 X-39.8591 Y17.423
G1 X-39.9406 Y17.6197
G1 X-40.047 Y17.804
G1 X-40.1766 Y17.9728
G1 X-40.3271 Y18.1234
G1 X-40.496 Y18.2529
G1 X-40.6803 Y18.3593
G1 X-40.8769 Y18.4408
G1 X-41.0825 Y18.4959
G1 X-41.2935 Y18.5237
G1 X-41.5064 Y18.5237
G1 X-41.7174 Y18.4959
G1 X-41.923 Y18.4408
G1 X-42.1197 Y18.3593
G1 X-42.304 Y18.2529
G1 X-42.4728 Y18.1234
G1 X-42.6234 Y17.9728
G1 X-42.7529 Y17.804
G1 X-42.8593 Y17.6197
G1 X-42.9408 Y17.423
G1 X-42.9959 Y17.2174
G1 X-43.0237 Y17.0064
G1 X-43.0237 Y16.7935
G1 X-42.9959 Y16.5825
G1 X-42.9408 Y16.3769
G1 X-42.8593 Y16.1803
G1 X-42.7529 Y15.996
G1 X-42.6234 Y15.8271
G1 X-42.4728 Y15.6766
G1 X-42.304 Y15.547
G1 X-42.1197 Y15.4406
G1 X-41.923 Y15.3591
G1 X-41.7174 Y15.3041
G1 X-41.5064 Y15.2763
G1 X-41.4916 Y15.503
G1 X-41.3084 Y15.5026
G1 X-41.1268 Y15.5265
G1 X-40.9498 Y15.5739
G1 X-40.7806 Y15.644
G1 X-40.622 Y15.7355
G1 X-40.4766 Y15.8471
G1 X-40.3471 Y15.9766
G1 X-40.2356 Y16.1219
G1 X-40.144 Y16.2806
G1 X-40.0739 Y16.4498
G1 X-40.0265 Y16.6268
G1 X-40.0025 Y16.8084
G1 X-40.0025 Y16.9916
G1 X-40.0265 Y17.1732
G1 X-40.0739 Y17.3501
G1 X-40.144 Y17.5194
G1 X-40.2356 Y17.678
G1 X-40.3471 Y17.8233
G1 X-40.4766 Y17.9529
G1 X-40.6219 Y18.0644
G1 X-40.7806 Y18.156
G1 X-40.9498 Y18.2261
G1 X-41.1267 Y18.2735
G1 X-41.3084 Y18.2974
G1 X-41.4916 Y18.2974
G1 X-41.6732 Y18.2735
G1 X-41.8501 Y18.2261
G1 X-42.0194 Y18.156
G1 X-42.178 Y18.0644
G1 X-42.3233 Y17.9529
G1 X-42.4529 Y17.8233
G1 X-42.5644 Y17.678
G1 X-42.656 Y17.5193
G1 X-42.7261 Y17.3501
G1 X-42.7735 Y17.1732
G1 X-42.7974 Y16.9916
G1 X-42.7974 Y16.8084
G1 X-42.7735 Y16.6267
G1 X-42.7261 Y16.4498
G1 X-42.656 Y16.2806
G1 X-42.5644 Y16.1219
G1 X-42.4529 Y15.9766
G1 X-42.3233 Y15.8471
G1 X-42.178 Y15.7355
G1 X-42.0194 Y15.644
G1 X-41.8501 Y15.5739
G1 X-41.6732 Y15.5265
G1 X-41.4916 Y15.503
G1 X-41.4767 Y15.7298
G1 X-41.3233 Y15.7298
G1 X-41.171 Y15.7487
G1 X-41.0229 Y15.7891
G1 X-40.8808 Y15.8472
G1 X-40.7485 Y15.9249
G1 X-40.6255 Y16.0168
G1 X-40.5183 Y16.1267
G1 X-40.424 Y16.2478
G1 X-40.3478 Y16.3811
G1 X-40.2885 Y16.5227
G1 X-40.2498 Y16.6712
G1 X-40.2278 Y16.8232
G1 X-40.2298 Y16.9766
G1 X-40.2487 Y17.1289
G1 X-40.2891 Y17.2771
G1 X-40.3472 Y17.4192
G1 X-40.4249 Y17.5515
G1 X-40.5168 Y17.6745
G1 X-40.6267 Y17.7816
G1 X-40.7478 Y17.8759
G1 X-40.8809 Y17.9528
G1 X-41.023 Y18.0104
G1 X-41.1709 Y18.0512
G1 X-41.3232 Y18.0713
G1 X-41.4767 Y18.0701
G1 X-41.6289 Y18.0512
G1 X-41.7771 Y18.0109
G1 X-41.9192 Y17.9527
G1 X-42.0515 Y17.8751
G1 X-42.1745 Y17.7831
G1 X-42.2816 Y17.6732
G1 X-42.3759 Y17.5521
G1 X-42.4528 Y17.4191
G1 X-42.5105 Y17.2769
G1 X-42.5512 Y17.129
G1 X-42.5713 Y16.9767
G1 X-42.5701 Y16.8233
G1 X-42.5512 Y16.671
G1 X-42.5115 Y16.5226
G1 X-42.4517 Y16.3813
G1 X-42.376 Y16.2479
G1 X-42.2824 Y16.126
G1 X-42.1732 Y16.0183
G1 X-42.0521 Y15.924
G1 X-41.9191 Y15.8472
G1 X-41.7769 Y15.7895
G1 X-41.629 Y15.7487
G1 X-41.4767 Y15.7298
G1 X-41.4618 Y15.9566
G1 X-41.3381 Y15.9555
G1 X-41.2153 Y15.9716
G1 X-41.0961 Y16.0047
G1 X-40.9809 Y16.0503
G1 X-40.8747 Y16.1138
G1 X-40.7759 Y16.1883
G1 X-40.6888 Y16.2763
G1 X-40.6129 Y16.3741
G1 X-40.552 Y16.4818
G1 X-40.5028 Y16.5954
G1 X-40.4727 Y16.7155
G1 X-40.4554 Y16.8381
G1 X-40.456 Y16.9618
G1 X-40.4716 Y17.0846
G1 X-40.5047 Y17.2039
G1 X-40.5503 Y17.319
G1 X-40.6139 Y17.4252
G1 X-40.6883 Y17.524
G1 X-40.7763 Y17.6112
G1 X-40.8741 Y17.687
G1 X-40.9818 Y17.7479
G1 X-41.0957 Y17.7963
G1 X-41.2153 Y17.8283
G1 X-41.3381 Y17.8434
G1 X-41.4619 Y17.8445
G1 X-41.5847 Y17.8283
G1 X-41.7039 Y17.7953
G1 X-41.819 Y17.7497
G1 X-41.9252 Y17.6861
G1 X-42.0241 Y17.6117
G1 X-42.1112 Y17.5237
G1 X-42.187 Y17.4258
G1 X-42.2479 Y17.3181
G1 X-42.2963 Y17.2042
G1 X-42.3283 Y17.0846
G1 X-42.3434 Y16.9618
G1 X-42.3445 Y16.8381
G1 X-42.3283 Y16.7153
G1 X-42.2953 Y16.5961
G1 X-42.2489 Y16.4814
G1 X-42.187 Y16.3741
G1 X-42.1108 Y16.2766
G1 X-42.0247 Y16.1877
G1 X-41.9252 Y16.1139
G1 X-41.8187 Y16.0511
G1 X-41.7041 Y16.0042
G1 X-41.5846 Y15.9716
G1 X-41.4618 Y15.9566
G1 X-41.447 Y16.1833
G1 X-41.3529 Y16.1822
G1 X-41.2596 Y16.1945
G1 X-41.1691 Y16.2199
G1 X-41.0814 Y16.2541
G1 X-41.001 Y16.3028
G1 X-40.9258 Y16.3591
G1 X-40.8596 Y16.4261
G1 X-40.8019 Y16.5004
G1 X-40.7559 Y16.5823
G1 X-40.7188 Y16.6687
G1 X-40.6945 Y16.7597
G1 X-40.6833 Y16.853
G1 X-40.6822 Y16.947
G1 X-40.6945 Y17.0403
G1 X-40.7199 Y17.1308
G1 X-40.7541 Y17.2185
G1 X-40.8028 Y17.299
G1 X-40.8591 Y17.3742
G1 X-40.9261 Y17.4403
G1 X-41.0003 Y17.4981
G1 X-41.0823 Y17.5441
G1 X-41.1685 Y17.5819
G1 X-41.2598 Y17.6044
G1 X-41.3529 Y17.6177
G1 X-41.447 Y17.6171
G1 X-41.5403 Y17.6055
G1 X-41.6308 Y17.5801
G1 X-41.7185 Y17.5459
G1 X-41.799 Y17.4972
G1 X-41.8742 Y17.4408
G1 X-41.9403 Y17.3739
G1 X-41.9981 Y17.2996
G1 X-42.0441 Y17.2176
G1 X-42.0819 Y17.1314
G1 X-42.1044 Y17.0401
G1 X-42.1178 Y16.9471
G1 X-42.1171 Y16.8529
G1 X-42.1054 Y16.7596
G1 X-42.0801 Y16.6691
G1 X-42.0451 Y16.5819
G1 X-41.998 Y16.5003
G1 X-41.94 Y16.4264
G1 X-41.8748 Y16.3585
G1 X-41.799 Y16.3028
G1 X-41.7182 Y16.2549
G1 X-41.631 Y16.2194
G1 X-41.5403 Y16.1945
G1 X-41.447 Y16.1833
G1 X-41.4321 Y16.4101
G1 X-41.3678 Y16.4101
G1 X-41.3042 Y16.4185
G1 X-41.3033 Y16.4141
G1 X-41.3042 Y16.4185
G1 X-41.2421 Y16.4351
G1 X-41.1828 Y16.4597
G1 X-41.1272 Y16.4917
G1 X-41.1248 Y16.488
G1 X-41.1272 Y16.4917
G1 X-41.0763 Y16.5308
G1 X-41.0309 Y16.5762
G1 X-40.9918 Y16.6272
G1 X-40.9881 Y16.6247
G1 X-40.9918 Y16.6272
G1 X-40.9597 Y16.6828
G1 X-40.9351 Y16.7422
G1 X-40.9184 Y16.8042
G1 X-40.9141 Y16.8034
G1 X-40.9184 Y16.8042
G1 X-40.91 Y16.8679
G1 X-40.91 Y16.9321
G1 X-40.9184 Y16.9957
G1 X-40.9141 Y16.9966
G1 X-40.9184 Y16.9957
G1 X-40.9351 Y17.0578
G1 X-40.9597 Y17.1172
G1 X-40.9917 Y17.1727
G1 X-40.9881 Y17.1752
G1 X-40.9917 Y17.1727
G1 X-41.0308 Y17.2237
G1 X-41.0763 Y17.2691
G1 X-41.1272 Y17.3082
G1 X-41.1247 Y17.3119
G1 X-41.1272 Y17.3082
G1 X-41.1828 Y17.3403
G1 X-41.2422 Y17.3649
G1 X-41.3042 Y17.3815
G1 X-41.3033 Y17.3859
G1 X-41.3042 Y17.3815
G1 X-41.3678 Y17.3899
G1 X-41.4321 Y17.3899
G1 X-41.4958 Y17.3815
G1 X-41.4966 Y17.3859
G1 X-41.4958 Y17.3815
G1 X-41.5578 Y17.3649
G1 X-41.6171 Y17.3403
G1 X-41.6727 Y17.3082
G1 X-41.6752 Y17.3119
G1 X-41.6727 Y17.3082
G1 X-41.7237 Y17.2691
G1 X-41.7691 Y17.2237
G1 X-41.8082 Y17.1727
G1 X-41.8119 Y17.1752
G1 X-41.8082 Y17.1727
G1 X-41.8403 Y17.1171
G1 X-41.8649 Y17.0577
G1 X-41.8815 Y16.9958
G1 X-41.8859 Y16.9966
G1 X-41.8815 Y16.9958
G1 X-41.8899 Y16.9321
G1 X-41.8899 Y16.8678
G1 X-41.8815 Y16.8042
G1 X-41.8859 Y16.8033
G1 X-41.8815 Y16.8042
G1 X-41.8649 Y16.7422
G1 X-41.8403 Y16.6828
G1 X-41.8082 Y16.6272
G1 X-41.8119 Y16.6247
G1 X-41.8082 Y16.6272
G1 X-41.7691 Y16.5762
G1 X-41.7237 Y16.5308
G1 X-41.6727 Y16.4917
G1 X-41.6752 Y16.4881
G1 X-41.6727 Y16.4917
G1 X-41.6172 Y16.4597
G1 X-41.5578 Y16.4351
G1 X-41.4958 Y16.4185
G1 X-41.4966 Y16.4141
G1 X-41.4958 Y16.4185
G1 X-41.4321 Y16.4101
G1 X-41.4173 Y16.6368
G1 X-41.3485 Y16.6413
G1 X-41.3476 Y16.637
G1 X-41.3485 Y16.6413
G1 X-41.2833 Y16.6635
G1 X-41.2535 Y16.6807
G1 X-41.251 Y16.677
G1 X-41.2535 Y16.6807
G1 X-41.2261 Y16.7017
G1 X-41.1807 Y16.7534
G1 X-41.177 Y16.751
G1 X-41.1807 Y16.7534
G1 X-41.1634 Y16.7833
G1 X-41.1413 Y16.8486
G1 X-41.1369 Y16.8477
G1 X-41.1413 Y16.8486
G1 X-41.1368 Y16.8828
G1 X-41.1413 Y16.9514
G1 X-41.1369 Y16.9522
G1 X-41.1413 Y16.9514
G1 X-41.1635 Y17.0166
G1 X-41.1807 Y17.0465
G1 X-41.177 Y17.049
G1 X-41.1807 Y17.0465
G1 X-41.2261 Y17.0982
G1 X-41.2534 Y17.1192
G1 X-41.251 Y17.1229
G1 X-41.2534 Y17.1192
G1 X-41.2833 Y17.1365
G1 X-41.3485 Y17.1586
G1 X-41.3476 Y17.163
G1 X-41.3485 Y17.1586
G1 X-41.3827 Y17.1631
G1 X-41.4514 Y17.1586
G1 X-41.4523 Y17.163
G1 X-41.4514 Y17.1586
G1 X-41.5166 Y17.1365
G1 X-41.5465 Y17.1193
G1 X-41.5489 Y17.1229
G1 X-41.5465 Y17.1193
G1 X-41.5982 Y17.0739
G1 X-41.6193 Y17.0465
G1 X-41.6229 Y17.049
G1 X-41.6193 Y17.0465
G1 X-41.6365 Y17.0166
G1 X-41.6586 Y16.9514
G1 X-41.663 Y16.9523
G1 X-41.6586 Y16.9514
G1 X-41.6631 Y16.8827
G1 X-41.6586 Y16.8485
G1 X-41.663 Y16.8476
G1 X-41.6586 Y16.8485
G1 X-41.6365 Y16.7833
G1 X-41.6193 Y16.7534
G1 X-41.6229 Y16.751
G1 X-41.6193 Y16.7534
G1 X-41.5982 Y16.7261
G1 X-41.5465 Y16.6807
G1 X-41.549 Y16.677
G1 X-41.5465 Y16.6807
G1 X-41.4848 Y16.6503
G1 X-41.4514 Y16.6413
G1 X-41.4523 Y16.637
G1 X-41.4514 Y16.6413
G1 X-41.4173 Y16.6368
G1 X-41.4245 Y16.8505
G1 X-41.4162 Y16.8673
G1 X-41.4024 Y16.8636
G1 X-41.3882 Y16.8654
G1 X-41.3822 Y16.8477
G1 X-41.3882 Y16.8654
G1 X-41.3759 Y16.8725
G1 X-41.3672 Y16.8839
G1 X-41.3505 Y16.8756
G1 X-41.3672 Y16.8839
G1 X-41.3636 Y16.8976
G1 X-41.3655 Y16.9117
G1 X-41.3477 Y16.9177
G1 X-41.3655 Y16.9117
G1 X-41.3725 Y16.924
G1 X-41.3839 Y16.9327
G1 X-41.3756 Y16.9494
G1 X-41.3839 Y16.9327
G1 X-41.3975 Y16.9364
G1 X-41.4117 Y16.9345
G1 X-41.4177 Y16.9522
G1 X-41.4117 Y16.9345
G1 X-41.424 Y16.9274
G1 X-41.4327 Y16.9161
G1 X-41.4494 Y16.9243
G1 X-41.4327 Y16.9161
G1 X-41.4364 Y16.9024
G1 X-41.4345 Y16.8883
G1 X-41.4522 Y16.8823
G1 X-41.4345 Y16.8883
G1 X-41.4274 Y16.8759
G1 X-41.4162 Y16.8673

G04 P0 ( dwell for no time -- G64 should not smooth over this point )
G00 Z15.000000 ( retract )
(Block-name: block)
(Block-expand: 0)
(Block-enable: 1)

M5 ( Spindle off. )
G04 P1.000000
M9 ( Coolant off. )
M2 ( Program end. )

