(Block-name: Header)
(Block-expand: 0)
(Block-enable: 1)
( pcb2gcode 2.5.0 )
( Software-independent Gcode )

G94 ( Millimeters per minute feed rate. )
G21 ( Units == Millimeters. )

G90 ( Absolute coordinates. )
(Block-name: block)
(Block-expand: 0)
(Block-enable: 1)
G00 S13000 ( RPM spindle speed. )
G01 F120.00000 ( Feedrate. )


G00 Z15.00000 (Retract to tool change height)
T0
M5      (Spindle stop.)
G04 P1.00000 (Wait for spindle to stop)
(MSG, Change tool bit to cutter diameter 1.00000mm)
M6      (Tool change.)
M0      (Temporary machine stop.)
M3 ( Spindle on clockwise. )
G04 P1.00000 (Wait for spindle to get up to speed)
G04 P0 ( dwell for no time -- G64 should not smooth over this point )
G00 Z2.00000 ( retract )

G0 X-41.4 Y0.5
G01 Z-0.50000 F60.00000 ( plunge. )
G04 P0 ( dwell for no time -- G64 should not smooth over this point )
G01 F120.00000
G1 X-4.5 Y0.5
G1 X-3.7196 Y0.5768
G1 X-3.0154 Y0.7879
G1 X-2.9249 Y0.8255
G1 X-2.3198 Y1.1489
G1 X-2.2383 Y1.2033
G1 X-1.7079 Y1.6386
G1 X-1.6386 Y1.7079
G1 X-1.2033 Y2.2383
G1 X-1.1489 Y2.3198
G1 X-0.8255 Y2.9249
G1 X-0.7879 Y3.0154
G1 X-0.5887 Y3.672
G1 X-0.5696 Y3.7682
G1 X-0.5 Y4.5
G1 X-0.5 Y16.9
G1 X-0.5768 Y17.6803
G1 X-0.7879 Y18.3845
G1 X-0.8255 Y18.4751
G1 X-1.1741 Y19.1223
G1 X-1.6386 Y19.6921
G1 X-1.7079 Y19.7614
G1 X-2.2383 Y20.1966
G1 X-2.3198 Y20.2511
G1 X-2.9249 Y20.5745
G1 X-3.0154 Y20.612
G1 X-3.672 Y20.8112
G1 X-3.7681 Y20.8303
G1 X-4.451 Y20.8976
G1 X-41.4 Y20.9
G1 X-42.1318 Y20.8303
G1 X-42.2279 Y20.8112
G1 X-42.9307 Y20.5955
G1 X-43.5802 Y20.2511
G1 X-43.6617 Y20.1966
G1 X-44.2284 Y19.7284
G1 X-44.6966 Y19.1617
G1 X-44.7511 Y19.0802
G1 X-45.0955 Y18.4307
G1 X-45.3112 Y17.7279
G1 X-45.3303 Y17.6318
G1 X-45.4 Y16.9
G1 X-45.3976 Y4.451
G1 X-45.3303 Y3.7681
G1 X-45.3112 Y3.672
G1 X-45.0955 Y2.9692
G1 X-44.7511 Y2.3198
G1 X-44.6966 Y2.2383
G1 X-44.2284 Y1.6716
G1 X-43.6223 Y1.1741
G1 X-42.9751 Y0.8255
G1 X-42.8845 Y0.7879
G1 X-42.1803 Y0.5768
G1 X-41.4 Y0.5
G01 Z-1.00000 F60.00000 ( plunge. )
G04 P0 ( dwell for no time -- G64 should not smooth over this point )
G01 F120.00000
G1 X-4.5 Y0.5
G1 X-3.7196 Y0.5768
G1 X-3.0154 Y0.7879
G1 X-2.9249 Y0.8255
G1 X-2.3198 Y1.1489
G1 X-2.2383 Y1.2033
G1 X-1.7079 Y1.6386
G1 X-1.6386 Y1.7079
G1 X-1.2033 Y2.2383
G1 X-1.1489 Y2.3198
G1 X-0.8255 Y2.9249
G1 X-0.7879 Y3.0154
G1 X-0.5887 Y3.672
G1 X-0.5696 Y3.7682
G1 X-0.5 Y4.5
G1 X-0.5 Y16.9
G1 X-0.5768 Y17.6803
G1 X-0.7879 Y18.3845
G1 X-0.8255 Y18.4751
G1 X-1.1741 Y19.1223
G1 X-1.6386 Y19.6921
G1 X-1.7079 Y19.7614
G1 X-2.2383 Y20.1966
G1 X-2.3198 Y20.2511
G1 X-2.9249 Y20.5745
G1 X-3.0154 Y20.612
G1 X-3.672 Y20.8112
G1 X-3.7681 Y20.8303
G1 X-4.451 Y20.8976
G1 X-41.4 Y20.9
G1 X-42.1318 Y20.8303
G1 X-42.2279 Y20.8112
G1 X-42.9307 Y20.5955
G1 X-43.5802 Y20.2511
G1 X-43.6617 Y20.1966
G1 X-44.2284 Y19.7284
G1 X-44.6966 Y19.1617
G1 X-44.7511 Y19.0802
G1 X-45.0955 Y18.4307
G1 X-45.3112 Y17.7279
G1 X-45.3303 Y17.6318
G1 X-45.4 Y16.9
G1 X-45.3976 Y4.451
G1 X-45.3303 Y3.7681
G1 X-45.3112 Y3.672
G1 X-45.0955 Y2.9692
G1 X-44.7511 Y2.3198
G1 X-44.6966 Y2.2383
G1 X-44.2284 Y1.6716
G1 X-43.6223 Y1.1741
G1 X-42.9751 Y0.8255
G1 X-42.8845 Y0.7879
G1 X-42.1803 Y0.5768
G1 X-41.4 Y0.5
G01 Z-1.50000 F60.00000 ( plunge. )
G04 P0 ( dwell for no time -- G64 should not smooth over this point )
G01 F120.00000
G1 X-4.5 Y0.5
G1 X-3.7196 Y0.5768
G1 X-3.0154 Y0.7879
G1 X-2.9249 Y0.8255
G1 X-2.3198 Y1.1489
G1 X-2.2383 Y1.2033
G1 X-1.7079 Y1.6386
G1 X-1.6386 Y1.7079
G1 X-1.2033 Y2.2383
G1 X-1.1489 Y2.3198
G1 X-0.8255 Y2.9249
G1 X-0.7879 Y3.0154
G1 X-0.5887 Y3.672
G1 X-0.5696 Y3.7682
G1 X-0.5 Y4.5
G1 X-0.5 Y16.9
G1 X-0.5768 Y17.6803
G1 X-0.7879 Y18.3845
G1 X-0.8255 Y18.4751
G1 X-1.1741 Y19.1223
G1 X-1.6386 Y19.6921
G1 X-1.7079 Y19.7614
G1 X-2.2383 Y20.1966
G1 X-2.3198 Y20.2511
G1 X-2.9249 Y20.5745
G1 X-3.0154 Y20.612
G1 X-3.672 Y20.8112
G1 X-3.7681 Y20.8303
G1 X-4.451 Y20.8976
G1 X-41.4 Y20.9
G1 X-42.1318 Y20.8303
G1 X-42.2279 Y20.8112
G1 X-42.9307 Y20.5955
G1 X-43.5802 Y20.2511
G1 X-43.6617 Y20.1966
G1 X-44.2284 Y19.7284
G1 X-44.6966 Y19.1617
G1 X-44.7511 Y19.0802
G1 X-45.0955 Y18.4307
G1 X-45.3112 Y17.7279
G1 X-45.3303 Y17.6318
G1 X-45.4 Y16.9
G1 X-45.3976 Y4.451
G1 X-45.3303 Y3.7681
G1 X-45.3112 Y3.672
G1 X-45.0955 Y2.9692
G1 X-44.7511 Y2.3198
G1 X-44.6966 Y2.2383
G1 X-44.2284 Y1.6716
G1 X-43.6223 Y1.1741
G1 X-42.9751 Y0.8255
G1 X-42.8845 Y0.7879
G1 X-42.1803 Y0.5768
G1 X-41.4 Y0.5
G01 Z-2.00000 F60.00000 ( plunge. )
G04 P0 ( dwell for no time -- G64 should not smooth over this point )
G01 F120.00000
G1 X-4.5 Y0.5
G1 X-3.7196 Y0.5768
G1 X-3.0154 Y0.7879
G1 X-2.9249 Y0.8255
G1 X-2.3198 Y1.1489
G1 X-2.2383 Y1.2033
G1 X-1.7079 Y1.6386
G1 X-1.6386 Y1.7079
G1 X-1.2033 Y2.2383
G1 X-1.1489 Y2.3198
G1 X-0.8255 Y2.9249
G1 X-0.7879 Y3.0154
G1 X-0.5887 Y3.672
G1 X-0.5696 Y3.7682
G1 X-0.5 Y4.5
G1 X-0.5 Y16.9
G1 X-0.5768 Y17.6803
G1 X-0.7879 Y18.3845
G1 X-0.8255 Y18.4751
G1 X-1.1741 Y19.1223
G1 X-1.6386 Y19.6921
G1 X-1.7079 Y19.7614
G1 X-2.2383 Y20.1966
G1 X-2.3198 Y20.2511
G1 X-2.9249 Y20.5745
G1 X-3.0154 Y20.612
G1 X-3.672 Y20.8112
G1 X-3.7681 Y20.8303
G1 X-4.451 Y20.8976
G1 X-41.4 Y20.9
G1 X-42.1318 Y20.8303
G1 X-42.2279 Y20.8112
G1 X-42.9307 Y20.5955
G1 X-43.5802 Y20.2511
G1 X-43.6617 Y20.1966
G1 X-44.2284 Y19.7284
G1 X-44.6966 Y19.1617
G1 X-44.7511 Y19.0802
G1 X-45.0955 Y18.4307
G1 X-45.3112 Y17.7279
G1 X-45.3303 Y17.6318
G1 X-45.4 Y16.9
G1 X-45.3976 Y4.451
G1 X-45.3303 Y3.7681
G1 X-45.3112 Y3.672
G1 X-45.0955 Y2.9692
G1 X-44.7511 Y2.3198
G1 X-44.6966 Y2.2383
G1 X-44.2284 Y1.6716
G1 X-43.6223 Y1.1741
G1 X-42.9751 Y0.8255
G1 X-42.8845 Y0.7879
G1 X-42.1803 Y0.5768
G1 X-41.4 Y0.5
G01 Z-2.50000 F60.00000 ( plunge. )
G04 P0 ( dwell for no time -- G64 should not smooth over this point )
G01 F120.00000
G1 X-4.5 Y0.5
G1 X-3.7196 Y0.5768
G1 X-3.0154 Y0.7879
G1 X-2.9249 Y0.8255
G1 X-2.3198 Y1.1489
G1 X-2.2383 Y1.2033
G1 X-1.7079 Y1.6386
G1 X-1.6386 Y1.7079
G1 X-1.2033 Y2.2383
G1 X-1.1489 Y2.3198
G1 X-0.8255 Y2.9249
G1 X-0.7879 Y3.0154
G1 X-0.5887 Y3.672
G1 X-0.5696 Y3.7682
G1 X-0.5 Y4.5
G1 X-0.5 Y16.9
G1 X-0.5768 Y17.6803
G1 X-0.7879 Y18.3845
G1 X-0.8255 Y18.4751
G1 X-1.1741 Y19.1223
G1 X-1.6386 Y19.6921
G1 X-1.7079 Y19.7614
G1 X-2.2383 Y20.1966
G1 X-2.3198 Y20.2511
G1 X-2.9249 Y20.5745
G1 X-3.0154 Y20.612
G1 X-3.672 Y20.8112
G1 X-3.7681 Y20.8303
G1 X-4.451 Y20.8976
G1 X-41.4 Y20.9
G1 X-42.1318 Y20.8303
G1 X-42.2279 Y20.8112
G1 X-42.9307 Y20.5955
G1 X-43.5802 Y20.2511
G1 X-43.6617 Y20.1966
G1 X-44.2284 Y19.7284
G1 X-44.6966 Y19.1617
G1 X-44.7511 Y19.0802
G1 X-45.0955 Y18.4307
G1 X-45.3112 Y17.7279
G1 X-45.3303 Y17.6318
G1 X-45.4 Y16.9
G1 X-45.3976 Y4.451
G1 X-45.3303 Y3.7681
G1 X-45.3112 Y3.672
G1 X-45.0955 Y2.9692
G1 X-44.7511 Y2.3198
G1 X-44.6966 Y2.2383
G1 X-44.2284 Y1.6716
G1 X-43.6223 Y1.1741
G1 X-42.9751 Y0.8255
G1 X-42.8845 Y0.7879
G1 X-42.1803 Y0.5768
G1 X-41.4 Y0.5

G04 P0 ( dwell for no time -- G64 should not smooth over this point )
G00 Z15.000000 ( retract )
(Block-name: block)
(Block-expand: 0)
(Block-enable: 1)

M5 ( Spindle off. )
G04 P1.000000
M9 ( Coolant off. )
M2 ( Program end. )

