( pcb2gcode 2.5.0 )
( Software-independent Gcode )

G94 ( Millimeters per minute feed rate. )
G21 ( Units == Millimeters. )

G90 ( Absolute coordinates. )
G00 S13000 ( RPM spindle speed. )
G01 F120.00000 ( Feedrate. )


G00 Z15.00000 (Retract to tool change height)
T0
M5      (Spindle stop.)
G04 P1.00000 (Wait for spindle to stop)
(MSG, Change tool bit to mill diameter 0.45360mm)
M6      (Tool change.)
M0      (Temporary machine stop.)
M3 ( Spindle on clockwise. )
G04 P1.00000 (Wait for spindle to get up to speed)
G04 P0 ( dwell for no time -- G64 should not smooth over this point )
G00 Z2.00000 ( retract )

G00 X-8.30534 Y-19.79544 ( rapid move to begin. )
G01 F60.00000
( Mill infeed pass 1/2 )
G01 Z-0.05000
G04 P0 ( dwell for no time -- G64 should not smooth over this point )
G01 F120.00000
G01 X-8.30534 Y-19.79544
G01 X-7.90692 Y-19.54649
G01 X-7.75012 Y-19.45597
G01 X-7.21431 Y-19.18200
G01 X-7.05752 Y-19.11218
G01 X-6.58277 Y-18.92938
G01 X-6.42597 Y-18.87842
G01 X-6.15518 Y-18.79999
G01 X-1.00000 Y-18.79999
G01 X-1.00000 Y-33.09998
G01 X-1.06723 Y-33.78281
G01 X-1.26642 Y-34.43938
G01 X-1.58979 Y-35.04448
G01 X-2.02512 Y-35.57486
G01 X-2.55549 Y-36.01014
G01 X-3.16060 Y-36.33356
G01 X-3.81716 Y-36.53274
G01 X-4.49999 Y-36.59998
G01 X-45.99998 Y-36.59998
G01 X-46.68281 Y-36.53274
G01 X-47.33938 Y-36.33356
G01 X-47.94448 Y-36.01014
G01 X-48.47486 Y-35.57486
G01 X-48.91014 Y-35.04448
G01 X-49.23356 Y-34.43938
G01 X-49.43274 Y-33.78281
G01 X-49.49998 Y-33.09998
G01 X-49.49998 Y-4.49999
G01 X-49.43274 Y-3.81716
G01 X-49.23356 Y-3.16060
G01 X-48.91014 Y-2.55549
G01 X-48.47486 Y-2.02512
G01 X-47.94448 Y-1.58979
G01 X-47.33938 Y-1.26642
G01 X-46.68281 Y-1.06723
G01 X-45.99998 Y-1.00000
G01 X-4.49999 Y-1.00000
G01 X-3.81716 Y-1.06723
G01 X-3.16060 Y-1.26642
G01 X-2.55549 Y-1.58979
G01 X-2.02512 Y-2.02512
G01 X-1.58979 Y-2.55549
G01 X-1.26642 Y-3.16060
G01 X-1.06723 Y-3.81716
G01 X-1.00000 Y-4.49999
G01 X-1.00000 Y-18.79999
G01 X-1.00000 Y-14.16192
G01 X-2.00843 Y-13.73104
G01 X-2.62730 Y-13.49271
G01 X-2.78409 Y-13.44178
G01 X-3.35133 Y-13.28931
G01 X-3.64998 Y-13.22784
G01 X-4.04066 Y-13.15593
G01 X-4.43489 Y-13.07315
G01 X-5.25112 Y-13.13868
G01 X-6.31248 Y-13.23200
G01 X-6.60997 Y-13.18417
G01 X-7.05571 Y-13.24961
G01 X-7.23341 Y-13.26833
G01 X-7.79115 Y-13.29764
G01 X-7.96884 Y-13.29764
G01 X-8.52655 Y-13.26833
G01 X-8.70425 Y-13.24961
G01 X-9.14999 Y-13.18417
G01 X-9.59571 Y-13.24961
G01 X-9.77341 Y-13.26833
G01 X-10.29132 Y-13.29746
G01 X-12.15189 Y-12.90881
G01 X-12.45169 Y-12.93200
G01 X-12.61892 Y-12.94961
G01 X-13.08583 Y-13.01872
G01 X-13.38392 Y-12.74745
G01 X-13.87330 Y-12.34935
G01 X-14.04054 Y-12.22784
G01 X-14.43634 Y-11.96980
G01 X-14.60360 Y-11.87323
G01 X-14.90000 Y-11.71961
G01 X-15.07599 Y-11.63536
G01 X-15.51932 Y-11.41260
G01 X-15.82585 Y-11.25096
G01 X-16.31772 Y-10.97930
G01 X-16.61635 Y-10.83724
G01 X-16.78358 Y-10.76795
G01 X-17.15498 Y-10.63699
G01 X-17.39420 Y-10.56655
G01 X-17.62745 Y-10.89124
G01 X-17.73606 Y-11.05847
G01 X-17.91437 Y-11.36617
G01 X-17.99958 Y-11.53340
G01 X-18.11548 Y-11.79286
G01 X-18.17969 Y-11.96010
G01 X-18.25351 Y-12.18659
G01 X-18.29831 Y-12.35385
G01 X-18.34192 Y-12.55850
G01 X-18.36842 Y-12.72573
G01 X-18.38874 Y-12.91844
G01 X-18.39750 Y-13.08567
G01 X-18.39750 Y-13.27427
G01 X-18.38874 Y-13.44153
G01 X-18.36842 Y-13.63421
G01 X-18.34192 Y-13.80147
G01 X-18.29829 Y-14.00619
G01 X-18.22996 Y-14.25486
G01 X-18.22996 Y-15.28691
G01 X-18.25262 Y-15.36045
G01 X-18.22066 Y-15.60711
G01 X-18.18244 Y-15.81544
G01 X-18.13951 Y-15.99423
G01 X-18.09638 Y-16.14061
G01 X-18.03842 Y-16.30436
G01 X-17.99440 Y-16.41094
G01 X-17.92280 Y-16.56108
G01 X-17.87936 Y-16.64122
G01 X-17.79511 Y-16.77871
G01 X-17.75165 Y-16.84203
G01 X-17.61038 Y-17.02018
G01 X-17.45320 Y-17.18066
G01 X-17.33359 Y-17.28282
G01 X-17.27622 Y-17.32681
G01 X-17.14480 Y-17.41714
G01 X-17.07406 Y-17.46042
G01 X-16.93034 Y-17.53845
G01 X-16.83837 Y-17.58221
G01 X-16.72308 Y-17.62999
G01 X-15.82692 Y-17.62996
G01 X-15.75681 Y-17.65275
G01 X-15.57127 Y-17.72420
G01 X-15.41450 Y-17.79402
G01 X-15.19537 Y-17.90603
G01 X-15.03858 Y-17.99656
G01 X-14.77058 Y-18.17129
G01 X-14.61379 Y-18.28521
G01 X-14.27615 Y-18.55988
G01 X-14.11935 Y-18.70103
G01 X-13.89007 Y-18.91998
G01 X-13.34026 Y-18.91998
G01 X-13.26957 Y-18.89996
G01 X-10.23523 Y-18.89996
G01 X-9.94702 Y-18.99176
G01 X-9.45886 Y-19.17974
G01 X-9.29162 Y-19.25422
G01 X-8.73971 Y-19.53641
G01 X-8.57245 Y-19.63298
G01 X-8.30534 Y-19.79544
G01 X-8.28078 Y-21.11385
G01 X-8.24052 Y-22.84065
G01 X-8.34535 Y-23.29840
G01 X-8.46590 Y-23.72675
G01 X-9.14999 Y-24.14712
G01 X-11.01903 Y-24.55515
G01 X-13.03983 Y-24.98626
G01 X-13.15507 Y-25.21783
G01 X-13.40325 Y-25.69172
G01 X-13.51290 Y-25.91151
G01 X-13.73114 Y-26.32525
G01 X-14.31392 Y-26.62565
G01 X-14.48117 Y-26.70015
G01 X-14.96329 Y-26.88582
G01 X-15.33037 Y-26.99997
G01 X-18.26964 Y-26.99997
G01 X-18.63695 Y-27.11422
G01 X-19.11855 Y-27.29967
G01 X-19.28581 Y-27.37414
G01 X-19.47319 Y-27.46182
G01 X-20.24751 Y-28.12839
G01 X-20.52958 Y-28.37591
G01 X-21.01634 Y-28.79192
G01 X-21.37204 Y-29.10370
G01 X-21.93981 Y-29.58996
G01 X-22.49409 Y-29.25049
G01 X-22.87582 Y-29.01142
G01 X-23.56554 Y-28.97985
G01 X-24.36889 Y-28.92740
G01 X-25.38308 Y-28.83545
G01 X-26.01633 Y-28.80215
G01 X-26.18362 Y-28.80215
G01 X-26.81686 Y-28.83545
G01 X-27.65395 Y-28.91356
G01 X-27.85486 Y-28.92895
G01 X-28.34358 Y-28.83766
G01 X-28.83233 Y-28.70916
G01 X-29.32105 Y-28.54345
G01 X-29.80977 Y-28.34056
G01 X-30.29849 Y-28.10045
G01 X-30.78721 Y-27.82313
G01 X-31.27596 Y-27.50861
G01 X-31.76468 Y-27.15687
G01 X-31.72559 Y-26.63894
G01 X-33.15360 Y-23.39693
G01 X-33.20821 Y-22.69620
G01 X-33.25797 Y-22.19998
G01 X-33.28294 Y-21.88258
G01 X-33.29170 Y-21.71532
G01 X-33.29170 Y-21.08457
G01 X-33.28294 Y-20.91733
G01 X-33.25797 Y-20.59996
G01 X-33.20821 Y-20.10377
G01 X-33.17197 Y-19.63857
G01 X-33.27197 Y-19.11391
G01 X-33.41487 Y-18.58922
G01 X-33.60064 Y-18.06453
G01 X-33.82929 Y-17.53984
G01 X-34.05467 Y-17.40723
G01 X-34.76574 Y-17.00301
G01 X-35.81077 Y-16.43880
G01 X-36.53539 Y-16.78305
G01 X-36.72352 Y-16.86682
G01 X-37.09815 Y-17.02234
G01 X-37.47280 Y-17.15536
G01 X-37.66096 Y-17.21650
G01 X-37.90998 Y-17.29237
G01 X-38.52476 Y-17.47004
G01 X-39.15941 Y-17.67078
G01 X-39.38753 Y-17.74746
G01 X-40.00589 Y-17.77749
G01 X-40.19403 Y-17.77749
G01 X-40.78239 Y-17.75031
G01 X-40.96073 Y-17.69369
G01 X-41.73997 Y-17.63517
G01 X-42.32158 Y-17.60705
G01 X-42.47838 Y-17.60705
G01 X-43.11028 Y-17.64022
G01 X-43.53999 Y-17.69156
G01 X-44.08360 Y-17.77116
G01 X-44.84139 Y-17.86603
G01 X-45.27141 Y-17.91226
G01 X-46.73483 Y-18.79999
G01 X-49.49998 Y-18.79999
G01 X-46.73483 Y-18.79999
G01 X-46.21390 Y-19.77941
G01 X-45.93059 Y-20.29551
G01 X-45.69417 Y-20.74233
G01 X-45.44253 Y-21.20194
G01 X-45.07692 Y-21.56239
G01 X-44.92010 Y-21.70359
G01 X-44.57512 Y-21.98423
G01 X-44.41835 Y-22.09815
G01 X-44.14446 Y-22.27671
G01 X-43.98764 Y-22.36724
G01 X-43.76336 Y-22.48190
G01 X-43.60657 Y-22.55172
G01 X-43.40103 Y-22.62998
G01 X-41.39882 Y-22.62998
G01 X-41.19336 Y-22.70821
G01 X-41.03657 Y-22.77803
G01 X-40.81236 Y-22.89266
G01 X-40.65560 Y-22.98316
G01 X-40.38150 Y-23.16183
G01 X-40.22474 Y-23.27577
G01 X-39.88013 Y-23.55606
G01 X-39.68171 Y-23.73511
G01 X-39.86319 Y-24.86805
G01 X-39.80421 Y-25.11821
G01 X-39.72293 Y-25.51400
G01 X-39.69095 Y-25.68999
G01 X-39.60322 Y-26.09893
G01 X-39.55839 Y-26.26622
G01 X-39.41100 Y-26.71844
G01 X-39.34681 Y-26.88567
G01 X-39.21844 Y-27.18996
G01 X-39.04651 Y-27.57160
G01 X-38.75550 Y-28.26281
G01 X-38.65969 Y-28.49997
G01 X-34.59815 Y-28.49997
G01 X-34.33407 Y-28.41485
G01 X-33.92086 Y-28.26817
G01 X-33.50763 Y-28.09662
G01 X-33.34042 Y-28.02214
G01 X-32.87911 Y-27.80152
G01 X-32.41782 Y-27.55047
G01 X-32.25058 Y-27.45392
G01 X-31.76468 Y-27.15687
( Mill infeed pass 2/2 )
G00 Z2.00000 ( retract )
G00 X-8.30534 Y-19.79544 ( rapid move to begin. )
G01 Z-0.10000
G04 P0 ( dwell for no time -- G64 should not smooth over this point )
G01 F120.00000
G01 X-8.30534 Y-19.79544
G01 X-7.90692 Y-19.54649
G01 X-7.75012 Y-19.45597
G01 X-7.21431 Y-19.18200
G01 X-7.05752 Y-19.11218
G01 X-6.58277 Y-18.92938
G01 X-6.42597 Y-18.87842
G01 X-6.15518 Y-18.79999
G01 X-1.00000 Y-18.79999
G01 X-1.00000 Y-33.09998
G01 X-1.06723 Y-33.78281
G01 X-1.26642 Y-34.43938
G01 X-1.58979 Y-35.04448
G01 X-2.02512 Y-35.57486
G01 X-2.55549 Y-36.01014
G01 X-3.16060 Y-36.33356
G01 X-3.81716 Y-36.53274
G01 X-4.49999 Y-36.59998
G01 X-45.99998 Y-36.59998
G01 X-46.68281 Y-36.53274
G01 X-47.33938 Y-36.33356
G01 X-47.94448 Y-36.01014
G01 X-48.47486 Y-35.57486
G01 X-48.91014 Y-35.04448
G01 X-49.23356 Y-34.43938
G01 X-49.43274 Y-33.78281
G01 X-49.49998 Y-33.09998
G01 X-49.49998 Y-4.49999
G01 X-49.43274 Y-3.81716
G01 X-49.23356 Y-3.16060
G01 X-48.91014 Y-2.55549
G01 X-48.47486 Y-2.02512
G01 X-47.94448 Y-1.58979
G01 X-47.33938 Y-1.26642
G01 X-46.68281 Y-1.06723
G01 X-45.99998 Y-1.00000
G01 X-4.49999 Y-1.00000
G01 X-3.81716 Y-1.06723
G01 X-3.16060 Y-1.26642
G01 X-2.55549 Y-1.58979
G01 X-2.02512 Y-2.02512
G01 X-1.58979 Y-2.55549
G01 X-1.26642 Y-3.16060
G01 X-1.06723 Y-3.81716
G01 X-1.00000 Y-4.49999
G01 X-1.00000 Y-18.79999
G01 X-1.00000 Y-14.16192
G01 X-2.00843 Y-13.73104
G01 X-2.62730 Y-13.49271
G01 X-2.78409 Y-13.44178
G01 X-3.35133 Y-13.28931
G01 X-3.64998 Y-13.22784
G01 X-4.04066 Y-13.15593
G01 X-4.43489 Y-13.07315
G01 X-5.25112 Y-13.13868
G01 X-6.31248 Y-13.23200
G01 X-6.60997 Y-13.18417
G01 X-7.05571 Y-13.24961
G01 X-7.23341 Y-13.26833
G01 X-7.79115 Y-13.29764
G01 X-7.96884 Y-13.29764
G01 X-8.52655 Y-13.26833
G01 X-8.70425 Y-13.24961
G01 X-9.14999 Y-13.18417
G01 X-9.59571 Y-13.24961
G01 X-9.77341 Y-13.26833
G01 X-10.29132 Y-13.29746
G01 X-12.15189 Y-12.90881
G01 X-12.45169 Y-12.93200
G01 X-12.61892 Y-12.94961
G01 X-13.08583 Y-13.01872
G01 X-13.38392 Y-12.74745
G01 X-13.87330 Y-12.34935
G01 X-14.04054 Y-12.22784
G01 X-14.43634 Y-11.96980
G01 X-14.60360 Y-11.87323
G01 X-14.90000 Y-11.71961
G01 X-15.07599 Y-11.63536
G01 X-15.51932 Y-11.41260
G01 X-15.82585 Y-11.25096
G01 X-16.31772 Y-10.97930
G01 X-16.61635 Y-10.83724
G01 X-16.78358 Y-10.76795
G01 X-17.15498 Y-10.63699
G01 X-17.39420 Y-10.56655
G01 X-17.62745 Y-10.89124
G01 X-17.73606 Y-11.05847
G01 X-17.91437 Y-11.36617
G01 X-17.99958 Y-11.53340
G01 X-18.11548 Y-11.79286
G01 X-18.17969 Y-11.96010
G01 X-18.25351 Y-12.18659
G01 X-18.29831 Y-12.35385
G01 X-18.34192 Y-12.55850
G01 X-18.36842 Y-12.72573
G01 X-18.38874 Y-12.91844
G01 X-18.39750 Y-13.08567
G01 X-18.39750 Y-13.27427
G01 X-18.38874 Y-13.44153
G01 X-18.36842 Y-13.63421
G01 X-18.34192 Y-13.80147
G01 X-18.29829 Y-14.00619
G01 X-18.22996 Y-14.25486
G01 X-18.22996 Y-15.28691
G01 X-18.25262 Y-15.36045
G01 X-18.22066 Y-15.60711
G01 X-18.18244 Y-15.81544
G01 X-18.13951 Y-15.99423
G01 X-18.09638 Y-16.14061
G01 X-18.03842 Y-16.30436
G01 X-17.99440 Y-16.41094
G01 X-17.92280 Y-16.56108
G01 X-17.87936 Y-16.64122
G01 X-17.79511 Y-16.77871
G01 X-17.75165 Y-16.84203
G01 X-17.61038 Y-17.02018
G01 X-17.45320 Y-17.18066
G01 X-17.33359 Y-17.28282
G01 X-17.27622 Y-17.32681
G01 X-17.14480 Y-17.41714
G01 X-17.07406 Y-17.46042
G01 X-16.93034 Y-17.53845
G01 X-16.83837 Y-17.58221
G01 X-16.72308 Y-17.62999
G01 X-15.82692 Y-17.62996
G01 X-15.75681 Y-17.65275
G01 X-15.57127 Y-17.72420
G01 X-15.41450 Y-17.79402
G01 X-15.19537 Y-17.90603
G01 X-15.03858 Y-17.99656
G01 X-14.77058 Y-18.17129
G01 X-14.61379 Y-18.28521
G01 X-14.27615 Y-18.55988
G01 X-14.11935 Y-18.70103
G01 X-13.89007 Y-18.91998
G01 X-13.34026 Y-18.91998
G01 X-13.26957 Y-18.89996
G01 X-10.23523 Y-18.89996
G01 X-9.94702 Y-18.99176
G01 X-9.45886 Y-19.17974
G01 X-9.29162 Y-19.25422
G01 X-8.73971 Y-19.53641
G01 X-8.57245 Y-19.63298
G01 X-8.30534 Y-19.79544
G01 X-8.28078 Y-21.11385
G01 X-8.24052 Y-22.84065
G01 X-8.34535 Y-23.29840
G01 X-8.46590 Y-23.72675
G01 X-9.14999 Y-24.14712
G01 X-11.01903 Y-24.55515
G01 X-13.03983 Y-24.98626
G01 X-13.15507 Y-25.21783
G01 X-13.40325 Y-25.69172
G01 X-13.51290 Y-25.91151
G01 X-13.73114 Y-26.32525
G01 X-14.31392 Y-26.62565
G01 X-14.48117 Y-26.70015
G01 X-14.96329 Y-26.88582
G01 X-15.33037 Y-26.99997
G01 X-18.26964 Y-26.99997
G01 X-18.63695 Y-27.11422
G01 X-19.11855 Y-27.29967
G01 X-19.28581 Y-27.37414
G01 X-19.47319 Y-27.46182
G01 X-20.24751 Y-28.12839
G01 X-20.52958 Y-28.37591
G01 X-21.01634 Y-28.79192
G01 X-21.37204 Y-29.10370
G01 X-21.93981 Y-29.58996
G01 X-22.49409 Y-29.25049
G01 X-22.87582 Y-29.01142
G01 X-23.56554 Y-28.97985
G01 X-24.36889 Y-28.92740
G01 X-25.38308 Y-28.83545
G01 X-26.01633 Y-28.80215
G01 X-26.18362 Y-28.80215
G01 X-26.81686 Y-28.83545
G01 X-27.65395 Y-28.91356
G01 X-27.85486 Y-28.92895
G01 X-28.34358 Y-28.83766
G01 X-28.83233 Y-28.70916
G01 X-29.32105 Y-28.54345
G01 X-29.80977 Y-28.34056
G01 X-30.29849 Y-28.10045
G01 X-30.78721 Y-27.82313
G01 X-31.27596 Y-27.50861
G01 X-31.76468 Y-27.15687
G01 X-31.72559 Y-26.63894
G01 X-33.15360 Y-23.39693
G01 X-33.20821 Y-22.69620
G01 X-33.25797 Y-22.19998
G01 X-33.28294 Y-21.88258
G01 X-33.29170 Y-21.71532
G01 X-33.29170 Y-21.08457
G01 X-33.28294 Y-20.91733
G01 X-33.25797 Y-20.59996
G01 X-33.20821 Y-20.10377
G01 X-33.17197 Y-19.63857
G01 X-33.27197 Y-19.11391
G01 X-33.41487 Y-18.58922
G01 X-33.60064 Y-18.06453
G01 X-33.82929 Y-17.53984
G01 X-34.05467 Y-17.40723
G01 X-34.76574 Y-17.00301
G01 X-35.81077 Y-16.43880
G01 X-36.53539 Y-16.78305
G01 X-36.72352 Y-16.86682
G01 X-37.09815 Y-17.02234
G01 X-37.47280 Y-17.15536
G01 X-37.66096 Y-17.21650
G01 X-37.90998 Y-17.29237
G01 X-38.52476 Y-17.47004
G01 X-39.15941 Y-17.67078
G01 X-39.38753 Y-17.74746
G01 X-40.00589 Y-17.77749
G01 X-40.19403 Y-17.77749
G01 X-40.78239 Y-17.75031
G01 X-40.96073 Y-17.69369
G01 X-41.73997 Y-17.63517
G01 X-42.32158 Y-17.60705
G01 X-42.47838 Y-17.60705
G01 X-43.11028 Y-17.64022
G01 X-43.53999 Y-17.69156
G01 X-44.08360 Y-17.77116
G01 X-44.84139 Y-17.86603
G01 X-45.27141 Y-17.91226
G01 X-46.73483 Y-18.79999
G01 X-49.49998 Y-18.79999
G01 X-46.73483 Y-18.79999
G01 X-46.21390 Y-19.77941
G01 X-45.93059 Y-20.29551
G01 X-45.69417 Y-20.74233
G01 X-45.44253 Y-21.20194
G01 X-45.07692 Y-21.56239
G01 X-44.92010 Y-21.70359
G01 X-44.57512 Y-21.98423
G01 X-44.41835 Y-22.09815
G01 X-44.14446 Y-22.27671
G01 X-43.98764 Y-22.36724
G01 X-43.76336 Y-22.48190
G01 X-43.60657 Y-22.55172
G01 X-43.40103 Y-22.62998
G01 X-41.39882 Y-22.62998
G01 X-41.19336 Y-22.70821
G01 X-41.03657 Y-22.77803
G01 X-40.81236 Y-22.89266
G01 X-40.65560 Y-22.98316
G01 X-40.38150 Y-23.16183
G01 X-40.22474 Y-23.27577
G01 X-39.88013 Y-23.55606
G01 X-39.68171 Y-23.73511
G01 X-39.86319 Y-24.86805
G01 X-39.80421 Y-25.11821
G01 X-39.72293 Y-25.51400
G01 X-39.69095 Y-25.68999
G01 X-39.60322 Y-26.09893
G01 X-39.55839 Y-26.26622
G01 X-39.41100 Y-26.71844
G01 X-39.34681 Y-26.88567
G01 X-39.21844 Y-27.18996
G01 X-39.04651 Y-27.57160
G01 X-38.75550 Y-28.26281
G01 X-38.65969 Y-28.49997
G01 X-34.59815 Y-28.49997
G01 X-34.33407 Y-28.41485
G01 X-33.92086 Y-28.26817
G01 X-33.50763 Y-28.09662
G01 X-33.34042 Y-28.02214
G01 X-32.87911 Y-27.80152
G01 X-32.41782 Y-27.55047
G01 X-32.25058 Y-27.45392
G01 X-31.76468 Y-27.15687
G04 P0 ( dwell for no time -- G64 should not smooth over this point )
G00 Z2.00000 ( retract )

G00 X-22.87582 Y-29.01142 ( rapid move to begin. )
G01 F60.00000
( Mill infeed pass 1/2 )
G01 Z-0.05000
G04 P0 ( dwell for no time -- G64 should not smooth over this point )
G01 F120.00000
G01 X-22.87582 Y-29.01142
G01 X-22.94933 Y-28.46817
G01 X-23.10768 Y-27.42575
G01 X-23.14646 Y-27.19461
G01 X-23.26018 Y-26.57767
G01 X-23.29904 Y-26.38760
G01 X-23.39896 Y-25.94366
G01 X-23.44090 Y-25.77473
G01 X-23.52185 Y-25.39489
G01 X-23.54834 Y-25.22766
G01 X-23.58654 Y-24.86533
G01 X-23.59530 Y-24.69810
G01 X-23.59530 Y-24.34189
G01 X-23.56891 Y-23.80559
G01 X-23.56465 Y-23.63112
G01 X-23.56406 Y-23.19391
G01 X-23.56559 Y-23.06808
G01 X-23.59995 Y-22.95713
G01 X-23.59998 Y-17.65488
G01 X-23.40361 Y-17.59468
G01 X-22.58870 Y-17.85059
G01 X-21.71296 Y-18.11368
G01 X-21.18360 Y-18.30037
G01 X-21.01634 Y-18.36964
G01 X-20.58500 Y-18.57487
G01 X-20.43168 Y-18.65810
G01 X-20.06943 Y-18.87977
G01 X-19.92927 Y-18.97609
G01 X-19.61657 Y-19.21586
G01 X-19.48899 Y-19.32480
G01 X-19.24284 Y-19.55554
G01 X-19.05726 Y-19.87852
G01 X-18.64281 Y-19.89661
G01 X-18.36461 Y-19.91703
G01 X-18.04446 Y-19.95104
G01 X-17.84393 Y-19.98144
G01 X-17.66837 Y-20.01677
G01 X-17.37733 Y-20.09399
G01 X-17.22057 Y-20.12729
G01 X-17.10494 Y-20.14565
G01 X-16.94812 Y-20.16214
G01 X-16.83837 Y-20.16793
G01 X-16.68160 Y-20.16793
G01 X-16.57180 Y-20.16214
G01 X-16.41500 Y-20.14565
G01 X-16.29946 Y-20.12732
G01 X-16.14264 Y-20.09399
G01 X-15.85158 Y-20.01677
G01 X-15.67602 Y-19.98144
G01 X-15.47548 Y-19.95104
G01 X-15.19730 Y-19.92150
G01 X-15.01549 Y-19.81672
G01 X-14.74152 Y-19.63811
G01 X-14.58473 Y-19.52417
G01 X-14.24015 Y-19.24388
G01 X-14.08336 Y-19.10271
G01 X-13.89007 Y-18.91998
( Mill infeed pass 2/2 )
G00 Z2.00000 ( retract )
G00 X-22.87582 Y-29.01142 ( rapid move to begin. )
G01 Z-0.10000
G04 P0 ( dwell for no time -- G64 should not smooth over this point )
G01 F120.00000
G01 X-22.87582 Y-29.01142
G01 X-22.94933 Y-28.46817
G01 X-23.10768 Y-27.42575
G01 X-23.14646 Y-27.19461
G01 X-23.26018 Y-26.57767
G01 X-23.29904 Y-26.38760
G01 X-23.39896 Y-25.94366
G01 X-23.44090 Y-25.77473
G01 X-23.52185 Y-25.39489
G01 X-23.54834 Y-25.22766
G01 X-23.58654 Y-24.86533
G01 X-23.59530 Y-24.69810
G01 X-23.59530 Y-24.34189
G01 X-23.56891 Y-23.80559
G01 X-23.56465 Y-23.63112
G01 X-23.56406 Y-23.19391
G01 X-23.56559 Y-23.06808
G01 X-23.59995 Y-22.95713
G01 X-23.59998 Y-17.65488
G01 X-23.40361 Y-17.59468
G01 X-22.58870 Y-17.85059
G01 X-21.71296 Y-18.11368
G01 X-21.18360 Y-18.30037
G01 X-21.01634 Y-18.36964
G01 X-20.58500 Y-18.57487
G01 X-20.43168 Y-18.65810
G01 X-20.06943 Y-18.87977
G01 X-19.92927 Y-18.97609
G01 X-19.61657 Y-19.21586
G01 X-19.48899 Y-19.32480
G01 X-19.24284 Y-19.55554
G01 X-19.05726 Y-19.87852
G01 X-18.64281 Y-19.89661
G01 X-18.36461 Y-19.91703
G01 X-18.04446 Y-19.95104
G01 X-17.84393 Y-19.98144
G01 X-17.66837 Y-20.01677
G01 X-17.37733 Y-20.09399
G01 X-17.22057 Y-20.12729
G01 X-17.10494 Y-20.14565
G01 X-16.94812 Y-20.16214
G01 X-16.83837 Y-20.16793
G01 X-16.68160 Y-20.16793
G01 X-16.57180 Y-20.16214
G01 X-16.41500 Y-20.14565
G01 X-16.29946 Y-20.12732
G01 X-16.14264 Y-20.09399
G01 X-15.85158 Y-20.01677
G01 X-15.67602 Y-19.98144
G01 X-15.47548 Y-19.95104
G01 X-15.19730 Y-19.92150
G01 X-15.01549 Y-19.81672
G01 X-14.74152 Y-19.63811
G01 X-14.58473 Y-19.52417
G01 X-14.24015 Y-19.24388
G01 X-14.08336 Y-19.10271
G01 X-13.89007 Y-18.91998
G04 P0 ( dwell for no time -- G64 should not smooth over this point )
G00 Z2.00000 ( retract )

G00 X-23.40361 Y-17.59468 ( rapid move to begin. )
G01 F60.00000
( Mill infeed pass 1/2 )
G01 Z-0.05000
G04 P0 ( dwell for no time -- G64 should not smooth over this point )
G01 F120.00000
G01 X-23.40361 Y-17.59468
G01 X-22.98471 Y-16.91533
G01 X-22.60686 Y-16.28602
G01 X-22.41713 Y-15.95999
G01 X-22.16244 Y-15.45747
G01 X-21.98050 Y-14.95496
G01 X-21.87136 Y-14.45247
G01 X-21.83498 Y-13.94996
G01 X-21.83498 Y-12.24996
G01 X-21.86208 Y-11.81623
G01 X-21.94342 Y-11.38248
G01 X-22.07895 Y-10.94872
G01 X-22.26871 Y-10.51496
G01 X-22.51271 Y-10.08123
G01 X-22.81090 Y-9.64748
G01 X-23.16333 Y-9.21372
G01 X-23.56996 Y-8.77997
G01 X-24.51496 Y-7.83496
G01 X-25.26995 Y-7.83496
G01 X-26.08323 Y-7.87243
G01 X-26.87114 Y-7.83730
G01 X-27.04884 Y-7.83730
G01 X-27.51325 Y-7.84951
G01 X-27.97769 Y-7.88612
G01 X-28.22997 Y-7.91296
G01 X-28.48226 Y-7.88612
G01 X-28.94670 Y-7.84951
G01 X-29.41114 Y-7.83730
G01 X-29.58884 Y-7.83730
G01 X-30.05325 Y-7.84951
G01 X-30.51769 Y-7.88612
G01 X-30.76999 Y-7.91296
G01 X-31.02226 Y-7.88612
G01 X-31.48670 Y-7.84951
G01 X-31.95114 Y-7.83730
G01 X-32.12884 Y-7.83730
G01 X-32.59325 Y-7.84951
G01 X-33.05769 Y-7.88612
G01 X-33.23539 Y-7.90481
G01 X-33.71174 Y-7.96768
G01 X-34.18810 Y-8.05612
G01 X-34.36577 Y-8.09389
G01 X-34.89729 Y-8.22264
G01 X-35.14352 Y-8.67783
G01 X-35.23404 Y-8.85556
G01 X-35.44697 Y-9.30095
G01 X-35.63193 Y-9.74634
G01 X-35.70013 Y-9.92403
G01 X-35.84349 Y-10.32800
G01 X-35.96345 Y-10.73196
G01 X-36.01105 Y-10.90963
G01 X-36.17128 Y-11.66025
G01 X-36.12705 Y-12.31021
G01 X-36.09020 Y-12.76378
G01 X-36.06297 Y-13.18120
G01 X-36.02766 Y-13.60833
G01 X-35.99904 Y-14.03629
G01 X-35.96279 Y-14.46799
G01 X-35.92914 Y-14.95623
G01 X-35.88934 Y-15.42494
G01 X-35.84496 Y-16.04815
G01 X-35.81077 Y-16.43880
( Mill infeed pass 2/2 )
G00 Z2.00000 ( retract )
G00 X-23.40361 Y-17.59468 ( rapid move to begin. )
G01 Z-0.10000
G04 P0 ( dwell for no time -- G64 should not smooth over this point )
G01 F120.00000
G01 X-23.40361 Y-17.59468
G01 X-22.98471 Y-16.91533
G01 X-22.60686 Y-16.28602
G01 X-22.41713 Y-15.95999
G01 X-22.16244 Y-15.45747
G01 X-21.98050 Y-14.95496
G01 X-21.87136 Y-14.45247
G01 X-21.83498 Y-13.94996
G01 X-21.83498 Y-12.24996
G01 X-21.86208 Y-11.81623
G01 X-21.94342 Y-11.38248
G01 X-22.07895 Y-10.94872
G01 X-22.26871 Y-10.51496
G01 X-22.51271 Y-10.08123
G01 X-22.81090 Y-9.64748
G01 X-23.16333 Y-9.21372
G01 X-23.56996 Y-8.77997
G01 X-24.51496 Y-7.83496
G01 X-25.26995 Y-7.83496
G01 X-26.08323 Y-7.87243
G01 X-26.87114 Y-7.83730
G01 X-27.04884 Y-7.83730
G01 X-27.51325 Y-7.84951
G01 X-27.97769 Y-7.88612
G01 X-28.22997 Y-7.91296
G01 X-28.48226 Y-7.88612
G01 X-28.94670 Y-7.84951
G01 X-29.41114 Y-7.83730
G01 X-29.58884 Y-7.83730
G01 X-30.05325 Y-7.84951
G01 X-30.51769 Y-7.88612
G01 X-30.76999 Y-7.91296
G01 X-31.02226 Y-7.88612
G01 X-31.48670 Y-7.84951
G01 X-31.95114 Y-7.83730
G01 X-32.12884 Y-7.83730
G01 X-32.59325 Y-7.84951
G01 X-33.05769 Y-7.88612
G01 X-33.23539 Y-7.90481
G01 X-33.71174 Y-7.96768
G01 X-34.18810 Y-8.05612
G01 X-34.36577 Y-8.09389
G01 X-34.89729 Y-8.22264
G01 X-35.14352 Y-8.67783
G01 X-35.23404 Y-8.85556
G01 X-35.44697 Y-9.30095
G01 X-35.63193 Y-9.74634
G01 X-35.70013 Y-9.92403
G01 X-35.84349 Y-10.32800
G01 X-35.96345 Y-10.73196
G01 X-36.01105 Y-10.90963
G01 X-36.17128 Y-11.66025
G01 X-36.12705 Y-12.31021
G01 X-36.09020 Y-12.76378
G01 X-36.06297 Y-13.18120
G01 X-36.02766 Y-13.60833
G01 X-35.99904 Y-14.03629
G01 X-35.96279 Y-14.46799
G01 X-35.92914 Y-14.95623
G01 X-35.88934 Y-15.42494
G01 X-35.84496 Y-16.04815
G01 X-35.81077 Y-16.43880
G04 P0 ( dwell for no time -- G64 should not smooth over this point )
G00 Z2.00000 ( retract )

G00 X-39.86319 Y-24.86805 ( rapid move to begin. )
G01 F60.00000
( Mill infeed pass 1/2 )
G01 Z-0.05000
G04 P0 ( dwell for no time -- G64 should not smooth over this point )
G01 F120.00000
G01 X-39.86319 Y-24.86805
G01 X-40.51711 Y-24.89662
G01 X-40.79532 Y-24.91704
G01 X-41.11534 Y-24.95103
G01 X-41.31592 Y-24.98143
G01 X-41.49169 Y-25.01682
G01 X-41.78252 Y-25.09396
G01 X-41.93931 Y-25.12731
G01 X-42.05508 Y-25.14570
G01 X-42.21185 Y-25.16215
G01 X-42.32158 Y-25.16792
G01 X-42.47838 Y-25.16792
G01 X-42.58808 Y-25.16215
G01 X-42.74485 Y-25.14570
G01 X-42.86057 Y-25.12731
G01 X-43.01739 Y-25.09398
G01 X-43.34726 Y-25.00897
G01 X-43.64543 Y-25.08329
G01 X-43.94363 Y-25.22154
G01 X-44.24180 Y-25.42377
G01 X-44.53999 Y-25.68999
G01 X-45.50077 Y-26.65077
G01 X-45.71083 Y-26.98016
G01 X-45.85317 Y-27.18996
G01 X-46.25889 Y-27.76888
G01 X-46.99099 Y-28.86662
G01 X-47.08357 Y-28.95923
G01 X-47.61621 Y-29.46230
G01 X-48.20790 Y-29.96537
G01 X-48.41443 Y-30.13260
G01 X-49.30427 Y-30.81127
G01 X-49.49998 Y-30.94495
( Mill infeed pass 2/2 )
G00 Z2.00000 ( retract )
G00 X-39.86319 Y-24.86805 ( rapid move to begin. )
G01 Z-0.10000
G04 P0 ( dwell for no time -- G64 should not smooth over this point )
G01 F120.00000
G01 X-39.86319 Y-24.86805
G01 X-40.51711 Y-24.89662
G01 X-40.79532 Y-24.91704
G01 X-41.11534 Y-24.95103
G01 X-41.31592 Y-24.98143
G01 X-41.49169 Y-25.01682
G01 X-41.78252 Y-25.09396
G01 X-41.93931 Y-25.12731
G01 X-42.05508 Y-25.14570
G01 X-42.21185 Y-25.16215
G01 X-42.32158 Y-25.16792
G01 X-42.47838 Y-25.16792
G01 X-42.58808 Y-25.16215
G01 X-42.74485 Y-25.14570
G01 X-42.86057 Y-25.12731
G01 X-43.01739 Y-25.09398
G01 X-43.34726 Y-25.00897
G01 X-43.64543 Y-25.08329
G01 X-43.94363 Y-25.22154
G01 X-44.24180 Y-25.42377
G01 X-44.53999 Y-25.68999
G01 X-45.50077 Y-26.65077
G01 X-45.71083 Y-26.98016
G01 X-45.85317 Y-27.18996
G01 X-46.25889 Y-27.76888
G01 X-46.99099 Y-28.86662
G01 X-47.08357 Y-28.95923
G01 X-47.61621 Y-29.46230
G01 X-48.20790 Y-29.96537
G01 X-48.41443 Y-30.13260
G01 X-49.30427 Y-30.81127
G01 X-49.49998 Y-30.94495
G04 P0 ( dwell for no time -- G64 should not smooth over this point )
G00 Z2.00000 ( retract )

G00 X-40.96073 Y-17.69369 ( rapid move to begin. )
G01 F60.00000
( Mill infeed pass 1/2 )
G01 Z-0.05000
G04 P0 ( dwell for no time -- G64 should not smooth over this point )
G01 F120.00000
G01 X-40.96073 Y-17.69369
G01 X-41.01356 Y-15.98361
G01 X-41.03962 Y-15.57950
G01 X-41.07754 Y-15.20541
G01 X-41.11904 Y-14.94244
G01 X-41.15582 Y-14.77734
G01 X-41.20881 Y-14.60000
G01 X-41.25133 Y-14.47330
G01 X-41.30172 Y-14.28516
G01 X-41.32082 Y-14.19558
G01 X-41.35062 Y-14.00744
G01 X-41.35910 Y-13.92695
G01 X-41.36895 Y-13.73881
G01 X-41.36895 Y-13.66116
G01 X-41.35910 Y-13.47302
G01 X-41.35062 Y-13.39253
G01 X-41.32082 Y-13.20439
G01 X-41.30172 Y-13.11481
G01 X-41.25133 Y-12.92667
G01 X-41.20881 Y-12.79997
G01 X-41.15585 Y-12.62266
G01 X-41.14259 Y-12.56317
G01 X-41.21584 Y-12.31237
G01 X-41.33985 Y-12.06157
G01 X-41.51455 Y-11.81077
G01 X-41.73997 Y-11.56000
G01 X-43.53999 Y-9.76000
G01 X-43.93131 Y-9.39104
G01 X-44.36742 Y-9.02211
G01 X-44.84832 Y-8.65315
G01 X-45.37398 Y-8.28421
G01 X-45.67654 Y-7.89567
G01 X-45.81197 Y-7.72841
G01 X-46.33516 Y-7.11820
G01 X-46.91637 Y-6.50799
G01 X-47.43318 Y-5.99999
G01 X-48.83798 Y-4.67009
G01 X-49.45819 Y-4.07571
( Mill infeed pass 2/2 )
G00 Z2.00000 ( retract )
G00 X-40.96073 Y-17.69369 ( rapid move to begin. )
G01 Z-0.10000
G04 P0 ( dwell for no time -- G64 should not smooth over this point )
G01 F120.00000
G01 X-40.96073 Y-17.69369
G01 X-41.01356 Y-15.98361
G01 X-41.03962 Y-15.57950
G01 X-41.07754 Y-15.20541
G01 X-41.11904 Y-14.94244
G01 X-41.15582 Y-14.77734
G01 X-41.20881 Y-14.60000
G01 X-41.25133 Y-14.47330
G01 X-41.30172 Y-14.28516
G01 X-41.32082 Y-14.19558
G01 X-41.35062 Y-14.00744
G01 X-41.35910 Y-13.92695
G01 X-41.36895 Y-13.73881
G01 X-41.36895 Y-13.66116
G01 X-41.35910 Y-13.47302
G01 X-41.35062 Y-13.39253
G01 X-41.32082 Y-13.20439
G01 X-41.30172 Y-13.11481
G01 X-41.25133 Y-12.92667
G01 X-41.20881 Y-12.79997
G01 X-41.15585 Y-12.62266
G01 X-41.14259 Y-12.56317
G01 X-41.21584 Y-12.31237
G01 X-41.33985 Y-12.06157
G01 X-41.51455 Y-11.81077
G01 X-41.73997 Y-11.56000
G01 X-43.53999 Y-9.76000
G01 X-43.93131 Y-9.39104
G01 X-44.36742 Y-9.02211
G01 X-44.84832 Y-8.65315
G01 X-45.37398 Y-8.28421
G01 X-45.67654 Y-7.89567
G01 X-45.81197 Y-7.72841
G01 X-46.33516 Y-7.11820
G01 X-46.91637 Y-6.50799
G01 X-47.43318 Y-5.99999
G01 X-48.83798 Y-4.67009
G01 X-49.45819 Y-4.07571

G04 P0 ( dwell for no time -- G64 should not smooth over this point )
G00 Z15.000000 ( retract )

M5 ( Spindle off. )
G04 P1.000000
M9 ( Coolant off. )
M2 ( Program end. )

