( pcb2gcode 2.5.0 )
( Software-independent Gcode )

( This file uses 3 drill bit sizes. )
( Bit sizes: [0.8mm] [0.9mm] [1mm] )

G94       (Millimeters per minute feed rate.)
G21       (Units == Millimeters.)
G91.1     (Incremental arc distance mode.)
G90       (Absolute coordinates.)
G00 S13000     (RPM spindle speed.)

G00 Z15.00000 (Retract)
T1
M5      (Spindle stop.)
G04 P1.00000
(MSG, Change tool bit to drill size 0.8mm)
M6      (Tool change.)
M0      (Temporary machine stop.)
M3      (Spindle on clockwise.)
G0 Z2.00000
G04 P1.00000

G1 F120.00000
G0 X-16.70050 Y-3.02006
G1 Z-2.50000
G1 Z2.00000
G0 X-4.80060 Y-16.34998
G1 Z-2.50000
G1 Z2.00000
G0 X-4.80060 Y-21.24964
G1 Z-2.50000
G1 Z2.00000
G0 X-11.80084 Y-21.39950
G1 Z-2.50000
G1 Z2.00000
G0 X-11.80084 Y-16.40078
G1 Z-2.50000
G1 Z2.00000
G0 X-16.70050 Y-13.18006
G1 Z-2.50000
G1 Z2.00000
G0 X-16.75892 Y-16.36014
G1 Z-2.50000
G1 Z2.00000
G0 X-16.75892 Y-18.90014
G1 Z-2.50000
G1 Z2.00000
G0 X-16.75892 Y-21.44014
G1 Z-2.50000
G1 Z2.00000
G0 X-16.79956 Y-24.50084
G1 Z-2.50000
G1 Z2.00000
G0 X-21.09978 Y-21.39950
G1 Z-2.50000
G1 Z2.00000
G0 X-21.09978 Y-24.52116
G1 Z-2.50000
G1 Z2.00000
G0 X-16.79956 Y-29.49956
G1 Z-2.50000
G1 Z2.00000
G0 X-21.09978 Y-34.68116
G1 Z-2.50000
G1 Z2.00000
G0 X-26.10104 Y-32.61106
G1 Z-2.50000
G1 Z2.00000
G0 X-26.10104 Y-24.99106
G1 Z-2.50000
G1 Z2.00000
G0 X-26.10104 Y-21.39950
G1 Z-2.50000
G1 Z2.00000
G0 X-29.48940 Y-21.39950
G1 Z-2.50000
G1 Z2.00000
G0 X-37.10940 Y-21.39950
G1 Z-2.50000
G1 Z2.00000
G0 X-47.00016 Y-13.72108
G1 Z-2.50000
G1 Z2.00000
G0 X-47.00016 Y-23.88108
G1 Z-2.50000
G1 Z2.00000
G0 X-42.40022 Y-26.43886
G1 Z-2.50000
G1 Z2.00000
G0 X-42.40022 Y-23.89886
G1 Z-2.50000
G1 Z2.00000
G0 X-42.40022 Y-21.35886
G1 Z-2.50000
G1 Z2.00000
G0 X-37.09924 Y-24.74976
G1 Z-2.50000
G1 Z2.00000
G0 X-37.09924 Y-32.25038
G1 Z-2.50000
G1 Z2.00000

G00 Z15.00000 (Retract)
T2
M5      (Spindle stop.)
G04 P1.00000
(MSG, Change tool bit to drill size 0.9mm)
M6      (Tool change.)
M0      (Temporary machine stop.)
M3      (Spindle on clockwise.)
G0 Z2.00000
G04 P1.00000

G1 F120.00000
G0 X-40.09898 Y-13.70076
G1 Z-2.50000
G1 Z2.00000
G0 X-42.63898 Y-13.70076
G1 Z-2.50000
G1 Z2.00000

G00 Z15.00000 (Retract)
T3
M5      (Spindle stop.)
G04 P1.00000
(MSG, Change tool bit to drill size 1mm)
M6      (Tool change.)
M0      (Temporary machine stop.)
M3      (Spindle on clockwise.)
G0 Z2.00000
G04 P1.00000

G1 F120.00000
G0 X-2.79908 Y-9.79932
G1 Z-2.50000
G1 Z2.00000
G0 X-5.33908 Y-9.79932
G1 Z-2.50000
G1 Z2.00000
G0 X-7.87908 Y-9.79932
G1 Z-2.50000
G1 Z2.00000
G0 X-10.41908 Y-9.79932
G1 Z-2.50000
G1 Z2.00000
G0 X-24.41956 Y-13.09878
G1 Z-2.50000
G1 Z2.00000
G0 X-26.95956 Y-13.09878
G1 Z-2.50000
G1 Z2.00000
G0 X-29.49956 Y-13.09878
G1 Z-2.50000
G1 Z2.00000
G0 X-32.03956 Y-13.09878
G1 Z-2.50000
G1 Z2.00000
G0 X-10.41908 Y-27.80030
G1 Z-2.50000
G1 Z2.00000
G0 X-7.87908 Y-27.80030
G1 Z-2.50000
G1 Z2.00000
G0 X-5.33908 Y-27.80030
G1 Z-2.50000
G1 Z2.00000
G0 X-2.79908 Y-27.80030
G1 Z-2.50000
G1 Z2.00000

G00 Z15.000 ( All done -- retract )

M5      (Spindle off.)
G04 P1.000000
M9      (Coolant off.)
M2      (Program end.)

