( pcb2gcode 2.5.0 )
( Software-independent Gcode )

G94 ( Millimeters per minute feed rate. )
G21 ( Units == Millimeters. )

G90 ( Absolute coordinates. )
G00 S13000 ( RPM spindle speed. )
G01 F120.00000 ( Feedrate. )


G00 Z15.00000 (Retract to tool change height)
T0
M5      (Spindle stop.)
G04 P1.00000 (Wait for spindle to stop)
(MSG, Change tool bit to cutter diameter 1.00000mm)
M6      (Tool change.)
M0      (Temporary machine stop.)
M3 ( Spindle on clockwise. )
G04 P1.00000 (Wait for spindle to get up to speed)
G04 P0 ( dwell for no time -- G64 should not smooth over this point )
G00 Z2.00000 ( retract )

G00 X-0.49997 Y-33.09998 ( rapid move to begin. )
G01 Z-0.50000 F60.00000 ( plunge. )
G04 P0 ( dwell for no time -- G64 should not smooth over this point )
G01 F120.00000
G01 X-0.50239 Y-4.45099
G01 X-0.56962 Y-3.76817
G01 X-0.58875 Y-3.67200
G01 X-0.78793 Y-3.01544
G01 X-0.82545 Y-2.92489
G01 X-1.14887 Y-2.31978
G01 X-1.20332 Y-2.23827
G01 X-1.63860 Y-1.70790
G01 X-1.70790 Y-1.63860
G01 X-2.27769 Y-1.17409
G01 X-2.92489 Y-0.82545
G01 X-3.01544 Y-0.78793
G01 X-3.67200 Y-0.58875
G01 X-3.76817 Y-0.56962
G01 X-4.49999 Y-0.49997
G01 X-45.99998 Y-0.49997
G01 X-46.73178 Y-0.56962
G01 X-46.82795 Y-0.58875
G01 X-47.48451 Y-0.78793
G01 X-47.57506 Y-0.82545
G01 X-48.18017 Y-1.14887
G01 X-48.26168 Y-1.20332
G01 X-48.79205 Y-1.63860
G01 X-48.86135 Y-1.70790
G01 X-49.32586 Y-2.27769
G01 X-49.67450 Y-2.92489
G01 X-49.71202 Y-3.01544
G01 X-49.91120 Y-3.67200
G01 X-49.93033 Y-3.76817
G01 X-49.99998 Y-4.49999
G01 X-49.99998 Y-33.09998
G01 X-49.93033 Y-33.83178
G01 X-49.91120 Y-33.92795
G01 X-49.71202 Y-34.58451
G01 X-49.67450 Y-34.67506
G01 X-49.35108 Y-35.28017
G01 X-49.29662 Y-35.36168
G01 X-48.86135 Y-35.89205
G01 X-48.79205 Y-35.96135
G01 X-48.22226 Y-36.42586
G01 X-47.57506 Y-36.77450
G01 X-47.48451 Y-36.81202
G01 X-46.82795 Y-37.01120
G01 X-46.73178 Y-37.03033
G01 X-45.99998 Y-37.09998
G01 X-4.45099 Y-37.09756
G01 X-3.71960 Y-37.02312
G01 X-3.01544 Y-36.81202
G01 X-2.92489 Y-36.77450
G01 X-2.27769 Y-36.42586
G01 X-1.70790 Y-35.96135
G01 X-1.63860 Y-35.89205
G01 X-1.17409 Y-35.32226
G01 X-0.82545 Y-34.67506
G01 X-0.78793 Y-34.58451
G01 X-0.57683 Y-33.88035
G01 X-0.49997 Y-33.09998
G01 Z-1.00000 F60.00000 ( plunge. )
G04 P0 ( dwell for no time -- G64 should not smooth over this point )
G01 F120.00000
G01 X-0.50239 Y-4.45099
G01 X-0.56962 Y-3.76817
G01 X-0.58875 Y-3.67200
G01 X-0.78793 Y-3.01544
G01 X-0.82545 Y-2.92489
G01 X-1.14887 Y-2.31978
G01 X-1.20332 Y-2.23827
G01 X-1.63860 Y-1.70790
G01 X-1.70790 Y-1.63860
G01 X-2.27769 Y-1.17409
G01 X-2.92489 Y-0.82545
G01 X-3.01544 Y-0.78793
G01 X-3.67200 Y-0.58875
G01 X-3.76817 Y-0.56962
G01 X-4.49999 Y-0.49997
G01 X-45.99998 Y-0.49997
G01 X-46.73178 Y-0.56962
G01 X-46.82795 Y-0.58875
G01 X-47.48451 Y-0.78793
G01 X-47.57506 Y-0.82545
G01 X-48.18017 Y-1.14887
G01 X-48.26168 Y-1.20332
G01 X-48.79205 Y-1.63860
G01 X-48.86135 Y-1.70790
G01 X-49.32586 Y-2.27769
G01 X-49.67450 Y-2.92489
G01 X-49.71202 Y-3.01544
G01 X-49.91120 Y-3.67200
G01 X-49.93033 Y-3.76817
G01 X-49.99998 Y-4.49999
G01 X-49.99998 Y-33.09998
G01 X-49.93033 Y-33.83178
G01 X-49.91120 Y-33.92795
G01 X-49.71202 Y-34.58451
G01 X-49.67450 Y-34.67506
G01 X-49.35108 Y-35.28017
G01 X-49.29662 Y-35.36168
G01 X-48.86135 Y-35.89205
G01 X-48.79205 Y-35.96135
G01 X-48.22226 Y-36.42586
G01 X-47.57506 Y-36.77450
G01 X-47.48451 Y-36.81202
G01 X-46.82795 Y-37.01120
G01 X-46.73178 Y-37.03033
G01 X-45.99998 Y-37.09998
G01 X-4.45099 Y-37.09756
G01 X-3.71960 Y-37.02312
G01 X-3.01544 Y-36.81202
G01 X-2.92489 Y-36.77450
G01 X-2.27769 Y-36.42586
G01 X-1.70790 Y-35.96135
G01 X-1.63860 Y-35.89205
G01 X-1.17409 Y-35.32226
G01 X-0.82545 Y-34.67506
G01 X-0.78793 Y-34.58451
G01 X-0.57683 Y-33.88035
G01 X-0.49997 Y-33.09998
G01 Z-1.50000 F60.00000 ( plunge. )
G04 P0 ( dwell for no time -- G64 should not smooth over this point )
G01 F120.00000
G01 X-0.50239 Y-4.45099
G01 X-0.56962 Y-3.76817
G01 X-0.58875 Y-3.67200
G01 X-0.78793 Y-3.01544
G01 X-0.82545 Y-2.92489
G01 X-1.14887 Y-2.31978
G01 X-1.20332 Y-2.23827
G01 X-1.63860 Y-1.70790
G01 X-1.70790 Y-1.63860
G01 X-2.27769 Y-1.17409
G01 X-2.92489 Y-0.82545
G01 X-3.01544 Y-0.78793
G01 X-3.67200 Y-0.58875
G01 X-3.76817 Y-0.56962
G01 X-4.49999 Y-0.49997
G01 X-45.99998 Y-0.49997
G01 X-46.73178 Y-0.56962
G01 X-46.82795 Y-0.58875
G01 X-47.48451 Y-0.78793
G01 X-47.57506 Y-0.82545
G01 X-48.18017 Y-1.14887
G01 X-48.26168 Y-1.20332
G01 X-48.79205 Y-1.63860
G01 X-48.86135 Y-1.70790
G01 X-49.32586 Y-2.27769
G01 X-49.67450 Y-2.92489
G01 X-49.71202 Y-3.01544
G01 X-49.91120 Y-3.67200
G01 X-49.93033 Y-3.76817
G01 X-49.99998 Y-4.49999
G01 X-49.99998 Y-33.09998
G01 X-49.93033 Y-33.83178
G01 X-49.91120 Y-33.92795
G01 X-49.71202 Y-34.58451
G01 X-49.67450 Y-34.67506
G01 X-49.35108 Y-35.28017
G01 X-49.29662 Y-35.36168
G01 X-48.86135 Y-35.89205
G01 X-48.79205 Y-35.96135
G01 X-48.22226 Y-36.42586
G01 X-47.57506 Y-36.77450
G01 X-47.48451 Y-36.81202
G01 X-46.82795 Y-37.01120
G01 X-46.73178 Y-37.03033
G01 X-45.99998 Y-37.09998
G01 X-4.45099 Y-37.09756
G01 X-3.71960 Y-37.02312
G01 X-3.01544 Y-36.81202
G01 X-2.92489 Y-36.77450
G01 X-2.27769 Y-36.42586
G01 X-1.70790 Y-35.96135
G01 X-1.63860 Y-35.89205
G01 X-1.17409 Y-35.32226
G01 X-0.82545 Y-34.67506
G01 X-0.78793 Y-34.58451
G01 X-0.57683 Y-33.88035
G01 X-0.49997 Y-33.09998
G01 Z-2.00000 F60.00000 ( plunge. )
G04 P0 ( dwell for no time -- G64 should not smooth over this point )
G01 F120.00000
G01 X-0.50239 Y-4.45099
G01 X-0.56962 Y-3.76817
G01 X-0.58875 Y-3.67200
G01 X-0.78793 Y-3.01544
G01 X-0.82545 Y-2.92489
G01 X-1.14887 Y-2.31978
G01 X-1.20332 Y-2.23827
G01 X-1.63860 Y-1.70790
G01 X-1.70790 Y-1.63860
G01 X-2.27769 Y-1.17409
G01 X-2.92489 Y-0.82545
G01 X-3.01544 Y-0.78793
G01 X-3.67200 Y-0.58875
G01 X-3.76817 Y-0.56962
G01 X-4.49999 Y-0.49997
G01 X-45.99998 Y-0.49997
G01 X-46.73178 Y-0.56962
G01 X-46.82795 Y-0.58875
G01 X-47.48451 Y-0.78793
G01 X-47.57506 Y-0.82545
G01 X-48.18017 Y-1.14887
G01 X-48.26168 Y-1.20332
G01 X-48.79205 Y-1.63860
G01 X-48.86135 Y-1.70790
G01 X-49.32586 Y-2.27769
G01 X-49.67450 Y-2.92489
G01 X-49.71202 Y-3.01544
G01 X-49.91120 Y-3.67200
G01 X-49.93033 Y-3.76817
G01 X-49.99998 Y-4.49999
G01 X-49.99998 Y-33.09998
G01 X-49.93033 Y-33.83178
G01 X-49.91120 Y-33.92795
G01 X-49.71202 Y-34.58451
G01 X-49.67450 Y-34.67506
G01 X-49.35108 Y-35.28017
G01 X-49.29662 Y-35.36168
G01 X-48.86135 Y-35.89205
G01 X-48.79205 Y-35.96135
G01 X-48.22226 Y-36.42586
G01 X-47.57506 Y-36.77450
G01 X-47.48451 Y-36.81202
G01 X-46.82795 Y-37.01120
G01 X-46.73178 Y-37.03033
G01 X-45.99998 Y-37.09998
G01 X-4.45099 Y-37.09756
G01 X-3.71960 Y-37.02312
G01 X-3.01544 Y-36.81202
G01 X-2.92489 Y-36.77450
G01 X-2.27769 Y-36.42586
G01 X-1.70790 Y-35.96135
G01 X-1.63860 Y-35.89205
G01 X-1.17409 Y-35.32226
G01 X-0.82545 Y-34.67506
G01 X-0.78793 Y-34.58451
G01 X-0.57683 Y-33.88035
G01 X-0.49997 Y-33.09998
G01 Z-2.50000 F60.00000 ( plunge. )
G04 P0 ( dwell for no time -- G64 should not smooth over this point )
G01 F120.00000
G01 X-0.50239 Y-4.45099
G01 X-0.56962 Y-3.76817
G01 X-0.58875 Y-3.67200
G01 X-0.78793 Y-3.01544
G01 X-0.82545 Y-2.92489
G01 X-1.14887 Y-2.31978
G01 X-1.20332 Y-2.23827
G01 X-1.63860 Y-1.70790
G01 X-1.70790 Y-1.63860
G01 X-2.27769 Y-1.17409
G01 X-2.92489 Y-0.82545
G01 X-3.01544 Y-0.78793
G01 X-3.67200 Y-0.58875
G01 X-3.76817 Y-0.56962
G01 X-4.49999 Y-0.49997
G01 X-45.99998 Y-0.49997
G01 X-46.73178 Y-0.56962
G01 X-46.82795 Y-0.58875
G01 X-47.48451 Y-0.78793
G01 X-47.57506 Y-0.82545
G01 X-48.18017 Y-1.14887
G01 X-48.26168 Y-1.20332
G01 X-48.79205 Y-1.63860
G01 X-48.86135 Y-1.70790
G01 X-49.32586 Y-2.27769
G01 X-49.67450 Y-2.92489
G01 X-49.71202 Y-3.01544
G01 X-49.91120 Y-3.67200
G01 X-49.93033 Y-3.76817
G01 X-49.99998 Y-4.49999
G01 X-49.99998 Y-33.09998
G01 X-49.93033 Y-33.83178
G01 X-49.91120 Y-33.92795
G01 X-49.71202 Y-34.58451
G01 X-49.67450 Y-34.67506
G01 X-49.35108 Y-35.28017
G01 X-49.29662 Y-35.36168
G01 X-48.86135 Y-35.89205
G01 X-48.79205 Y-35.96135
G01 X-48.22226 Y-36.42586
G01 X-47.57506 Y-36.77450
G01 X-47.48451 Y-36.81202
G01 X-46.82795 Y-37.01120
G01 X-46.73178 Y-37.03033
G01 X-45.99998 Y-37.09998
G01 X-4.45099 Y-37.09756
G01 X-3.71960 Y-37.02312
G01 X-3.01544 Y-36.81202
G01 X-2.92489 Y-36.77450
G01 X-2.27769 Y-36.42586
G01 X-1.70790 Y-35.96135
G01 X-1.63860 Y-35.89205
G01 X-1.17409 Y-35.32226
G01 X-0.82545 Y-34.67506
G01 X-0.78793 Y-34.58451
G01 X-0.57683 Y-33.88035
G01 X-0.49997 Y-33.09998

G04 P0 ( dwell for no time -- G64 should not smooth over this point )
G00 Z15.000000 ( retract )

M5 ( Spindle off. )
G04 P1.000000
M9 ( Coolant off. )
M2 ( Program end. )

