( pcb2gcode 2.5.0 )
( Software-independent Gcode )

G94 ( Millimeters per minute feed rate. )
G21 ( Units == Millimeters. )

G90 ( Absolute coordinates. )
G00 S13000 ( RPM spindle speed. )
G01 F120.00000 ( Feedrate. )


G00 Z15.00000 (Retract to tool change height)
T0
M5      (Spindle stop.)
G04 P1.00000 (Wait for spindle to stop)
(MSG, Change tool bit to mill diameter 0.45360mm)
M6      (Tool change.)
M0      (Temporary machine stop.)
M3 ( Spindle on clockwise. )
G04 P1.00000 (Wait for spindle to get up to speed)
G04 P0 ( dwell for no time -- G64 should not smooth over this point )
G00 Z2.00000 ( retract )

G00 X-9.63320 Y-2.65928 ( rapid move to begin. )
G01 F60.00000
( Mill infeed pass 1/1 )
G01 Z-0.10000
G04 P0 ( dwell for no time -- G64 should not smooth over this point )
G01 F120.00000
G01 X-9.63320 Y-2.65928
G01 X-9.75845 Y-2.59753
G01 X-10.00412 Y-2.51412
G01 X-10.25860 Y-2.46350
G01 X-10.51748 Y-2.44653
G01 X-10.77636 Y-2.46350
G01 X-11.03084 Y-2.51412
G01 X-11.27651 Y-2.59751
G01 X-11.40176 Y-2.65925
G01 X-11.39411 Y-2.66690
G01 X-11.12835 Y-2.54993
G01 X-10.74758 Y-2.46774
G01 X-10.70041 Y-2.46278
G01 X-10.33457 Y-2.46278
G01 X-10.28741 Y-2.46774
G01 X-9.90663 Y-2.54993
G01 X-9.64085 Y-2.66692
G01 X-9.63320 Y-2.65928
G04 P0 ( dwell for no time -- G64 should not smooth over this point )
G00 Z2.00000 ( retract )

G00 X-8.53404 Y-4.42996 ( rapid move to begin. )
G01 F60.00000
( Mill infeed pass 1/1 )
G01 Z-0.10000
G04 P0 ( dwell for no time -- G64 should not smooth over this point )
G01 F120.00000
G01 X-8.53404 Y-4.42996
G01 X-8.55099 Y-4.17106
G01 X-8.60161 Y-3.91663
G01 X-8.68502 Y-3.67093
G01 X-8.74677 Y-3.54569
G01 X-8.75294 Y-3.55186
G01 X-8.72236 Y-3.60479
G01 X-8.70308 Y-3.64813
G01 X-8.58388 Y-4.01899
G01 X-8.54070 Y-4.42999
G01 X-8.58388 Y-4.84099
G01 X-8.70308 Y-5.21185
G01 X-8.72236 Y-5.25518
G01 X-8.75292 Y-5.30809
G01 X-8.74677 Y-5.31424
G01 X-8.68502 Y-5.18899
G01 X-8.60161 Y-4.94332
G01 X-8.55099 Y-4.68887
G01 X-8.53404 Y-4.42996
G04 P0 ( dwell for no time -- G64 should not smooth over this point )
G00 Z2.00000 ( retract )

G00 X-9.63320 Y-6.20067 ( rapid move to begin. )
G01 F60.00000
( Mill infeed pass 1/1 )
G01 Z-0.10000
G04 P0 ( dwell for no time -- G64 should not smooth over this point )
G01 F120.00000
G01 X-9.63320 Y-6.20067
G01 X-9.64082 Y-6.19305
G01 X-9.90663 Y-6.31005
G01 X-10.28741 Y-6.39224
G01 X-10.33457 Y-6.39719
G01 X-10.72411 Y-6.39595
G01 X-11.10541 Y-6.31619
G01 X-11.15052 Y-6.30154
G01 X-11.50590 Y-6.14195
G01 X-11.84024 Y-5.89905
G01 X-12.10180 Y-5.61038
G01 X-12.12969 Y-5.57202
G01 X-12.32339 Y-5.23403
G01 X-12.45108 Y-4.84099
G01 X-12.49429 Y-4.42999
G01 X-12.45481 Y-4.04244
G01 X-12.44493 Y-3.99605
G01 X-12.33190 Y-3.64813
G01 X-12.31260 Y-3.60479
G01 X-12.28204 Y-3.55183
G01 X-12.28819 Y-3.54569
G01 X-12.34994 Y-3.67093
G01 X-12.43333 Y-3.91660
G01 X-12.48395 Y-4.17109
G01 X-12.50091 Y-4.42999
G01 X-12.48395 Y-4.68887
G01 X-12.43333 Y-4.94335
G01 X-12.34994 Y-5.18902
G01 X-12.23518 Y-5.42171
G01 X-12.09103 Y-5.63740
G01 X-12.00170 Y-5.74324
G01 X-11.94595 Y-5.83740
G01 X-11.93396 Y-5.87652
G01 X-11.91024 Y-6.00024
G01 X-11.91031 Y-6.03186
G01 X-11.92116 Y-6.09285
G01 X-11.86703 Y-6.07548
G01 X-11.83559 Y-6.07202
G01 X-11.74128 Y-6.06831
G01 X-11.67849 Y-6.07464
G01 X-11.53907 Y-6.12922
G01 X-11.50917 Y-6.14771
G01 X-11.27651 Y-6.26242
G01 X-11.03081 Y-6.34583
G01 X-10.77636 Y-6.39646
G01 X-10.51748 Y-6.41342
G01 X-10.25860 Y-6.39646
G01 X-10.00412 Y-6.34583
G01 X-9.75843 Y-6.26242
G01 X-9.63320 Y-6.20067
G04 P0 ( dwell for no time -- G64 should not smooth over this point )
G00 Z2.00000 ( retract )

G00 X-9.63320 Y-15.79928 ( rapid move to begin. )
G01 F60.00000
( Mill infeed pass 1/1 )
G01 Z-0.10000
G04 P0 ( dwell for no time -- G64 should not smooth over this point )
G01 F120.00000
G01 X-9.63320 Y-15.79928
G01 X-9.75845 Y-15.73751
G01 X-10.00409 Y-15.65412
G01 X-10.25860 Y-15.60350
G01 X-10.51748 Y-15.58653
G01 X-10.77636 Y-15.60350
G01 X-11.03084 Y-15.65412
G01 X-11.27651 Y-15.73751
G01 X-11.40176 Y-15.79926
G01 X-11.39411 Y-15.80690
G01 X-11.12835 Y-15.68994
G01 X-10.74758 Y-15.60774
G01 X-10.70041 Y-15.60276
G01 X-10.33457 Y-15.60276
G01 X-10.28741 Y-15.60774
G01 X-9.90663 Y-15.68994
G01 X-9.64082 Y-15.80690
G01 X-9.63320 Y-15.79928
G04 P0 ( dwell for no time -- G64 should not smooth over this point )
G00 Z2.00000 ( retract )

G00 X-8.53404 Y-17.56997 ( rapid move to begin. )
G01 F60.00000
( Mill infeed pass 1/1 )
G01 Z-0.10000
G04 P0 ( dwell for no time -- G64 should not smooth over this point )
G01 F120.00000
G01 X-8.53404 Y-17.56997
G01 X-8.55099 Y-17.31107
G01 X-8.60161 Y-17.05663
G01 X-8.68502 Y-16.81094
G01 X-8.74677 Y-16.68569
G01 X-8.75294 Y-16.69186
G01 X-8.72236 Y-16.74480
G01 X-8.70308 Y-16.78810
G01 X-8.58388 Y-17.15900
G01 X-8.54070 Y-17.56999
G01 X-8.58388 Y-17.98099
G01 X-8.70308 Y-18.35186
G01 X-8.72236 Y-18.39519
G01 X-8.75292 Y-18.44810
G01 X-8.74677 Y-18.45424
G01 X-8.68502 Y-18.32900
G01 X-8.60161 Y-18.08333
G01 X-8.55099 Y-17.82887
G01 X-8.53404 Y-17.56997
G04 P0 ( dwell for no time -- G64 should not smooth over this point )
G00 Z2.00000 ( retract )

G00 X-9.63320 Y-19.34068 ( rapid move to begin. )
G01 F60.00000
( Mill infeed pass 1/1 )
G01 Z-0.10000
G04 P0 ( dwell for no time -- G64 should not smooth over this point )
G01 F120.00000
G01 X-9.63320 Y-19.34068
G01 X-9.75843 Y-19.40242
G01 X-10.00412 Y-19.48584
G01 X-10.25860 Y-19.53646
G01 X-10.51748 Y-19.55343
G01 X-10.77636 Y-19.53646
G01 X-11.03081 Y-19.48584
G01 X-11.27651 Y-19.40242
G01 X-11.40176 Y-19.34068
G01 X-11.39414 Y-19.33306
G01 X-11.12835 Y-19.45002
G01 X-10.74758 Y-19.53224
G01 X-10.70041 Y-19.53720
G01 X-10.33457 Y-19.53720
G01 X-10.28741 Y-19.53224
G01 X-9.90663 Y-19.45002
G01 X-9.64082 Y-19.33306
G01 X-9.63320 Y-19.34068
G04 P0 ( dwell for no time -- G64 should not smooth over this point )
G00 Z2.00000 ( retract )

G00 X-12.28204 Y-18.44812 ( rapid move to begin. )
G01 F60.00000
( Mill infeed pass 1/1 )
G01 Z-0.10000
G04 P0 ( dwell for no time -- G64 should not smooth over this point )
G01 F120.00000
G01 X-12.28204 Y-18.44812
G01 X-12.31260 Y-18.39519
G01 X-12.33190 Y-18.35186
G01 X-12.45108 Y-17.98099
G01 X-12.49429 Y-17.56999
G01 X-12.45108 Y-17.15900
G01 X-12.33190 Y-16.78810
G01 X-12.31260 Y-16.74480
G01 X-12.28204 Y-16.69184
G01 X-12.28819 Y-16.68569
G01 X-12.34994 Y-16.81094
G01 X-12.43333 Y-17.05661
G01 X-12.48395 Y-17.31109
G01 X-12.50091 Y-17.56997
G01 X-12.48395 Y-17.82887
G01 X-12.43333 Y-18.08335
G01 X-12.34994 Y-18.32902
G01 X-12.28816 Y-18.45424
G01 X-12.28204 Y-18.44812
G04 P0 ( dwell for no time -- G64 should not smooth over this point )
G00 Z2.00000 ( retract )

G00 X-13.12766 Y-15.48623 ( rapid move to begin. )
G01 F60.00000
( Mill infeed pass 1/1 )
G01 Z-0.10000
G04 P0 ( dwell for no time -- G64 should not smooth over this point )
G01 F120.00000
G01 X-13.12766 Y-15.48623
G01 X-13.22748 Y-15.49497
G01 X-13.32730 Y-15.48623
G01 X-13.12766 Y-15.48623
G04 P0 ( dwell for no time -- G64 should not smooth over this point )
G00 Z2.00000 ( retract )

G00 X-12.23249 Y-14.49997 ( rapid move to begin. )
G01 F60.00000
( Mill infeed pass 1/1 )
G01 Z-0.10000
G04 P0 ( dwell for no time -- G64 should not smooth over this point )
G01 F120.00000
G01 X-12.23249 Y-14.49997
G01 X-12.24123 Y-14.40015
G01 X-12.24730 Y-14.40622
G01 X-12.23869 Y-14.50000
G01 X-12.24730 Y-14.59372
G01 X-12.24123 Y-14.59979
G01 X-12.23249 Y-14.49997
G04 P0 ( dwell for no time -- G64 should not smooth over this point )
G00 Z2.00000 ( retract )

G00 X-14.01869 Y-13.22675 ( rapid move to begin. )
G01 F60.00000
( Mill infeed pass 1/1 )
G01 Z-0.10000
G04 P0 ( dwell for no time -- G64 should not smooth over this point )
G01 F120.00000
G01 X-14.01869 Y-13.22675
G01 X-13.81658 Y-13.32949
G01 X-13.54033 Y-13.26490
G01 X-13.27328 Y-13.19378
G01 X-13.23515 Y-13.16101
G01 X-13.20584 Y-13.10795
G01 X-13.18484 Y-13.08064
G01 X-13.05169 Y-12.96924
G01 X-12.92192 Y-12.94039
G01 X-12.75423 Y-12.86708
G01 X-12.71318 Y-12.84338
G01 X-12.58430 Y-12.74976
G01 X-12.54907 Y-12.71803
G01 X-12.44247 Y-12.59964
G01 X-12.41461 Y-12.56129
G01 X-12.32418 Y-12.40216
G01 X-12.26030 Y-12.20556
G01 X-12.23869 Y-11.99998
G01 X-12.26030 Y-11.79441
G01 X-12.32418 Y-11.59782
G01 X-12.42753 Y-11.41877
G01 X-12.56586 Y-11.26515
G01 X-12.71318 Y-11.15659
G01 X-12.79809 Y-11.11336
G01 X-12.75423 Y-11.13290
G01 X-12.76398 Y-11.12853
G01 X-12.77399 Y-11.11336
G01 X-12.79809 Y-11.11336
G01 X-12.92192 Y-11.05959
G01 X-13.10068 Y-11.02032
G01 X-13.14780 Y-11.01537
G01 X-13.30714 Y-11.01537
G01 X-13.35430 Y-11.02032
G01 X-13.53304 Y-11.05959
G01 X-13.70073 Y-11.13290
G01 X-13.74181 Y-11.15659
G01 X-13.88913 Y-11.26515
G01 X-14.02745 Y-11.41877
G01 X-14.13081 Y-11.59782
G01 X-14.18900 Y-11.77315
G01 X-16.09862 Y-11.77315
G01 X-16.15138 Y-11.72200
G01 X-16.28668 Y-11.62367
G01 X-16.32773 Y-11.59998
G01 X-16.50268 Y-11.52345
G01 X-16.68264 Y-11.48392
G01 X-16.58084 Y-11.44422
G01 X-16.42643 Y-11.37422
G01 X-16.35910 Y-11.33782
G01 X-16.19321 Y-11.41438
G01 X-16.01808 Y-11.53853
G01 X-16.00838 Y-11.54641
G01 X-16.01183 Y-11.55723
G01 X-16.00838 Y-11.54641
G01 X-14.35362 Y-11.54641
G01 X-14.33485 Y-11.57811
G01 X-14.35362 Y-11.54641
G01 X-14.31641 Y-11.46327
G01 X-14.21089 Y-11.28550
G01 X-14.10249 Y-11.16142
G01 X-13.97310 Y-11.11336
G01 X-13.65687 Y-11.11336
G01 X-13.97310 Y-11.11336
G01 X-14.10960 Y-11.16414
G01 X-14.26347 Y-11.23264
G01 X-14.39718 Y-11.30099
G01 X-14.47884 Y-11.34814
G01 X-14.49675 Y-11.35649
G01 X-14.53553 Y-11.36332
G01 X-14.53449 Y-11.36828
G01 X-14.53553 Y-11.36332
G01 X-15.91117 Y-11.36515
G01 X-16.16865 Y-11.29337
G01 X-16.23982 Y-11.27823
G01 X-16.42643 Y-11.37422
G01 X-16.58084 Y-11.44422
G01 X-16.68264 Y-11.48392
G01 X-16.73636 Y-11.47757
G01 X-16.90360 Y-11.47757
G01 X-16.95077 Y-11.48253
G01 X-17.13728 Y-11.52345
G01 X-17.33339 Y-11.61075
G01 X-17.50705 Y-11.73693
G01 X-17.65069 Y-11.89645
G01 X-17.75800 Y-12.08235
G01 X-17.82435 Y-12.28651
G01 X-17.84678 Y-12.49997
G01 X-17.82435 Y-12.71346
G01 X-17.75800 Y-12.91763
G01 X-17.65069 Y-13.10353
G01 X-17.50705 Y-13.26304
G01 X-17.33339 Y-13.38923
G01 X-17.13728 Y-13.47653
G01 X-16.92732 Y-13.52116
G01 X-16.71267 Y-13.52116
G01 X-16.50268 Y-13.47653
G01 X-16.30660 Y-13.38923
G01 X-16.15138 Y-13.27795
G01 X-16.09857 Y-13.22675
G01 X-13.70523 Y-13.22568
G01 X-13.58567 Y-13.21280
G01 X-13.47028 Y-13.17894
G01 X-13.42921 Y-13.16192
G01 X-13.32367 Y-13.10427
G01 X-13.23000 Y-13.02883
G01 X-13.18428 Y-12.98461
G01 X-13.12413 Y-12.98336
G01 X-13.05169 Y-12.96924
G04 P0 ( dwell for no time -- G64 should not smooth over this point )
G00 Z2.00000 ( retract )

G00 X-17.27467 Y-8.58327 ( rapid move to begin. )
G01 F60.00000
( Mill infeed pass 1/1 )
G01 Z-0.10000
G04 P0 ( dwell for no time -- G64 should not smooth over this point )
G01 F120.00000
G01 X-17.27467 Y-8.58327
G01 X-17.13728 Y-8.52345
G01 X-16.95077 Y-8.48253
G01 X-16.90360 Y-8.47758
G01 X-16.73636 Y-8.47758
G01 X-16.68922 Y-8.48253
G01 X-16.50268 Y-8.52345
G01 X-16.32773 Y-8.59998
G01 X-16.28668 Y-8.62368
G01 X-16.13291 Y-8.73691
G01 X-15.98930 Y-8.89645
G01 X-15.88196 Y-9.08235
G01 X-15.81920 Y-9.27316
G01 X-13.89713 Y-9.27316
G01 X-13.87069 Y-9.25022
G01 X-13.72189 Y-9.14367
G01 X-13.53304 Y-9.05957
G01 X-13.33083 Y-9.01659
G01 X-13.14780 Y-9.01535
G01 X-13.10068 Y-9.02033
G01 X-12.92192 Y-9.05957
G01 X-12.75423 Y-9.13287
G01 X-12.71318 Y-9.15660
G01 X-12.58430 Y-9.25022
G01 X-12.54907 Y-9.28195
G01 X-12.42753 Y-9.41878
G01 X-12.32418 Y-9.59780
G01 X-12.26030 Y-9.79439
G01 X-12.23869 Y-9.99998
G01 X-12.26030 Y-10.20557
G01 X-12.31567 Y-10.38001
G01 X-12.33495 Y-10.42332
G01 X-12.42753 Y-10.58118
G01 X-12.54907 Y-10.71801
G01 X-12.58430 Y-10.74974
G01 X-12.71318 Y-10.84339
G01 X-12.76121 Y-10.87021
G01 X-12.77201 Y-10.88659
G01 X-12.79804 Y-10.88659
G01 X-12.76121 Y-10.87021
G01 X-12.92192 Y-10.94039
G01 X-13.10068 Y-10.97966
G01 X-13.14780 Y-10.98461
G01 X-13.30714 Y-10.98461
G01 X-13.35430 Y-10.97966
G01 X-13.53304 Y-10.94039
G01 X-13.65692 Y-10.88659
G01 X-14.00879 Y-10.88799
G01 X-14.08146 Y-10.91029
G01 X-14.19936 Y-10.95530
G01 X-14.36398 Y-11.02934
G01 X-14.56591 Y-11.13658
G01 X-15.89298 Y-11.13658
G01 X-16.11269 Y-11.07359
G01 X-16.19270 Y-11.05642
G01 X-16.29009 Y-10.94415
G01 X-16.53944 Y-10.69038
G01 X-16.28163 Y-10.95352
G01 X-14.19370 Y-10.95352
G01 X-14.07574 Y-10.90828
G01 X-14.02608 Y-10.89215
G01 X-13.99106 Y-10.88659
G01 X-13.99151 Y-10.88372
G01 X-13.99106 Y-10.88659
G01 X-13.65692 Y-10.88659
G01 X-13.74181 Y-10.84339
G01 X-13.89715 Y-10.72678
G01 X-16.31998 Y-10.72678
G01 X-16.43974 Y-10.71606
G01 X-16.48336 Y-10.70740
G01 X-16.57716 Y-10.67895
G01 X-16.61823 Y-10.66193
G01 X-16.70467 Y-10.61573
G01 X-16.74165 Y-10.59101
G01 X-16.82493 Y-10.52200
G01 X-16.90246 Y-10.52241
G01 X-16.95077 Y-10.51745
G01 X-17.11437 Y-10.48268
G01 X-17.15945 Y-10.46803
G01 X-17.33339 Y-10.38921
G01 X-17.48861 Y-10.27798
G01 X-17.52384 Y-10.24626
G01 X-17.65069 Y-10.10354
G01 X-17.74723 Y-9.93877
G01 X-17.76651 Y-9.89546
G01 X-17.82435 Y-9.71347
G01 X-17.84556 Y-9.52370
G01 X-17.84556 Y-9.47628
G01 X-17.82435 Y-9.28649
G01 X-17.75800 Y-9.08235
G01 X-17.65069 Y-8.89645
G01 X-17.50705 Y-8.73691
G01 X-17.35331 Y-8.62368
G01 X-17.27467 Y-8.58327
G01 X-17.23659 Y-8.53148
G01 X-17.15099 Y-8.39650
G01 X-17.11663 Y-8.33305
G01 X-17.00022 Y-8.32079
G01 X-16.90060 Y-8.31555
G01 X-16.73934 Y-8.31555
G01 X-16.63969 Y-8.32079
G01 X-16.47835 Y-8.33773
G01 X-16.37256 Y-8.35454
G01 X-16.27480 Y-8.37535
G01 X-16.19321 Y-8.41438
G01 X-15.98120 Y-8.56841
G01 X-15.80584 Y-8.76315
G01 X-15.67480 Y-8.99013
G01 X-15.65389 Y-9.04641
G01 X-15.67848 Y-9.08375
G01 X-15.65389 Y-9.04641
G01 X-13.97592 Y-9.04641
G01 X-13.97284 Y-9.05642
G01 X-13.97592 Y-9.04641
G01 X-13.87508 Y-8.97313
G01 X-13.81392 Y-8.93641
G01 X-13.99659 Y-8.98868
G01 X-14.02707 Y-8.99363
G01 X-14.02690 Y-8.99688
G01 X-14.02707 Y-8.99363
G01 X-14.24099 Y-8.97059
G01 X-14.47198 Y-8.90829
G01 X-14.67439 Y-8.81964
G01 X-15.50853 Y-8.81964
G01 X-15.52379 Y-8.84753
G01 X-15.50853 Y-8.81964
G01 X-15.58361 Y-8.68959
G01 X-15.62240 Y-8.62988
G01 X-15.65745 Y-8.58660
G01 X-15.79143 Y-8.52693
G01 X-15.93091 Y-8.47324
G01 X-16.09250 Y-8.42074
G01 X-16.27480 Y-8.37535
G01 X-16.09250 Y-8.42074
G01 X-15.93091 Y-8.47324
G01 X-15.79143 Y-8.52693
G01 X-15.62964 Y-8.59897
G01 X-15.43837 Y-8.69815
G01 X-15.40137 Y-8.71162
G01 X-15.40259 Y-8.71705
G01 X-15.40137 Y-8.71162
G01 X-14.85471 Y-8.71334
G01 X-14.67023 Y-8.82178
G01 X-14.47180 Y-8.90778
G01 X-14.24099 Y-8.97059
G01 X-14.02707 Y-8.99363
G01 X-13.99659 Y-8.98868
G01 X-13.81112 Y-8.93567
G01 X-13.65766 Y-8.90303
G01 X-13.55463 Y-8.88667
G01 X-13.40124 Y-8.87054
G01 X-13.30411 Y-8.86544
G01 X-13.15080 Y-8.86544
G01 X-13.05367 Y-8.87054
G01 X-12.96782 Y-8.87959
G01 X-12.91714 Y-8.96239
G01 X-12.81699 Y-9.10493
G01 X-12.74544 Y-8.80737
G01 X-12.63896 Y-8.96429
G01 X-12.60942 Y-9.09216
G01 X-12.59520 Y-9.13173
G01 X-12.57391 Y-9.16798
G01 X-12.50744 Y-9.25528
G01 X-12.43106 Y-9.33168
G01 X-12.32710 Y-9.48014
G01 X-12.25052 Y-9.64441
G01 X-12.20363 Y-9.81944
G01 X-12.18783 Y-9.99998
G01 X-12.20363 Y-10.18050
G01 X-12.25052 Y-10.35555
G01 X-12.32710 Y-10.51982
G01 X-12.43106 Y-10.66825
G01 X-12.47173 Y-10.71596
G01 X-12.53848 Y-10.82279
G01 X-12.55695 Y-10.88316
G01 X-12.57617 Y-11.00148
G01 X-12.57445 Y-11.00790
G01 X-12.57353 Y-10.99754
G01 X-12.57280 Y-11.03950
G01 X-12.56675 Y-11.07056
G01 X-12.54232 Y-11.16175
G01 X-12.52797 Y-11.20066
G01 X-12.50676 Y-11.23632
G01 X-12.46502 Y-11.29378
G01 X-12.43106 Y-11.33170
G01 X-12.32710 Y-11.48014
G01 X-12.25052 Y-11.64440
G01 X-12.20363 Y-11.81943
G01 X-12.18783 Y-11.99998
G01 X-12.20363 Y-12.18049
G01 X-12.25052 Y-12.35555
G01 X-12.32710 Y-12.51981
G01 X-12.43106 Y-12.66825
G01 X-12.55903 Y-12.79624
G01 X-12.72824 Y-12.91420
G01 X-12.82045 Y-12.99487
G01 X-12.86104 Y-13.04326
G01 X-12.90892 Y-13.14544
G01 X-13.01874 Y-13.23779
G01 X-13.05563 Y-13.30216
G01 X-13.05316 Y-13.30422
G01 X-13.05563 Y-13.30216
G01 X-13.09766 Y-13.34234
G01 X-13.16022 Y-13.39342
G01 X-13.15730 Y-13.39896
G01 X-13.16022 Y-13.39342
G01 X-13.19075 Y-13.40655
G01 X-13.38997 Y-13.46035
G01 X-13.81011 Y-13.56124
G01 X-13.80983 Y-13.56449
G01 X-13.81011 Y-13.56124
G01 X-13.84633 Y-13.56401
G01 X-13.88158 Y-13.55519
G01 X-13.88293 Y-13.55974
G01 X-13.88158 Y-13.55519
G01 X-13.94907 Y-13.51394
G01 X-14.10279 Y-13.43741
G01 X-13.94907 Y-13.51394
G01 X-13.88158 Y-13.55519
G01 X-13.84633 Y-13.56401
G01 X-13.81011 Y-13.56124
G01 X-13.48499 Y-13.48481
G01 X-13.19075 Y-13.40655
G01 X-13.16022 Y-13.39342
G01 X-13.09766 Y-13.34234
G01 X-13.05563 Y-13.30216
G01 X-13.01874 Y-13.23779
G01 X-12.90892 Y-13.14544
G01 X-12.92471 Y-13.18585
G01 X-12.93127 Y-13.21547
G01 X-12.93518 Y-13.32123
G01 X-13.13020 Y-13.51628
G01 X-13.33083 Y-13.51661
G01 X-13.51011 Y-13.55344
G01 X-13.55522 Y-13.56810
G01 X-13.72189 Y-13.64366
G01 X-13.87069 Y-13.75021
G01 X-13.90592 Y-13.78196
G01 X-14.01249 Y-13.90033
G01 X-14.04038 Y-13.93871
G01 X-14.13081 Y-14.09781
G01 X-14.18854 Y-14.27147
G01 X-14.19840 Y-14.31785
G01 X-14.21503 Y-14.47627
G01 X-14.21503 Y-14.52369
G01 X-14.20769 Y-14.59375
G01 X-14.21374 Y-14.59979
G01 X-14.22245 Y-14.49997
G01 X-14.20734 Y-14.32720
G01 X-14.16246 Y-14.15966
G01 X-14.08915 Y-14.00249
G01 X-14.05585 Y-13.94630
G01 X-14.00868 Y-13.82951
G01 X-14.00099 Y-13.76683
G01 X-14.00264 Y-13.67244
G01 X-14.01252 Y-13.61008
G01 X-14.07909 Y-13.46733
G01 X-14.12050 Y-13.41971
G01 X-14.19172 Y-13.35778
G01 X-14.24465 Y-13.32339
G01 X-14.36446 Y-13.28445
G01 X-14.39238 Y-13.27780
G01 X-14.44069 Y-13.27389
G01 X-15.93362 Y-13.27490
G01 X-16.08262 Y-13.30803
G01 X-16.17020 Y-13.35575
G01 X-16.28107 Y-13.43337
G01 X-16.45135 Y-13.51277
G01 X-16.63281 Y-13.56139
G01 X-16.81998 Y-13.57777
G01 X-17.00713 Y-13.56139
G01 X-17.18861 Y-13.51277
G01 X-17.35887 Y-13.43337
G01 X-17.51277 Y-13.32560
G01 X-17.64563 Y-13.19276
G01 X-17.75338 Y-13.03886
G01 X-17.83278 Y-12.86861
G01 X-17.88140 Y-12.68712
G01 X-17.89778 Y-12.49997
G01 X-17.88140 Y-12.31283
G01 X-17.83278 Y-12.13134
G01 X-17.75338 Y-11.96106
G01 X-17.64563 Y-11.80716
G01 X-17.51277 Y-11.67435
G01 X-17.35887 Y-11.56658
G01 X-17.18861 Y-11.48718
G01 X-17.00624 Y-11.43831
G01 X-16.96199 Y-11.42131
G01 X-16.85077 Y-11.36218
G01 X-16.82618 Y-11.34227
G01 X-16.76786 Y-11.27376
G01 X-16.67007 Y-11.23572
G01 X-16.52397 Y-11.16947
G01 X-16.43525 Y-11.12205
G01 X-16.45351 Y-11.10148
G01 X-16.46042 Y-11.13490
G01 X-16.46624 Y-11.13787
G01 X-16.46042 Y-11.13490
G01 X-16.45351 Y-11.10148
G01 X-16.69392 Y-10.85652
G01 X-16.67302 Y-10.97633
G01 X-16.67190 Y-11.03947
G01 X-16.71267 Y-11.19167
G01 X-16.72704 Y-11.21987
G01 X-16.76786 Y-11.27376
G01 X-16.72704 Y-11.21987
G01 X-16.71267 Y-11.19167
G01 X-16.67794 Y-11.07056
G01 X-16.67025 Y-11.00788
G01 X-16.68780 Y-10.88311
G01 X-16.70624 Y-10.82279
G01 X-16.79202 Y-10.69068
G01 X-16.83967 Y-10.64925
G01 X-16.94955 Y-10.58111
G01 X-17.18805 Y-10.51303
G01 X-17.35887 Y-10.43338
G01 X-17.51277 Y-10.32561
G01 X-17.64561 Y-10.19277
G01 X-17.75338 Y-10.03887
G01 X-17.83278 Y-9.86861
G01 X-17.88140 Y-9.68713
G01 X-17.89778 Y-9.49998
G01 X-17.88140 Y-9.31281
G01 X-17.83278 Y-9.13135
G01 X-17.75338 Y-8.96107
G01 X-17.64561 Y-8.80717
G01 X-17.57093 Y-8.73072
G01 X-17.50555 Y-8.63237
G01 X-17.47886 Y-8.57514
G01 X-17.45671 Y-8.44784
G01 X-17.42537 Y-8.40577
G01 X-17.33575 Y-8.26145
G01 X-17.46199 Y-8.18289
G01 X-17.56656 Y-8.13552
G01 X-17.51101 Y-8.20765
G01 X-17.49666 Y-8.23582
G01 X-17.45590 Y-8.38792
G01 X-17.45671 Y-8.44784
G01 X-17.45590 Y-8.38792
G01 X-17.46194 Y-8.35688
G01 X-17.48638 Y-8.26572
G01 X-17.51101 Y-8.20765
G01 X-17.61012 Y-8.08520
G01 X-17.66189 Y-8.04896
G01 X-17.78173 Y-7.99160
G01 X-17.81940 Y-7.98335
G01 X-17.90771 Y-7.97367
G01 X-25.89228 Y-7.97367
G01 X-25.93934 Y-7.97862
G01 X-26.06213 Y-8.00697
G01 X-26.11793 Y-8.03664
G01 X-26.19431 Y-8.09214
G01 X-26.21851 Y-8.11246
G01 X-26.24242 Y-8.14004
G01 X-26.34155 Y-8.18477
G01 X-26.46431 Y-8.25929
G01 X-26.41153 Y-8.35025
G01 X-26.34435 Y-8.44946
G01 X-26.34465 Y-8.45909
G01 X-26.32819 Y-8.30242
G01 X-26.30454 Y-8.24393
G01 X-26.24242 Y-8.14004
G01 X-26.30454 Y-8.24393
G01 X-26.32819 Y-8.30242
G01 X-26.34465 Y-8.45909
G01 X-26.33373 Y-8.52127
G01 X-26.30454 Y-8.61103
G01 X-26.28956 Y-8.64659
G01 X-26.26876 Y-8.67908
G01 X-26.21313 Y-8.74834
G01 X-26.15433 Y-8.80717
G01 X-26.04656 Y-8.96107
G01 X-25.96716 Y-9.13135
G01 X-25.91857 Y-9.31281
G01 X-25.90218 Y-9.49998
G01 X-25.91857 Y-9.68713
G01 X-25.96716 Y-9.86861
G01 X-26.04656 Y-10.03887
G01 X-26.15433 Y-10.19277
G01 X-26.28717 Y-10.32561
G01 X-26.44107 Y-10.43338
G01 X-26.61133 Y-10.51278
G01 X-26.79370 Y-10.56165
G01 X-26.83792 Y-10.57862
G01 X-26.94920 Y-10.63777
G01 X-26.97378 Y-10.65769
G01 X-27.03208 Y-10.72619
G01 X-27.12994 Y-10.76427
G01 X-27.27597 Y-10.83048
G01 X-27.33952 Y-10.86508
G01 X-27.35311 Y-10.93282
G01 X-27.35641 Y-10.99599
G01 X-27.33840 Y-11.13800
G01 X-27.58242 Y-11.00811
G01 X-27.58313 Y-10.99995
G01 X-27.58270 Y-10.99144
G01 X-27.33952 Y-10.86508
G01 X-27.59773 Y-10.99957
G01 X-27.27663 Y-11.16983
G01 X-27.03271 Y-11.27519
G01 X-27.02697 Y-11.28400
G01 X-27.07838 Y-11.20483
G01 X-27.10508 Y-11.14763
G01 X-27.12969 Y-10.99205
G01 X-27.12199 Y-10.92939
G01 X-27.08727 Y-10.80831
G01 X-27.07292 Y-10.78012
G01 X-27.03208 Y-10.72619
G01 X-27.07292 Y-10.78012
G01 X-27.08727 Y-10.80831
G01 X-27.12199 Y-10.92939
G01 X-27.12969 Y-10.99205
G01 X-27.10508 Y-11.14763
G01 X-27.07838 Y-11.20483
G01 X-27.00792 Y-11.30927
G01 X-26.96027 Y-11.35070
G01 X-26.85039 Y-11.41885
G01 X-26.61188 Y-11.48692
G01 X-26.44107 Y-11.56658
G01 X-26.28717 Y-11.67435
G01 X-26.15433 Y-11.80716
G01 X-26.04656 Y-11.96106
G01 X-25.96716 Y-12.13134
G01 X-25.91857 Y-12.31283
G01 X-25.90218 Y-12.49995
G01 X-25.91857 Y-12.68712
G01 X-25.96716 Y-12.86861
G01 X-26.04656 Y-13.03886
G01 X-26.15433 Y-13.19279
G01 X-26.28717 Y-13.32560
G01 X-26.44107 Y-13.43337
G01 X-26.61133 Y-13.51277
G01 X-26.79281 Y-13.56139
G01 X-26.97998 Y-13.57777
G01 X-27.16713 Y-13.56139
G01 X-27.34861 Y-13.51277
G01 X-27.51887 Y-13.43337
G01 X-27.64986 Y-13.34318
G01 X-27.75806 Y-13.29588
G01 X-27.79088 Y-13.28481
G01 X-27.82501 Y-13.27887
G01 X-27.89006 Y-13.27363
G01 X-28.84820 Y-13.27490
G01 X-28.96400 Y-13.29825
G01 X-29.02331 Y-13.31986
G01 X-29.12648 Y-13.39210
G01 X-29.15072 Y-13.41244
G01 X-29.17464 Y-13.44003
G01 X-29.28671 Y-13.49223
G01 X-29.37533 Y-13.57546
G01 X-29.43926 Y-13.64041
G01 X-29.43713 Y-13.64361
G01 X-29.43926 Y-13.64041
G01 X-29.47157 Y-13.65745
G01 X-29.48937 Y-13.66187
G01 X-29.48843 Y-13.66647
G01 X-29.48937 Y-13.66187
G01 X-30.90001 Y-13.66335
G01 X-30.97431 Y-13.73309
G01 X-31.09323 Y-13.86515
G01 X-31.13804 Y-13.92050
G01 X-31.17682 Y-13.98021
G01 X-31.26567 Y-14.13411
G01 X-31.29801 Y-14.19756
G01 X-31.32351 Y-14.26403
G01 X-31.37842 Y-14.43304
G01 X-31.39686 Y-14.50183
G01 X-31.41185 Y-14.60868
G01 X-31.38274 Y-14.63518
G01 X-31.41185 Y-14.60868
G01 X-31.42993 Y-14.61092
G01 X-31.52163 Y-14.63548
G01 X-31.61088 Y-14.66621
G01 X-31.69821 Y-14.70327
G01 X-31.77957 Y-14.75214
G01 X-31.85330 Y-14.81186
G01 X-31.92234 Y-14.87622
G01 X-31.99999 Y-14.96403
G01 X-31.99999 Y-14.63954
G01 X-31.90961 Y-14.56639
G01 X-31.80116 Y-14.50124
G01 X-31.68470 Y-14.45181
G01 X-31.61111 Y-14.42646
G01 X-31.59290 Y-14.44335
G01 X-31.61111 Y-14.42646
G01 X-31.53918 Y-14.19395
G01 X-31.50514 Y-14.10533
G01 X-31.46204 Y-14.02072
G01 X-31.37319 Y-13.86683
G01 X-31.32148 Y-13.78720
G01 X-31.26174 Y-13.71341
G01 X-31.21665 Y-13.66335
G01 X-30.90001 Y-13.66335
G01 X-31.51106 Y-13.66335
G01 X-31.56958 Y-13.75347
G01 X-31.65843 Y-13.90734
G01 X-31.71231 Y-14.01310
G01 X-31.75483 Y-14.12390
G01 X-31.79704 Y-14.25374
G01 X-31.78383 Y-14.26530
G01 X-31.79704 Y-14.25374
G01 X-31.90410 Y-14.29918
G01 X-31.99999 Y-14.35679
G01 X-31.99999 Y-14.09416
G01 X-31.98099 Y-14.08608
G01 X-31.96643 Y-14.09997
G01 X-31.98099 Y-14.08608
G01 X-31.91947 Y-13.92085
G01 X-31.85480 Y-13.79398
G01 X-31.77939 Y-13.66335
G01 X-31.51106 Y-13.66335
G01 X-31.99999 Y-13.66335
G01 X-31.99999 Y-18.99999
G01 X-31.96156 Y-19.39016
G01 X-31.84774 Y-19.76537
G01 X-31.66293 Y-20.11114
G01 X-31.41421 Y-20.41421
G01 X-31.11114 Y-20.66293
G01 X-30.76534 Y-20.84774
G01 X-30.39016 Y-20.96155
G01 X-29.99999 Y-20.99998
G01 X-2.99999 Y-20.99998
G01 X-2.60980 Y-20.96155
G01 X-2.23462 Y-20.84774
G01 X-1.88885 Y-20.66293
G01 X-1.58577 Y-20.41421
G01 X-1.33706 Y-20.11114
G01 X-1.15222 Y-19.76537
G01 X-1.03843 Y-19.39016
G01 X-1.00000 Y-18.99999
G01 X-1.04691 Y-18.99188
G01 X-1.27366 Y-18.99188
G01 X-1.04691 Y-18.99188
G01 X-1.00000 Y-18.99999
G01 X-1.00000 Y-2.99999
G01 X-1.03843 Y-2.60980
G01 X-1.15222 Y-2.23462
G01 X-1.33706 Y-1.88885
G01 X-1.58577 Y-1.58577
G01 X-1.88885 Y-1.33706
G01 X-2.23462 Y-1.15222
G01 X-2.60980 Y-1.03843
G01 X-2.99999 Y-1.00000
G01 X-29.99999 Y-1.00000
G01 X-30.39016 Y-1.03843
G01 X-30.76534 Y-1.15222
G01 X-31.11114 Y-1.33706
G01 X-31.41421 Y-1.58577
G01 X-31.66293 Y-1.88885
G01 X-31.84774 Y-2.23462
G01 X-31.96156 Y-2.60980
G01 X-31.99999 Y-2.99999
G01 X-31.99999 Y-6.37022
G01 X-31.91373 Y-6.47763
G01 X-31.84319 Y-6.54113
G01 X-31.76453 Y-6.59420
G01 X-31.68279 Y-6.64141
G01 X-31.59745 Y-6.68304
G01 X-31.57090 Y-6.69166
G01 X-31.71058 Y-6.80197
G01 X-31.77969 Y-6.84583
G01 X-31.87791 Y-6.79059
G01 X-31.98279 Y-6.71985
G01 X-31.99999 Y-6.70438
G01 X-31.99999 Y-6.37022
G01 X-31.99999 Y-6.98111
G01 X-31.99671 Y-6.98332
G01 X-31.99999 Y-6.98111
G01 X-31.99999 Y-6.98520
G01 X-31.71058 Y-6.80197
G01 X-31.48487 Y-6.62366
G01 X-31.38675 Y-6.53532
G01 X-31.21891 Y-6.35262
G01 X-31.15988 Y-6.27172
G01 X-31.21891 Y-6.35262
G01 X-31.36024 Y-6.50644
G01 X-31.45231 Y-6.49234
G01 X-31.51251 Y-6.47278
G01 X-31.56941 Y-6.44505
G01 X-31.65114 Y-6.39785
G01 X-31.70359 Y-6.36247
G01 X-31.75061 Y-6.32013
G01 X-31.79127 Y-6.27167
G01 X-31.84677 Y-6.19529
G01 X-31.88033 Y-6.14159
G01 X-31.90608 Y-6.08376
G01 X-31.92353 Y-6.02290
G01 X-31.94314 Y-5.93057
G01 X-31.95302 Y-5.83636
G01 X-31.95302 Y-3.00810
G01 X-31.93786 Y-2.77167
G01 X-31.92958 Y-2.71115
G01 X-31.88640 Y-2.50177
G01 X-31.86885 Y-2.43949
G01 X-31.79630 Y-2.23837
G01 X-31.76773 Y-2.17490
G01 X-31.64980 Y-1.95892
G01 X-31.61480 Y-1.90447
G01 X-31.50603 Y-1.75918
G01 X-31.46709 Y-1.71374
G01 X-31.31756 Y-1.56096
G01 X-31.26522 Y-1.51514
G01 X-31.06821 Y-1.36766
G01 X-31.00946 Y-1.33035
G01 X-30.82072 Y-1.22992
G01 X-30.76158 Y-1.20366
G01 X-30.56049 Y-1.13111
G01 X-30.49819 Y-1.11356
G01 X-30.28879 Y-1.07038
G01 X-30.22831 Y-1.06210
G01 X-29.99186 Y-1.04691
G01 X-3.00810 Y-1.04691
G01 X-2.77162 Y-1.06210
G01 X-2.71115 Y-1.07038
G01 X-2.50175 Y-1.11356
G01 X-2.43944 Y-1.13111
G01 X-2.23835 Y-1.20366
G01 X-2.17919 Y-1.22992
G01 X-1.99047 Y-1.33035
G01 X-1.93568 Y-1.36472
G01 X-1.76314 Y-1.49098
G01 X-1.71374 Y-1.53286
G01 X-1.56096 Y-1.68239
G01 X-1.51811 Y-1.73081
G01 X-1.38814 Y-1.90055
G01 X-1.35255 Y-1.95463
G01 X-1.24805 Y-2.14117
G01 X-1.21879 Y-2.20434
G01 X-1.13281 Y-2.43487
G01 X-1.11356 Y-2.50175
G01 X-1.07038 Y-2.71115
G01 X-1.06210 Y-2.77162
G01 X-1.04798 Y-2.97696
G01 X-1.04691 Y-18.99188
G01 X-1.06210 Y-19.22831
G01 X-1.07038 Y-19.28879
G01 X-1.11356 Y-19.49818
G01 X-1.13111 Y-19.56046
G01 X-1.20366 Y-19.76158
G01 X-1.22992 Y-19.82076
G01 X-1.33035 Y-20.00948
G01 X-1.36766 Y-20.06821
G01 X-1.51514 Y-20.26521
G01 X-1.56096 Y-20.31756
G01 X-1.71374 Y-20.46709
G01 X-1.76314 Y-20.50898
G01 X-1.93568 Y-20.63524
G01 X-1.99047 Y-20.66961
G01 X-2.17919 Y-20.77004
G01 X-2.23837 Y-20.79630
G01 X-2.43949 Y-20.86884
G01 X-2.50177 Y-20.88639
G01 X-2.71115 Y-20.92957
G01 X-2.77167 Y-20.93785
G01 X-2.97701 Y-20.95195
G01 X-29.99186 Y-20.95302
G01 X-30.22826 Y-20.93785
G01 X-30.28879 Y-20.92957
G01 X-30.49819 Y-20.88639
G01 X-30.56049 Y-20.86884
G01 X-30.76158 Y-20.79630
G01 X-30.82072 Y-20.77004
G01 X-31.00946 Y-20.66961
G01 X-31.06430 Y-20.63521
G01 X-31.23682 Y-20.50895
G01 X-31.28615 Y-20.46712
G01 X-31.43895 Y-20.31759
G01 X-31.48482 Y-20.26521
G01 X-31.63230 Y-20.06821
G01 X-31.66961 Y-20.00946
G01 X-31.77004 Y-19.82071
G01 X-31.79630 Y-19.76158
G01 X-31.86885 Y-19.56049
G01 X-31.88640 Y-19.49818
G01 X-31.92958 Y-19.28879
G01 X-31.93778 Y-19.22955
G01 X-31.95246 Y-19.00812
G01 X-31.95302 Y-15.50408
G01 X-31.94677 Y-15.41729
G01 X-31.93491 Y-15.34909
G01 X-31.91281 Y-15.28351
G01 X-31.87593 Y-15.19662
G01 X-31.84718 Y-15.14020
G01 X-31.81088 Y-15.08836
G01 X-31.76770 Y-15.04208
G01 X-31.69867 Y-14.97772
G01 X-31.64952 Y-14.93789
G01 X-31.59529 Y-14.90533
G01 X-31.53705 Y-14.88062
G01 X-31.44779 Y-14.84988
G01 X-31.38668 Y-14.83350
G01 X-31.32386 Y-14.82578
G01 X-31.20291 Y-14.83195
G01 X-31.15297 Y-14.88785
G01 X-31.20291 Y-14.83195
G01 X-31.20106 Y-14.77259
G01 X-31.17507 Y-14.54897
G01 X-31.09084 Y-14.28979
G01 X-30.98046 Y-14.09360
G01 X-30.92470 Y-14.01689
G01 X-30.77223 Y-13.85125
G01 X-30.59158 Y-13.71694
G01 X-30.55175 Y-13.69108
G01 X-30.49562 Y-13.66335
G01 X-29.48937 Y-13.66187
G01 X-29.47157 Y-13.65745
G01 X-29.43926 Y-13.64041
G01 X-29.28671 Y-13.49223
G01 X-29.17464 Y-13.44003
G01 X-29.23680 Y-13.54397
G01 X-29.26042 Y-13.60246
G01 X-29.27581 Y-13.72746
G01 X-29.27360 Y-13.79057
G01 X-29.23675 Y-13.91110
G01 X-29.22179 Y-13.94658
G01 X-29.16494 Y-14.02603
G01 X-29.07010 Y-14.12364
G01 X-29.02140 Y-14.19316
G01 X-29.02486 Y-14.19316
G01 X-29.17947 Y-14.01976
G01 X-29.34167 Y-13.90038
G01 X-29.38275 Y-13.87668
G01 X-29.54508 Y-13.80439
G01 X-29.59016 Y-13.78974
G01 X-29.78744 Y-13.74910
G01 X-29.98884 Y-13.74785
G01 X-30.03598 Y-13.75280
G01 X-30.23273 Y-13.79588
G01 X-30.43839 Y-13.88745
G01 X-30.62051 Y-14.01976
G01 X-30.75620 Y-14.16860
G01 X-30.78406 Y-14.20698
G01 X-30.88368 Y-14.38201
G01 X-30.95325 Y-14.59611
G01 X-30.97680 Y-14.81999
G01 X-30.95325 Y-15.04386
G01 X-30.88368 Y-15.25796
G01 X-30.77113 Y-15.45290
G01 X-30.63730 Y-15.60342
G01 X-30.60205 Y-15.63515
G01 X-30.52679 Y-15.68983
G01 X-30.52679 Y-15.69855
G01 X-30.59633 Y-15.64983
G01 X-30.72983 Y-15.51633
G01 X-30.83817 Y-15.36164
G01 X-30.86120 Y-15.31224
G01 X-30.88561 Y-15.27162
G01 X-30.96316 Y-15.17233
G01 X-31.01360 Y-15.13431
G01 X-31.09615 Y-15.08857
G01 X-31.15508 Y-15.06596
G01 X-31.28035 Y-15.05278
G01 X-31.34340 Y-15.05608
G01 X-31.46323 Y-15.09502
G01 X-31.51947 Y-15.12367
G01 X-31.61307 Y-15.20792
G01 X-31.65282 Y-15.25702
G01 X-31.70408 Y-15.37211
G01 X-31.71513 Y-15.40490
G01 X-31.72628 Y-15.50406
G01 X-31.72572 Y-19.00809
G01 X-31.70751 Y-19.24299
G01 X-31.66433 Y-19.45239
G01 X-31.58299 Y-19.68462
G01 X-31.46943 Y-19.90296
G01 X-31.45079 Y-19.93232
G01 X-31.28038 Y-20.15551
G01 X-31.10288 Y-20.32597
G01 X-30.90296 Y-20.46943
G01 X-30.68462 Y-20.58299
G01 X-30.45239 Y-20.66432
G01 X-30.21272 Y-20.71164
G01 X-29.99186 Y-20.72627
G01 X-3.00810 Y-20.72627
G01 X-2.78722 Y-20.71164
G01 X-2.54757 Y-20.66432
G01 X-2.28572 Y-20.56986
G01 X-2.06959 Y-20.45223
G01 X-1.89705 Y-20.32597
G01 X-1.71958 Y-20.15551
G01 X-1.69664 Y-20.12932
G01 X-1.53053 Y-19.90296
G01 X-1.41696 Y-19.68464
G01 X-1.33563 Y-19.45239
G01 X-1.28831 Y-19.21274
G01 X-1.27366 Y-18.99188
G01 X-1.27366 Y-3.00810
G01 X-1.28831 Y-2.78719
G01 X-1.33563 Y-2.54754
G01 X-1.43124 Y-2.28356
G01 X-1.44587 Y-2.25199
G01 X-1.56817 Y-2.03840
G01 X-1.71958 Y-1.84445
G01 X-1.89705 Y-1.67399
G01 X-2.09700 Y-1.53053
G01 X-2.31531 Y-1.41696
G01 X-2.54754 Y-1.33563
G01 X-2.78719 Y-1.28831
G01 X-3.00810 Y-1.27366
G01 X-29.99186 Y-1.27366
G01 X-30.24299 Y-1.29245
G01 X-30.48353 Y-1.34442
G01 X-30.71421 Y-1.43010
G01 X-30.93232 Y-1.54917
G01 X-31.15551 Y-1.71958
G01 X-31.32452 Y-1.89507
G01 X-31.45076 Y-2.06759
G01 X-31.58299 Y-2.31531
G01 X-31.66433 Y-2.54757
G01 X-31.70751 Y-2.75694
G01 X-31.72574 Y-2.99255
G01 X-31.72628 Y-5.83636
G01 X-31.72132 Y-5.88345
G01 X-31.69298 Y-6.00624
G01 X-31.66334 Y-6.06199
G01 X-31.60784 Y-6.13837
G01 X-31.56400 Y-6.18378
G01 X-31.53776 Y-6.20146
G01 X-31.45602 Y-6.24865
G01 X-31.39747 Y-6.27233
G01 X-31.24081 Y-6.28876
G01 X-31.17868 Y-6.27781
G01 X-31.05381 Y-6.23390
G01 X-31.02168 Y-6.21347
G01 X-30.88168 Y-6.10697
G01 X-30.80492 Y-6.07835
G01 X-30.78571 Y-6.07629
G01 X-29.01424 Y-6.07629
G01 X-28.99504 Y-6.07835
G01 X-28.91747 Y-6.10728
G01 X-28.85445 Y-6.15445
G01 X-28.77188 Y-6.26267
G01 X-28.65862 Y-6.36049
G01 X-28.60149 Y-6.38734
G01 X-28.51132 Y-6.41523
G01 X-28.48318 Y-6.42198
G01 X-28.43390 Y-6.42605
G01 X-13.45128 Y-6.42625
G01 X-13.30409 Y-6.45556
G01 X-13.21554 Y-6.46425
G01 X-12.42982 Y-6.46425
G01 X-12.38837 Y-6.46750
G01 X-12.27069 Y-6.45665
G01 X-12.21590 Y-6.44362
G01 X-12.22413 Y-6.50481
G01 X-12.22177 Y-6.53633
G01 X-12.20823 Y-6.62976
G01 X-12.19177 Y-6.70230
G01 X-12.19383 Y-8.31687
G01 X-12.22278 Y-8.39450
G01 X-12.26995 Y-8.45751
G01 X-12.33294 Y-8.50466
G01 X-12.38761 Y-8.53034
G01 X-12.46726 Y-8.58098
G01 X-12.51532 Y-8.62195
G01 X-12.53462 Y-8.64707
G01 X-12.58677 Y-8.72576
G01 X-12.61394 Y-8.78266
G01 X-12.63703 Y-8.90646
G01 X-12.63874 Y-8.96960
G01 X-12.63703 Y-8.90646
G01 X-12.61394 Y-8.78266
G01 X-12.60234 Y-8.75327
G01 X-12.56309 Y-8.69005
G01 X-12.65476 Y-8.73831
G01 X-12.74823 Y-8.80293
G01 X-12.74544 Y-8.80737
G01 X-12.66888 Y-8.48878
G01 X-12.46548 Y-8.48878
G01 X-12.42123 Y-8.48444
G01 X-12.37869 Y-8.47153
G01 X-12.33947 Y-8.45055
G01 X-12.30511 Y-8.42236
G01 X-12.27691 Y-8.38799
G01 X-12.25596 Y-8.34878
G01 X-12.24305 Y-8.30623
G01 X-12.23869 Y-8.26198
G01 X-12.23869 Y-6.73798
G01 X-12.24305 Y-6.69374
G01 X-12.25596 Y-6.65117
G01 X-12.27691 Y-6.61198
G01 X-12.30511 Y-6.57761
G01 X-12.33947 Y-6.54942
G01 X-12.37869 Y-6.52843
G01 X-12.42123 Y-6.51556
G01 X-12.46548 Y-6.51119
G01 X-13.29761 Y-6.51119
G01 X-13.39632 Y-6.48559
G01 X-13.52748 Y-6.47316
G01 X-28.82318 Y-6.47316
G01 X-28.82318 Y-6.35000
G01 X-28.82755 Y-6.30575
G01 X-28.84046 Y-6.26318
G01 X-28.86141 Y-6.22399
G01 X-28.88960 Y-6.18962
G01 X-28.92400 Y-6.16141
G01 X-28.96319 Y-6.14045
G01 X-29.00573 Y-6.12755
G01 X-29.04998 Y-6.12318
G01 X-30.74998 Y-6.12318
G01 X-30.79422 Y-6.12755
G01 X-30.83677 Y-6.14045
G01 X-30.87599 Y-6.16141
G01 X-30.91035 Y-6.18962
G01 X-30.93857 Y-6.22399
G01 X-30.95953 Y-6.26318
G01 X-30.97243 Y-6.30575
G01 X-30.97680 Y-6.35000
G01 X-30.97680 Y-8.05000
G01 X-30.97243 Y-8.09424
G01 X-30.95953 Y-8.13679
G01 X-30.93857 Y-8.17598
G01 X-30.91035 Y-8.21035
G01 X-30.87599 Y-8.23857
G01 X-30.83677 Y-8.25952
G01 X-30.79422 Y-8.27242
G01 X-30.74998 Y-8.27679
G01 X-29.04998 Y-8.27679
G01 X-29.00573 Y-8.27242
G01 X-28.96319 Y-8.25952
G01 X-28.92400 Y-8.23857
G01 X-28.88960 Y-8.21035
G01 X-28.86141 Y-8.17598
G01 X-28.84046 Y-8.13679
G01 X-28.82755 Y-8.09424
G01 X-28.82318 Y-8.05000
G01 X-28.82318 Y-7.92678
G01 X-14.21628 Y-7.92678
G01 X-14.21628 Y-8.26198
G01 X-14.21194 Y-8.30623
G01 X-14.19903 Y-8.34878
G01 X-14.17808 Y-8.38799
G01 X-14.14986 Y-8.42236
G01 X-14.11549 Y-8.45055
G01 X-14.07627 Y-8.47153
G01 X-14.03373 Y-8.48444
G01 X-13.98948 Y-8.48878
G01 X-12.66888 Y-8.48878
G01 X-12.77849 Y-8.54817
G01 X-12.93330 Y-8.65520
G01 X-13.03292 Y-8.64471
G01 X-13.14780 Y-8.63841
G01 X-13.30714 Y-8.63869
G01 X-13.41613 Y-8.64372
G01 X-13.58130 Y-8.66148
G01 X-13.69614 Y-8.67954
G01 X-13.86563 Y-8.71555
G01 X-13.98948 Y-8.71555
G01 X-14.07798 Y-8.70684
G01 X-14.16307 Y-8.68101
G01 X-14.24148 Y-8.63910
G01 X-14.31021 Y-8.58271
G01 X-14.36660 Y-8.51398
G01 X-14.40853 Y-8.43557
G01 X-14.43434 Y-8.35048
G01 X-14.44305 Y-8.26198
G01 X-14.44305 Y-8.15353
G01 X-14.38285 Y-8.09061
G01 X-14.44305 Y-8.15353
G01 X-16.22758 Y-8.15353
G01 X-16.02506 Y-8.20369
G01 X-15.85796 Y-8.25851
G01 X-15.70723 Y-8.31637
G01 X-15.56329 Y-8.38030
G01 X-14.65816 Y-8.38030
G01 X-14.62341 Y-8.33435
G01 X-14.65816 Y-8.38030
G01 X-14.65674 Y-8.39470
G01 X-14.61800 Y-8.52233
G01 X-14.56588 Y-8.61987
G01 X-14.38905 Y-8.69650
G01 X-14.20688 Y-8.74624
G01 X-14.04056 Y-8.76498
G01 X-13.86563 Y-8.71555
G01 X-14.04056 Y-8.76498
G01 X-14.20688 Y-8.74624
G01 X-14.38905 Y-8.69650
G01 X-14.57345 Y-8.61659
G01 X-14.76571 Y-8.50247
G01 X-14.80345 Y-8.48838
G01 X-14.80157 Y-8.48119
G01 X-14.80345 Y-8.48838
G01 X-15.35148 Y-8.48657
G01 X-15.53461 Y-8.39307
G01 X-15.70185 Y-8.31860
G01 X-15.85227 Y-8.26054
G01 X-16.03083 Y-8.20250
G01 X-16.16105 Y-8.16767
G01 X-16.32829 Y-8.13211
G01 X-16.45166 Y-8.11228
G01 X-16.61894 Y-8.09495
G01 X-16.73040 Y-8.08845
G01 X-16.90954 Y-8.08893
G01 X-17.02102 Y-8.09495
G01 X-17.15356 Y-8.10892
G01 X-17.34736 Y-7.98665
G01 X-17.47685 Y-7.92678
G04 P0 ( dwell for no time -- G64 should not smooth over this point )
G00 Z2.00000 ( retract )

G00 X-26.32111 Y-7.92678 ( rapid move to begin. )
G01 F60.00000
( Mill infeed pass 1/1 )
G01 Z-0.10000
G04 P0 ( dwell for no time -- G64 should not smooth over this point )
G01 F120.00000
G01 X-26.32111 Y-7.92678
G01 X-26.45029 Y-7.98515
G01 X-26.55120 Y-8.04433
G01 X-26.64668 Y-8.10887
G01 X-26.77894 Y-8.09495
G01 X-26.89040 Y-8.08893
G01 X-27.06360 Y-8.08830
G01 X-27.18100 Y-8.09495
G01 X-27.34828 Y-8.11228
G01 X-27.46586 Y-8.13105
G01 X-27.57233 Y-8.15353
G01 X-28.60972 Y-8.15353
G01 X-28.64282 Y-8.10890
G01 X-28.60972 Y-8.15353
G01 X-28.63096 Y-8.22355
G01 X-28.67287 Y-8.30196
G01 X-28.69154 Y-8.32472
G01 X-28.79809 Y-8.37324
G01 X-28.52031 Y-8.24677
G01 X-28.48943 Y-8.23773
G01 X-28.49044 Y-8.23293
G01 X-28.48943 Y-8.23773
G01 X-27.87447 Y-8.23658
G01 X-27.76911 Y-8.20250
G01 X-27.57233 Y-8.15353
G01 X-27.76911 Y-8.20250
G01 X-27.87447 Y-8.23658
G01 X-28.48943 Y-8.23773
G01 X-28.52031 Y-8.24677
G01 X-28.79809 Y-8.37324
G01 X-28.92278 Y-8.40161
G01 X-29.05427 Y-8.41159
G01 X-29.37086 Y-8.41159
G01 X-29.52692 Y-8.38368
G01 X-29.71051 Y-8.36381
G01 X-29.81114 Y-8.35894
G01 X-29.99478 Y-8.35866
G01 X-30.08942 Y-8.36422
G01 X-30.26712 Y-8.38289
G01 X-30.36796 Y-8.39813
G01 X-30.55719 Y-8.43897
G01 X-30.66992 Y-8.46943
G01 X-30.76910 Y-8.50166
G01 X-30.83847 Y-8.49483
G01 X-30.92356 Y-8.46902
G01 X-31.00197 Y-8.42711
G01 X-31.07070 Y-8.37070
G01 X-31.12712 Y-8.30196
G01 X-31.16903 Y-8.22355
G01 X-31.19483 Y-8.13846
G01 X-31.20354 Y-8.05000
G01 X-31.20354 Y-6.67108
G01 X-31.23072 Y-6.70055
G01 X-31.33585 Y-6.79463
G01 X-31.43029 Y-6.86956
G01 X-31.43029 Y-8.05000
G01 X-31.41723 Y-8.18271
G01 X-31.37852 Y-8.31032
G01 X-31.31566 Y-8.42795
G01 X-31.23105 Y-8.53105
G01 X-31.15363 Y-8.59457
G01 X-30.98013 Y-8.56036
G01 X-30.76910 Y-8.50166
G01 X-30.98013 Y-8.56036
G01 X-31.19105 Y-8.60196
G01 X-31.43722 Y-8.63554
G01 X-31.50418 Y-8.55393
G01 X-31.58802 Y-8.39711
G01 X-31.63964 Y-8.22696
G01 X-31.65706 Y-8.05000
G01 X-31.65706 Y-7.03659
G01 X-31.88381 Y-7.17997
G01 X-31.88381 Y-8.05000
G01 X-31.86204 Y-8.27118
G01 X-31.79750 Y-8.48388
G01 X-31.70293 Y-8.66082
G01 X-31.43722 Y-8.63554
G01 X-31.75152 Y-8.66534
G01 X-31.95058 Y-8.67621
G01 X-31.99999 Y-8.58383
G01 X-31.95058 Y-8.67621
G01 X-31.99999 Y-8.67890
G01 X-31.99999 Y-7.24703
G01 X-31.87459 Y-7.17453
G01 X-31.58416 Y-6.99033
G01 X-31.34144 Y-6.79935
G01 X-31.22338 Y-6.69267
G01 X-31.04751 Y-6.50121
G01 X-30.97680 Y-6.40552
G04 P0 ( dwell for no time -- G64 should not smooth over this point )
G00 Z2.00000 ( retract )

G00 X-26.52865 Y-8.58175 ( rapid move to begin. )
G01 F60.00000
( Mill infeed pass 1/1 )
G01 Z-0.10000
G04 P0 ( dwell for no time -- G64 should not smooth over this point )
G01 F120.00000
G01 X-26.52865 Y-8.58175
G01 X-26.44666 Y-8.62368
G01 X-26.29289 Y-8.73691
G01 X-26.16421 Y-8.87801
G01 X-26.13637 Y-8.91637
G01 X-26.04196 Y-9.08235
G01 X-25.98176 Y-9.26358
G01 X-25.97191 Y-9.30994
G01 X-25.95319 Y-9.49998
G01 X-25.97561 Y-9.71347
G01 X-26.03345 Y-9.89546
G01 X-26.05273 Y-9.93877
G01 X-26.13637 Y-10.08362
G01 X-26.16421 Y-10.12198
G01 X-26.29289 Y-10.26305
G01 X-26.44666 Y-10.37628
G01 X-26.48773 Y-10.40000
G01 X-26.64054 Y-10.46803
G01 X-26.68562 Y-10.48268
G01 X-26.87267 Y-10.52116
G01 X-27.08732 Y-10.52116
G01 X-27.29728 Y-10.47653
G01 X-27.47223 Y-10.40000
G01 X-27.51331 Y-10.37628
G01 X-27.64861 Y-10.27798
G01 X-27.70139 Y-10.22678
G01 X-28.94302 Y-10.22678
G01 X-29.02885 Y-10.37290
G01 X-29.16268 Y-10.52342
G01 X-29.19791 Y-10.55515
G01 X-29.34167 Y-10.65959
G01 X-29.38275 Y-10.68329
G01 X-29.56723 Y-10.76409
G01 X-29.76397 Y-10.80717
G01 X-29.81114 Y-10.81212
G01 X-30.01254 Y-10.81090
G01 X-30.20979 Y-10.77023
G01 X-30.25491 Y-10.75558
G01 X-30.43839 Y-10.67252
G01 X-30.62051 Y-10.54021
G01 X-30.75620 Y-10.39137
G01 X-30.78406 Y-10.35301
G01 X-30.87291 Y-10.19912
G01 X-30.89219 Y-10.15581
G01 X-30.95325 Y-9.96386
G01 X-30.97555 Y-9.76368
G01 X-30.97555 Y-9.71629
G01 X-30.95696 Y-9.53955
G01 X-30.94711 Y-9.49317
G01 X-30.88368 Y-9.30201
G01 X-30.77113 Y-9.10707
G01 X-30.62051 Y-8.93976
G01 X-30.45831 Y-8.82038
G01 X-30.41724 Y-8.79668
G01 X-30.23273 Y-8.71588
G01 X-30.03598 Y-8.67280
G01 X-29.98884 Y-8.66785
G01 X-29.81114 Y-8.66785
G01 X-29.76397 Y-8.67280
G01 X-29.56723 Y-8.71588
G01 X-29.43553 Y-8.77316
G01 X-27.70137 Y-8.77316
G01 X-27.64861 Y-8.72198
G01 X-27.51331 Y-8.62368
G01 X-27.47223 Y-8.59998
G01 X-27.29728 Y-8.52345
G01 X-27.08732 Y-8.47882
G01 X-26.89636 Y-8.47758
G01 X-26.84922 Y-8.48253
G01 X-26.66268 Y-8.52345
G01 X-26.52865 Y-8.58175
G01 X-26.60228 Y-8.47288
G01 X-26.68496 Y-8.33285
G01 X-26.79969 Y-8.32079
G01 X-26.89934 Y-8.31555
G01 X-27.06060 Y-8.31555
G01 X-27.16025 Y-8.32079
G01 X-27.32159 Y-8.33773
G01 X-27.42738 Y-8.35454
G01 X-27.52519 Y-8.37532
G01 X-27.60678 Y-8.41438
G01 X-27.64658 Y-8.44024
G01 X-27.79161 Y-8.54641
G01 X-27.78813 Y-8.55723
G01 X-27.79161 Y-8.54641
G01 X-28.63121 Y-8.54641
G01 X-28.44874 Y-8.46333
G01 X-27.83855 Y-8.46376
G01 X-27.70744 Y-8.42074
G01 X-27.52519 Y-8.37532
G01 X-27.70744 Y-8.42074
G01 X-27.83878 Y-8.46193
G01 X-28.44874 Y-8.46333
G01 X-28.72506 Y-8.58964
G01 X-28.89722 Y-8.62708
G01 X-29.04995 Y-8.63854
G01 X-29.39466 Y-8.63813
G01 X-29.55950 Y-8.60809
G01 X-29.73128 Y-8.59005
G01 X-29.81411 Y-8.58568
G01 X-29.98584 Y-8.58568
G01 X-30.06867 Y-8.59005
G01 X-30.24043 Y-8.60809
G01 X-30.32935 Y-8.62221
G01 X-30.50123 Y-8.65876
G01 X-30.60263 Y-8.68601
G01 X-30.70482 Y-8.71921
G01 X-30.77223 Y-8.77126
G01 X-30.80581 Y-8.80483
G01 X-30.95460 Y-8.97377
G01 X-31.09084 Y-9.20979
G01 X-31.17507 Y-9.46897
G01 X-31.20106 Y-9.69259
G01 X-31.20106 Y-9.78741
G01 X-31.18249 Y-9.96412
G01 X-31.16278 Y-10.05688
G01 X-31.09084 Y-10.27019
G01 X-30.98046 Y-10.46637
G01 X-30.92470 Y-10.54308
G01 X-30.77223 Y-10.70872
G01 X-30.59158 Y-10.84306
G01 X-30.55175 Y-10.86889
G01 X-30.49567 Y-10.89660
G01 X-31.77941 Y-10.89660
G01 X-31.85480 Y-10.76602
G01 X-31.91947 Y-10.63912
G01 X-31.97050 Y-10.50615
G01 X-31.99999 Y-10.41542
G01 X-31.97050 Y-10.50615
G01 X-31.91947 Y-10.63912
G01 X-31.85480 Y-10.76602
G01 X-31.77941 Y-10.89660
G01 X-31.51109 Y-10.89660
G01 X-31.56958 Y-10.80653
G01 X-31.65843 Y-10.65263
G01 X-31.71231 Y-10.54689
G01 X-31.75483 Y-10.43610
G01 X-31.80974 Y-10.26709
G01 X-31.84047 Y-10.15246
G01 X-31.85904 Y-10.03524
G01 X-31.87761 Y-9.85850
G01 X-31.88381 Y-9.73999
G01 X-31.87761 Y-9.62147
G01 X-31.85904 Y-9.44474
G01 X-31.84047 Y-9.32752
G01 X-31.80974 Y-9.21288
G01 X-31.75483 Y-9.04390
G01 X-31.71231 Y-8.93310
G01 X-31.68894 Y-8.88726
G01 X-31.41632 Y-8.86155
G01 X-31.50514 Y-9.02533
G01 X-31.53918 Y-9.11395
G01 X-31.59409 Y-9.28296
G01 X-31.61866 Y-9.37468
G01 X-31.63352 Y-9.46846
G01 X-31.65208 Y-9.64517
G01 X-31.65706 Y-9.73999
G01 X-31.65208 Y-9.83480
G01 X-31.63352 Y-10.01154
G01 X-31.61866 Y-10.10531
G01 X-31.59409 Y-10.19701
G01 X-31.53918 Y-10.36602
G01 X-31.50514 Y-10.45467
G01 X-31.46204 Y-10.53925
G01 X-31.37319 Y-10.69315
G01 X-31.32148 Y-10.77277
G01 X-31.21668 Y-10.89660
G01 X-30.90007 Y-10.89660
G01 X-30.97431 Y-10.82688
G01 X-31.09323 Y-10.69482
G01 X-31.13804 Y-10.63948
G01 X-31.17682 Y-10.57976
G01 X-31.26567 Y-10.42586
G01 X-31.29801 Y-10.36241
G01 X-31.32351 Y-10.29594
G01 X-31.37842 Y-10.12693
G01 X-31.39686 Y-10.05815
G01 X-31.40799 Y-9.98781
G01 X-31.42658 Y-9.81111
G01 X-31.43029 Y-9.73999
G01 X-31.42658 Y-9.66887
G01 X-31.40799 Y-9.49216
G01 X-31.39686 Y-9.42183
G01 X-31.37842 Y-9.35304
G01 X-31.32351 Y-9.18403
G01 X-31.29801 Y-9.11756
G01 X-31.26567 Y-9.05411
G01 X-31.17682 Y-8.90021
G01 X-31.13804 Y-8.84050
G01 X-31.12082 Y-8.81924
G01 X-30.92539 Y-8.78065
G01 X-30.70482 Y-8.71921
G01 X-30.92539 Y-8.78065
G01 X-31.15709 Y-8.82620
G01 X-31.42658 Y-8.86282
G01 X-31.73268 Y-8.89132
G01 X-31.94327 Y-8.90290
G01 X-31.99999 Y-9.06455
G01 X-31.94327 Y-8.90290
G01 X-31.99999 Y-8.90600
G01 X-31.99999 Y-10.89660
G01 X-29.30431 Y-10.89660
G01 X-29.24820 Y-10.86889
G01 X-29.20840 Y-10.84306
G01 X-29.02773 Y-10.70872
G01 X-28.84538 Y-10.50620
G01 X-28.81211 Y-10.45352
G01 X-28.82189 Y-10.43244
G01 X-28.81211 Y-10.45352
G01 X-27.79166 Y-10.45352
G01 X-27.78818 Y-10.44270
G01 X-27.79166 Y-10.45352
G01 X-27.78188 Y-10.46145
G01 X-27.60678 Y-10.58560
G01 X-27.44086 Y-10.66218
G01 X-27.69537 Y-10.79459
G01 X-27.77988 Y-10.74318
G01 X-27.86647 Y-10.68029
G01 X-27.86350 Y-10.67051
G01 X-27.86647 Y-10.68029
G01 X-28.69496 Y-10.68029
G01 X-28.70291 Y-10.66183
G01 X-28.69496 Y-10.68029
G01 X-28.70675 Y-10.69482
G01 X-28.82565 Y-10.82688
G01 X-28.89992 Y-10.89660
G01 X-29.30431 Y-10.89660
G01 X-28.59794 Y-10.89660
G01 X-28.55133 Y-10.88657
G01 X-27.85560 Y-10.88659
G01 X-27.76233 Y-10.83079
G01 X-27.37350 Y-10.62573
G01 X-27.21917 Y-10.55576
G01 X-27.11732 Y-10.51608
G01 X-27.11077 Y-10.51745
G01 X-28.89994 Y-11.12335
G01 X-28.57383 Y-11.12335
G01 X-28.52725 Y-11.11334
G01 X-27.85481 Y-11.11336
G01 X-27.69484 Y-11.20513
G01 X-27.44348 Y-11.33897
G01 X-27.69484 Y-11.20513
G01 X-27.77988 Y-11.25677
G01 X-27.86639 Y-11.31964
G01 X-27.86344 Y-11.32939
G01 X-27.86639 Y-11.31964
G01 X-28.71170 Y-11.31964
G01 X-28.71945 Y-11.33782
G01 X-28.71170 Y-11.31964
G01 X-28.82565 Y-11.19309
G01 X-28.89994 Y-11.12335
G01 X-30.90001 Y-11.12335
G01 X-30.97431 Y-11.19309
G01 X-31.09323 Y-11.32515
G01 X-31.13804 Y-11.38050
G01 X-31.17682 Y-11.44021
G01 X-31.26567 Y-11.59411
G01 X-31.29801 Y-11.65756
G01 X-31.32351 Y-11.72403
G01 X-31.37842 Y-11.89304
G01 X-31.39686 Y-11.96183
G01 X-31.40799 Y-12.03216
G01 X-31.42658 Y-12.20887
G01 X-31.43029 Y-12.27999
G01 X-31.42658 Y-12.35111
G01 X-31.40799 Y-12.52781
G01 X-31.39686 Y-12.59815
G01 X-31.37842 Y-12.66693
G01 X-31.32351 Y-12.83594
G01 X-31.29801 Y-12.90241
G01 X-31.26567 Y-12.96586
G01 X-31.17682 Y-13.11976
G01 X-31.13804 Y-13.17948
G01 X-31.09323 Y-13.23480
G01 X-30.97431 Y-13.36688
G01 X-30.90007 Y-13.43660
G01 X-31.21668 Y-13.43660
G01 X-31.32148 Y-13.31275
G01 X-31.37319 Y-13.23312
G01 X-31.46204 Y-13.07925
G01 X-31.50514 Y-12.99467
G01 X-31.53918 Y-12.90602
G01 X-31.59409 Y-12.73701
G01 X-31.61866 Y-12.64531
G01 X-31.63352 Y-12.55154
G01 X-31.65208 Y-12.37480
G01 X-31.65706 Y-12.27999
G01 X-31.65208 Y-12.18517
G01 X-31.63352 Y-12.00846
G01 X-31.61866 Y-11.91468
G01 X-31.59409 Y-11.82296
G01 X-31.53918 Y-11.65395
G01 X-31.50514 Y-11.56533
G01 X-31.46204 Y-11.48072
G01 X-31.37319 Y-11.32683
G01 X-31.32148 Y-11.24720
G01 X-31.21665 Y-11.12335
G01 X-30.90001 Y-11.12335
G01 X-31.51106 Y-11.12335
G01 X-31.56958 Y-11.21346
G01 X-31.65843 Y-11.36734
G01 X-31.71231 Y-11.47310
G01 X-31.75483 Y-11.58390
G01 X-31.80974 Y-11.75288
G01 X-31.84047 Y-11.86751
G01 X-31.85904 Y-11.98474
G01 X-31.87761 Y-12.16147
G01 X-31.88381 Y-12.27999
G01 X-31.87761 Y-12.39850
G01 X-31.85904 Y-12.57524
G01 X-31.84047 Y-12.69246
G01 X-31.80974 Y-12.80709
G01 X-31.75483 Y-12.97610
G01 X-31.71231 Y-13.08689
G01 X-31.65843 Y-13.19263
G01 X-31.56958 Y-13.34653
G01 X-31.51109 Y-13.43660
G01 X-31.77941 Y-13.43660
G01 X-31.85480 Y-13.30599
G01 X-31.91947 Y-13.17909
G01 X-31.97050 Y-13.04615
G01 X-31.99999 Y-12.95540
G01 X-31.99999 Y-11.60455
G01 X-31.97050 Y-11.51382
G01 X-31.91947 Y-11.38085
G01 X-31.85480 Y-11.25398
G01 X-31.77939 Y-11.12335
G01 X-31.51106 Y-11.12335
G01 X-31.99999 Y-11.12335
G01 X-31.99999 Y-13.43660
G01 X-29.55623 Y-13.43660
G01 X-29.48455 Y-13.36535
G01 X-29.42036 Y-13.30825
G01 X-29.42186 Y-13.30609
G01 X-29.42036 Y-13.30825
G01 X-29.37218 Y-13.28039
G01 X-29.25333 Y-13.22675
G01 X-27.70139 Y-13.22675
G01 X-27.64861 Y-13.27795
G01 X-27.49339 Y-13.38923
G01 X-27.31945 Y-13.46802
G01 X-27.27437 Y-13.48268
G01 X-27.08732 Y-13.52116
G01 X-26.89636 Y-13.52240
G01 X-26.84922 Y-13.51745
G01 X-26.68562 Y-13.48268
G01 X-26.64054 Y-13.46802
G01 X-26.46660 Y-13.38923
G01 X-26.29289 Y-13.26304
G01 X-26.14930 Y-13.10353
G01 X-26.05273 Y-12.93879
G01 X-26.03345 Y-12.89545
G01 X-25.98176 Y-12.73640
G01 X-25.97191 Y-12.69002
G01 X-25.95319 Y-12.49997
G01 X-25.97191 Y-12.30996
G01 X-25.98176 Y-12.26358
G01 X-26.03345 Y-12.10452
G01 X-26.05273 Y-12.06119
G01 X-26.14930 Y-11.89645
G01 X-26.29289 Y-11.73693
G01 X-26.44666 Y-11.62367
G01 X-26.48773 Y-11.59998
G01 X-26.66268 Y-11.52345
G01 X-26.84922 Y-11.48253
G01 X-26.89636 Y-11.47757
G01 X-27.08732 Y-11.47882
G01 X-27.29728 Y-11.52345
G01 X-27.49339 Y-11.61075
G01 X-27.64861 Y-11.72200
G01 X-27.70134 Y-11.77315
G01 X-28.95460 Y-11.77315
G01 X-29.02885 Y-11.64707
G01 X-29.17947 Y-11.47976
G01 X-29.36159 Y-11.34745
G01 X-29.56723 Y-11.25588
G01 X-29.78744 Y-11.20910
G01 X-30.01254 Y-11.20910
G01 X-30.23273 Y-11.25588
G01 X-30.41724 Y-11.33668
G01 X-30.45831 Y-11.36038
G01 X-30.62051 Y-11.47976
G01 X-30.77113 Y-11.64707
G01 X-30.88368 Y-11.84201
G01 X-30.94711 Y-12.03317
G01 X-30.95696 Y-12.07955
G01 X-30.97555 Y-12.25629
G01 X-30.97555 Y-12.30368
G01 X-30.95325 Y-12.50386
G01 X-30.88368 Y-12.71796
G01 X-30.77113 Y-12.91290
G01 X-30.62051 Y-13.08021
G01 X-30.43839 Y-13.21252
G01 X-30.23273 Y-13.30409
G01 X-30.01254 Y-13.35090
G01 X-29.78744 Y-13.35090
G01 X-29.56723 Y-13.30409
G01 X-29.39052 Y-13.22675
G01 X-29.25333 Y-13.22675
G01 X-29.37218 Y-13.28039
G01 X-29.42036 Y-13.30825
G01 X-29.48455 Y-13.36535
G01 X-29.55623 Y-13.43660
G01 X-30.49567 Y-13.43660
G01 X-30.55175 Y-13.40889
G01 X-30.77223 Y-13.24872
G01 X-30.95460 Y-13.04620
G01 X-31.09084 Y-12.81016
G01 X-31.17507 Y-12.55100
G01 X-31.20354 Y-12.27999
G01 X-31.18249 Y-12.05586
G01 X-31.16278 Y-11.96310
G01 X-31.09084 Y-11.74979
G01 X-30.95460 Y-11.51377
G01 X-30.80581 Y-11.34483
G01 X-30.73535 Y-11.28138
G01 X-30.59158 Y-11.17694
G01 X-30.55175 Y-11.15108
G01 X-30.49562 Y-11.12335
G01 X-29.30436 Y-11.12335
G01 X-29.24820 Y-11.15108
G01 X-29.20840 Y-11.17694
G01 X-29.02773 Y-11.31125
G01 X-28.84538 Y-11.51377
G01 X-28.82420 Y-11.54641
G01 X-28.83357 Y-11.56693
G01 X-28.82420 Y-11.54641
G01 X-27.79161 Y-11.54641
G01 X-27.78813 Y-11.55723
G01 X-27.79161 Y-11.54641
G01 X-27.78188 Y-11.53853
G01 X-27.60678 Y-11.41438
G01 X-27.44348 Y-11.33897
G01 X-27.28979 Y-11.41382
G01 X-27.11996 Y-11.48448
G04 P0 ( dwell for no time -- G64 should not smooth over this point )
G00 Z2.00000 ( retract )

G00 X-29.02140 Y-15.44678 ( rapid move to begin. )
G01 F60.00000
( Mill infeed pass 1/1 )
G01 Z-0.10000
G04 P0 ( dwell for no time -- G64 should not smooth over this point )
G01 F120.00000
G01 X-29.02140 Y-15.44678
G01 X-29.02486 Y-15.44678
G01 X-29.16268 Y-15.60342
G01 X-29.19791 Y-15.63515
G01 X-29.27317 Y-15.68983
G01 X-29.27317 Y-15.69855
G01 X-29.20362 Y-15.64983
G01 X-29.07012 Y-15.51633
G01 X-29.02140 Y-15.44678

G04 P0 ( dwell for no time -- G64 should not smooth over this point )
G00 Z15.000000 ( retract )

M5 ( Spindle off. )
G04 P1.000000
M9 ( Coolant off. )
M2 ( Program end. )

