( pcb2gcode 2.5.0 )
( Software-independent Gcode )

( This file uses 4 drill bit sizes. )
( Bit sizes: [0.8mm] [0.9mm] [1mm] [2.3mm] )

G94       (Millimeters per minute feed rate.)
G21       (Units == Millimeters.)
G91.1     (Incremental arc distance mode.)
G90       (Absolute coordinates.)
G00 S13000     (RPM spindle speed.)

G00 Z15.00000 (Retract)
T1
M5      (Spindle stop.)
G04 P1.00000
(MSG, Change tool bit to drill size 0.8mm)
M6      (Tool change.)
M0      (Temporary machine stop.)
M3      (Spindle on clockwise.)
G0 Z2.00000
G04 P1.00000

G1 F120.00000
G0 X-16.81988 Y-9.49960
G1 Z-2.50000
G1 Z2.00000
G0 X-16.81988 Y-12.49934
G1 Z-2.50000
G1 Z2.00000
G0 X-26.97988 Y-9.49960
G1 Z-2.50000
G1 Z2.00000
G0 X-26.97988 Y-12.49934
G1 Z-2.50000
G1 Z2.00000

G00 Z15.00000 (Retract)
T2
M5      (Spindle stop.)
G04 P1.00000
(MSG, Change tool bit to drill size 0.9mm)
M6      (Tool change.)
M0      (Temporary machine stop.)
M3      (Spindle on clockwise.)
G0 Z2.00000
G04 P1.00000

G1 F120.00000
G0 X-13.22832 Y-7.50062
G1 Z-2.50000
G1 Z2.00000
G0 X-13.22832 Y-9.99998
G1 Z-2.50000
G1 Z2.00000
G0 X-13.22832 Y-11.99896
G1 Z-2.50000
G1 Z2.00000
G0 X-13.22832 Y-14.50086
G1 Z-2.50000
G1 Z2.00000

G00 Z15.00000 (Retract)
T3
M5      (Spindle stop.)
G04 P1.00000
(MSG, Change tool bit to drill size 1mm)
M6      (Tool change.)
M0      (Temporary machine stop.)
M3      (Spindle on clockwise.)
G0 Z2.00000
G04 P1.00000

G1 F120.00000
G0 X-29.90088 Y-7.20090
G1 Z-2.50000
G1 Z2.00000
G0 X-29.90088 Y-9.74090
G1 Z-2.50000
G1 Z2.00000
G0 X-29.90088 Y-12.28090
G1 Z-2.50000
G1 Z2.00000
G0 X-29.90088 Y-14.82090
G1 Z-2.50000
G1 Z2.00000

G00 Z15.00000 (Retract)
T4
M5      (Spindle stop.)
G04 P1.00000
(MSG, Change tool bit to drill size 2.3mm)
M6      (Tool change.)
M0      (Temporary machine stop.)
M3      (Spindle on clockwise.)
G0 Z2.00000
G04 P1.00000

G1 F120.00000
G0 X-10.51814 Y-4.42976
G1 Z-2.50000
G1 Z2.00000
G0 X-10.51814 Y-17.56918
G1 Z-2.50000
G1 Z2.00000

G00 Z15.000 ( All done -- retract )

M5      (Spindle off.)
G04 P1.000000
M9      (Coolant off.)
M2      (Program end.)

