( pcb2gcode 2.5.0 )
( Software-independent Gcode )

G94 ( Millimeters per minute feed rate. )
G21 ( Units == Millimeters. )

G90 ( Absolute coordinates. )
G00 S13000 ( RPM spindle speed. )
G01 F120.00000 ( Feedrate. )


G00 Z15.00000 (Retract to tool change height)
T0
M5      (Spindle stop.)
G04 P1.00000 (Wait for spindle to stop)
(MSG, Change tool bit to cutter diameter 1.00000mm)
M6      (Tool change.)
M0      (Temporary machine stop.)
M3 ( Spindle on clockwise. )
G04 P1.00000 (Wait for spindle to get up to speed)
G04 P0 ( dwell for no time -- G64 should not smooth over this point )
G00 Z2.00000 ( retract )

G00 X-0.49997 Y-18.99999 ( rapid move to begin. )
G01 Z-0.50000 F60.00000 ( plunge. )
G04 P0 ( dwell for no time -- G64 should not smooth over this point )
G01 F120.00000
G01 X-0.50239 Y-2.95097
G01 X-0.54082 Y-2.56078
G01 X-0.55994 Y-2.46466
G01 X-0.67373 Y-2.08948
G01 X-0.71125 Y-1.99888
G01 X-0.89609 Y-1.65311
G01 X-0.95054 Y-1.57165
G01 X-1.23220 Y-1.23220
G01 X-1.57165 Y-0.95054
G01 X-1.65311 Y-0.89609
G01 X-2.04325 Y-0.69027
G01 X-2.46466 Y-0.55994
G01 X-2.56078 Y-0.54082
G01 X-2.99999 Y-0.49997
G01 X-29.99999 Y-0.49997
G01 X-30.43916 Y-0.54082
G01 X-30.53527 Y-0.55994
G01 X-30.95666 Y-0.69027
G01 X-31.34683 Y-0.89609
G01 X-31.42831 Y-0.95054
G01 X-31.76775 Y-1.23220
G01 X-32.04942 Y-1.57165
G01 X-32.10387 Y-1.65313
G01 X-32.28868 Y-1.99890
G01 X-32.32620 Y-2.08945
G01 X-32.44002 Y-2.46464
G01 X-32.45914 Y-2.56078
G01 X-32.49999 Y-2.99999
G01 X-32.49999 Y-18.99999
G01 X-32.45914 Y-19.43915
G01 X-32.44002 Y-19.53529
G01 X-32.32620 Y-19.91050
G01 X-32.28868 Y-20.00105
G01 X-32.10387 Y-20.34682
G01 X-32.04942 Y-20.42831
G01 X-31.76775 Y-20.76775
G01 X-31.42831 Y-21.04941
G01 X-31.34680 Y-21.10389
G01 X-31.00100 Y-21.28871
G01 X-30.91048 Y-21.32620
G01 X-30.53530 Y-21.44001
G01 X-30.43916 Y-21.45914
G01 X-29.99999 Y-21.49998
G01 X-2.95097 Y-21.49757
G01 X-2.51224 Y-21.45193
G01 X-2.08945 Y-21.32620
G01 X-1.99890 Y-21.28868
G01 X-1.61105 Y-21.07865
G01 X-1.23220 Y-20.76775
G01 X-0.95054 Y-20.42831
G01 X-0.89609 Y-20.34685
G01 X-0.69027 Y-19.95668
G01 X-0.55994 Y-19.53527
G01 X-0.54082 Y-19.43915
G01 X-0.49997 Y-18.99999
G01 Z-1.00000 F60.00000 ( plunge. )
G04 P0 ( dwell for no time -- G64 should not smooth over this point )
G01 F120.00000
G01 X-0.50239 Y-2.95097
G01 X-0.54082 Y-2.56078
G01 X-0.55994 Y-2.46466
G01 X-0.67373 Y-2.08948
G01 X-0.71125 Y-1.99888
G01 X-0.89609 Y-1.65311
G01 X-0.95054 Y-1.57165
G01 X-1.23220 Y-1.23220
G01 X-1.57165 Y-0.95054
G01 X-1.65311 Y-0.89609
G01 X-2.04325 Y-0.69027
G01 X-2.46466 Y-0.55994
G01 X-2.56078 Y-0.54082
G01 X-2.99999 Y-0.49997
G01 X-29.99999 Y-0.49997
G01 X-30.43916 Y-0.54082
G01 X-30.53527 Y-0.55994
G01 X-30.95666 Y-0.69027
G01 X-31.34683 Y-0.89609
G01 X-31.42831 Y-0.95054
G01 X-31.76775 Y-1.23220
G01 X-32.04942 Y-1.57165
G01 X-32.10387 Y-1.65313
G01 X-32.28868 Y-1.99890
G01 X-32.32620 Y-2.08945
G01 X-32.44002 Y-2.46464
G01 X-32.45914 Y-2.56078
G01 X-32.49999 Y-2.99999
G01 X-32.49999 Y-18.99999
G01 X-32.45914 Y-19.43915
G01 X-32.44002 Y-19.53529
G01 X-32.32620 Y-19.91050
G01 X-32.28868 Y-20.00105
G01 X-32.10387 Y-20.34682
G01 X-32.04942 Y-20.42831
G01 X-31.76775 Y-20.76775
G01 X-31.42831 Y-21.04941
G01 X-31.34680 Y-21.10389
G01 X-31.00100 Y-21.28871
G01 X-30.91048 Y-21.32620
G01 X-30.53530 Y-21.44001
G01 X-30.43916 Y-21.45914
G01 X-29.99999 Y-21.49998
G01 X-2.95097 Y-21.49757
G01 X-2.51224 Y-21.45193
G01 X-2.08945 Y-21.32620
G01 X-1.99890 Y-21.28868
G01 X-1.61105 Y-21.07865
G01 X-1.23220 Y-20.76775
G01 X-0.95054 Y-20.42831
G01 X-0.89609 Y-20.34685
G01 X-0.69027 Y-19.95668
G01 X-0.55994 Y-19.53527
G01 X-0.54082 Y-19.43915
G01 X-0.49997 Y-18.99999
G01 Z-1.50000 F60.00000 ( plunge. )
G04 P0 ( dwell for no time -- G64 should not smooth over this point )
G01 F120.00000
G01 X-0.50239 Y-2.95097
G01 X-0.54082 Y-2.56078
G01 X-0.55994 Y-2.46466
G01 X-0.67373 Y-2.08948
G01 X-0.71125 Y-1.99888
G01 X-0.89609 Y-1.65311
G01 X-0.95054 Y-1.57165
G01 X-1.23220 Y-1.23220
G01 X-1.57165 Y-0.95054
G01 X-1.65311 Y-0.89609
G01 X-2.04325 Y-0.69027
G01 X-2.46466 Y-0.55994
G01 X-2.56078 Y-0.54082
G01 X-2.99999 Y-0.49997
G01 X-29.99999 Y-0.49997
G01 X-30.43916 Y-0.54082
G01 X-30.53527 Y-0.55994
G01 X-30.95666 Y-0.69027
G01 X-31.34683 Y-0.89609
G01 X-31.42831 Y-0.95054
G01 X-31.76775 Y-1.23220
G01 X-32.04942 Y-1.57165
G01 X-32.10387 Y-1.65313
G01 X-32.28868 Y-1.99890
G01 X-32.32620 Y-2.08945
G01 X-32.44002 Y-2.46464
G01 X-32.45914 Y-2.56078
G01 X-32.49999 Y-2.99999
G01 X-32.49999 Y-18.99999
G01 X-32.45914 Y-19.43915
G01 X-32.44002 Y-19.53529
G01 X-32.32620 Y-19.91050
G01 X-32.28868 Y-20.00105
G01 X-32.10387 Y-20.34682
G01 X-32.04942 Y-20.42831
G01 X-31.76775 Y-20.76775
G01 X-31.42831 Y-21.04941
G01 X-31.34680 Y-21.10389
G01 X-31.00100 Y-21.28871
G01 X-30.91048 Y-21.32620
G01 X-30.53530 Y-21.44001
G01 X-30.43916 Y-21.45914
G01 X-29.99999 Y-21.49998
G01 X-2.95097 Y-21.49757
G01 X-2.51224 Y-21.45193
G01 X-2.08945 Y-21.32620
G01 X-1.99890 Y-21.28868
G01 X-1.61105 Y-21.07865
G01 X-1.23220 Y-20.76775
G01 X-0.95054 Y-20.42831
G01 X-0.89609 Y-20.34685
G01 X-0.69027 Y-19.95668
G01 X-0.55994 Y-19.53527
G01 X-0.54082 Y-19.43915
G01 X-0.49997 Y-18.99999
G01 Z-2.00000 F60.00000 ( plunge. )
G04 P0 ( dwell for no time -- G64 should not smooth over this point )
G01 F120.00000
G01 X-0.50239 Y-2.95097
G01 X-0.54082 Y-2.56078
G01 X-0.55994 Y-2.46466
G01 X-0.67373 Y-2.08948
G01 X-0.71125 Y-1.99888
G01 X-0.89609 Y-1.65311
G01 X-0.95054 Y-1.57165
G01 X-1.23220 Y-1.23220
G01 X-1.57165 Y-0.95054
G01 X-1.65311 Y-0.89609
G01 X-2.04325 Y-0.69027
G01 X-2.46466 Y-0.55994
G01 X-2.56078 Y-0.54082
G01 X-2.99999 Y-0.49997
G01 X-29.99999 Y-0.49997
G01 X-30.43916 Y-0.54082
G01 X-30.53527 Y-0.55994
G01 X-30.95666 Y-0.69027
G01 X-31.34683 Y-0.89609
G01 X-31.42831 Y-0.95054
G01 X-31.76775 Y-1.23220
G01 X-32.04942 Y-1.57165
G01 X-32.10387 Y-1.65313
G01 X-32.28868 Y-1.99890
G01 X-32.32620 Y-2.08945
G01 X-32.44002 Y-2.46464
G01 X-32.45914 Y-2.56078
G01 X-32.49999 Y-2.99999
G01 X-32.49999 Y-18.99999
G01 X-32.45914 Y-19.43915
G01 X-32.44002 Y-19.53529
G01 X-32.32620 Y-19.91050
G01 X-32.28868 Y-20.00105
G01 X-32.10387 Y-20.34682
G01 X-32.04942 Y-20.42831
G01 X-31.76775 Y-20.76775
G01 X-31.42831 Y-21.04941
G01 X-31.34680 Y-21.10389
G01 X-31.00100 Y-21.28871
G01 X-30.91048 Y-21.32620
G01 X-30.53530 Y-21.44001
G01 X-30.43916 Y-21.45914
G01 X-29.99999 Y-21.49998
G01 X-2.95097 Y-21.49757
G01 X-2.51224 Y-21.45193
G01 X-2.08945 Y-21.32620
G01 X-1.99890 Y-21.28868
G01 X-1.61105 Y-21.07865
G01 X-1.23220 Y-20.76775
G01 X-0.95054 Y-20.42831
G01 X-0.89609 Y-20.34685
G01 X-0.69027 Y-19.95668
G01 X-0.55994 Y-19.53527
G01 X-0.54082 Y-19.43915
G01 X-0.49997 Y-18.99999
G01 Z-2.50000 F60.00000 ( plunge. )
G04 P0 ( dwell for no time -- G64 should not smooth over this point )
G01 F120.00000
G01 X-0.50239 Y-2.95097
G01 X-0.54082 Y-2.56078
G01 X-0.55994 Y-2.46466
G01 X-0.67373 Y-2.08948
G01 X-0.71125 Y-1.99888
G01 X-0.89609 Y-1.65311
G01 X-0.95054 Y-1.57165
G01 X-1.23220 Y-1.23220
G01 X-1.57165 Y-0.95054
G01 X-1.65311 Y-0.89609
G01 X-2.04325 Y-0.69027
G01 X-2.46466 Y-0.55994
G01 X-2.56078 Y-0.54082
G01 X-2.99999 Y-0.49997
G01 X-29.99999 Y-0.49997
G01 X-30.43916 Y-0.54082
G01 X-30.53527 Y-0.55994
G01 X-30.95666 Y-0.69027
G01 X-31.34683 Y-0.89609
G01 X-31.42831 Y-0.95054
G01 X-31.76775 Y-1.23220
G01 X-32.04942 Y-1.57165
G01 X-32.10387 Y-1.65313
G01 X-32.28868 Y-1.99890
G01 X-32.32620 Y-2.08945
G01 X-32.44002 Y-2.46464
G01 X-32.45914 Y-2.56078
G01 X-32.49999 Y-2.99999
G01 X-32.49999 Y-18.99999
G01 X-32.45914 Y-19.43915
G01 X-32.44002 Y-19.53529
G01 X-32.32620 Y-19.91050
G01 X-32.28868 Y-20.00105
G01 X-32.10387 Y-20.34682
G01 X-32.04942 Y-20.42831
G01 X-31.76775 Y-20.76775
G01 X-31.42831 Y-21.04941
G01 X-31.34680 Y-21.10389
G01 X-31.00100 Y-21.28871
G01 X-30.91048 Y-21.32620
G01 X-30.53530 Y-21.44001
G01 X-30.43916 Y-21.45914
G01 X-29.99999 Y-21.49998
G01 X-2.95097 Y-21.49757
G01 X-2.51224 Y-21.45193
G01 X-2.08945 Y-21.32620
G01 X-1.99890 Y-21.28868
G01 X-1.61105 Y-21.07865
G01 X-1.23220 Y-20.76775
G01 X-0.95054 Y-20.42831
G01 X-0.89609 Y-20.34685
G01 X-0.69027 Y-19.95668
G01 X-0.55994 Y-19.53527
G01 X-0.54082 Y-19.43915
G01 X-0.49997 Y-18.99999

G04 P0 ( dwell for no time -- G64 should not smooth over this point )
G00 Z15.000000 ( retract )

M5 ( Spindle off. )
G04 P1.000000
M9 ( Coolant off. )
M2 ( Program end. )

