( pcb2gcode 2.5.0 )
( Software-independent Gcode )

G94 ( Millimeters per minute feed rate. )
G21 ( Units == Millimeters. )

G90 ( Absolute coordinates. )
G00 S13000 ( RPM spindle speed. )
G01 F120.00000 ( Feedrate. )


G00 Z15.00000 (Retract to tool change height)
T0
M5      (Spindle stop.)
G04 P1.00000 (Wait for spindle to stop)
(MSG, Change tool bit to mill diameter 0.45360mm)
M6      (Tool change.)
M0      (Temporary machine stop.)
M3 ( Spindle on clockwise. )
G04 P1.00000 (Wait for spindle to get up to speed)
G04 P0 ( dwell for no time -- G64 should not smooth over this point )
G00 Z2.00000 ( retract )

G00 X-2.87630 Y-4.60639 ( rapid move to begin. )
G01 F60.00000
( Mill infeed pass 1/1 )
G01 Z-0.07000
G04 P0 ( dwell for no time -- G64 should not smooth over this point )
G01 F120.00000
G01 X-2.87630 Y-4.60639
G01 X-2.87630 Y-4.39354
G01 X-2.90406 Y-4.18252
G01 X-2.95915 Y-3.97693
G01 X-3.04058 Y-3.78028
G01 X-3.14703 Y-3.59595
G01 X-3.27657 Y-3.42709
G01 X-3.42709 Y-3.27660
G01 X-3.59595 Y-3.14703
G01 X-3.78028 Y-3.04061
G01 X-3.97693 Y-2.95915
G01 X-4.18252 Y-2.90406
G01 X-4.39354 Y-2.87630
G01 X-4.60639 Y-2.87630
G01 X-4.81741 Y-2.90406
G01 X-5.02303 Y-2.95915
G01 X-5.21965 Y-3.04058
G01 X-5.40398 Y-3.14703
G01 X-5.57286 Y-3.27657
G01 X-5.72336 Y-3.42709
G01 X-5.85292 Y-3.59595
G01 X-5.95935 Y-3.78028
G01 X-6.04081 Y-3.97693
G01 X-6.09590 Y-4.18252
G01 X-6.12366 Y-4.39354
G01 X-6.12366 Y-4.60642
G01 X-6.09590 Y-4.81744
G01 X-6.04081 Y-5.02300
G01 X-5.95935 Y-5.21967
G01 X-5.85292 Y-5.40398
G01 X-5.72336 Y-5.57284
G01 X-5.57284 Y-5.72336
G01 X-5.40398 Y-5.85292
G01 X-5.21967 Y-5.95935
G01 X-5.02300 Y-6.04081
G01 X-4.81744 Y-6.09590
G01 X-4.60642 Y-6.12366
G01 X-4.39354 Y-6.12366
G01 X-4.18252 Y-6.09590
G01 X-3.97693 Y-6.04081
G01 X-3.78028 Y-5.95935
G01 X-3.59595 Y-5.85292
G01 X-3.42709 Y-5.72336
G01 X-3.27657 Y-5.57286
G01 X-3.14703 Y-5.40398
G01 X-3.04058 Y-5.21965
G01 X-2.95915 Y-5.02303
G01 X-2.90406 Y-4.81741
G01 X-2.87630 Y-4.60639
G01 X-3.10304 Y-4.59156
G01 X-3.10256 Y-4.40837
G01 X-3.12646 Y-4.22674
G01 X-3.17388 Y-4.04980
G01 X-3.24396 Y-3.88059
G01 X-3.33555 Y-3.72194
G01 X-3.44706 Y-3.57662
G01 X-3.57660 Y-3.44708
G01 X-3.72194 Y-3.33558
G01 X-3.88059 Y-3.24399
G01 X-4.04983 Y-3.17386
G01 X-4.22674 Y-3.12646
G01 X-4.40837 Y-3.10256
G01 X-4.59158 Y-3.10256
G01 X-4.77319 Y-3.12646
G01 X-4.95016 Y-3.17388
G01 X-5.11934 Y-3.24396
G01 X-5.27799 Y-3.33558
G01 X-5.42336 Y-3.44708
G01 X-5.55287 Y-3.57660
G01 X-5.66438 Y-3.72194
G01 X-5.75597 Y-3.88059
G01 X-5.82610 Y-4.04983
G01 X-5.87350 Y-4.22674
G01 X-5.89740 Y-4.40837
G01 X-5.89740 Y-4.59158
G01 X-5.87350 Y-4.77319
G01 X-5.82610 Y-4.95010
G01 X-5.75597 Y-5.11937
G01 X-5.66438 Y-5.27799
G01 X-5.55287 Y-5.42333
G01 X-5.42333 Y-5.55287
G01 X-5.27799 Y-5.66438
G01 X-5.11937 Y-5.75597
G01 X-4.95010 Y-5.82610
G01 X-4.77319 Y-5.87350
G01 X-4.59158 Y-5.89740
G01 X-4.40837 Y-5.89740
G01 X-4.22674 Y-5.87350
G01 X-4.04983 Y-5.82610
G01 X-3.88059 Y-5.75597
G01 X-3.72194 Y-5.66438
G01 X-3.57660 Y-5.55287
G01 X-3.44708 Y-5.42336
G01 X-3.33558 Y-5.27799
G01 X-3.24396 Y-5.11934
G01 X-3.17388 Y-4.95016
G01 X-3.12646 Y-4.77319
G01 X-3.10304 Y-4.59156
G01 X-3.32981 Y-4.57670
G01 X-3.32870 Y-4.42323
G01 X-3.34874 Y-4.27093
G01 X-3.38953 Y-4.12300
G01 X-3.44721 Y-3.98084
G01 X-3.52450 Y-3.84820
G01 X-3.61749 Y-3.72603
G01 X-3.72674 Y-3.61831
G01 X-3.84736 Y-3.52331
G01 X-3.98130 Y-3.44823
G01 X-4.12265 Y-3.38849
G01 X-4.27109 Y-3.34935
G01 X-4.42323 Y-3.32870
G01 X-4.57670 Y-3.32981
G01 X-4.72915 Y-3.34790
G01 X-4.87695 Y-3.38953
G01 X-5.01907 Y-3.44719
G01 X-5.15175 Y-3.52453
G01 X-5.27395 Y-3.61749
G01 X-5.38165 Y-3.72674
G01 X-5.47665 Y-3.84736
G01 X-5.55173 Y-3.98130
G01 X-5.61147 Y-4.12265
G01 X-5.65061 Y-4.27109
G01 X-5.67126 Y-4.42323
G01 X-5.67014 Y-4.57670
G01 X-5.65206 Y-4.72915
G01 X-5.61045 Y-4.87690
G01 X-5.55274 Y-5.01909
G01 X-5.47545 Y-5.15175
G01 X-5.38244 Y-5.27393
G01 X-5.27319 Y-5.38165
G01 X-5.15211 Y-5.47594
G01 X-5.01909 Y-5.55274
G01 X-4.87690 Y-5.61045
G01 X-4.72915 Y-5.65206
G01 X-4.57670 Y-5.67014
G01 X-4.42323 Y-5.67126
G01 X-4.27109 Y-5.65061
G01 X-4.12265 Y-5.61147
G01 X-3.98130 Y-5.55173
G01 X-3.84736 Y-5.47665
G01 X-3.72674 Y-5.38165
G01 X-3.61749 Y-5.27395
G01 X-3.52453 Y-5.15175
G01 X-3.44719 Y-5.01907
G01 X-3.38953 Y-4.87695
G01 X-3.34790 Y-4.72915
G01 X-3.32981 Y-4.57670
G01 X-3.55656 Y-4.56184
G01 X-3.55547 Y-4.43809
G01 X-3.57162 Y-4.31526
G01 X-3.60472 Y-4.19603
G01 X-3.65102 Y-4.08137
G01 X-3.71345 Y-3.97444
G01 X-3.78833 Y-3.87584
G01 X-3.87657 Y-3.78915
G01 X-3.97360 Y-3.71224
G01 X-4.08181 Y-3.65204
G01 X-4.19570 Y-3.60368
G01 X-4.31541 Y-3.57221
G01 X-4.43809 Y-3.55547
G01 X-4.56184 Y-3.55656
G01 X-4.68483 Y-3.57078
G01 X-4.80390 Y-3.60472
G01 X-4.91856 Y-3.65100
G01 X-5.02552 Y-3.71345
G01 X-5.12412 Y-3.78836
G01 X-5.21081 Y-3.87657
G01 X-5.28772 Y-3.97360
G01 X-5.34792 Y-4.08181
G01 X-5.39628 Y-4.19570
G01 X-5.42775 Y-4.31541
G01 X-5.44449 Y-4.43809
G01 X-5.44340 Y-4.56184
G01 X-5.42917 Y-4.68483
G01 X-5.39526 Y-4.80385
G01 X-5.34894 Y-4.91858
G01 X-5.28698 Y-5.02585
G01 X-5.21081 Y-5.12336
G01 X-5.12409 Y-5.21160
G01 X-5.02549 Y-5.28650
G01 X-4.91858 Y-5.34894
G01 X-4.80385 Y-5.39526
G01 X-4.68483 Y-5.42917
G01 X-4.56184 Y-5.44340
G01 X-4.43809 Y-5.44449
G01 X-4.31541 Y-5.42775
G01 X-4.19570 Y-5.39628
G01 X-4.08181 Y-5.34792
G01 X-3.97360 Y-5.28772
G01 X-3.87657 Y-5.21081
G01 X-3.78836 Y-5.12412
G01 X-3.71345 Y-5.02552
G01 X-3.65100 Y-4.91856
G01 X-3.60472 Y-4.80390
G01 X-3.57078 Y-4.68483
G01 X-3.55656 Y-4.56184
G01 X-3.78330 Y-4.54698
G01 X-3.78330 Y-4.45298
G01 X-3.79448 Y-4.35966
G01 X-3.81942 Y-4.26893
G01 X-3.85486 Y-4.18181
G01 X-3.90279 Y-4.10098
G01 X-3.95851 Y-4.02514
G01 X-4.02641 Y-3.96001
G01 X-4.10030 Y-3.90192
G01 X-4.18188 Y-3.85483
G01 X-4.26913 Y-3.81988
G01 X-4.35958 Y-3.79451
G01 X-4.45292 Y-3.78221
G01 X-4.54698 Y-3.78330
G01 X-4.64030 Y-3.79448
G01 X-4.73103 Y-3.81942
G01 X-4.81810 Y-3.85483
G01 X-4.89900 Y-3.90281
G01 X-4.97484 Y-3.95854
G01 X-5.03994 Y-4.02641
G01 X-5.09803 Y-4.10030
G01 X-5.14513 Y-4.18188
G01 X-5.18008 Y-4.26913
G01 X-5.20545 Y-4.35958
G01 X-5.21774 Y-4.45292
G01 X-5.21665 Y-4.54698
G01 X-5.20548 Y-4.64030
G01 X-5.18053 Y-4.73095
G01 X-5.14507 Y-4.81815
G01 X-5.09714 Y-4.89897
G01 X-5.04078 Y-4.97421
G01 X-4.97421 Y-5.04078
G01 X-4.89897 Y-5.09714
G01 X-4.81848 Y-5.14586
G01 X-4.73080 Y-5.18008
G01 X-4.64035 Y-5.20545
G01 X-4.54701 Y-5.21713
G01 X-4.45287 Y-5.21774
G01 X-4.35983 Y-5.20438
G01 X-4.26850 Y-5.18193
G01 X-4.18231 Y-5.14411
G01 X-4.10035 Y-5.09806
G01 X-4.02608 Y-5.04033
G01 X-3.95917 Y-4.97426
G01 X-3.90281 Y-4.89900
G01 X-3.85404 Y-4.81846
G01 X-3.81988 Y-4.73088
G01 X-3.79451 Y-4.64035
G01 X-3.78330 Y-4.54698
G01 X-4.01008 Y-4.53212
G01 X-4.01008 Y-4.46783
G01 X-4.00563 Y-4.46753
G01 X-4.01008 Y-4.46783
G01 X-4.01846 Y-4.40416
G01 X-4.03507 Y-4.34213
G01 X-4.05963 Y-4.28282
G01 X-4.05564 Y-4.28087
G01 X-4.05963 Y-4.28282
G01 X-4.09174 Y-4.22722
G01 X-4.13085 Y-4.17627
G01 X-4.17624 Y-4.13085
G01 X-4.17332 Y-4.12753
G01 X-4.17624 Y-4.13085
G01 X-4.22719 Y-4.09176
G01 X-4.28282 Y-4.05966
G01 X-4.34218 Y-4.03507
G01 X-4.34076 Y-4.03085
G01 X-4.34218 Y-4.03507
G01 X-4.40416 Y-4.01846
G01 X-4.46783 Y-4.01008
G01 X-4.53212 Y-4.01008
G01 X-4.53240 Y-4.00566
G01 X-4.53212 Y-4.01008
G01 X-4.59577 Y-4.01846
G01 X-4.65783 Y-4.03507
G01 X-4.71708 Y-4.05961
G01 X-4.71904 Y-4.05564
G01 X-4.71708 Y-4.05961
G01 X-4.77274 Y-4.09176
G01 X-4.82374 Y-4.13088
G01 X-4.86910 Y-4.17624
G01 X-4.87243 Y-4.17332
G01 X-4.86910 Y-4.17624
G01 X-4.90819 Y-4.22719
G01 X-4.94030 Y-4.28282
G01 X-4.96489 Y-4.34218
G01 X-4.96910 Y-4.34076
G01 X-4.96489 Y-4.34218
G01 X-4.98150 Y-4.40416
G01 X-4.98988 Y-4.46783
G01 X-4.98988 Y-4.53212
G01 X-4.99433 Y-4.53243
G01 X-4.98988 Y-4.53212
G01 X-4.98150 Y-4.59577
G01 X-4.96489 Y-4.65775
G01 X-4.94030 Y-4.71711
G01 X-4.94429 Y-4.71909
G01 X-4.94030 Y-4.71711
G01 X-4.90822 Y-4.77271
G01 X-4.86910 Y-4.82369
G01 X-4.82369 Y-4.86910
G01 X-4.82661 Y-4.87243
G01 X-4.82369 Y-4.86910
G01 X-4.77271 Y-4.90822
G01 X-4.71711 Y-4.94030
G01 X-4.65775 Y-4.96489
G01 X-4.65917 Y-4.96910
G01 X-4.65775 Y-4.96489
G01 X-4.59577 Y-4.98150
G01 X-4.53212 Y-4.98988
G01 X-4.46783 Y-4.98988
G01 X-4.46753 Y-4.99433
G01 X-4.46783 Y-4.98988
G01 X-4.40416 Y-4.98150
G01 X-4.34218 Y-4.96489
G01 X-4.28282 Y-4.94030
G01 X-4.28087 Y-4.94429
G01 X-4.28282 Y-4.94030
G01 X-4.22719 Y-4.90819
G01 X-4.17624 Y-4.86910
G01 X-4.13088 Y-4.82374
G01 X-4.12753 Y-4.82666
G01 X-4.13088 Y-4.82374
G01 X-4.09176 Y-4.77274
G01 X-4.05961 Y-4.71708
G01 X-4.03507 Y-4.65783
G01 X-4.03085 Y-4.65925
G01 X-4.03507 Y-4.65783
G01 X-4.01846 Y-4.59577
G01 X-4.01008 Y-4.53212
G01 X-4.23682 Y-4.51726
G01 X-4.23682 Y-4.48269
G01 X-4.23240 Y-4.48239
G01 X-4.23682 Y-4.48269
G01 X-4.25026 Y-4.41515
G01 X-4.26344 Y-4.38333
G01 X-4.25945 Y-4.38137
G01 X-4.26344 Y-4.38333
G01 X-4.30169 Y-4.32608
G01 X-4.32608 Y-4.30172
G01 X-4.32316 Y-4.29837
G01 X-4.32608 Y-4.30172
G01 X-4.38333 Y-4.26344
G01 X-4.41523 Y-4.25023
G01 X-4.41381 Y-4.24604
G01 X-4.41523 Y-4.25023
G01 X-4.48269 Y-4.23682
G01 X-4.51726 Y-4.23682
G01 X-4.51754 Y-4.23240
G01 X-4.51726 Y-4.23682
G01 X-4.58478 Y-4.25026
G01 X-4.61655 Y-4.26342
G01 X-4.61853 Y-4.25943
G01 X-4.61655 Y-4.26342
G01 X-4.64650 Y-4.28071
G01 X-4.69824 Y-4.32608
G01 X-4.70159 Y-4.32313
G01 X-4.69824 Y-4.32608
G01 X-4.73652 Y-4.38333
G01 X-4.74972 Y-4.41523
G01 X-4.75394 Y-4.41381
G01 X-4.74972 Y-4.41523
G01 X-4.76313 Y-4.48269
G01 X-4.76313 Y-4.51726
G01 X-4.76755 Y-4.51757
G01 X-4.76313 Y-4.51726
G01 X-4.75864 Y-4.55145
G01 X-4.73652 Y-4.61660
G01 X-4.74048 Y-4.61856
G01 X-4.73652 Y-4.61660
G01 X-4.71927 Y-4.64647
G01 X-4.67385 Y-4.69824
G01 X-4.67678 Y-4.70159
G01 X-4.67385 Y-4.69824
G01 X-4.64647 Y-4.71927
G01 X-4.58470 Y-4.74972
G01 X-4.58612 Y-4.75394
G01 X-4.58470 Y-4.74972
G01 X-4.51726 Y-4.76313
G01 X-4.48269 Y-4.76313
G01 X-4.48239 Y-4.76755
G01 X-4.48269 Y-4.76313
G01 X-4.41523 Y-4.74972
G01 X-4.38333 Y-4.73652
G01 X-4.38137 Y-4.74048
G01 X-4.38333 Y-4.73652
G01 X-4.35343 Y-4.71924
G01 X-4.30174 Y-4.67390
G01 X-4.29839 Y-4.67683
G01 X-4.30174 Y-4.67390
G01 X-4.28071 Y-4.64650
G01 X-4.25026 Y-4.58478
G01 X-4.24604 Y-4.58622
G01 X-4.25026 Y-4.58478
G01 X-4.23682 Y-4.51726
G01 X-4.44594 Y-4.51079
G01 X-4.46420 Y-4.50713
G01 X-4.46420 Y-4.49280
G01 X-4.46964 Y-4.47972
G01 X-4.45407 Y-4.46936
G01 X-4.46964 Y-4.47972
G01 X-4.47967 Y-4.46966
G01 X-4.49280 Y-4.46420
G01 X-4.48915 Y-4.44586
G01 X-4.49280 Y-4.46420
G01 X-4.50713 Y-4.46420
G01 X-4.52026 Y-4.46966
G01 X-4.53062 Y-4.45412
G01 X-4.52026 Y-4.46966
G01 X-4.53029 Y-4.47967
G01 X-4.53575 Y-4.49280
G01 X-4.55407 Y-4.48915
G01 X-4.53575 Y-4.49280
G01 X-4.53575 Y-4.50713
G01 X-4.53032 Y-4.52021
G01 X-4.54584 Y-4.53057
G01 X-4.53032 Y-4.52021
G01 X-4.52021 Y-4.53032
G01 X-4.50713 Y-4.53575
G01 X-4.51079 Y-4.55414
G01 X-4.50713 Y-4.53575
G01 X-4.49280 Y-4.53575
G01 X-4.47967 Y-4.53029
G01 X-4.46931 Y-4.54581
G01 X-4.47967 Y-4.53029
G01 X-4.46966 Y-4.52026
G01 X-4.46420 Y-4.50713
G04 P0 ( dwell for no time -- G64 should not smooth over this point )
G00 Z2.00000 ( retract )

G00 X-7.65678 Y-8.20316 ( rapid move to begin. )
G01 F60.00000
( Mill infeed pass 1/1 )
G01 Z-0.07000
G04 P0 ( dwell for no time -- G64 should not smooth over this point )
G01 F120.00000
G01 X-7.65678 Y-8.20316
G01 X-7.65884 Y-7.92516
G01 X-7.68772 Y-7.84771
G01 X-7.73481 Y-7.78480
G01 X-7.79770 Y-7.73773
G01 X-7.87517 Y-7.70885
G01 X-8.15317 Y-7.70679
G01 X-8.15317 Y-7.75320
G01 X-7.92998 Y-7.75320
G01 X-7.88573 Y-7.75754
G01 X-7.84319 Y-7.77044
G01 X-7.80397 Y-7.79140
G01 X-7.76961 Y-7.81962
G01 X-7.74141 Y-7.85398
G01 X-7.72046 Y-7.89320
G01 X-7.70755 Y-7.93575
G01 X-7.70319 Y-7.97999
G01 X-7.70319 Y-8.20316
G01 X-7.65678 Y-8.20316
G04 P0 ( dwell for no time -- G64 should not smooth over this point )
G00 Z2.00000 ( retract )

G00 X-7.65678 Y-9.71565 ( rapid move to begin. )
G01 F60.00000
( Mill infeed pass 1/1 )
G01 Z-0.07000
G04 P0 ( dwell for no time -- G64 should not smooth over this point )
G01 F120.00000
G01 X-7.65678 Y-9.71565
G01 X-7.65678 Y-9.45678
G01 X-7.70319 Y-9.45678
G01 X-7.70319 Y-9.67999
G01 X-7.70755 Y-9.72424
G01 X-7.72046 Y-9.76678
G01 X-7.74141 Y-9.80600
G01 X-7.76961 Y-9.84037
G01 X-7.80397 Y-9.86856
G01 X-7.84319 Y-9.88952
G01 X-7.88573 Y-9.90242
G01 X-7.92998 Y-9.90679
G01 X-8.15317 Y-9.90679
G01 X-8.15317 Y-9.95317
G01 X-7.89429 Y-9.95317
G01 X-7.87517 Y-9.95111
G01 X-7.79770 Y-9.92223
G01 X-7.73481 Y-9.87514
G01 X-7.68772 Y-9.81225
G01 X-7.65884 Y-9.73478
G01 X-7.65678 Y-9.71565
G04 P0 ( dwell for no time -- G64 should not smooth over this point )
G00 Z2.00000 ( retract )

G00 X-9.40679 Y-9.95317 ( rapid move to begin. )
G01 F60.00000
( Mill infeed pass 1/1 )
G01 Z-0.07000
G04 P0 ( dwell for no time -- G64 should not smooth over this point )
G01 F120.00000
G01 X-9.40679 Y-9.95317
G01 X-9.40679 Y-9.90679
G01 X-9.62998 Y-9.90679
G01 X-9.67422 Y-9.90242
G01 X-9.71677 Y-9.88952
G01 X-9.75599 Y-9.86856
G01 X-9.79035 Y-9.84037
G01 X-9.81857 Y-9.80600
G01 X-9.83953 Y-9.76678
G01 X-9.85243 Y-9.72424
G01 X-9.85677 Y-9.67999
G01 X-9.85677 Y-9.45678
G01 X-10.44484 Y-9.45678
G01 X-10.59947 Y-9.63021
G01 X-10.69317 Y-9.69983
G01 X-10.69317 Y-9.76226
G01 X-10.59523 Y-9.69368
G01 X-10.48685 Y-9.58527
G01 X-10.40686 Y-9.52541
G01 X-10.34633 Y-9.50285
G01 X-10.27806 Y-9.48802
G01 X-10.23529 Y-9.48291
G01 X-10.19228 Y-9.48599
G01 X-10.08522 Y-9.52155
G01 X-10.04641 Y-9.54039
G01 X-10.01189 Y-9.56625
G01 X-9.98289 Y-9.59815
G01 X-9.92355 Y-9.68129
G01 X-9.87222 Y-9.81225
G01 X-9.82515 Y-9.87514
G01 X-9.76224 Y-9.92223
G01 X-9.68479 Y-9.95111
G01 X-9.66564 Y-9.95317
G01 X-9.40679 Y-9.95317
G04 P0 ( dwell for no time -- G64 should not smooth over this point )
G00 Z2.00000 ( retract )

G00 X-9.40679 Y-7.75320 ( rapid move to begin. )
G01 F60.00000
( Mill infeed pass 1/1 )
G01 Z-0.07000
G04 P0 ( dwell for no time -- G64 should not smooth over this point )
G01 F120.00000
G01 X-9.40679 Y-7.75320
G01 X-9.40679 Y-7.70679
G01 X-9.66567 Y-7.70679
G01 X-9.68479 Y-7.70885
G01 X-9.76226 Y-7.73773
G01 X-9.82515 Y-7.78482
G01 X-9.87222 Y-7.84769
G01 X-9.92353 Y-7.97862
G01 X-9.95794 Y-8.03684
G01 X-9.97913 Y-8.06127
G01 X-10.05949 Y-8.12437
G01 X-10.09632 Y-8.14682
G01 X-10.13673 Y-8.16188
G01 X-10.17928 Y-8.16905
G01 X-10.24895 Y-8.17402
G01 X-10.29205 Y-8.17298
G01 X-10.33419 Y-8.16381
G01 X-10.37384 Y-8.14685
G01 X-10.46239 Y-8.09587
G01 X-10.59525 Y-7.96628
G01 X-10.69317 Y-7.89770
G01 X-10.69317 Y-7.96016
G01 X-10.59947 Y-8.02978
G01 X-10.44486 Y-8.20316
G01 X-9.85677 Y-8.20316
G01 X-9.85677 Y-7.97999
G01 X-9.85243 Y-7.93575
G01 X-9.83953 Y-7.89320
G01 X-9.81857 Y-7.85398
G01 X-9.79035 Y-7.81962
G01 X-9.75599 Y-7.79140
G01 X-9.71677 Y-7.77044
G01 X-9.67422 Y-7.75754
G01 X-9.62998 Y-7.75320
G01 X-9.40679 Y-7.75320
G04 P0 ( dwell for no time -- G64 should not smooth over this point )
G00 Z2.00000 ( retract )

G00 X-11.94679 Y-9.76226 ( rapid move to begin. )
G01 F60.00000
( Mill infeed pass 1/1 )
G01 Z-0.07000
G04 P0 ( dwell for no time -- G64 should not smooth over this point )
G01 F120.00000
G01 X-11.94679 Y-9.76226
G01 X-11.94679 Y-9.69983
G01 X-12.04051 Y-9.63021
G01 X-12.19512 Y-9.45678
G01 X-12.25227 Y-9.45678
G01 X-12.18367 Y-9.55472
G01 X-12.04471 Y-9.69368
G01 X-11.94679 Y-9.76226
G04 P0 ( dwell for no time -- G64 should not smooth over this point )
G00 Z2.00000 ( retract )

G00 X-11.94679 Y-7.96013 ( rapid move to begin. )
G01 F60.00000
( Mill infeed pass 1/1 )
G01 Z-0.07000
G04 P0 ( dwell for no time -- G64 should not smooth over this point )
G01 F120.00000
G01 X-11.94679 Y-7.96013
G01 X-12.04051 Y-8.02978
G01 X-12.19510 Y-8.20316
G01 X-12.25403 Y-8.20316
G01 X-12.18451 Y-8.10608
G01 X-12.04471 Y-7.96628
G01 X-11.94679 Y-7.89770
G01 X-11.94679 Y-7.96013
G04 P0 ( dwell for no time -- G64 should not smooth over this point )
G00 Z2.00000 ( retract )

G00 X-12.92769 Y-8.20316 ( rapid move to begin. )
G01 F60.00000
( Mill infeed pass 1/1 )
G01 Z-0.07000
G04 P0 ( dwell for no time -- G64 should not smooth over this point )
G01 F120.00000
G01 X-12.92769 Y-8.20316
G01 X-12.99627 Y-8.10524
G01 X-13.13523 Y-7.96628
G01 X-13.23317 Y-7.89770
G01 X-13.23317 Y-7.96016
G01 X-13.13947 Y-8.02978
G01 X-12.98486 Y-8.20316
G01 X-12.92769 Y-8.20316
G04 P0 ( dwell for no time -- G64 should not smooth over this point )
G00 Z2.00000 ( retract )

G00 X-12.92588 Y-9.45678 ( rapid move to begin. )
G01 F60.00000
( Mill infeed pass 1/1 )
G01 Z-0.07000
G04 P0 ( dwell for no time -- G64 should not smooth over this point )
G01 F120.00000
G01 X-12.92588 Y-9.45678
G01 X-12.99540 Y-9.55388
G01 X-13.13523 Y-9.69368
G01 X-13.23317 Y-9.76226
G01 X-13.23317 Y-9.69983
G01 X-13.13947 Y-9.63021
G01 X-12.98481 Y-9.45678
G01 X-12.92588 Y-9.45678
G04 P0 ( dwell for no time -- G64 should not smooth over this point )
G00 Z2.00000 ( retract )

G00 X-14.48679 Y-9.76226 ( rapid move to begin. )
G01 F60.00000
( Mill infeed pass 1/1 )
G01 Z-0.07000
G04 P0 ( dwell for no time -- G64 should not smooth over this point )
G01 F120.00000
G01 X-14.48679 Y-9.76226
G01 X-14.48679 Y-9.69983
G01 X-14.58051 Y-9.63021
G01 X-14.73512 Y-9.45678
G01 X-14.79227 Y-9.45678
G01 X-14.72367 Y-9.55472
G01 X-14.58471 Y-9.69368
G01 X-14.48679 Y-9.76226
G04 P0 ( dwell for no time -- G64 should not smooth over this point )
G00 Z2.00000 ( retract )

G00 X-14.48679 Y-7.96013 ( rapid move to begin. )
G01 F60.00000
( Mill infeed pass 1/1 )
G01 Z-0.07000
G04 P0 ( dwell for no time -- G64 should not smooth over this point )
G01 F120.00000
G01 X-14.48679 Y-7.96013
G01 X-14.58051 Y-8.02978
G01 X-14.73510 Y-8.20316
G01 X-14.79403 Y-8.20316
G01 X-14.72451 Y-8.10608
G01 X-14.58471 Y-7.96628
G01 X-14.48679 Y-7.89770
G01 X-14.48679 Y-7.96013
G04 P0 ( dwell for no time -- G64 should not smooth over this point )
G00 Z2.00000 ( retract )

G00 X-15.46769 Y-8.20316 ( rapid move to begin. )
G01 F60.00000
( Mill infeed pass 1/1 )
G01 Z-0.07000
G04 P0 ( dwell for no time -- G64 should not smooth over this point )
G01 F120.00000
G01 X-15.46769 Y-8.20316
G01 X-15.53627 Y-8.10524
G01 X-15.67523 Y-7.96628
G01 X-15.77317 Y-7.89770
G01 X-15.77317 Y-7.96016
G01 X-15.67947 Y-8.02978
G01 X-15.52486 Y-8.20316
G01 X-15.46769 Y-8.20316
G04 P0 ( dwell for no time -- G64 should not smooth over this point )
G00 Z2.00000 ( retract )

G00 X-15.46591 Y-9.45678 ( rapid move to begin. )
G01 F60.00000
( Mill infeed pass 1/1 )
G01 Z-0.07000
G04 P0 ( dwell for no time -- G64 should not smooth over this point )
G01 F120.00000
G01 X-15.46591 Y-9.45678
G01 X-15.53543 Y-9.55388
G01 X-15.67523 Y-9.69368
G01 X-15.77317 Y-9.76226
G01 X-15.77317 Y-9.69983
G01 X-15.67947 Y-9.63021
G01 X-15.52484 Y-9.45678
G01 X-15.46591 Y-9.45678
G04 P0 ( dwell for no time -- G64 should not smooth over this point )
G00 Z2.00000 ( retract )

G00 X-17.02679 Y-7.96013 ( rapid move to begin. )
G01 F60.00000
( Mill infeed pass 1/1 )
G01 Z-0.07000
G04 P0 ( dwell for no time -- G64 should not smooth over this point )
G01 F120.00000
G01 X-17.02679 Y-7.96013
G01 X-17.12051 Y-8.02978
G01 X-17.27510 Y-8.20316
G01 X-17.33225 Y-8.20316
G01 X-17.26367 Y-8.10524
G01 X-17.12471 Y-7.96628
G01 X-17.02679 Y-7.89770
G01 X-17.02679 Y-7.96013
G04 P0 ( dwell for no time -- G64 should not smooth over this point )
G00 Z2.00000 ( retract )

G00 X-17.02679 Y-9.76226 ( rapid move to begin. )
G01 F60.00000
( Mill infeed pass 1/1 )
G01 Z-0.07000
G04 P0 ( dwell for no time -- G64 should not smooth over this point )
G01 F120.00000
G01 X-17.02679 Y-9.76226
G01 X-17.12471 Y-9.69368
G01 X-17.26367 Y-9.55472
G01 X-17.33227 Y-9.45678
G01 X-17.27512 Y-9.45678
G01 X-17.12051 Y-9.63021
G01 X-17.02679 Y-9.69983
G01 X-17.02679 Y-9.76226
G04 P0 ( dwell for no time -- G64 should not smooth over this point )
G00 Z2.00000 ( retract )

G00 X-19.62450 Y-12.72327 ( rapid move to begin. )
G01 F60.00000
( Mill infeed pass 1/1 )
G01 Z-0.07000
G04 P0 ( dwell for no time -- G64 should not smooth over this point )
G01 F120.00000
G01 X-19.62450 Y-12.72327
G01 X-19.65604 Y-12.72253
G01 X-19.69816 Y-12.71339
G01 X-19.79910 Y-12.66294
G01 X-19.85079 Y-12.62423
G01 X-19.92325 Y-12.55177
G01 X-20.02737 Y-12.48755
G01 X-20.14504 Y-12.44857
G01 X-20.21154 Y-12.44178
G01 X-20.27316 Y-12.44178
G01 X-20.27316 Y-12.48931
G01 X-20.19958 Y-12.49086
G01 X-20.10265 Y-12.51153
G01 X-20.03275 Y-12.54130
G01 X-19.99168 Y-12.56500
G01 X-19.93095 Y-12.61067
G01 X-19.87918 Y-12.66629
G01 X-19.85132 Y-12.70465
G01 X-19.82480 Y-12.75065
G01 X-19.64644 Y-12.75065
G01 X-19.62450 Y-12.72327
G04 P0 ( dwell for no time -- G64 should not smooth over this point )
G00 Z2.00000 ( retract )

G00 X-21.52678 Y-12.48931 ( rapid move to begin. )
G01 F60.00000
( Mill infeed pass 1/1 )
G01 Z-0.07000
G04 P0 ( dwell for no time -- G64 should not smooth over this point )
G01 F120.00000
G01 X-21.52678 Y-12.48931
G01 X-21.52678 Y-12.44178
G01 X-21.58843 Y-12.44178
G01 X-21.65490 Y-12.44857
G01 X-21.77258 Y-12.48755
G01 X-21.87669 Y-12.55177
G01 X-21.96318 Y-12.63825
G01 X-22.03013 Y-12.75065
G01 X-21.97519 Y-12.75065
G01 X-21.93572 Y-12.68473
G01 X-21.88581 Y-12.62743
G01 X-21.85058 Y-12.59571
G01 X-21.78840 Y-12.55207
G01 X-21.71949 Y-12.52004
G01 X-21.67440 Y-12.50539
G01 X-21.60039 Y-12.49086
G01 X-21.52678 Y-12.48931
G04 P0 ( dwell for no time -- G64 should not smooth over this point )
G00 Z2.00000 ( retract )

G00 X-23.22241 Y-10.94765 ( rapid move to begin. )
G01 F60.00000
( Mill infeed pass 1/1 )
G01 Z-0.07000
G04 P0 ( dwell for no time -- G64 should not smooth over this point )
G01 F120.00000
G01 X-23.22241 Y-10.94765
G01 X-23.23983 Y-11.15794
G01 X-23.27285 Y-11.28832
G01 X-23.31334 Y-11.24783
G01 X-23.29627 Y-11.17928
G01 X-23.27318 Y-10.94765
G01 X-23.29627 Y-10.71606
G01 X-23.31336 Y-10.64745
G01 X-23.27285 Y-10.60696
G01 X-23.23983 Y-10.73737
G01 X-23.22241 Y-10.94765
G04 P0 ( dwell for no time -- G64 should not smooth over this point )
G00 Z2.00000 ( retract )

G00 X-24.15774 Y-12.17630 ( rapid move to begin. )
G01 F60.00000
( Mill infeed pass 1/1 )
G01 Z-0.07000
G04 P0 ( dwell for no time -- G64 should not smooth over this point )
G01 F120.00000
G01 X-24.15774 Y-12.17630
G01 X-24.18634 Y-12.18613
G01 X-24.39446 Y-12.22085
G01 X-24.60549 Y-12.22085
G01 X-24.81359 Y-12.18613
G01 X-24.84219 Y-12.17630
G01 X-24.79868 Y-12.13279
G01 X-24.62822 Y-12.16774
G01 X-24.39546 Y-12.16899
G01 X-24.34831 Y-12.16403
G01 X-24.20127 Y-12.13277
G01 X-24.15774 Y-12.17630
G04 P0 ( dwell for no time -- G64 should not smooth over this point )
G00 Z2.00000 ( retract )

G00 X-25.68661 Y-11.24786 ( rapid move to begin. )
G01 F60.00000
( Mill infeed pass 1/1 )
G01 Z-0.07000
G04 P0 ( dwell for no time -- G64 should not smooth over this point )
G01 F120.00000
G01 X-25.68661 Y-11.24786
G01 X-25.70368 Y-11.17928
G01 X-25.72680 Y-10.94765
G01 X-25.70368 Y-10.71606
G01 X-25.68661 Y-10.64743
G01 X-25.72708 Y-10.60694
G01 X-25.76012 Y-10.73737
G01 X-25.77755 Y-10.94765
G01 X-25.76012 Y-11.15794
G01 X-25.72710 Y-11.28834
G01 X-25.68661 Y-11.24786
G04 P0 ( dwell for no time -- G64 should not smooth over this point )
G00 Z2.00000 ( retract )

G00 X-24.15776 Y-9.71898 ( rapid move to begin. )
G01 F60.00000
( Mill infeed pass 1/1 )
G01 Z-0.07000
G04 P0 ( dwell for no time -- G64 should not smooth over this point )
G01 F120.00000
G01 X-24.15776 Y-9.71898
G01 X-24.18634 Y-9.70918
G01 X-24.39446 Y-9.67445
G01 X-24.60549 Y-9.67445
G01 X-24.81359 Y-9.70918
G01 X-24.84219 Y-9.71901
G01 X-24.79863 Y-9.76254
G01 X-24.65167 Y-9.73130
G01 X-24.60452 Y-9.72635
G01 X-24.37176 Y-9.72759
G01 X-24.20130 Y-9.76254
G01 X-24.15776 Y-9.71898
G04 P0 ( dwell for no time -- G64 should not smooth over this point )
G00 Z2.00000 ( retract )

G00 X-19.76981 Y-14.00429 ( rapid move to begin. )
G01 F60.00000
( Mill infeed pass 1/1 )
G01 Z-0.07000
G04 P0 ( dwell for no time -- G64 should not smooth over this point )
G01 F120.00000
G01 X-19.76981 Y-14.00429
G01 X-19.83676 Y-14.11669
G01 X-19.92325 Y-14.20317
G01 X-20.02737 Y-14.26738
G01 X-20.14504 Y-14.30637
G01 X-20.21154 Y-14.31315
G01 X-20.27316 Y-14.31315
G01 X-20.27316 Y-14.26566
G01 X-20.19958 Y-14.26411
G01 X-20.12559 Y-14.24960
G01 X-20.08048 Y-14.23495
G01 X-20.01159 Y-14.20292
G01 X-19.94939 Y-14.15926
G01 X-19.91416 Y-14.12753
G01 X-19.86425 Y-14.07025
G01 X-19.82478 Y-14.00429
G01 X-19.76981 Y-14.00429
G04 P0 ( dwell for no time -- G64 should not smooth over this point )
G00 Z2.00000 ( retract )

G00 X-17.27319 Y-15.74498 ( rapid move to begin. )
G01 F60.00000
( Mill infeed pass 1/1 )
G01 Z-0.07000
G04 P0 ( dwell for no time -- G64 should not smooth over this point )
G01 F120.00000
G01 X-17.27319 Y-15.74498
G01 X-17.27444 Y-15.42128
G01 X-17.28142 Y-15.36664
G01 X-17.30576 Y-15.29174
G01 X-17.33222 Y-15.24343
G01 X-17.36009 Y-15.20505
G01 X-17.39786 Y-15.16497
G01 X-17.44167 Y-15.13159
G01 X-17.48274 Y-15.10789
G01 X-17.53354 Y-15.08663
G01 X-17.61061 Y-15.07025
G01 X-19.33938 Y-15.07025
G01 X-19.41642 Y-15.08663
G01 X-19.46725 Y-15.10789
G01 X-19.50829 Y-15.13159
G01 X-19.55211 Y-15.16497
G01 X-19.60484 Y-15.22352
G01 X-19.63344 Y-15.27058
G01 X-19.66242 Y-15.34371
G01 X-19.67227 Y-15.39009
G01 X-19.67680 Y-15.44498
G01 X-19.67555 Y-15.76870
G01 X-19.66854 Y-15.82334
G01 X-19.64421 Y-15.89824
G01 X-19.61777 Y-15.94655
G01 X-19.58988 Y-15.98491
G01 X-19.55211 Y-16.02501
G01 X-19.50829 Y-16.05839
G01 X-19.46725 Y-16.08209
G01 X-19.41642 Y-16.10335
G01 X-19.33938 Y-16.11973
G01 X-17.63431 Y-16.12097
G01 X-17.58716 Y-16.11602
G01 X-17.53354 Y-16.10335
G01 X-17.46159 Y-16.07132
G01 X-17.39786 Y-16.02501
G01 X-17.36009 Y-15.98491
G01 X-17.33222 Y-15.94655
G01 X-17.29725 Y-15.87609
G01 X-17.28142 Y-15.82334
G01 X-17.27319 Y-15.74498
G04 P0 ( dwell for no time -- G64 should not smooth over this point )
G00 Z2.00000 ( retract )

G00 X-14.26632 Y-15.06901 ( rapid move to begin. )
G01 F60.00000
( Mill infeed pass 1/1 )
G01 Z-0.07000
G04 P0 ( dwell for no time -- G64 should not smooth over this point )
G01 F120.00000
G01 X-14.26632 Y-15.06901
G01 X-14.11018 Y-15.00434
G01 X-13.98816 Y-15.06901
G01 X-12.68430 Y-15.06901
G01 X-12.60648 Y-15.08049
G01 X-12.53274 Y-15.10789
G01 X-12.49167 Y-15.13159
G01 X-12.44785 Y-15.16497
G01 X-12.39515 Y-15.22352
G01 X-12.35575 Y-15.29174
G01 X-12.33142 Y-15.36664
G01 X-12.32319 Y-15.44498
G01 X-12.32444 Y-15.76870
G01 X-12.33757 Y-15.84625
G01 X-12.36655 Y-15.91940
G01 X-12.41008 Y-15.98491
G01 X-12.46632 Y-16.03995
G01 X-12.51158 Y-16.07132
G01 X-12.56139 Y-16.09484
G01 X-12.64496 Y-16.11724
G01 X-12.61900 Y-16.11216
G01 X-12.62261 Y-16.11721
G01 X-12.68430 Y-16.12097
G01 X-14.36566 Y-16.12097
G01 X-14.41282 Y-16.11602
G01 X-14.46642 Y-16.10335
G01 X-14.53838 Y-16.07132
G01 X-14.60210 Y-16.02501
G01 X-14.65483 Y-15.96647
G01 X-14.69420 Y-15.89824
G01 X-14.71856 Y-15.82334
G01 X-14.72679 Y-15.74498
G01 X-14.72555 Y-15.42128
G01 X-14.71242 Y-15.34371
G01 X-14.68344 Y-15.27058
G01 X-14.65483 Y-15.22352
G01 X-14.60210 Y-15.16497
G01 X-14.53838 Y-15.11866
G01 X-14.46642 Y-15.08663
G01 X-14.41282 Y-15.07396
G01 X-14.36566 Y-15.06901
G01 X-13.98816 Y-15.06901
G04 P0 ( dwell for no time -- G64 should not smooth over this point )
G00 Z2.00000 ( retract )

G00 X-8.45449 Y-13.12248 ( rapid move to begin. )
G01 F60.00000
( Mill infeed pass 1/1 )
G01 Z-0.07000
G04 P0 ( dwell for no time -- G64 should not smooth over this point )
G01 F120.00000
G01 X-8.45449 Y-13.12248
G01 X-8.36056 Y-13.20056
G01 X-8.30128 Y-13.27084
G01 X-8.15482 Y-13.19840
G01 X-8.11360 Y-13.20241
G01 X-7.92267 Y-13.20117
G01 X-7.71268 Y-13.15654
G01 X-7.51660 Y-13.06921
G01 X-7.34291 Y-12.94305
G01 X-7.19930 Y-12.78349
G01 X-7.09196 Y-12.59761
G01 X-7.02561 Y-12.39347
G01 X-7.00319 Y-12.17999
G01 X-7.02561 Y-11.96650
G01 X-7.08345 Y-11.78451
G01 X-7.10273 Y-11.74120
G01 X-7.18637 Y-11.59637
G01 X-7.21424 Y-11.55799
G01 X-7.34291 Y-11.41692
G01 X-7.49668 Y-11.30369
G01 X-7.53773 Y-11.27996
G01 X-7.71268 Y-11.20343
G01 X-7.89922 Y-11.16254
G01 X-7.94636 Y-11.15756
G01 X-8.13732 Y-11.15880
G01 X-8.32437 Y-11.19731
G01 X-8.39224 Y-11.22210
G01 X-9.65360 Y-11.55316
G01 X-12.56000 Y-11.55316
G01 X-12.66025 Y-11.56195
G01 X-12.70386 Y-11.57061
G01 X-12.79985 Y-11.60089
G01 X-12.88910 Y-11.64737
G01 X-12.92609 Y-11.67206
G01 X-13.00320 Y-11.73676
G01 X-15.79288 Y-14.52644
G01 X-15.59819 Y-14.33175
G01 X-15.72931 Y-14.37185
G01 X-15.79288 Y-14.52644
G01 X-15.87790 Y-14.62387
G01 X-15.90258 Y-14.66083
G01 X-15.93957 Y-14.72999
G01 X-15.95656 Y-14.77107
G01 X-15.98475 Y-14.86769
G01 X-15.99570 Y-14.96774
G01 X-15.99679 Y-16.35999
G01 X-15.98559 Y-16.47548
G01 X-15.97094 Y-16.53652
G01 X-15.93593 Y-16.62836
G01 X-15.88696 Y-16.71358
G01 X-15.81320 Y-16.80319
G01 X-15.29171 Y-17.32313
G01 X-15.23108 Y-17.37289
G01 X-15.19413 Y-17.39758
G01 X-15.12496 Y-17.43456
G01 X-15.08389 Y-17.45155
G01 X-14.98727 Y-17.47975
G01 X-14.86499 Y-17.49179
G01 X-14.67769 Y-17.49179
G01 X-14.70850 Y-17.49179
G01 X-14.69550 Y-17.49801
G01 X-14.67769 Y-17.49179
G01 X-13.52499 Y-17.49179
G01 X-13.42471 Y-17.48300
G01 X-13.38110 Y-17.47434
G01 X-13.30607 Y-17.45155
G01 X-13.26500 Y-17.43456
G01 X-13.18616 Y-17.39179
G01 X-12.70000 Y-17.39179
G01 X-12.61869 Y-17.38175
G01 X-12.64526 Y-17.38597
G01 X-12.62174 Y-17.38600
G01 X-12.61869 Y-17.38175
G01 X-12.56139 Y-17.36484
G01 X-12.51158 Y-17.34132
G01 X-12.46632 Y-17.30995
G01 X-12.43106 Y-17.27822
G01 X-12.39515 Y-17.23647
G01 X-12.35575 Y-17.16824
G01 X-12.33757 Y-17.11625
G01 X-12.32771 Y-17.06989
G01 X-12.32319 Y-17.01498
G01 X-12.32319 Y-16.71498
G01 X-12.33142 Y-16.63664
G01 X-12.35575 Y-16.56174
G01 X-12.38222 Y-16.51343
G01 X-12.41008 Y-16.47505
G01 X-12.44785 Y-16.43497
G01 X-12.49167 Y-16.40159
G01 X-12.53274 Y-16.37789
G01 X-12.58923 Y-16.35486
G01 X-12.64542 Y-16.34401
G01 X-12.61554 Y-16.34891
G01 X-12.61933 Y-16.34396
G01 X-12.70000 Y-16.33819
G01 X-13.18613 Y-16.33819
G01 X-13.26500 Y-16.29540
G01 X-13.30607 Y-16.27840
G01 X-13.38110 Y-16.25562
G01 X-13.42471 Y-16.24696
G01 X-13.50274 Y-16.23926
G01 X-14.60536 Y-16.23817
G01 X-14.74318 Y-16.10035
G01 X-14.74318 Y-15.24960
G01 X-14.15565 Y-14.66207
G01 X-14.35308 Y-14.85951
G01 X-14.19629 Y-14.79456
G01 X-14.15565 Y-14.66207
G01 X-12.30036 Y-12.80678
G01 X-9.65454 Y-12.80678
G01 X-8.39211 Y-13.13790
G01 X-8.32437 Y-13.16269
G01 X-8.15482 Y-13.19840
G04 P0 ( dwell for no time -- G64 should not smooth over this point )
G00 Z2.00000 ( retract )

G00 X-7.39267 Y-14.76997 ( rapid move to begin. )
G01 F60.00000
( Mill infeed pass 1/1 )
G01 Z-0.07000
G04 P0 ( dwell for no time -- G64 should not smooth over this point )
G01 F120.00000
G01 X-7.39267 Y-14.76997
G01 X-7.40804 Y-14.59446
G01 X-7.45541 Y-14.64183
G01 X-7.44319 Y-14.77000
G01 X-7.45541 Y-14.89812
G01 X-7.40804 Y-14.94549
G01 X-7.39267 Y-14.76997
G04 P0 ( dwell for no time -- G64 should not smooth over this point )
G00 Z2.00000 ( retract )

G00 X-8.29445 Y-15.83192 ( rapid move to begin. )
G01 F60.00000
( Mill infeed pass 1/1 )
G01 Z-0.07000
G04 P0 ( dwell for no time -- G64 should not smooth over this point )
G01 F120.00000
G01 X-8.29445 Y-15.83192
G01 X-8.46996 Y-15.84726
G01 X-8.64550 Y-15.83192
G01 X-8.60077 Y-15.78745
G01 X-8.55360 Y-15.79240
G01 X-8.38637 Y-15.79240
G01 X-8.33897 Y-15.78740
G01 X-8.29445 Y-15.83192
G04 P0 ( dwell for no time -- G64 should not smooth over this point )
G00 Z2.00000 ( retract )

G00 X-9.48456 Y-14.89814 ( rapid move to begin. )
G01 F60.00000
( Mill infeed pass 1/1 )
G01 Z-0.07000
G04 P0 ( dwell for no time -- G64 should not smooth over this point )
G01 F120.00000
G01 X-9.48456 Y-14.89814
G01 X-9.53191 Y-14.94549
G01 X-9.54728 Y-14.76997
G01 X-9.53191 Y-14.59446
G01 X-9.48456 Y-14.64183
G01 X-9.49678 Y-14.77000
G01 X-9.48456 Y-14.89814
G04 P0 ( dwell for no time -- G64 should not smooth over this point )
G00 Z2.00000 ( retract )

G00 X-12.61585 Y-17.61848 ( rapid move to begin. )
G01 F60.00000
( Mill infeed pass 1/1 )
G01 Z-0.07000
G04 P0 ( dwell for no time -- G64 should not smooth over this point )
G01 F120.00000
G01 X-12.61585 Y-17.61848
G01 X-12.68430 Y-17.60901
G01 X-14.36566 Y-17.60901
G01 X-14.41282 Y-17.61396
G01 X-14.48859 Y-17.63514
G01 X-14.55829 Y-17.67159
G01 X-14.60210 Y-17.70497
G01 X-14.63987 Y-17.74505
G01 X-14.66776 Y-17.78343
G01 X-14.69420 Y-17.83174
G01 X-14.71856 Y-17.90664
G01 X-14.72679 Y-17.98498
G01 X-14.72679 Y-18.28498
G01 X-14.71856 Y-18.36334
G01 X-14.69420 Y-18.43824
G01 X-14.65483 Y-18.50647
G01 X-14.60210 Y-18.56501
G01 X-14.53838 Y-18.61132
G01 X-14.48859 Y-18.63484
G01 X-14.43406 Y-18.65150
G01 X-14.42969 Y-18.65721
G01 X-14.40503 Y-18.65724
G01 X-14.43406 Y-18.65150
G01 X-14.36566 Y-18.66097
G01 X-12.68430 Y-18.66097
G01 X-12.63716 Y-18.65602
G01 X-12.56139 Y-18.63484
G01 X-12.51158 Y-18.61132
G01 X-12.44084 Y-18.56202
G01 X-12.44028 Y-18.55744
G01 X-12.44681 Y-18.56397
G01 X-12.41008 Y-18.52491
G01 X-12.38222 Y-18.48655
G01 X-12.34724 Y-18.41609
G01 X-12.33142 Y-18.36334
G01 X-12.32319 Y-18.28498
G01 X-12.32444 Y-17.96128
G01 X-12.33142 Y-17.90664
G01 X-12.35575 Y-17.83174
G01 X-12.39515 Y-17.76352
G01 X-12.43106 Y-17.72176
G01 X-12.46632 Y-17.69003
G01 X-12.51158 Y-17.65866
G01 X-12.56139 Y-17.63514
G01 X-12.61585 Y-17.61848
G01 X-12.62024 Y-17.61274
G01 X-12.64501 Y-17.61274
G04 P0 ( dwell for no time -- G64 should not smooth over this point )
G00 Z2.00000 ( retract )

G00 X-17.38094 Y-18.79389 ( rapid move to begin. )
G01 F60.00000
( Mill infeed pass 1/1 )
G01 Z-0.07000
G04 P0 ( dwell for no time -- G64 should not smooth over this point )
G01 F120.00000
G01 X-17.38094 Y-18.79389
G01 X-17.36715 Y-18.87817
G01 X-19.29999 Y-18.87819
G01 X-19.41076 Y-18.89486
G01 X-19.48838 Y-18.92866
G01 X-19.53367 Y-18.96003
G01 X-19.58988 Y-19.01505
G01 X-19.61777 Y-19.05343
G01 X-19.64421 Y-19.10174
G01 X-19.66854 Y-19.17664
G01 X-19.67680 Y-19.25498
G01 X-19.67680 Y-19.54218
G01 X-19.70103 Y-19.62274
G01 X-19.70408 Y-19.64451
G01 X-19.72127 Y-19.67735
G01 X-19.74637 Y-19.70463
G01 X-19.74200 Y-19.70926
G01 X-19.74637 Y-19.70463
G01 X-19.84284 Y-19.76029
G01 X-19.90212 Y-19.76453
G01 X-19.84284 Y-19.76029
G01 X-19.76189 Y-19.71482
G01 X-19.73270 Y-19.69201
G01 X-19.71241 Y-19.66102
G01 X-19.67680 Y-19.54218
G01 X-19.66854 Y-19.63334
G01 X-19.65272 Y-19.68609
G01 X-19.63344 Y-19.72940
G01 X-19.60484 Y-19.77647
G01 X-19.56890 Y-19.81822
G01 X-19.53367 Y-19.84995
G01 X-19.48838 Y-19.88132
G01 X-19.41642 Y-19.91335
G01 X-19.33953 Y-19.92970
G01 X-19.00179 Y-19.93143
G01 X-19.00179 Y-19.97817
G01 X-19.36151 Y-19.97781
G01 X-19.46938 Y-19.94647
G01 X-19.56140 Y-19.89204
G01 X-19.61904 Y-19.83768
G01 X-19.64626 Y-19.82018
G01 X-19.74720 Y-19.76973
G01 X-19.78932 Y-19.76059
G01 X-19.83242 Y-19.75955
G01 X-19.90212 Y-19.76453
G01 X-19.94593 Y-19.77202
G01 X-19.98744 Y-19.78792
G01 X-20.02506 Y-19.81162
G01 X-20.08350 Y-19.85701
G01 X-20.10893 Y-19.88005
G01 X-20.13059 Y-19.90664
G01 X-21.66673 Y-22.11522
G01 X-21.72528 Y-22.18162
G01 X-21.78583 Y-22.23165
G01 X-21.87476 Y-22.27227
G01 X-21.91067 Y-22.28281
G01 X-22.02099 Y-22.29866
G01 X-35.18380 Y-22.29866
G01 X-35.26709 Y-22.28972
G01 X-35.35883 Y-22.26239
G01 X-35.44225 Y-22.20877
G01 X-35.47052 Y-22.18428
G01 X-35.53280 Y-22.11243
G01 X-35.57227 Y-22.02597
G01 X-35.58281 Y-21.99008
G01 X-35.59866 Y-21.87976
G01 X-35.59866 Y-17.96613
G01 X-35.58972 Y-17.88284
G01 X-35.56239 Y-17.79110
G01 X-35.50877 Y-17.70769
G01 X-35.48426 Y-17.67939
G01 X-35.41245 Y-17.61719
G01 X-35.32596 Y-17.57769
G01 X-35.29005 Y-17.56715
G01 X-35.17974 Y-17.55127
G01 X-34.70613 Y-17.55127
G01 X-34.59508 Y-17.56626
G01 X-34.45901 Y-17.60804
G01 X-34.35787 Y-17.62013
G01 X-34.32023 Y-17.61635
G01 X-34.28375 Y-17.60634
G01 X-34.12559 Y-17.54843
G01 X-33.96699 Y-17.54398
G01 X-33.86833 Y-17.51741
G01 X-33.82830 Y-17.50139
G01 X-33.79203 Y-17.47810
G01 X-33.76084 Y-17.44835
G01 X-33.70953 Y-17.38780
G01 X-33.69348 Y-17.38046
G01 X-33.69638 Y-17.36928
G01 X-33.70953 Y-17.38780
G01 X-33.69005 Y-17.36039
G01 X-33.67212 Y-17.32115
G01 X-33.65203 Y-17.21007
G01 X-33.65203 Y-17.14556
G01 X-33.66867 Y-17.02976
G01 X-33.66867 Y-6.45612
G01 X-33.65972 Y-6.37286
G01 X-33.63239 Y-6.28114
G01 X-33.57877 Y-6.19773
G01 X-33.55426 Y-6.16943
G01 X-33.48241 Y-6.10715
G01 X-33.39597 Y-6.06768
G01 X-33.36008 Y-6.05714
G01 X-33.24977 Y-6.04129
G01 X-29.92613 Y-6.04129
G01 X-29.84284 Y-6.05023
G01 X-29.75112 Y-6.07756
G01 X-29.66771 Y-6.13118
G01 X-29.63944 Y-6.15566
G01 X-29.57716 Y-6.22752
G01 X-29.53769 Y-6.31398
G01 X-29.52714 Y-6.34987
G01 X-29.51129 Y-6.46019
G01 X-29.51129 Y-13.11049
G01 X-29.50210 Y-13.17437
G01 X-29.46639 Y-13.28143
G01 X-29.44310 Y-13.31770
G01 X-29.36055 Y-13.39466
G01 X-29.33004 Y-13.41694
G01 X-29.29628 Y-13.43383
G01 X-29.20868 Y-13.45611
G01 X-29.16050 Y-13.46129
G01 X-23.37671 Y-13.46129
G01 X-23.27293 Y-13.47434
G01 X-23.21390 Y-13.49258
G01 X-23.12822 Y-13.54422
G01 X-23.09922 Y-13.56789
G01 X-23.02386 Y-13.64996
G01 X-22.70638 Y-14.11399
G01 X-22.66272 Y-14.16152
G01 X-22.57280 Y-14.22974
G01 X-22.53308 Y-14.24650
G01 X-22.49089 Y-14.25547
G01 X-22.41748 Y-14.26350
G01 X-22.37186 Y-14.29095
G01 X-22.34306 Y-14.31574
G01 X-22.33320 Y-14.30845
G01 X-22.34306 Y-14.31574
G01 X-22.32406 Y-14.34866
G01 X-22.31895 Y-14.36703
G01 X-22.30877 Y-14.42103
G01 X-22.31266 Y-14.42999
G01 X-22.30877 Y-14.42103
G01 X-22.31895 Y-14.36703
G01 X-22.33219 Y-14.33139
G01 X-22.35642 Y-14.30213
G01 X-22.41748 Y-14.26350
G01 X-22.37834 Y-14.26423
G01 X-22.33585 Y-14.25684
G01 X-22.29551 Y-14.24155
G01 X-22.19615 Y-14.18808
G01 X-22.16440 Y-14.15893
G01 X-22.13874 Y-14.12430
G01 X-22.10267 Y-14.06446
G01 X-22.07771 Y-14.00429
G01 X-21.97519 Y-14.00429
G01 X-21.93572 Y-14.07025
G01 X-21.88581 Y-14.12753
G01 X-21.85058 Y-14.15926
G01 X-21.80829 Y-14.18999
G01 X-21.76724 Y-14.21369
G01 X-21.71949 Y-14.23495
G01 X-21.67440 Y-14.24960
G01 X-21.60039 Y-14.26411
G01 X-21.52678 Y-14.26566
G01 X-21.52678 Y-14.31315
G01 X-21.58840 Y-14.31315
G01 X-21.65490 Y-14.30637
G01 X-21.77260 Y-14.26738
G01 X-21.82782 Y-14.23604
G01 X-21.92571 Y-14.20685
G01 X-21.96818 Y-14.19949
G01 X-22.01131 Y-14.20028
G01 X-22.05350 Y-14.20922
G01 X-22.15990 Y-14.24691
G01 X-22.19574 Y-14.27091
G01 X-22.22640 Y-14.30124
G01 X-22.27115 Y-14.35489
G01 X-22.29548 Y-14.39047
G01 X-22.31266 Y-14.42999
G01 X-22.32205 Y-14.47206
G01 X-22.33224 Y-14.57947
G01 X-22.32736 Y-14.61727
G01 X-22.31624 Y-14.65372
G01 X-22.28571 Y-14.72641
G01 X-21.95746 Y-15.20858
G01 X-21.91375 Y-15.25615
G01 X-21.82952 Y-15.32115
G01 X-21.79643 Y-15.33682
G01 X-21.71301 Y-15.35676
G01 X-21.66795 Y-15.36128
G01 X-20.08662 Y-15.36128
G01 X-19.98797 Y-15.37188
G01 X-19.92904 Y-15.37053
G01 X-19.82539 Y-15.35067
G01 X-19.78774 Y-15.33352
G01 X-19.75383 Y-15.30980
G01 X-19.67382 Y-15.23812
G01 X-19.63765 Y-15.18343
G01 X-19.56171 Y-15.10751
G01 X-19.46958 Y-15.05303
G01 X-19.36158 Y-15.02166
G01 X-17.62222 Y-15.01897
G01 X-17.52354 Y-14.99240
G01 X-17.48351 Y-14.97637
G01 X-17.44721 Y-14.95306
G01 X-17.37027 Y-14.87048
G01 X-17.34802 Y-14.84000
G01 X-17.33113 Y-14.80624
G01 X-17.32006 Y-14.77018
G01 X-17.30497 Y-14.69471
G01 X-17.30367 Y-14.16436
G01 X-17.31287 Y-14.10045
G01 X-17.34276 Y-14.00551
G01 X-17.35653 Y-13.97919
G01 X-17.39029 Y-13.93426
G01 X-17.46410 Y-13.85860
G01 X-17.53504 Y-13.80383
G01 X-18.64500 Y-13.15443
G01 X-18.72808 Y-13.11394
G01 X-18.88277 Y-13.00561
G01 X-19.01561 Y-12.87277
G01 X-19.10900 Y-12.74338
G01 X-19.18736 Y-12.67783
G01 X-19.22346 Y-12.65423
G01 X-19.26336 Y-12.63787
G01 X-19.31820 Y-12.62809
G01 X-19.32785 Y-12.60836
G01 X-19.34238 Y-12.60914
G01 X-19.32785 Y-12.60836
G01 X-19.33095 Y-12.59677
G01 X-19.31820 Y-12.62809
G01 X-19.35861 Y-12.62390
G01 X-19.33565 Y-12.60302
G01 X-19.30982 Y-12.56850
G01 X-19.29097 Y-12.52972
G01 X-19.25731 Y-12.43261
G01 X-19.25300 Y-12.36696
G01 X-19.26786 Y-12.18082
G01 X-19.25140 Y-11.99281
G01 X-19.20278 Y-11.81133
G01 X-19.12338 Y-11.64107
G01 X-19.01561 Y-11.48718
G01 X-18.88277 Y-11.35433
G01 X-18.72887 Y-11.24656
G01 X-18.55861 Y-11.16716
G01 X-18.37713 Y-11.11855
G01 X-18.18998 Y-11.10219
G01 X-18.00281 Y-11.11857
G01 X-17.82135 Y-11.16716
G01 X-17.65107 Y-11.24659
G01 X-17.49717 Y-11.35433
G01 X-17.36433 Y-11.48718
G01 X-17.25658 Y-11.64107
G01 X-17.21932 Y-11.71862
G01 X-16.54995 Y-12.85888
G01 X-16.51137 Y-12.90584
G01 X-16.10667 Y-13.31049
G01 X-16.03294 Y-13.42085
G01 X-15.98216 Y-13.54346
G01 X-15.95628 Y-13.67361
G01 X-15.95397 Y-13.80889
G01 X-15.92740 Y-13.90754
G01 X-15.91137 Y-13.94760
G01 X-15.88806 Y-13.98387
G01 X-15.85829 Y-14.01506
G01 X-15.79778 Y-14.06629
G01 X-15.75707 Y-14.14462
G01 X-15.67205 Y-14.11635
G01 X-15.73119 Y-14.10371
G01 X-15.77038 Y-14.08580
G01 X-15.79778 Y-14.06629
G01 X-15.77038 Y-14.08580
G01 X-15.73119 Y-14.10371
G01 X-15.68930 Y-14.11387
G01 X-15.62016 Y-14.12382
G01 X-15.58587 Y-14.12613
G01 X-15.55161 Y-14.12324
G01 X-15.51818 Y-14.11519
G01 X-15.48635 Y-14.10218
G01 X-15.41630 Y-14.06713
G01 X-15.38514 Y-14.04826
G01 X-15.35742 Y-14.02466
G01 X-12.98943 Y-11.65667
G01 X-12.87910 Y-11.58296
G01 X-12.75649 Y-11.53216
G01 X-12.62631 Y-11.50628
G01 X-9.70125 Y-11.50442
G01 X-9.64080 Y-11.49469
G01 X-8.21753 Y-11.11857
G01 X-8.02998 Y-11.10219
G01 X-7.84281 Y-11.11857
G01 X-7.66135 Y-11.16716
G01 X-7.49107 Y-11.24659
G01 X-7.33717 Y-11.35433
G01 X-7.20433 Y-11.48718
G01 X-7.09658 Y-11.64107
G01 X-7.01716 Y-11.81136
G01 X-6.96857 Y-11.99281
G01 X-6.95218 Y-12.17999
G01 X-6.96857 Y-12.36713
G01 X-7.01716 Y-12.54859
G01 X-7.09658 Y-12.71887
G01 X-7.20433 Y-12.87277
G01 X-7.33717 Y-13.00561
G01 X-7.49107 Y-13.11339
G01 X-7.66135 Y-13.19279
G01 X-7.87832 Y-13.25329
G01 X-7.96676 Y-13.30449
G01 X-8.00128 Y-13.33035
G01 X-8.03029 Y-13.36223
G01 X-8.05442 Y-13.40256
G01 X-8.24507 Y-13.49835
G01 X-8.30042 Y-13.51521
G01 X-8.34273 Y-13.51943
G01 X-8.34349 Y-13.53000
G01 X-8.34273 Y-13.51943
G01 X-8.36374 Y-13.51552
G01 X-8.40171 Y-13.49639
G01 X-8.40456 Y-13.50068
G01 X-8.40171 Y-13.49639
G01 X-8.45155 Y-13.44381
G01 X-8.52046 Y-13.36182
G01 X-8.58952 Y-13.30500
G01 X-8.52046 Y-13.36182
G01 X-8.45155 Y-13.44381
G01 X-8.40171 Y-13.49639
G01 X-8.36374 Y-13.51552
G01 X-8.34273 Y-13.51943
G01 X-8.30042 Y-13.51521
G01 X-8.24558 Y-13.49693
G01 X-8.05442 Y-13.40256
G01 X-8.08325 Y-13.46187
G01 X-8.10034 Y-13.51394
G01 X-8.33900 Y-13.75258
G01 X-8.38637 Y-13.74757
G01 X-8.55360 Y-13.74757
G01 X-8.60077 Y-13.75253
G01 X-8.68182 Y-13.67173
G01 X-8.64761 Y-13.63591
G01 X-8.62515 Y-13.59911
G01 X-8.59462 Y-13.53627
G01 X-8.57956 Y-13.49586
G01 X-8.57240 Y-13.45331
G01 X-8.57344 Y-13.41018
G01 X-8.59091 Y-13.29868
G01 X-8.60788 Y-13.25905
G01 X-8.67651 Y-13.16947
G01 X-8.70034 Y-13.14468
G01 X-8.72767 Y-13.12377
G01 X-8.79589 Y-13.09004
G01 X-8.83199 Y-13.07724
G01 X-9.64126 Y-12.86513
G01 X-9.73018 Y-12.85367
G01 X-12.16790 Y-12.85596
G01 X-12.26655 Y-12.88255
G01 X-12.30777 Y-12.89919
G01 X-12.34493 Y-12.92352
G01 X-12.38367 Y-12.95644
G01 X-13.84965 Y-14.42242
G01 X-13.88836 Y-14.47414
G01 X-13.93881 Y-14.57510
G01 X-13.94798 Y-14.61722
G01 X-13.94899 Y-14.66030
G01 X-13.94244 Y-14.73932
G01 X-13.96916 Y-14.82400
G01 X-13.88836 Y-14.86441
G01 X-13.92182 Y-14.81287
G01 X-13.93688 Y-14.77249
G01 X-13.94244 Y-14.73932
G01 X-13.93688 Y-14.77249
G01 X-13.92182 Y-14.81287
G01 X-13.88836 Y-14.86441
G01 X-13.82852 Y-14.93754
G01 X-13.79400 Y-14.96337
G01 X-13.75522 Y-14.98222
G01 X-13.65077 Y-15.01734
G01 X-13.61051 Y-15.02098
G01 X-12.63835 Y-15.02166
G01 X-12.53038 Y-15.05303
G01 X-12.43823 Y-15.10754
G01 X-12.36254 Y-15.18323
G01 X-12.30803 Y-15.27538
G01 X-12.27628 Y-15.38816
G01 X-12.27663 Y-15.80657
G01 X-12.30785 Y-15.91394
G01 X-12.38126 Y-16.03647
G01 X-12.42687 Y-16.13456
G01 X-12.43602 Y-16.17668
G01 X-12.43706 Y-16.21978
G01 X-12.43208 Y-16.28948
G01 X-12.42687 Y-16.32415
G01 X-12.41641 Y-16.35763
G01 X-12.30798 Y-16.54559
G01 X-12.27666 Y-16.65336
G01 X-12.27628 Y-17.07177
G01 X-12.30785 Y-17.18394
G01 X-12.38126 Y-17.30647
G01 X-12.42687 Y-17.40456
G01 X-12.43602 Y-17.44668
G01 X-12.43706 Y-17.48978
G01 X-12.43208 Y-17.55948
G01 X-12.42687 Y-17.59415
G01 X-12.41641 Y-17.62763
G01 X-12.30798 Y-17.81559
G01 X-12.27666 Y-17.92336
G01 X-12.27785 Y-18.36994
G01 X-12.27300 Y-18.41734
G01 X-12.25865 Y-18.48571
G01 X-12.24582 Y-18.52689
G01 X-12.22543 Y-18.56489
G01 X-12.19822 Y-18.59834
G01 X-12.11811 Y-18.67438
G01 X-12.08286 Y-18.69473
G01 X-12.04453 Y-18.70842
G01 X-11.95611 Y-18.72945
G01 X-11.87861 Y-18.73128
G01 X-11.74847 Y-18.75716
G01 X-11.62586 Y-18.80796
G01 X-11.51550 Y-18.88167
G01 X-10.54666 Y-19.85051
G01 X-10.47295 Y-19.96087
G01 X-10.42218 Y-20.08348
G01 X-10.39630 Y-20.21362
G01 X-10.39442 Y-22.72883
G01 X-10.38482 Y-22.78870
G01 X-10.14987 Y-23.68514
G01 X-10.12474 Y-23.74466
G01 X-10.08870 Y-23.80450
G01 X-10.06709 Y-23.83457
G01 X-10.04085 Y-23.86071
G01 X-9.81646 Y-24.04735
G01 X-9.72388 Y-24.09073
G01 X-9.68972 Y-24.10267
G01 X-9.65408 Y-24.10899
G01 X-9.57039 Y-24.10658
G01 X-9.52655 Y-24.09942
G01 X-8.65739 Y-23.86856
G01 X-8.46999 Y-23.85217
G01 X-8.28281 Y-23.86856
G01 X-8.10133 Y-23.91717
G01 X-7.93107 Y-23.99657
G01 X-7.77718 Y-24.10435
G01 X-7.64431 Y-24.23716
G01 X-7.53656 Y-24.39106
G01 X-7.45716 Y-24.56134
G01 X-7.40855 Y-24.74283
G01 X-7.39219 Y-24.92997
G01 X-7.40847 Y-25.11649
G01 X-7.46971 Y-25.33998
G01 X-7.66732 Y-26.11559
G01 X-7.67436 Y-26.17244
G01 X-7.67413 Y-26.23447
G01 X-7.66653 Y-26.29177
G01 X-7.39859 Y-27.30251
G01 X-7.38218 Y-27.48999
G01 X-7.39856 Y-27.67714
G01 X-7.44715 Y-27.85859
G01 X-7.52658 Y-28.02887
G01 X-7.65305 Y-28.20472
G01 X-7.70410 Y-28.29336
G01 X-7.72107 Y-28.33299
G01 X-7.73021 Y-28.37510
G01 X-7.72762 Y-28.46911
G01 X-7.77202 Y-28.55902
G01 X-7.67956 Y-28.61041
G01 X-7.70405 Y-28.57086
G01 X-7.71911 Y-28.53045
G01 X-7.72762 Y-28.46911
G01 X-7.71911 Y-28.53045
G01 X-7.70405 Y-28.57086
G01 X-7.68159 Y-28.60769
G01 X-7.61464 Y-28.69184
G01 X-7.58525 Y-28.71551
G01 X-7.50440 Y-28.75587
G01 X-7.37113 Y-28.79755
G01 X-7.28769 Y-28.85117
G01 X-7.25940 Y-28.87569
G01 X-7.19714 Y-28.94752
G01 X-7.15767 Y-29.03398
G01 X-7.14713 Y-29.06989
G01 X-7.13128 Y-29.18018
G01 X-7.13128 Y-32.50382
G01 X-7.14022 Y-32.58711
G01 X-7.16755 Y-32.67880
G01 X-7.22117 Y-32.76224
G01 X-7.24568 Y-32.79054
G01 X-7.31751 Y-32.85279
G01 X-7.40397 Y-32.89226
G01 X-7.43989 Y-32.90280
G01 X-7.55020 Y-32.91865
G01 X-28.48384 Y-32.91865
G01 X-28.56708 Y-32.90974
G01 X-28.65882 Y-32.88238
G01 X-28.74226 Y-32.82876
G01 X-28.77055 Y-32.80425
G01 X-28.83278 Y-32.73242
G01 X-28.87228 Y-32.64593
G01 X-28.88282 Y-32.61007
G01 X-28.89867 Y-32.49976
G01 X-28.89867 Y-25.34613
G01 X-28.88973 Y-25.26287
G01 X-28.86240 Y-25.17115
G01 X-28.80876 Y-25.08768
G01 X-28.78425 Y-25.05939
G01 X-28.71244 Y-24.99716
G01 X-28.62598 Y-24.95768
G01 X-28.59006 Y-24.94714
G01 X-28.47975 Y-24.93129
G01 X-17.15935 Y-24.93129
G01 X-17.09544 Y-24.92210
G01 X-17.02841 Y-24.90241
G01 X-16.98719 Y-24.88578
G01 X-16.92938 Y-24.84478
G01 X-15.95940 Y-23.87666
G01 X-15.84909 Y-23.80292
G01 X-15.72649 Y-23.75217
G01 X-15.59634 Y-23.72629
G01 X-15.27020 Y-23.72629
G01 X-15.18079 Y-23.71468
G01 X-13.75750 Y-23.33859
G01 X-13.56998 Y-23.32218
G01 X-13.38280 Y-23.33856
G01 X-13.20135 Y-23.38718
G01 X-13.03106 Y-23.46658
G01 X-12.87714 Y-23.57435
G01 X-12.74435 Y-23.70717
G01 X-12.63432 Y-23.86432
G01 X-12.59009 Y-23.91141
G01 X-12.49944 Y-23.97862
G01 X-12.45954 Y-23.99495
G01 X-12.40925 Y-24.00427
G01 X-12.37346 Y-24.04351
G01 X-12.32190 Y-24.09033
G01 X-12.23129 Y-23.99104
G01 X-12.26228 Y-24.00315
G01 X-12.30467 Y-24.01098
G01 X-12.40925 Y-24.00427
G01 X-12.30467 Y-24.01098
G01 X-12.26228 Y-24.00315
G01 X-12.22212 Y-23.98743
G01 X-12.12362 Y-23.93315
G01 X-12.09241 Y-23.90399
G01 X-12.06721 Y-23.86950
G01 X-12.03211 Y-23.81052
G01 X-12.00760 Y-23.75202
G01 X-11.75515 Y-22.78870
G01 X-11.74554 Y-22.72883
G01 X-11.74366 Y-20.70435
G01 X-11.75286 Y-20.64045
G01 X-11.77254 Y-20.57342
G01 X-11.78918 Y-20.53219
G01 X-11.81354 Y-20.49503
G01 X-11.84643 Y-20.45630
G01 X-12.12129 Y-20.18144
G01 X-12.17292 Y-20.14276
G01 X-12.23427 Y-20.10926
G01 X-12.28959 Y-20.08787
G01 X-12.36934 Y-20.07867
G01 X-13.59134 Y-20.07867
G01 X-13.72146 Y-20.05279
G01 X-13.85692 Y-19.99785
G01 X-13.92603 Y-19.98302
G01 X-13.97020 Y-19.97867
G01 X-14.41153 Y-19.97829
G01 X-14.51958 Y-19.94690
G01 X-14.61173 Y-19.89242
G01 X-14.68742 Y-19.81672
G01 X-14.74193 Y-19.72457
G01 X-14.77327 Y-19.61662
G01 X-14.77327 Y-19.19333
G01 X-14.74211 Y-19.08599
G01 X-14.66870 Y-18.96349
G01 X-14.62314 Y-18.86557
G01 X-14.61394 Y-18.82343
G01 X-14.61290 Y-18.78033
G01 X-14.62303 Y-18.67591
G01 X-14.63352 Y-18.64241
G01 X-14.74198 Y-18.45440
G01 X-14.77327 Y-18.34662
G01 X-14.77185 Y-17.84952
G01 X-14.78826 Y-17.74391
G01 X-14.80457 Y-17.70502
G01 X-14.82778 Y-17.66981
G01 X-14.89705 Y-17.58833
G01 X-14.92667 Y-17.56590
G01 X-15.00629 Y-17.52867
G01 X-15.06144 Y-17.51279
G01 X-15.18409 Y-17.46199
G01 X-15.29446 Y-17.38828
G01 X-15.87759 Y-16.80837
G01 X-15.96611 Y-16.75740
G01 X-16.00578 Y-16.74040
G01 X-16.04795 Y-16.73121
G01 X-16.09110 Y-16.73019
G01 X-16.19806 Y-16.74101
G01 X-16.23385 Y-16.75295
G01 X-16.26718 Y-16.77063
G01 X-16.31152 Y-16.79913
G01 X-16.34927 Y-16.82956
G01 X-16.90802 Y-17.38828
G01 X-17.01828 Y-17.46199
G01 X-17.05600 Y-17.48008
G01 X-17.08262 Y-17.49857
G01 X-17.16786 Y-17.57251
G01 X-17.19247 Y-17.60794
G01 X-17.20990 Y-17.64736
G01 X-17.23197 Y-17.71366
G01 X-17.24030 Y-17.74683
G01 X-17.24355 Y-17.78089
G01 X-17.22128 Y-17.96893
G01 X-17.22128 Y-18.30382
G01 X-17.23022 Y-18.38711
G01 X-17.25747 Y-18.47858
G01 X-17.32234 Y-18.57903
G01 X-17.36527 Y-18.67131
G01 X-17.37792 Y-18.71055
G01 X-17.38328 Y-18.75145
G01 X-17.38094 Y-18.79389
G01 X-17.42618 Y-18.84754
G01 X-17.42138 Y-18.85455
G01 X-17.42618 Y-18.84754
G01 X-17.46314 Y-18.86875
G01 X-17.51546 Y-18.87817
G01 X-19.29999 Y-18.87819
G04 P0 ( dwell for no time -- G64 should not smooth over this point )
G00 Z2.00000 ( retract )

G00 X-17.45574 Y-19.93179 ( rapid move to begin. )
G01 F60.00000
( Mill infeed pass 1/1 )
G01 Z-0.07000
G04 P0 ( dwell for no time -- G64 should not smooth over this point )
G01 F120.00000
G01 X-17.45574 Y-19.93179
G01 X-17.48056 Y-19.94647
G01 X-17.58843 Y-19.97781
G01 X-17.94817 Y-19.97817
G01 X-17.94817 Y-19.93179
G01 X-17.45574 Y-19.93179
G04 P0 ( dwell for no time -- G64 should not smooth over this point )
G00 Z2.00000 ( retract )

G00 X-23.12678 Y-20.56567 ( rapid move to begin. )
G01 F60.00000
( Mill infeed pass 1/1 )
G01 Z-0.07000
G04 P0 ( dwell for no time -- G64 should not smooth over this point )
G01 F120.00000
G01 X-23.12678 Y-20.56567
G01 X-23.12678 Y-19.80679
G01 X-23.17318 Y-19.80679
G01 X-23.17318 Y-20.52998
G01 X-23.17755 Y-20.57423
G01 X-23.19045 Y-20.61677
G01 X-23.21141 Y-20.65599
G01 X-23.23960 Y-20.69036
G01 X-23.27399 Y-20.71858
G01 X-23.31319 Y-20.73953
G01 X-23.35573 Y-20.75243
G01 X-23.39998 Y-20.75678
G01 X-24.57315 Y-20.75678
G01 X-24.57315 Y-20.80316
G01 X-23.34517 Y-20.80110
G01 X-23.26770 Y-20.77222
G01 X-23.20481 Y-20.72516
G01 X-23.15771 Y-20.66224
G01 X-23.12883 Y-20.58477
G01 X-23.12678 Y-20.56567
G04 P0 ( dwell for no time -- G64 should not smooth over this point )
G00 Z2.00000 ( retract )

G00 X-23.22678 Y-15.32085 ( rapid move to begin. )
G01 F60.00000
( Mill infeed pass 1/1 )
G01 Z-0.07000
G04 P0 ( dwell for no time -- G64 should not smooth over this point )
G01 F120.00000
G01 X-23.22678 Y-15.32085
G01 X-23.27318 Y-15.32085
G01 X-23.27318 Y-14.94767
G01 X-23.27755 Y-14.90342
G01 X-23.29045 Y-14.86088
G01 X-23.31141 Y-14.82166
G01 X-23.33960 Y-14.78730
G01 X-23.37399 Y-14.75908
G01 X-23.41319 Y-14.73812
G01 X-23.45573 Y-14.72522
G01 X-23.49998 Y-14.72087
G01 X-23.87316 Y-14.72087
G01 X-23.87316 Y-14.67447
G01 X-23.44517 Y-14.67653
G01 X-23.36770 Y-14.70541
G01 X-23.30480 Y-14.75247
G01 X-23.25771 Y-14.81539
G01 X-23.22883 Y-14.89283
G01 X-23.22678 Y-15.32085
G04 P0 ( dwell for no time -- G64 should not smooth over this point )
G00 Z2.00000 ( retract )

G00 X-25.12677 Y-14.72087 ( rapid move to begin. )
G01 F60.00000
( Mill infeed pass 1/1 )
G01 Z-0.07000
G04 P0 ( dwell for no time -- G64 should not smooth over this point )
G01 F120.00000
G01 X-25.12677 Y-14.72087
G01 X-25.50000 Y-14.72087
G01 X-25.54422 Y-14.72522
G01 X-25.58679 Y-14.73812
G01 X-25.62596 Y-14.75908
G01 X-25.66035 Y-14.78730
G01 X-25.68857 Y-14.82166
G01 X-25.70952 Y-14.86088
G01 X-25.72243 Y-14.90342
G01 X-25.72680 Y-14.94767
G01 X-25.72680 Y-15.32085
G01 X-25.77315 Y-15.32085
G01 X-25.77109 Y-14.89288
G01 X-25.74221 Y-14.81536
G01 X-25.69515 Y-14.75250
G01 X-25.63226 Y-14.70541
G01 X-25.55479 Y-14.67653
G01 X-25.53566 Y-14.67447
G01 X-25.12677 Y-14.67447
G01 X-25.12677 Y-14.72087
G04 P0 ( dwell for no time -- G64 should not smooth over this point )
G00 Z2.00000 ( retract )

G00 X-26.02517 Y-17.37873 ( rapid move to begin. )
G01 F60.00000
( Mill infeed pass 1/1 )
G01 Z-0.07000
G04 P0 ( dwell for no time -- G64 should not smooth over this point )
G01 F120.00000
G01 X-26.02517 Y-17.37873
G01 X-25.97897 Y-17.37208
G01 X-25.78204 Y-17.31297
G01 X-25.69700 Y-17.27380
G01 X-25.65888 Y-17.26339
G01 X-25.65982 Y-17.25745
G01 X-25.65888 Y-17.26339
G01 X-25.49522 Y-17.27543
G01 X-23.50318 Y-17.27543
G01 X-23.34776 Y-17.26451
G01 X-23.34692 Y-17.26019
G01 X-23.34776 Y-17.26451
G01 X-23.31324 Y-17.27147
G01 X-23.25652 Y-17.30052
G01 X-23.08360 Y-17.41411
G01 X-22.89574 Y-17.39577
G01 X-18.80547 Y-17.39679
G01 X-18.73496 Y-17.43456
G01 X-18.69389 Y-17.45155
G01 X-18.61886 Y-17.47434
G01 X-18.57525 Y-17.48300
G01 X-18.47499 Y-17.49179
G01 X-17.33748 Y-17.49179
G01 X-17.21518 Y-17.47975
G01 X-17.11856 Y-17.45155
G01 X-17.07749 Y-17.43456
G01 X-17.00832 Y-17.39758
G01 X-16.97137 Y-17.37289
G01 X-16.89425 Y-17.30819
G01 X-16.18676 Y-16.60070
G01 X-16.12207 Y-16.52359
G01 X-16.09738 Y-16.48663
G01 X-16.06039 Y-16.41747
G01 X-16.04340 Y-16.37640
G01 X-16.02062 Y-16.30136
G01 X-16.01196 Y-16.25775
G01 X-16.00317 Y-16.15750
G01 X-16.00317 Y-14.16240
G01 X-16.00317 Y-14.44158
G01 X-15.93850 Y-14.28438
G01 X-16.00317 Y-14.16240
G01 X-16.00426 Y-13.71773
G01 X-16.01196 Y-13.63970
G01 X-16.02062 Y-13.59609
G01 X-16.05089 Y-13.50010
G01 X-16.09738 Y-13.41082
G01 X-16.12207 Y-13.37386
G01 X-16.17182 Y-13.31323
G01 X-16.59801 Y-12.88547
G01 X-17.35930 Y-11.57646
G01 X-17.50291 Y-11.41692
G01 X-17.67660 Y-11.29076
G01 X-17.87268 Y-11.20343
G01 X-18.08267 Y-11.15880
G01 X-18.29732 Y-11.15880
G01 X-18.48437 Y-11.19731
G01 X-18.52945 Y-11.21194
G01 X-18.70339 Y-11.29076
G01 X-18.85861 Y-11.40198
G01 X-18.89384 Y-11.43371
G01 X-19.00575 Y-11.55799
G01 X-19.03362 Y-11.59637
G01 X-19.12800 Y-11.76236
G01 X-19.18820 Y-11.94356
G01 X-19.19806 Y-11.98994
G01 X-19.21678 Y-12.17999
G01 X-19.19806 Y-12.37003
G01 X-19.18820 Y-12.41641
G01 X-19.12800 Y-12.59761
G01 X-19.02069 Y-12.78349
G01 X-18.87705 Y-12.94305
G01 X-18.70339 Y-13.06921
G01 X-18.61833 Y-13.10846
G01 X-17.48511 Y-13.77127
G01 X-17.25679 Y-13.99959
G01 X-17.25679 Y-15.89786
G01 X-17.59709 Y-16.23817
G01 X-17.69379 Y-16.23817
G01 X-17.80482 Y-16.19377
G01 X-17.84619 Y-16.18163
G01 X-17.93512 Y-16.16867
G01 X-19.35668 Y-16.16867
G01 X-19.46958 Y-16.13692
G01 X-19.56171 Y-16.08242
G01 X-19.63743 Y-16.00672
G01 X-19.69193 Y-15.91457
G01 X-19.72188 Y-15.81145
G01 X-19.72658 Y-15.72781
G01 X-19.73285 Y-15.70007
G01 X-19.76857 Y-15.59298
G01 X-19.79188 Y-15.55671
G01 X-19.82165 Y-15.52552
G01 X-19.90494 Y-15.45753
G01 X-19.93870 Y-15.44063
G01 X-20.02627 Y-15.41836
G01 X-20.07448 Y-15.41318
G01 X-21.88035 Y-15.41318
G01 X-23.07585 Y-13.66589
G01 X-23.11951 Y-13.61836
G01 X-23.17361 Y-13.57414
G01 X-23.20376 Y-13.55331
G01 X-23.23686 Y-13.53762
G01 X-23.27206 Y-13.52746
G01 X-23.36538 Y-13.51316
G01 X-29.56316 Y-13.51316
G01 X-29.56316 Y-13.48687
G01 X-29.53614 Y-13.51316
G01 X-29.56316 Y-13.48687
G01 X-29.56316 Y-6.44395
G01 X-29.57236 Y-6.38007
G01 X-29.60807 Y-6.27299
G01 X-29.63139 Y-6.23672
G01 X-29.66115 Y-6.20552
G01 X-29.74442 Y-6.13753
G01 X-29.77812 Y-6.12066
G01 X-29.81416 Y-6.10959
G01 X-29.86568 Y-6.09836
G01 X-29.91399 Y-6.09316
G01 X-33.26600 Y-6.09316
G01 X-33.32988 Y-6.10235
G01 X-33.39691 Y-6.12203
G01 X-33.43697 Y-6.13806
G01 X-33.47324 Y-6.16138
G01 X-33.50443 Y-6.19115
G01 X-33.57242 Y-6.27443
G01 X-33.58932 Y-6.30819
G01 X-33.60039 Y-6.34426
G01 X-33.61159 Y-6.39577
G01 X-33.61677 Y-6.44395
G01 X-33.61677 Y-17.04599
G01 X-33.60758 Y-17.10987
G01 X-33.58789 Y-17.17690
G01 X-33.57187 Y-17.21691
G01 X-33.54860 Y-17.25315
G01 X-33.51886 Y-17.28434
G01 X-33.46607 Y-17.33012
G01 X-33.41555 Y-17.36245
G01 X-33.43559 Y-17.35242
G01 X-33.47405 Y-17.32321
G01 X-33.46813 Y-17.34977
G01 X-33.41555 Y-17.36245
G01 X-33.36569 Y-17.38041
G01 X-33.31418 Y-17.39161
G01 X-33.26600 Y-17.39679
G01 X-32.23415 Y-17.39679
G01 X-32.17024 Y-17.38760
G01 X-32.06318 Y-17.35188
G01 X-32.02691 Y-17.32859
G01 X-31.99572 Y-17.29885
G01 X-31.94995 Y-17.24604
G01 X-31.92493 Y-17.21089
G01 X-31.90700 Y-17.17164
G01 X-31.89684 Y-17.12973
G01 X-31.88691 Y-17.06057
G01 X-31.88487 Y-17.01749
G01 X-31.89100 Y-16.97482
G01 X-31.93415 Y-16.87053
G01 X-31.95244 Y-16.83789
G01 X-31.97586 Y-16.80873
G01 X-32.04505 Y-16.75260
G01 X-32.08591 Y-16.72801
G01 X-32.15373 Y-16.69641
G01 X-32.31472 Y-16.58366
G01 X-32.45368 Y-16.44472
G01 X-32.52226 Y-16.34678
G01 X-32.46514 Y-16.34678
G01 X-32.31050 Y-16.52021
G01 X-32.12838 Y-16.65252
G01 X-31.92275 Y-16.74409
G01 X-31.72600 Y-16.78716
G01 X-31.67883 Y-16.79214
G01 X-31.47743 Y-16.79090
G01 X-31.28018 Y-16.75023
G01 X-31.23507 Y-16.73558
G01 X-31.07273 Y-16.66329
G01 X-31.03169 Y-16.63959
G01 X-30.86946 Y-16.52021
G01 X-30.71485 Y-16.34678
G01 X-30.65770 Y-16.34678
G01 X-30.72628 Y-16.44472
G01 X-30.86524 Y-16.58366
G01 X-31.02623 Y-16.69641
G01 X-31.12234 Y-16.74376
G01 X-31.20055 Y-16.80957
G01 X-31.23006 Y-16.84101
G01 X-31.25307 Y-16.87746
G01 X-31.28792 Y-16.98480
G01 X-31.29575 Y-17.02722
G01 X-31.29539 Y-17.07032
G01 X-31.28691 Y-17.11259
G01 X-31.26669 Y-17.17947
G01 X-31.25033 Y-17.21937
G01 X-31.22673 Y-17.25544
G01 X-31.19676 Y-17.28640
G01 X-31.14360 Y-17.33174
G01 X-31.09521 Y-17.36247
G01 X-31.20713 Y-17.33596
G01 X-31.26636 Y-17.31414
G01 X-31.38688 Y-17.25846
G01 X-31.50235 Y-17.18353
G01 X-31.52094 Y-17.09369
G01 X-31.52155 Y-17.01889
G01 X-31.47045 Y-16.96151
G01 X-31.52155 Y-17.01889
G01 X-31.65894 Y-17.01889
G01 X-31.71043 Y-16.96126
G01 X-31.65894 Y-17.01889
G01 X-31.66245 Y-17.09280
G01 X-31.67756 Y-17.18330
G01 X-31.84423 Y-17.28287
G01 X-31.90136 Y-17.30896
G01 X-32.10596 Y-17.36872
G01 X-31.90136 Y-17.30896
G01 X-31.84423 Y-17.28287
G01 X-31.64685 Y-17.16255
G01 X-31.60446 Y-17.14965
G01 X-31.58226 Y-17.14858
G01 X-31.58226 Y-17.14160
G01 X-31.58226 Y-17.14858
G01 X-31.53938 Y-17.15935
G01 X-31.53814 Y-17.15651
G01 X-31.53938 Y-17.15935
G01 X-31.38688 Y-17.25846
G01 X-31.26636 Y-17.31414
G01 X-31.20713 Y-17.33596
G01 X-31.09521 Y-17.36247
G01 X-31.04373 Y-17.38099
G01 X-30.99311 Y-17.39179
G01 X-30.94581 Y-17.39679
G01 X-30.37235 Y-17.39679
G01 X-30.72889 Y-17.39679
G01 X-30.71040 Y-17.39679
G01 X-30.57299 Y-17.44269
G01 X-30.43989 Y-17.40728
G01 X-30.37235 Y-17.39679
G01 X-27.09868 Y-17.39679
G01 X-27.48791 Y-17.39679
G01 X-27.28902 Y-17.44406
G01 X-27.16944 Y-17.40520
G01 X-27.09868 Y-17.39679
G01 X-26.08699 Y-17.39448
G01 X-25.98834 Y-17.36791
G01 X-25.94831 Y-17.35188
G01 X-25.91204 Y-17.32859
G01 X-25.83508 Y-17.24604
G01 X-25.81072 Y-17.21208
G01 X-25.79304 Y-17.17421
G01 X-25.78255 Y-17.13375
G01 X-25.76924 Y-17.03875
G01 X-25.77315 Y-16.98330
G01 X-25.77315 Y-16.57447
G01 X-25.72680 Y-16.57447
G01 X-25.72680 Y-16.94767
G01 X-25.72243 Y-16.99191
G01 X-25.70952 Y-17.03446
G01 X-25.68857 Y-17.07368
G01 X-25.66035 Y-17.10804
G01 X-25.62596 Y-17.13624
G01 X-25.58679 Y-17.15719
G01 X-25.54422 Y-17.17010
G01 X-25.50000 Y-17.17446
G01 X-23.49998 Y-17.17446
G01 X-23.45573 Y-17.17010
G01 X-23.41319 Y-17.15719
G01 X-23.37399 Y-17.13624
G01 X-23.33960 Y-17.10804
G01 X-23.31141 Y-17.07368
G01 X-23.29045 Y-17.03446
G01 X-23.27755 Y-16.99191
G01 X-23.27318 Y-16.94767
G01 X-23.27318 Y-16.57447
G01 X-23.22678 Y-16.57447
G01 X-23.22678 Y-16.98330
G01 X-23.23064 Y-17.04076
G01 X-23.21479 Y-17.14172
G01 X-23.20313 Y-17.18325
G01 X-23.18382 Y-17.22183
G01 X-23.15754 Y-17.25605
G01 X-23.07877 Y-17.33499
G01 X-23.04308 Y-17.35661
G01 X-23.00402 Y-17.37131
G01 X-22.94075 Y-17.38869
G01 X-22.89574 Y-17.39577
G01 X-22.86935 Y-17.62102
G01 X-23.11519 Y-17.64586
G01 X-23.11573 Y-17.65148
G01 X-23.11519 Y-17.64586
G01 X-23.13587 Y-17.64312
G01 X-23.17481 Y-17.62839
G01 X-23.31204 Y-17.53365
G01 X-23.37620 Y-17.49455
G01 X-23.49995 Y-17.50220
G01 X-25.49995 Y-17.50220
G01 X-25.62779 Y-17.49184
G01 X-25.70919 Y-17.52859
G01 X-25.92189 Y-17.59171
G01 X-25.99299 Y-17.60319
G01 X-27.00000 Y-17.60319
G01 X-27.04424 Y-17.60753
G01 X-27.09421 Y-17.62442
G01 X-27.12598 Y-17.64142
G01 X-27.16035 Y-17.66961
G01 X-27.18857 Y-17.70398
G01 X-27.20952 Y-17.74320
G01 X-27.22242 Y-17.78574
G01 X-27.22679 Y-17.82999
G01 X-27.22679 Y-18.55318
G01 X-27.27317 Y-18.55318
G01 X-27.27317 Y-17.95399
G01 X-27.28237 Y-17.89008
G01 X-27.31808 Y-17.78302
G01 X-27.34137 Y-17.74675
G01 X-27.37112 Y-17.71556
G01 X-27.45443 Y-17.64751
G01 X-27.48818 Y-17.63062
G01 X-27.51292 Y-17.62303
G01 X-27.35527 Y-17.66092
G01 X-27.31188 Y-17.67538
G01 X-27.29283 Y-17.67736
G01 X-27.25511 Y-17.67164
G01 X-27.12108 Y-17.62737
G01 X-27.09421 Y-17.62442
G01 X-27.12108 Y-17.62737
G01 X-27.25511 Y-17.67164
G01 X-27.29283 Y-17.67736
G01 X-27.29276 Y-17.68371
G01 X-27.29283 Y-17.67736
G01 X-27.31188 Y-17.67538
G01 X-27.35527 Y-17.66092
G01 X-27.52428 Y-17.61955
G01 X-27.57579 Y-17.60835
G01 X-27.62400 Y-17.60317
G01 X-30.27825 Y-17.60548
G01 X-30.37690 Y-17.63204
G01 X-30.41693 Y-17.64807
G01 X-30.45320 Y-17.67136
G01 X-30.48439 Y-17.70111
G01 X-30.55244 Y-17.78442
G01 X-30.56933 Y-17.81818
G01 X-30.58041 Y-17.85427
G01 X-30.59161 Y-17.90578
G01 X-30.59679 Y-17.95399
G01 X-30.59679 Y-18.79316
G01 X-30.64319 Y-18.79316
G01 X-30.64319 Y-17.81998
G01 X-30.64754 Y-17.77573
G01 X-30.66044 Y-17.73319
G01 X-30.68142 Y-17.69400
G01 X-30.70962 Y-17.65960
G01 X-30.74398 Y-17.63141
G01 X-30.78320 Y-17.61045
G01 X-30.82574 Y-17.59755
G01 X-30.86999 Y-17.59318
G01 X-32.07382 Y-17.59318
G01 X-30.86999 Y-17.59318
G01 X-30.82574 Y-17.59755
G01 X-30.78320 Y-17.61045
G01 X-30.76326 Y-17.62112
G01 X-30.74822 Y-17.62280
G01 X-30.61322 Y-17.66844
G01 X-30.56959 Y-17.67418
G01 X-30.38803 Y-17.62813
G01 X-30.34007 Y-17.62122
G01 X-30.38803 Y-17.62813
G01 X-30.54774 Y-17.67063
G01 X-30.59168 Y-17.67347
G01 X-30.59212 Y-17.68114
G01 X-30.59168 Y-17.67347
G01 X-30.74822 Y-17.62280
G01 X-30.76326 Y-17.62112
G01 X-30.78320 Y-17.61045
G01 X-30.82574 Y-17.59755
G01 X-30.86999 Y-17.59318
G01 X-31.10507 Y-17.59318
G01 X-31.26631 Y-17.55577
G01 X-31.34901 Y-17.52534
G01 X-31.48970 Y-17.46161
G01 X-31.59148 Y-17.39600
G01 X-31.73331 Y-17.48074
G01 X-31.81370 Y-17.51975
G01 X-32.03821 Y-17.58681
G01 X-32.07382 Y-17.59318
G01 X-33.61345 Y-17.59318
G01 X-33.42589 Y-17.59318
G01 X-33.55058 Y-17.56319
G01 X-33.61345 Y-17.59318
G01 X-34.06999 Y-17.59318
G01 X-34.11423 Y-17.59755
G01 X-34.15678 Y-17.61045
G01 X-34.19599 Y-17.63141
G01 X-34.23036 Y-17.65960
G01 X-34.25855 Y-17.69400
G01 X-34.27954 Y-17.73319
G01 X-34.29244 Y-17.77573
G01 X-34.29678 Y-17.81998
G01 X-34.29678 Y-18.79316
G01 X-34.34316 Y-18.79316
G01 X-34.34316 Y-17.95399
G01 X-34.35236 Y-17.89008
G01 X-34.37806 Y-17.80802
G01 X-34.34032 Y-17.81127
G01 X-34.32111 Y-17.80799
G01 X-34.29450 Y-17.79679
G01 X-34.32111 Y-17.80799
G01 X-34.34032 Y-17.81127
G01 X-34.33983 Y-17.81569
G01 X-34.34032 Y-17.81127
G01 X-34.37806 Y-17.80802
G01 X-34.38807 Y-17.78302
G01 X-34.41136 Y-17.74675
G01 X-34.44110 Y-17.71556
G01 X-34.52442 Y-17.64751
G01 X-34.55817 Y-17.63062
G01 X-34.59427 Y-17.61955
G01 X-34.66973 Y-17.60446
G01 X-35.19599 Y-17.60317
G01 X-35.25987 Y-17.61236
G01 X-35.32690 Y-17.63204
G01 X-35.36693 Y-17.64807
G01 X-35.40321 Y-17.67136
G01 X-35.43440 Y-17.70111
G01 X-35.50244 Y-17.78442
G01 X-35.51933 Y-17.81818
G01 X-35.53041 Y-17.85427
G01 X-35.54161 Y-17.90578
G01 X-35.54679 Y-17.95399
G01 X-35.54679 Y-21.89599
G01 X-35.53760 Y-21.95987
G01 X-35.51791 Y-22.02691
G01 X-35.50188 Y-22.06696
G01 X-35.47857 Y-22.10323
G01 X-35.44880 Y-22.13442
G01 X-35.36554 Y-22.20242
G01 X-35.33183 Y-22.21928
G01 X-35.29579 Y-22.23036
G01 X-35.24428 Y-22.24159
G01 X-35.19599 Y-22.24679
G01 X-21.97250 Y-22.24448
G01 X-21.87384 Y-22.21791
G01 X-21.83989 Y-22.20491
G01 X-21.80844 Y-22.18662
G01 X-21.78032 Y-22.16356
G01 X-21.71677 Y-22.09627
G01 X-19.89315 Y-19.47436
G01 X-19.95495 Y-19.56321
G01 X-19.91307 Y-19.53936
G01 X-19.89315 Y-19.47436
G01 X-19.75604 Y-19.27202
G01 X-19.72559 Y-19.20128
G01 X-19.69191 Y-19.08536
G01 X-19.63743 Y-18.99323
G01 X-19.56171 Y-18.91751
G01 X-19.51241 Y-18.88683
G01 X-19.43814 Y-18.81787
G01 X-19.33146 Y-18.66679
G01 X-19.31645 Y-18.66679
G01 X-19.33870 Y-18.67720
G01 X-19.31645 Y-18.66679
G01 X-17.59171 Y-18.66448
G01 X-17.49303 Y-18.63791
G01 X-17.45300 Y-18.62188
G01 X-17.41670 Y-18.59857
G01 X-17.38551 Y-18.56880
G01 X-17.31752 Y-18.48551
G01 X-17.30063 Y-18.45175
G01 X-17.28955 Y-18.41569
G01 X-17.27446 Y-18.34022
G01 X-17.27548 Y-17.92171
G01 X-17.30205 Y-17.82305
G01 X-17.31808 Y-17.78302
G01 X-17.34137 Y-17.74675
G01 X-17.37111 Y-17.71556
G01 X-17.45442 Y-17.64751
G01 X-17.48818 Y-17.63062
G01 X-17.52427 Y-17.61955
G01 X-17.59974 Y-17.60446
G01 X-22.77598 Y-17.60317
G01 X-22.83986 Y-17.61236
G01 X-22.90691 Y-17.63204
G01 X-22.94694 Y-17.64807
G01 X-22.98324 Y-17.67139
G01 X-23.06018 Y-17.75397
G01 X-23.08243 Y-17.78444
G01 X-23.09932 Y-17.81820
G01 X-23.12159 Y-17.90578
G01 X-23.12678 Y-17.95399
G01 X-23.12678 Y-18.55318
G01 X-23.17318 Y-18.55318
G01 X-23.17318 Y-17.82999
G01 X-23.17755 Y-17.78574
G01 X-23.19045 Y-17.74320
G01 X-23.21141 Y-17.70398
G01 X-23.23960 Y-17.66961
G01 X-23.27399 Y-17.64142
G01 X-23.31319 Y-17.62046
G01 X-23.35573 Y-17.60753
G01 X-23.39998 Y-17.60319
G01 X-25.99299 Y-17.60319
G04 P0 ( dwell for no time -- G64 should not smooth over this point )
G00 Z2.00000 ( retract )

G00 X-30.65770 Y-12.55316 ( rapid move to begin. )
G01 F60.00000
( Mill infeed pass 1/1 )
G01 Z-0.07000
G04 P0 ( dwell for no time -- G64 should not smooth over this point )
G01 F120.00000
G01 X-30.65770 Y-12.55316
G01 X-30.71487 Y-12.55316
G01 X-30.86946 Y-12.37976
G01 X-30.96316 Y-12.31016
G01 X-30.96316 Y-12.24592
G01 X-30.86608 Y-12.31544
G01 X-30.72628 Y-12.45525
G01 X-30.65770 Y-12.55316
G04 P0 ( dwell for no time -- G64 should not smooth over this point )
G00 Z2.00000 ( retract )

G00 X-30.65770 Y-11.26678 ( rapid move to begin. )
G01 F60.00000
( Mill infeed pass 1/1 )
G01 Z-0.07000
G04 P0 ( dwell for no time -- G64 should not smooth over this point )
G01 F120.00000
G01 X-30.65770 Y-11.26678
G01 X-30.71485 Y-11.26678
G01 X-30.86946 Y-11.44021
G01 X-30.96316 Y-11.50981
G01 X-30.96316 Y-11.57224
G01 X-30.86524 Y-11.50366
G01 X-30.72628 Y-11.36472
G01 X-30.65770 Y-11.26678
G04 P0 ( dwell for no time -- G64 should not smooth over this point )
G00 Z2.00000 ( retract )

G00 X-30.46679 Y-8.98566 ( rapid move to begin. )
G01 F60.00000
( Mill infeed pass 1/1 )
G01 Z-0.07000
G04 P0 ( dwell for no time -- G64 should not smooth over this point )
G01 F120.00000
G01 X-30.46679 Y-8.98566
G01 X-30.46679 Y-8.72678
G01 X-30.51320 Y-8.72678
G01 X-30.51320 Y-8.94999
G01 X-30.51754 Y-8.99424
G01 X-30.53044 Y-9.03679
G01 X-30.55140 Y-9.07598
G01 X-30.57962 Y-9.11037
G01 X-30.61398 Y-9.13856
G01 X-30.65320 Y-9.15952
G01 X-30.69575 Y-9.17242
G01 X-30.73999 Y-9.17679
G01 X-30.96316 Y-9.17679
G01 X-30.96316 Y-9.77016
G01 X-30.86946 Y-9.83976
G01 X-30.71487 Y-10.01316
G01 X-30.65770 Y-10.01316
G01 X-30.72628 Y-9.91525
G01 X-30.83469 Y-9.80681
G01 X-30.89448 Y-9.72696
G01 X-30.91706 Y-9.66643
G01 X-30.93192 Y-9.59815
G01 X-30.93705 Y-9.55535
G01 X-30.93397 Y-9.51235
G01 X-30.89841 Y-9.40524
G01 X-30.87957 Y-9.36640
G01 X-30.85371 Y-9.33186
G01 X-30.82176 Y-9.30285
G01 X-30.73862 Y-9.24352
G01 X-30.60769 Y-9.19221
G01 X-30.54480 Y-9.14514
G01 X-30.49773 Y-9.08225
G01 X-30.46885 Y-9.00478
G01 X-30.46679 Y-8.98566
G04 P0 ( dwell for no time -- G64 should not smooth over this point )
G00 Z2.00000 ( retract )

G00 X-30.46679 Y-7.47316 ( rapid move to begin. )
G01 F60.00000
( Mill infeed pass 1/1 )
G01 Z-0.07000
G04 P0 ( dwell for no time -- G64 should not smooth over this point )
G01 F120.00000
G01 X-30.46679 Y-7.47316
G01 X-30.46885 Y-7.19516
G01 X-30.49773 Y-7.11769
G01 X-30.54482 Y-7.05480
G01 X-30.60769 Y-7.00773
G01 X-30.68516 Y-6.97885
G01 X-30.96316 Y-6.97680
G01 X-30.96316 Y-7.02318
G01 X-30.73999 Y-7.02318
G01 X-30.69575 Y-7.02754
G01 X-30.65320 Y-7.04045
G01 X-30.61398 Y-7.06140
G01 X-30.57962 Y-7.08962
G01 X-30.55140 Y-7.12399
G01 X-30.53044 Y-7.16321
G01 X-30.51754 Y-7.20575
G01 X-30.51320 Y-7.25000
G01 X-30.51320 Y-7.47316
G01 X-30.46679 Y-7.47316
G04 P0 ( dwell for no time -- G64 should not smooth over this point )
G00 Z2.00000 ( retract )

G00 X-32.21678 Y-7.02318 ( rapid move to begin. )
G01 F60.00000
( Mill infeed pass 1/1 )
G01 Z-0.07000
G04 P0 ( dwell for no time -- G64 should not smooth over this point )
G01 F120.00000
G01 X-32.21678 Y-7.02318
G01 X-32.21678 Y-6.97680
G01 X-32.47565 Y-6.97680
G01 X-32.49478 Y-6.97885
G01 X-32.57225 Y-7.00773
G01 X-32.63514 Y-7.05482
G01 X-32.68223 Y-7.11769
G01 X-32.71111 Y-7.19516
G01 X-32.71317 Y-7.47316
G01 X-32.66679 Y-7.47316
G01 X-32.66679 Y-7.25000
G01 X-32.66242 Y-7.20575
G01 X-32.64952 Y-7.16321
G01 X-32.62856 Y-7.12399
G01 X-32.60037 Y-7.08962
G01 X-32.56600 Y-7.06140
G01 X-32.52678 Y-7.04045
G01 X-32.48424 Y-7.02754
G01 X-32.43999 Y-7.02318
G01 X-32.21678 Y-7.02318
G04 P0 ( dwell for no time -- G64 should not smooth over this point )
G00 Z2.00000 ( retract )

G00 X-34.87628 Y-4.60639 ( rapid move to begin. )
G01 F60.00000
( Mill infeed pass 1/1 )
G01 Z-0.07000
G04 P0 ( dwell for no time -- G64 should not smooth over this point )
G01 F120.00000
G01 X-34.87628 Y-4.60639
G01 X-34.87628 Y-4.39356
G01 X-34.90407 Y-4.18252
G01 X-34.95914 Y-3.97693
G01 X-35.04060 Y-3.78028
G01 X-35.14702 Y-3.59595
G01 X-35.27659 Y-3.42712
G01 X-35.42711 Y-3.27660
G01 X-35.59597 Y-3.14703
G01 X-35.78027 Y-3.04061
G01 X-35.97694 Y-2.95915
G01 X-36.18253 Y-2.90406
G01 X-36.39355 Y-2.87630
G01 X-36.60640 Y-2.87630
G01 X-36.81743 Y-2.90406
G01 X-37.02301 Y-2.95915
G01 X-37.21966 Y-3.04058
G01 X-37.40399 Y-3.14703
G01 X-37.57287 Y-3.27657
G01 X-37.72337 Y-3.42709
G01 X-37.85293 Y-3.59595
G01 X-37.95936 Y-3.78028
G01 X-38.04079 Y-3.97693
G01 X-38.09589 Y-4.18252
G01 X-38.12367 Y-4.39356
G01 X-38.12367 Y-4.60639
G01 X-38.09589 Y-4.81741
G01 X-38.04079 Y-5.02300
G01 X-37.95936 Y-5.21967
G01 X-37.85293 Y-5.40398
G01 X-37.72337 Y-5.57284
G01 X-37.57285 Y-5.72336
G01 X-37.40399 Y-5.85292
G01 X-37.21966 Y-5.95935
G01 X-37.02301 Y-6.04081
G01 X-36.81743 Y-6.09590
G01 X-36.60640 Y-6.12366
G01 X-36.39355 Y-6.12366
G01 X-36.18253 Y-6.09590
G01 X-35.97694 Y-6.04081
G01 X-35.78029 Y-5.95935
G01 X-35.59597 Y-5.85292
G01 X-35.48685 Y-5.76923
G01 X-35.42711 Y-5.72336
G01 X-35.27659 Y-5.57284
G01 X-35.14702 Y-5.40398
G01 X-35.04060 Y-5.21965
G01 X-34.95914 Y-5.02303
G01 X-34.90407 Y-4.81741
G01 X-34.87628 Y-4.60639
G01 X-35.10303 Y-4.59153
G01 X-35.10255 Y-4.40840
G01 X-35.12647 Y-4.22674
G01 X-35.17387 Y-4.04980
G01 X-35.24397 Y-3.88059
G01 X-35.33554 Y-3.72194
G01 X-35.44707 Y-3.57662
G01 X-35.57661 Y-3.44708
G01 X-35.72195 Y-3.33558
G01 X-35.88057 Y-3.24399
G01 X-36.04984 Y-3.17388
G01 X-36.22678 Y-3.12646
G01 X-36.40836 Y-3.10256
G01 X-36.59157 Y-3.10256
G01 X-36.77321 Y-3.12646
G01 X-36.95014 Y-3.17388
G01 X-37.11936 Y-3.24396
G01 X-37.27801 Y-3.33558
G01 X-37.42337 Y-3.44708
G01 X-37.55288 Y-3.57660
G01 X-37.66439 Y-3.72194
G01 X-37.75598 Y-3.88056
G01 X-37.82606 Y-4.04980
G01 X-37.87348 Y-4.22676
G01 X-37.89741 Y-4.40840
G01 X-37.89741 Y-4.59156
G01 X-37.87348 Y-4.77317
G01 X-37.82606 Y-4.95013
G01 X-37.75598 Y-5.11940
G01 X-37.66439 Y-5.27799
G01 X-37.55288 Y-5.42333
G01 X-37.42334 Y-5.55287
G01 X-37.27801 Y-5.66438
G01 X-37.11936 Y-5.75597
G01 X-36.95012 Y-5.82610
G01 X-36.77318 Y-5.87350
G01 X-36.59160 Y-5.89740
G01 X-36.40836 Y-5.89740
G01 X-36.22678 Y-5.87350
G01 X-36.04984 Y-5.82610
G01 X-35.88060 Y-5.75597
G01 X-35.72192 Y-5.66438
G01 X-35.57661 Y-5.55287
G01 X-35.44707 Y-5.42333
G01 X-35.33557 Y-5.27799
G01 X-35.24397 Y-5.11934
G01 X-35.17387 Y-4.95016
G01 X-35.12647 Y-4.77319
G01 X-35.10303 Y-4.59153
G01 X-35.32980 Y-4.57665
G01 X-35.32868 Y-4.42326
G01 X-35.34936 Y-4.27109
G01 X-35.38847 Y-4.12262
G01 X-35.44821 Y-3.98130
G01 X-35.52327 Y-3.84736
G01 X-35.61827 Y-3.72679
G01 X-35.72601 Y-3.61752
G01 X-35.84819 Y-3.52450
G01 X-35.98085 Y-3.44721
G01 X-36.12304 Y-3.38950
G01 X-36.27082 Y-3.34790
G01 X-36.42324 Y-3.32981
G01 X-36.57671 Y-3.32870
G01 X-36.72901 Y-3.34874
G01 X-36.87694 Y-3.38953
G01 X-37.01910 Y-3.44721
G01 X-37.15177 Y-3.52453
G01 X-37.27397 Y-3.61749
G01 X-37.38166 Y-3.72674
G01 X-37.47595 Y-3.84780
G01 X-37.55273 Y-3.98081
G01 X-37.61041 Y-4.12300
G01 X-37.65121 Y-4.27096
G01 X-37.67127 Y-4.42326
G01 X-37.67016 Y-4.57665
G01 X-37.65205 Y-4.72912
G01 X-37.61041 Y-4.87693
G01 X-37.55273 Y-5.01912
G01 X-37.47546 Y-5.15175
G01 X-37.38245 Y-5.27393
G01 X-37.27320 Y-5.38165
G01 X-37.15258 Y-5.47665
G01 X-37.01865 Y-5.55173
G01 X-36.87729 Y-5.61147
G01 X-36.72886 Y-5.65061
G01 X-36.57674 Y-5.67126
G01 X-36.42324 Y-5.67014
G01 X-36.27102 Y-5.65122
G01 X-36.12266 Y-5.61147
G01 X-35.98131 Y-5.55173
G01 X-35.84735 Y-5.47665
G01 X-35.72678 Y-5.38168
G01 X-35.61751 Y-5.27393
G01 X-35.52398 Y-5.15206
G01 X-35.44821 Y-5.01861
G01 X-35.38847 Y-4.87733
G01 X-35.34875 Y-4.72895
G01 X-35.32980 Y-4.57665
G01 X-35.55655 Y-4.56179
G01 X-35.55545 Y-4.43812
G01 X-35.57222 Y-4.31541
G01 X-35.60366 Y-4.19565
G01 X-35.65202 Y-4.08181
G01 X-35.71222 Y-3.97363
G01 X-35.78913 Y-3.87662
G01 X-35.87585 Y-3.78836
G01 X-35.97445 Y-3.71345
G01 X-36.08136 Y-3.65102
G01 X-36.19607 Y-3.60469
G01 X-36.31514 Y-3.57078
G01 X-36.43810 Y-3.55656
G01 X-36.56185 Y-3.55547
G01 X-36.68469 Y-3.57162
G01 X-36.80391 Y-3.60472
G01 X-36.91857 Y-3.65102
G01 X-37.02553 Y-3.71345
G01 X-37.12413 Y-3.78836
G01 X-37.21082 Y-3.87657
G01 X-37.28700 Y-3.97406
G01 X-37.34892 Y-4.08132
G01 X-37.39523 Y-4.19603
G01 X-37.42832 Y-4.31531
G01 X-37.44450 Y-4.43812
G01 X-37.44341 Y-4.56179
G01 X-37.42919 Y-4.68478
G01 X-37.39523 Y-4.80390
G01 X-37.34892 Y-4.91863
G01 X-37.28651 Y-5.02549
G01 X-37.21161 Y-5.12409
G01 X-37.12337 Y-5.21081
G01 X-37.02634 Y-5.28772
G01 X-36.91814 Y-5.34792
G01 X-36.80424 Y-5.39628
G01 X-36.68461 Y-5.42834
G01 X-36.56185 Y-5.44340
G01 X-36.43808 Y-5.44449
G01 X-36.31527 Y-5.42834
G01 X-36.19609 Y-5.39526
G01 X-36.08139 Y-5.34894
G01 X-35.97405 Y-5.28696
G01 X-35.87661 Y-5.21084
G01 X-35.78835 Y-5.12409
G01 X-35.71293 Y-5.02582
G01 X-35.65200 Y-4.91810
G01 X-35.60366 Y-4.80431
G01 X-35.57161 Y-4.68462
G01 X-35.55655 Y-4.56179
G01 X-35.78329 Y-4.54693
G01 X-35.78220 Y-4.45300
G01 X-35.79510 Y-4.35973
G01 X-35.81885 Y-4.26870
G01 X-35.85583 Y-4.18231
G01 X-35.90117 Y-4.09989
G01 X-35.95997 Y-4.02646
G01 X-36.02568 Y-3.95920
G01 X-36.10072 Y-3.90241
G01 X-36.18187 Y-3.85483
G01 X-36.26912 Y-3.81988
G01 X-36.35947 Y-3.79364
G01 X-36.45296 Y-3.78330
G01 X-36.54702 Y-3.78221
G01 X-36.64036 Y-3.79451
G01 X-36.73086 Y-3.81988
G01 X-36.81806 Y-3.85483
G01 X-36.89927 Y-3.90241
G01 X-36.97432 Y-3.95922
G01 X-37.03996 Y-4.02641
G01 X-37.09878 Y-4.09984
G01 X-37.14410 Y-4.18229
G01 X-37.18108 Y-4.26870
G01 X-37.20485 Y-4.35978
G01 X-37.21776 Y-4.45300
G01 X-37.21666 Y-4.54693
G01 X-37.20630 Y-4.64043
G01 X-37.18006 Y-4.73085
G01 X-37.14511 Y-4.81813
G01 X-37.09756 Y-4.89923
G01 X-37.04077 Y-4.97426
G01 X-36.97354 Y-5.03994
G01 X-36.89965 Y-5.09803
G01 X-36.81806 Y-5.14513
G01 X-36.73081 Y-5.18008
G01 X-36.64049 Y-5.20631
G01 X-36.54699 Y-5.21665
G01 X-36.45294 Y-5.21774
G01 X-36.35959 Y-5.20545
G01 X-36.26914 Y-5.18008
G01 X-36.18189 Y-5.14513
G01 X-36.10028 Y-5.09801
G01 X-36.02647 Y-5.03999
G01 X-35.95919 Y-4.97426
G01 X-35.90188 Y-4.89956
G01 X-35.85581 Y-4.81759
G01 X-35.81885 Y-4.73126
G01 X-35.79449 Y-4.64030
G01 X-35.78329 Y-4.54693
G01 X-36.01006 Y-4.53205
G01 X-36.01006 Y-4.46789
G01 X-36.00562 Y-4.46761
G01 X-36.01006 Y-4.46789
G01 X-36.01844 Y-4.40416
G01 X-36.03508 Y-4.34213
G01 X-36.05964 Y-4.28282
G01 X-36.05566 Y-4.28087
G01 X-36.05964 Y-4.28282
G01 X-36.09172 Y-4.22722
G01 X-36.13081 Y-4.17629
G01 X-36.17625 Y-4.13085
G01 X-36.17333 Y-4.12753
G01 X-36.17625 Y-4.13085
G01 X-36.22723 Y-4.09174
G01 X-36.28283 Y-4.05966
G01 X-36.34217 Y-4.03507
G01 X-36.34075 Y-4.03085
G01 X-36.34217 Y-4.03507
G01 X-36.40417 Y-4.01846
G01 X-36.46782 Y-4.01008
G01 X-36.53211 Y-4.01008
G01 X-36.53241 Y-4.00566
G01 X-36.53211 Y-4.01008
G01 X-36.59579 Y-4.01846
G01 X-36.65781 Y-4.03507
G01 X-36.71712 Y-4.05963
G01 X-36.71908 Y-4.05564
G01 X-36.71712 Y-4.05963
G01 X-36.77275 Y-4.09176
G01 X-36.82375 Y-4.13088
G01 X-36.86912 Y-4.17624
G01 X-36.87244 Y-4.17332
G01 X-36.86912 Y-4.17624
G01 X-36.90821 Y-4.22719
G01 X-36.94029 Y-4.28277
G01 X-36.96487 Y-4.34213
G01 X-36.96907 Y-4.34071
G01 X-36.96487 Y-4.34213
G01 X-36.98151 Y-4.40423
G01 X-36.98989 Y-4.46789
G01 X-36.98989 Y-4.53207
G01 X-36.99434 Y-4.53235
G01 X-36.98989 Y-4.53207
G01 X-36.98151 Y-4.59572
G01 X-36.96487 Y-4.65783
G01 X-36.94029 Y-4.71716
G01 X-36.94427 Y-4.71914
G01 X-36.94029 Y-4.71716
G01 X-36.90823 Y-4.77271
G01 X-36.86912 Y-4.82369
G01 X-36.82370 Y-4.86910
G01 X-36.82662 Y-4.87243
G01 X-36.82370 Y-4.86910
G01 X-36.77275 Y-4.90819
G01 X-36.71712 Y-4.94030
G01 X-36.65776 Y-4.96489
G01 X-36.65919 Y-4.96910
G01 X-36.65776 Y-4.96489
G01 X-36.59579 Y-4.98150
G01 X-36.53213 Y-4.98988
G01 X-36.46782 Y-4.98988
G01 X-36.46754 Y-4.99433
G01 X-36.46782 Y-4.98988
G01 X-36.40417 Y-4.98150
G01 X-36.34219 Y-4.96489
G01 X-36.28283 Y-4.94030
G01 X-36.28088 Y-4.94429
G01 X-36.28283 Y-4.94030
G01 X-36.22716 Y-4.90817
G01 X-36.17631 Y-4.86915
G01 X-36.13084 Y-4.82369
G01 X-36.12751 Y-4.82661
G01 X-36.13084 Y-4.82369
G01 X-36.09175 Y-4.77274
G01 X-36.05962 Y-4.71708
G01 X-36.03508 Y-4.65783
G01 X-36.03087 Y-4.65925
G01 X-36.03508 Y-4.65783
G01 X-36.01844 Y-4.59577
G01 X-36.01006 Y-4.53205
G01 X-36.23681 Y-4.51719
G01 X-36.24133 Y-4.44848
G01 X-36.23699 Y-4.44762
G01 X-36.24133 Y-4.44848
G01 X-36.25024 Y-4.41515
G01 X-36.28067 Y-4.35348
G01 X-36.27699 Y-4.35102
G01 X-36.28067 Y-4.35348
G01 X-36.30165 Y-4.32613
G01 X-36.35347 Y-4.28069
G01 X-36.35101 Y-4.27700
G01 X-36.35347 Y-4.28069
G01 X-36.38334 Y-4.26344
G01 X-36.44852 Y-4.24132
G01 X-36.44763 Y-4.23697
G01 X-36.44852 Y-4.24132
G01 X-36.51725 Y-4.23682
G01 X-36.55146 Y-4.24134
G01 X-36.55233 Y-4.23697
G01 X-36.55146 Y-4.24134
G01 X-36.61661 Y-4.26344
G01 X-36.64651 Y-4.28071
G01 X-36.64897 Y-4.27703
G01 X-36.64651 Y-4.28071
G01 X-36.67392 Y-4.30174
G01 X-36.71926 Y-4.35343
G01 X-36.72294 Y-4.35097
G01 X-36.71926 Y-4.35343
G01 X-36.74969 Y-4.41515
G01 X-36.75863 Y-4.44856
G01 X-36.76299 Y-4.44769
G01 X-36.75863 Y-4.44856
G01 X-36.76315 Y-4.48277
G01 X-36.75863 Y-4.55138
G01 X-36.76299 Y-4.55224
G01 X-36.75863 Y-4.55138
G01 X-36.74969 Y-4.58478
G01 X-36.71928 Y-4.64647
G01 X-36.72296 Y-4.64894
G01 X-36.71928 Y-4.64647
G01 X-36.67387 Y-4.69824
G01 X-36.64651 Y-4.71924
G01 X-36.64897 Y-4.72293
G01 X-36.64651 Y-4.71924
G01 X-36.61661 Y-4.73652
G01 X-36.55144 Y-4.75864
G01 X-36.55233 Y-4.76298
G01 X-36.55144 Y-4.75864
G01 X-36.51728 Y-4.76313
G01 X-36.44852 Y-4.75864
G01 X-36.44763 Y-4.76298
G01 X-36.44852 Y-4.75864
G01 X-36.38334 Y-4.73652
G01 X-36.35339 Y-4.71922
G01 X-36.35093 Y-4.72290
G01 X-36.35339 Y-4.71922
G01 X-36.30171 Y-4.67385
G01 X-36.28070 Y-4.64650
G01 X-36.27702 Y-4.64896
G01 X-36.28070 Y-4.64650
G01 X-36.25024 Y-4.58478
G01 X-36.24133 Y-4.55145
G01 X-36.23696 Y-4.55231
G01 X-36.24133 Y-4.55145
G01 X-36.23681 Y-4.51719
G01 X-36.44598 Y-4.51076
G01 X-36.46421 Y-4.50713
G01 X-36.46421 Y-4.49280
G01 X-36.46962 Y-4.47972
G01 X-36.45405 Y-4.46933
G01 X-36.46962 Y-4.47972
G01 X-36.47973 Y-4.46964
G01 X-36.49284 Y-4.46420
G01 X-36.48918 Y-4.44586
G01 X-36.49284 Y-4.46420
G01 X-36.50714 Y-4.46420
G01 X-36.52027 Y-4.46966
G01 X-36.53069 Y-4.45407
G01 X-36.52027 Y-4.46966
G01 X-36.53031 Y-4.47967
G01 X-36.53577 Y-4.49290
G01 X-36.55403 Y-4.48927
G01 X-36.53577 Y-4.49290
G01 X-36.53577 Y-4.50703
G01 X-36.53033 Y-4.52021
G01 X-36.54585 Y-4.53057
G01 X-36.53033 Y-4.52021
G01 X-36.52027 Y-4.53029
G01 X-36.50712 Y-4.53575
G01 X-36.51077 Y-4.55417
G01 X-36.50712 Y-4.53575
G01 X-36.49284 Y-4.53575
G01 X-36.47966 Y-4.53027
G01 X-36.46927 Y-4.54579
G01 X-36.47966 Y-4.53027
G01 X-36.46965 Y-4.52026
G01 X-36.46421 Y-4.50713
G04 P0 ( dwell for no time -- G64 should not smooth over this point )
G00 Z2.00000 ( retract )

G00 X-32.21678 Y-9.77014 ( rapid move to begin. )
G01 F60.00000
( Mill infeed pass 1/1 )
G01 Z-0.07000
G04 P0 ( dwell for no time -- G64 should not smooth over this point )
G01 F120.00000
G01 X-32.21678 Y-9.77014
G01 X-32.31050 Y-9.83976
G01 X-32.46511 Y-10.01316
G01 X-32.52226 Y-10.01316
G01 X-32.45368 Y-9.91525
G01 X-32.32407 Y-9.78235
G01 X-32.27309 Y-9.69381
G01 X-32.25612 Y-9.65418
G01 X-32.24698 Y-9.61207
G01 X-32.24593 Y-9.56897
G01 X-32.25091 Y-9.49927
G01 X-32.25808 Y-9.45672
G01 X-32.27314 Y-9.41631
G01 X-32.29559 Y-9.37948
G01 X-32.35866 Y-9.29912
G01 X-32.38309 Y-9.27796
G01 X-32.44124 Y-9.24357
G01 X-32.57225 Y-9.19223
G01 X-32.63514 Y-9.14514
G01 X-32.68223 Y-9.08225
G01 X-32.71111 Y-9.00478
G01 X-32.71317 Y-8.98566
G01 X-32.71317 Y-8.72678
G01 X-32.66679 Y-8.72678
G01 X-32.66679 Y-8.94999
G01 X-32.66242 Y-8.99424
G01 X-32.64952 Y-9.03679
G01 X-32.62856 Y-9.07598
G01 X-32.60037 Y-9.11037
G01 X-32.56600 Y-9.13856
G01 X-32.52678 Y-9.15952
G01 X-32.48424 Y-9.17242
G01 X-32.43999 Y-9.17679
G01 X-32.21678 Y-9.17679
G01 X-32.21678 Y-9.77014
G04 P0 ( dwell for no time -- G64 should not smooth over this point )
G00 Z2.00000 ( retract )

G00 X-32.21678 Y-11.57402 ( rapid move to begin. )
G01 F60.00000
( Mill infeed pass 1/1 )
G01 Z-0.07000
G04 P0 ( dwell for no time -- G64 should not smooth over this point )
G01 F120.00000
G01 X-32.21678 Y-11.57402
G01 X-32.31388 Y-11.50450
G01 X-32.45368 Y-11.36472
G01 X-32.52226 Y-11.26678
G01 X-32.46514 Y-11.26678
G01 X-32.31050 Y-11.44021
G01 X-32.21678 Y-11.50986
G01 X-32.21678 Y-11.57402
G04 P0 ( dwell for no time -- G64 should not smooth over this point )
G00 Z2.00000 ( retract )

G00 X-32.21678 Y-12.31014 ( rapid move to begin. )
G01 F60.00000
( Mill infeed pass 1/1 )
G01 Z-0.07000
G04 P0 ( dwell for no time -- G64 should not smooth over this point )
G01 F120.00000
G01 X-32.21678 Y-12.31014
G01 X-32.31050 Y-12.37976
G01 X-32.46511 Y-12.55316
G01 X-32.52226 Y-12.55316
G01 X-32.45368 Y-12.45525
G01 X-32.31472 Y-12.31628
G01 X-32.21678 Y-12.24768
G01 X-32.21678 Y-12.31014
G04 P0 ( dwell for no time -- G64 should not smooth over this point )
G00 Z2.00000 ( retract )

G00 X-32.21678 Y-14.11402 ( rapid move to begin. )
G01 F60.00000
( Mill infeed pass 1/1 )
G01 Z-0.07000
G04 P0 ( dwell for no time -- G64 should not smooth over this point )
G01 F120.00000
G01 X-32.21678 Y-14.11402
G01 X-32.21678 Y-14.04986
G01 X-32.31050 Y-13.98021
G01 X-32.46514 Y-13.80678
G01 X-32.52226 Y-13.80678
G01 X-32.45368 Y-13.90472
G01 X-32.31388 Y-14.04450
G01 X-32.21678 Y-14.11402
G04 P0 ( dwell for no time -- G64 should not smooth over this point )
G00 Z2.00000 ( retract )

G00 X-32.21678 Y-14.85014 ( rapid move to begin. )
G01 F60.00000
( Mill infeed pass 1/1 )
G01 Z-0.07000
G04 P0 ( dwell for no time -- G64 should not smooth over this point )
G01 F120.00000
G01 X-32.21678 Y-14.85014
G01 X-32.21678 Y-14.78768
G01 X-32.31472 Y-14.85628
G01 X-32.45368 Y-14.99525
G01 X-32.52226 Y-15.09316
G01 X-32.46511 Y-15.09316
G01 X-32.31050 Y-14.91976
G01 X-32.21678 Y-14.85014
G04 P0 ( dwell for no time -- G64 should not smooth over this point )
G00 Z2.00000 ( retract )

G00 X-30.65770 Y-13.80678 ( rapid move to begin. )
G01 F60.00000
( Mill infeed pass 1/1 )
G01 Z-0.07000
G04 P0 ( dwell for no time -- G64 should not smooth over this point )
G01 F120.00000
G01 X-30.65770 Y-13.80678
G01 X-30.72628 Y-13.90472
G01 X-30.86524 Y-14.04366
G01 X-30.96316 Y-14.11224
G01 X-30.96316 Y-14.04981
G01 X-30.86946 Y-13.98021
G01 X-30.71485 Y-13.80678
G01 X-30.65770 Y-13.80678
G04 P0 ( dwell for no time -- G64 should not smooth over this point )
G00 Z2.00000 ( retract )

G00 X-30.65770 Y-15.09316 ( rapid move to begin. )
G01 F60.00000
( Mill infeed pass 1/1 )
G01 Z-0.07000
G04 P0 ( dwell for no time -- G64 should not smooth over this point )
G01 F120.00000
G01 X-30.65770 Y-15.09316
G01 X-30.72628 Y-14.99525
G01 X-30.86608 Y-14.85544
G01 X-30.96316 Y-14.78592
G01 X-30.96316 Y-14.85016
G01 X-30.86946 Y-14.91976
G01 X-30.71487 Y-15.09316
G01 X-30.65770 Y-15.09316
G04 P0 ( dwell for no time -- G64 should not smooth over this point )
G00 Z2.00000 ( retract )

G00 X-25.82677 Y-20.80316 ( rapid move to begin. )
G01 F60.00000
( Mill infeed pass 1/1 )
G01 Z-0.07000
G04 P0 ( dwell for no time -- G64 should not smooth over this point )
G01 F120.00000
G01 X-25.82677 Y-20.80316
G01 X-27.03566 Y-20.80316
G01 X-27.05478 Y-20.80110
G01 X-27.13225 Y-20.77222
G01 X-27.19512 Y-20.72516
G01 X-27.24221 Y-20.66224
G01 X-27.27112 Y-20.58477
G01 X-27.27317 Y-19.80679
G01 X-27.22679 Y-19.80679
G01 X-27.22679 Y-20.52998
G01 X-27.22242 Y-20.57423
G01 X-27.20952 Y-20.61677
G01 X-27.18857 Y-20.65599
G01 X-27.16035 Y-20.69036
G01 X-27.12598 Y-20.71858
G01 X-27.08679 Y-20.73953
G01 X-27.04424 Y-20.75243
G01 X-27.00000 Y-20.75678
G01 X-25.82677 Y-20.75678
G01 X-25.82677 Y-20.80316
G04 P0 ( dwell for no time -- G64 should not smooth over this point )
G00 Z2.00000 ( retract )

G00 X-30.59679 Y-21.05566 ( rapid move to begin. )
G01 F60.00000
( Mill infeed pass 1/1 )
G01 Z-0.07000
G04 P0 ( dwell for no time -- G64 should not smooth over this point )
G01 F120.00000
G01 X-30.59679 Y-21.05566
G01 X-30.59679 Y-20.04677
G01 X-30.64319 Y-20.04677
G01 X-30.64319 Y-21.02000
G01 X-30.64754 Y-21.06425
G01 X-30.66044 Y-21.10679
G01 X-30.68142 Y-21.14598
G01 X-30.70962 Y-21.18035
G01 X-30.74398 Y-21.20857
G01 X-30.78320 Y-21.22952
G01 X-30.82574 Y-21.24243
G01 X-30.86999 Y-21.24680
G01 X-31.84317 Y-21.24680
G01 X-31.84317 Y-21.29318
G01 X-30.81520 Y-21.29112
G01 X-30.73768 Y-21.26221
G01 X-30.67479 Y-21.21512
G01 X-30.62773 Y-21.15226
G01 X-30.59885 Y-21.07479
G01 X-30.59679 Y-21.05566
G04 P0 ( dwell for no time -- G64 should not smooth over this point )
G00 Z2.00000 ( retract )

G00 X-33.09678 Y-21.29318 ( rapid move to begin. )
G01 F60.00000
( Mill infeed pass 1/1 )
G01 Z-0.07000
G04 P0 ( dwell for no time -- G64 should not smooth over this point )
G01 F120.00000
G01 X-33.09678 Y-21.29318
G01 X-33.09678 Y-21.24680
G01 X-34.06999 Y-21.24680
G01 X-34.11423 Y-21.24243
G01 X-34.15678 Y-21.22952
G01 X-34.19599 Y-21.20857
G01 X-34.23036 Y-21.18035
G01 X-34.25855 Y-21.14598
G01 X-34.27954 Y-21.10679
G01 X-34.29244 Y-21.06425
G01 X-34.29678 Y-21.02000
G01 X-34.29678 Y-20.04677
G01 X-34.34316 Y-20.04677
G01 X-34.34316 Y-21.05566
G01 X-34.34110 Y-21.07479
G01 X-34.31222 Y-21.15226
G01 X-34.26516 Y-21.21512
G01 X-34.20224 Y-21.26221
G01 X-34.12475 Y-21.29112
G01 X-34.10565 Y-21.29318
G01 X-33.09678 Y-21.29318
G04 P0 ( dwell for no time -- G64 should not smooth over this point )
G00 Z2.00000 ( retract )

G00 X-33.09678 Y-32.94896 ( rapid move to begin. )
G01 F60.00000
( Mill infeed pass 1/1 )
G01 Z-0.07000
G04 P0 ( dwell for no time -- G64 should not smooth over this point )
G01 F120.00000
G01 X-33.09678 Y-32.94896
G01 X-33.09678 Y-32.89026
G01 X-33.33379 Y-32.99290
G01 X-33.55271 Y-33.12604
G01 X-33.75152 Y-33.28779
G01 X-33.92642 Y-33.47507
G01 X-34.07423 Y-33.68441
G01 X-34.19211 Y-33.91195
G01 X-34.23519 Y-34.03316
G01 X-34.17791 Y-34.03316
G01 X-34.14735 Y-33.93912
G01 X-34.12808 Y-33.89582
G01 X-33.94789 Y-33.58622
G01 X-33.69236 Y-33.30242
G01 X-33.38340 Y-33.07794
G01 X-33.09678 Y-32.94896
G04 P0 ( dwell for no time -- G64 should not smooth over this point )
G00 Z2.00000 ( retract )

G00 X-33.09678 Y-36.42970 ( rapid move to begin. )
G01 F60.00000
( Mill infeed pass 1/1 )
G01 Z-0.07000
G04 P0 ( dwell for no time -- G64 should not smooth over this point )
G01 F120.00000
G01 X-33.09678 Y-36.42970
G01 X-33.09678 Y-36.37102
G01 X-33.38340 Y-36.24204
G01 X-33.67390 Y-36.03252
G01 X-33.70915 Y-36.00077
G01 X-33.94789 Y-35.73376
G01 X-34.12808 Y-35.42416
G01 X-34.14735 Y-35.38085
G01 X-34.17794 Y-35.28677
G01 X-34.23521 Y-35.28677
G01 X-34.19211 Y-35.40801
G01 X-34.07423 Y-35.63554
G01 X-33.92642 Y-35.84489
G01 X-33.75152 Y-36.03216
G01 X-33.55271 Y-36.19391
G01 X-33.33379 Y-36.32705
G01 X-33.09678 Y-36.42970
G04 P0 ( dwell for no time -- G64 should not smooth over this point )
G00 Z2.00000 ( retract )

G00 X-36.46421 Y-40.00711 ( rapid move to begin. )
G01 F60.00000
( Mill infeed pass 1/1 )
G01 Z-0.07000
G04 P0 ( dwell for no time -- G64 should not smooth over this point )
G01 F120.00000
G01 X-36.46421 Y-40.00711
G01 X-36.46965 Y-40.02027
G01 X-36.47968 Y-40.03030
G01 X-36.46932 Y-40.04582
G01 X-36.47968 Y-40.03030
G01 X-36.49284 Y-40.03573
G01 X-36.50709 Y-40.03576
G01 X-36.51072 Y-40.05407
G01 X-36.50709 Y-40.03576
G01 X-36.52027 Y-40.03030
G01 X-36.53031 Y-40.02027
G01 X-36.54582 Y-40.03063
G01 X-36.53031 Y-40.02027
G01 X-36.53577 Y-40.00703
G01 X-36.53577 Y-39.99291
G01 X-36.55405 Y-39.98928
G01 X-36.53577 Y-39.99291
G01 X-36.53031 Y-39.97968
G01 X-36.52027 Y-39.96967
G01 X-36.53066 Y-39.95415
G01 X-36.52027 Y-39.96967
G01 X-36.50704 Y-39.96418
G01 X-36.49292 Y-39.96418
G01 X-36.48931 Y-39.94587
G01 X-36.49292 Y-39.96418
G01 X-36.47973 Y-39.96964
G01 X-36.46965 Y-39.97968
G01 X-36.45405 Y-39.96924
G01 X-36.46965 Y-39.97968
G01 X-36.46421 Y-39.99283
G01 X-36.46421 Y-40.00711
G01 X-36.44590 Y-40.01077
G01 X-36.23681 Y-40.01719
G01 X-36.24133 Y-40.05143
G01 X-36.23696 Y-40.05232
G01 X-36.24133 Y-40.05143
G01 X-36.25024 Y-40.08478
G01 X-36.28070 Y-40.14650
G01 X-36.27702 Y-40.14897
G01 X-36.28070 Y-40.14650
G01 X-36.30171 Y-40.17386
G01 X-36.35345 Y-40.21925
G01 X-36.35098 Y-40.22293
G01 X-36.35345 Y-40.21925
G01 X-36.41517 Y-40.24970
G01 X-36.44852 Y-40.25862
G01 X-36.44763 Y-40.26296
G01 X-36.44852 Y-40.25862
G01 X-36.48276 Y-40.26314
G01 X-36.55141 Y-40.25862
G01 X-36.55228 Y-40.26299
G01 X-36.55141 Y-40.25862
G01 X-36.58479 Y-40.24970
G01 X-36.64651 Y-40.21925
G01 X-36.64897 Y-40.22293
G01 X-36.64651 Y-40.21925
G01 X-36.67387 Y-40.19824
G01 X-36.71926 Y-40.14650
G01 X-36.72294 Y-40.14897
G01 X-36.71926 Y-40.14650
G01 X-36.74969 Y-40.08478
G01 X-36.75863 Y-40.05135
G01 X-36.76299 Y-40.05222
G01 X-36.75863 Y-40.05135
G01 X-36.76315 Y-40.01719
G01 X-36.75863 Y-39.94856
G01 X-36.76299 Y-39.94770
G01 X-36.75863 Y-39.94856
G01 X-36.74969 Y-39.91516
G01 X-36.71926 Y-39.85344
G01 X-36.72294 Y-39.85097
G01 X-36.71926 Y-39.85344
G01 X-36.67392 Y-39.80175
G01 X-36.64651 Y-39.78072
G01 X-36.64897 Y-39.77701
G01 X-36.64651 Y-39.78072
G01 X-36.58479 Y-39.75026
G01 X-36.55139 Y-39.74132
G01 X-36.55225 Y-39.73695
G01 X-36.55139 Y-39.74132
G01 X-36.51717 Y-39.73680
G01 X-36.44859 Y-39.74132
G01 X-36.44773 Y-39.73695
G01 X-36.44859 Y-39.74132
G01 X-36.41514 Y-39.75026
G01 X-36.35347 Y-39.78069
G01 X-36.35101 Y-39.77698
G01 X-36.35347 Y-39.78069
G01 X-36.32604 Y-39.80175
G01 X-36.28070 Y-39.85344
G01 X-36.27702 Y-39.85097
G01 X-36.28070 Y-39.85344
G01 X-36.25024 Y-39.91516
G01 X-36.24133 Y-39.94851
G01 X-36.23696 Y-39.94762
G01 X-36.24133 Y-39.94851
G01 X-36.23681 Y-40.01719
G01 X-36.01006 Y-40.03205
G01 X-36.01844 Y-40.09578
G01 X-36.03508 Y-40.15781
G01 X-36.03087 Y-40.15925
G01 X-36.03508 Y-40.15781
G01 X-36.05964 Y-40.21712
G01 X-36.09175 Y-40.27274
G01 X-36.13084 Y-40.32369
G01 X-36.12751 Y-40.32661
G01 X-36.13084 Y-40.32369
G01 X-36.17625 Y-40.36911
G01 X-36.22721 Y-40.40820
G01 X-36.28283 Y-40.44031
G01 X-36.28088 Y-40.44429
G01 X-36.28283 Y-40.44031
G01 X-36.34214 Y-40.46487
G01 X-36.40417 Y-40.48150
G01 X-36.46790 Y-40.48989
G01 X-36.46759 Y-40.49433
G01 X-36.46790 Y-40.48989
G01 X-36.53211 Y-40.48989
G01 X-36.59576 Y-40.48150
G01 X-36.65781 Y-40.46487
G01 X-36.65926 Y-40.46908
G01 X-36.65781 Y-40.46487
G01 X-36.71712 Y-40.44031
G01 X-36.77275 Y-40.40820
G01 X-36.82370 Y-40.36911
G01 X-36.82662 Y-40.37244
G01 X-36.82370 Y-40.36911
G01 X-36.86912 Y-40.32369
G01 X-36.90821 Y-40.27274
G01 X-36.94029 Y-40.21717
G01 X-36.94427 Y-40.21912
G01 X-36.94029 Y-40.21717
G01 X-36.96487 Y-40.15781
G01 X-36.98151 Y-40.09570
G01 X-36.98989 Y-40.03205
G01 X-36.99434 Y-40.03236
G01 X-36.98989 Y-40.03205
G01 X-36.98989 Y-39.96789
G01 X-36.98151 Y-39.90424
G01 X-36.96487 Y-39.84214
G01 X-36.96907 Y-39.84071
G01 X-36.96487 Y-39.84214
G01 X-36.94029 Y-39.78278
G01 X-36.90821 Y-39.72720
G01 X-36.86912 Y-39.67625
G01 X-36.87244 Y-39.67333
G01 X-36.86912 Y-39.67625
G01 X-36.82375 Y-39.63088
G01 X-36.77275 Y-39.59177
G01 X-36.71712 Y-39.55964
G01 X-36.71908 Y-39.55565
G01 X-36.71712 Y-39.55964
G01 X-36.65781 Y-39.53507
G01 X-36.59571 Y-39.51844
G01 X-36.53206 Y-39.51006
G01 X-36.53234 Y-39.50561
G01 X-36.53206 Y-39.51006
G01 X-36.46790 Y-39.51006
G01 X-36.40425 Y-39.51844
G01 X-36.34212 Y-39.53507
G01 X-36.34067 Y-39.53088
G01 X-36.34212 Y-39.53507
G01 X-36.28283 Y-39.55964
G01 X-36.22723 Y-39.59174
G01 X-36.17620 Y-39.63088
G01 X-36.17328 Y-39.62753
G01 X-36.17620 Y-39.63088
G01 X-36.13084 Y-39.67625
G01 X-36.09175 Y-39.72720
G01 X-36.05964 Y-39.78283
G01 X-36.05566 Y-39.78087
G01 X-36.05964 Y-39.78283
G01 X-36.03508 Y-39.84214
G01 X-36.01844 Y-39.90416
G01 X-36.01006 Y-39.96789
G01 X-36.00562 Y-39.96759
G01 X-36.01006 Y-39.96789
G01 X-36.01006 Y-40.03205
G01 X-35.78329 Y-40.04694
G01 X-35.79449 Y-40.14028
G01 X-35.81885 Y-40.23124
G01 X-35.85583 Y-40.31762
G01 X-35.90188 Y-40.39959
G01 X-35.95919 Y-40.47426
G01 X-36.02642 Y-40.53995
G01 X-36.09988 Y-40.59878
G01 X-36.18233 Y-40.64411
G01 X-36.26871 Y-40.68110
G01 X-36.35974 Y-40.70485
G01 X-36.45299 Y-40.71775
G01 X-36.54699 Y-40.71666
G01 X-36.64026 Y-40.70546
G01 X-36.73124 Y-40.68110
G01 X-36.81763 Y-40.64411
G01 X-36.90008 Y-40.59878
G01 X-36.97354 Y-40.53995
G01 X-37.04077 Y-40.47426
G01 X-37.09807 Y-40.39959
G01 X-37.14410 Y-40.31765
G01 X-37.18108 Y-40.23124
G01 X-37.20546 Y-40.14023
G01 X-37.21666 Y-40.04694
G01 X-37.21776 Y-39.95301
G01 X-37.20485 Y-39.85979
G01 X-37.18108 Y-39.76870
G01 X-37.14410 Y-39.68229
G01 X-37.09878 Y-39.59984
G01 X-37.03996 Y-39.52641
G01 X-36.97432 Y-39.45923
G01 X-36.89927 Y-39.40241
G01 X-36.81806 Y-39.35484
G01 X-36.73086 Y-39.31989
G01 X-36.64031 Y-39.29449
G01 X-36.54694 Y-39.28219
G01 X-36.45301 Y-39.28328
G01 X-36.35952 Y-39.29365
G01 X-36.26907 Y-39.31991
G01 X-36.18187 Y-39.35484
G01 X-36.10072 Y-39.40241
G01 X-36.02563 Y-39.45923
G01 X-35.96000 Y-39.52641
G01 X-35.90117 Y-39.59987
G01 X-35.85583 Y-39.68232
G01 X-35.81885 Y-39.76870
G01 X-35.79510 Y-39.85974
G01 X-35.78220 Y-39.95298
G01 X-35.78329 Y-40.04694
G01 X-35.55655 Y-40.06179
G01 X-35.57161 Y-40.18460
G01 X-35.60366 Y-40.30429
G01 X-35.65202 Y-40.41813
G01 X-35.71293 Y-40.52583
G01 X-35.78835 Y-40.62410
G01 X-35.87659 Y-40.71082
G01 X-35.97361 Y-40.78773
G01 X-36.08182 Y-40.84792
G01 X-36.19566 Y-40.89629
G01 X-36.31542 Y-40.92773
G01 X-36.43813 Y-40.94450
G01 X-36.56185 Y-40.94340
G01 X-36.68458 Y-40.92834
G01 X-36.80430 Y-40.89629
G01 X-36.91814 Y-40.84792
G01 X-37.02583 Y-40.78702
G01 X-37.12411 Y-40.71160
G01 X-37.21082 Y-40.62336
G01 X-37.28700 Y-40.52588
G01 X-37.34892 Y-40.41861
G01 X-37.39523 Y-40.30391
G01 X-37.42919 Y-40.18476
G01 X-37.44341 Y-40.06179
G01 X-37.44450 Y-39.93812
G01 X-37.42832 Y-39.81531
G01 X-37.39523 Y-39.69603
G01 X-37.34892 Y-39.58133
G01 X-37.28700 Y-39.47406
G01 X-37.21082 Y-39.37658
G01 X-37.12413 Y-39.28836
G01 X-37.02553 Y-39.21346
G01 X-36.91857 Y-39.15103
G01 X-36.80391 Y-39.10472
G01 X-36.68464 Y-39.07163
G01 X-36.56183 Y-39.05545
G01 X-36.43815 Y-39.05654
G01 X-36.31519 Y-39.07076
G01 X-36.19604 Y-39.10472
G01 X-36.08136 Y-39.15103
G01 X-35.97445 Y-39.21346
G01 X-35.87582 Y-39.28836
G01 X-35.78913 Y-39.37658
G01 X-35.71222 Y-39.47361
G01 X-35.65202 Y-39.58181
G01 X-35.60366 Y-39.69565
G01 X-35.57222 Y-39.81541
G01 X-35.55545 Y-39.93812
G01 X-35.55655 Y-40.06179
G01 X-35.32980 Y-40.07665
G01 X-35.34875 Y-40.22893
G01 X-35.38847 Y-40.37731
G01 X-35.44821 Y-40.51864
G01 X-35.52398 Y-40.65207
G01 X-35.61751 Y-40.77393
G01 X-35.72675 Y-40.88166
G01 X-35.84738 Y-40.97665
G01 X-35.98131 Y-41.05173
G01 X-36.12264 Y-41.11147
G01 X-36.27110 Y-41.15062
G01 X-36.42324 Y-41.17127
G01 X-36.57674 Y-41.17015
G01 X-36.72893 Y-41.15120
G01 X-36.87732 Y-41.11147
G01 X-37.01865 Y-41.05173
G01 X-37.15207 Y-40.97597
G01 X-37.27394 Y-40.88244
G01 X-37.38166 Y-40.77320
G01 X-37.47595 Y-40.65214
G01 X-37.55273 Y-40.51912
G01 X-37.61041 Y-40.37693
G01 X-37.65205 Y-40.22910
G01 X-37.67016 Y-40.07665
G01 X-37.67127 Y-39.92326
G01 X-37.65121 Y-39.77096
G01 X-37.61041 Y-39.62301
G01 X-37.55273 Y-39.48082
G01 X-37.47595 Y-39.34780
G01 X-37.38166 Y-39.22674
G01 X-37.27397 Y-39.11750
G01 X-37.15177 Y-39.02453
G01 X-37.01910 Y-38.94722
G01 X-36.87694 Y-38.88953
G01 X-36.72898 Y-38.84874
G01 X-36.57669 Y-38.82868
G01 X-36.42330 Y-38.82979
G01 X-36.27084 Y-38.84790
G01 X-36.12299 Y-38.88953
G01 X-35.98085 Y-38.94722
G01 X-35.84821 Y-39.02451
G01 X-35.72599 Y-39.11750
G01 X-35.61829 Y-39.22674
G01 X-35.52330 Y-39.34737
G01 X-35.44821 Y-39.48130
G01 X-35.38847 Y-39.62263
G01 X-35.34933 Y-39.77109
G01 X-35.32868 Y-39.92324
G01 X-35.32980 Y-40.07665
G01 X-35.10303 Y-40.09154
G01 X-35.12647 Y-40.27317
G01 X-35.17387 Y-40.45013
G01 X-35.24397 Y-40.61935
G01 X-35.33557 Y-40.77800
G01 X-35.44707 Y-40.92334
G01 X-35.57661 Y-41.05288
G01 X-35.72195 Y-41.16438
G01 X-35.88060 Y-41.25598
G01 X-36.04981 Y-41.32608
G01 X-36.22678 Y-41.37348
G01 X-36.40839 Y-41.39740
G01 X-36.59160 Y-41.39740
G01 X-36.77318 Y-41.37348
G01 X-36.95014 Y-41.32608
G01 X-37.11936 Y-41.25598
G01 X-37.27801 Y-41.16438
G01 X-37.42334 Y-41.05288
G01 X-37.55288 Y-40.92334
G01 X-37.66439 Y-40.77800
G01 X-37.75598 Y-40.61938
G01 X-37.82606 Y-40.45013
G01 X-37.87348 Y-40.27315
G01 X-37.89741 Y-40.09156
G01 X-37.89741 Y-39.90840
G01 X-37.87348 Y-39.72677
G01 X-37.82606 Y-39.54981
G01 X-37.75598 Y-39.38057
G01 X-37.66439 Y-39.22194
G01 X-37.55288 Y-39.07660
G01 X-37.42337 Y-38.94709
G01 X-37.27801 Y-38.83558
G01 X-37.11936 Y-38.74397
G01 X-36.95014 Y-38.67389
G01 X-36.77318 Y-38.62647
G01 X-36.59154 Y-38.60254
G01 X-36.40839 Y-38.60254
G01 X-36.22680 Y-38.62647
G01 X-36.04981 Y-38.67389
G01 X-35.88057 Y-38.74397
G01 X-35.72195 Y-38.83556
G01 X-35.57659 Y-38.94709
G01 X-35.44707 Y-39.07660
G01 X-35.33557 Y-39.22194
G01 X-35.24397 Y-39.38059
G01 X-35.17387 Y-39.54981
G01 X-35.12647 Y-39.72677
G01 X-35.10255 Y-39.90838
G01 X-35.10303 Y-40.09154
G01 X-34.87628 Y-40.10640
G01 X-34.90407 Y-40.31742
G01 X-34.95914 Y-40.52301
G01 X-35.04060 Y-40.71965
G01 X-35.14702 Y-40.90398
G01 X-35.27659 Y-41.07284
G01 X-35.42711 Y-41.22336
G01 X-35.59597 Y-41.35293
G01 X-35.78029 Y-41.45935
G01 X-35.97694 Y-41.54081
G01 X-36.18253 Y-41.59588
G01 X-36.39355 Y-41.62367
G01 X-36.60643 Y-41.62367
G01 X-36.81743 Y-41.59588
G01 X-37.02301 Y-41.54081
G01 X-37.21966 Y-41.45935
G01 X-37.40399 Y-41.35293
G01 X-37.57285 Y-41.22336
G01 X-37.72337 Y-41.07284
G01 X-37.85293 Y-40.90398
G01 X-37.95936 Y-40.71965
G01 X-38.04079 Y-40.52301
G01 X-38.09589 Y-40.31739
G01 X-38.12367 Y-40.10640
G01 X-38.12367 Y-39.89357
G01 X-38.09589 Y-39.68252
G01 X-38.04079 Y-39.47693
G01 X-37.95936 Y-39.28029
G01 X-37.85293 Y-39.09596
G01 X-37.72337 Y-38.92710
G01 X-37.57287 Y-38.77658
G01 X-37.40399 Y-38.64704
G01 X-37.21966 Y-38.54059
G01 X-37.02301 Y-38.45916
G01 X-36.81743 Y-38.40406
G01 X-36.60638 Y-38.37628
G01 X-36.39355 Y-38.37628
G01 X-36.18255 Y-38.40406
G01 X-35.97692 Y-38.45916
G01 X-35.78027 Y-38.54059
G01 X-35.59597 Y-38.64704
G01 X-35.42708 Y-38.77658
G01 X-35.27659 Y-38.92710
G01 X-35.14702 Y-39.09596
G01 X-35.04060 Y-39.28029
G01 X-34.95914 Y-39.47693
G01 X-34.90407 Y-39.68252
G01 X-34.87628 Y-39.89354
G01 X-34.87628 Y-40.10640
G04 P0 ( dwell for no time -- G64 should not smooth over this point )
G00 Z2.00000 ( retract )

G00 X-30.70476 Y-35.28677 ( rapid move to begin. )
G01 F60.00000
( Mill infeed pass 1/1 )
G01 Z-0.07000
G04 P0 ( dwell for no time -- G64 should not smooth over this point )
G01 F120.00000
G01 X-30.70476 Y-35.28677
G01 X-30.74784 Y-35.40801
G01 X-30.86572 Y-35.63554
G01 X-31.01353 Y-35.84489
G01 X-31.18843 Y-36.03219
G01 X-31.38721 Y-36.19391
G01 X-31.60616 Y-36.32705
G01 X-31.84317 Y-36.42970
G01 X-31.84317 Y-36.37100
G01 X-31.55658 Y-36.24204
G01 X-31.26608 Y-36.03252
G01 X-31.23082 Y-36.00077
G01 X-30.99206 Y-35.73376
G01 X-30.81190 Y-35.42416
G01 X-30.79262 Y-35.38085
G01 X-30.76204 Y-35.28677
