( pcb2gcode 2.5.0 )
( Software-independent Gcode )

( This file uses 3 drill bit sizes. )
( Bit sizes: [0.8mm] [1mm] [1.6mm] )

G94       (Millimeters per minute feed rate.)
G21       (Units == Millimeters.)
G91.1     (Incremental arc distance mode.)
G90       (Absolute coordinates.)
G00 S13000     (RPM spindle speed.)

G00 Z15.00000 (Retract)
T1
M5      (Spindle stop.)
G04 P1.00000
(MSG, Change tool bit to drill size 0.8mm)
M6      (Tool change.)
M0      (Temporary machine stop.)
M3      (Spindle on clockwise.)
G0 Z2.00000
G04 P1.00000

G1 F120.00000
G0 X-8.02894 Y-12.17930
G1 Z-2.50000
G1 Z2.00000
G0 X-8.47090 Y-14.77010
G1 Z-2.50000
G1 Z2.00000
G0 X-18.18894 Y-12.17930
G1 Z-2.50000
G1 Z2.00000
G0 X-8.47090 Y-24.93010
G1 Z-2.50000
G1 Z2.00000
G0 X-8.46074 Y-27.49042
G1 Z-2.50000
G1 Z2.00000
G0 X-11.06932 Y-24.39924
G1 Z-2.50000
G1 Z2.00000
G0 X-13.57122 Y-24.39924
G1 Z-2.50000
G1 Z2.00000
G0 X-18.62074 Y-27.49042
G1 Z-2.50000
G1 Z2.00000

G00 Z15.00000 (Retract)
T2
M5      (Spindle stop.)
G04 P1.00000
(MSG, Change tool bit to drill size 1mm)
M6      (Tool change.)
M0      (Temporary machine stop.)
M3      (Spindle on clockwise.)
G0 Z2.00000
G04 P1.00000

G1 F120.00000
G0 X-8.78078 Y-8.82904
G1 Z-2.50000
G1 Z2.00000
G0 X-11.32078 Y-8.82904
G1 Z-2.50000
G1 Z2.00000
G0 X-13.86078 Y-8.82904
G1 Z-2.50000
G1 Z2.00000
G0 X-16.40078 Y-8.82904
G1 Z-2.50000
G1 Z2.00000
G0 X-24.50084 Y-15.94866
G1 Z-2.50000
G1 Z2.00000
G0 X-24.50084 Y-10.94740
G1 Z-2.50000
G1 Z2.00000
G0 X-31.58998 Y-8.10006
G1 Z-2.50000
G1 Z2.00000
G0 X-31.58998 Y-10.64006
G1 Z-2.50000
G1 Z2.00000
G0 X-31.58998 Y-13.18006
G1 Z-2.50000
G1 Z2.00000
G0 X-31.58998 Y-15.72006
G1 Z-2.50000
G1 Z2.00000
G0 X-24.35098 Y-30.76194
G1 Z-2.50000
G1 Z2.00000
G0 X-24.35098 Y-35.76320
G1 Z-2.50000
G1 Z2.00000
G0 X-16.83004 Y-30.84068
G1 Z-2.50000
G1 Z2.00000
G0 X-14.29004 Y-30.84068
G1 Z-2.50000
G1 Z2.00000
G0 X-11.75004 Y-30.84068
G1 Z-2.50000
G1 Z2.00000
G0 X-9.21004 Y-30.84068
G1 Z-2.50000
G1 Z2.00000
G0 X-9.21004 Y-35.97910
G1 Z-2.50000
G1 Z2.00000
G0 X-11.75004 Y-35.97910
G1 Z-2.50000
G1 Z2.00000
G0 X-14.29004 Y-35.97910
G1 Z-2.50000
G1 Z2.00000
G0 X-16.83004 Y-35.97910
G1 Z-2.50000
G1 Z2.00000

G00 Z15.00000 (Retract)
T3
M5      (Spindle stop.)
G04 P1.00000
(MSG, Change tool bit to drill size 1.6mm)
M6      (Tool change.)
M0      (Temporary machine stop.)
M3      (Spindle on clockwise.)
G0 Z2.00000
G04 P1.00000

G1 F120.00000
G0 X-32.46882 Y-19.42084
G1 Z-2.50000
G1 Z2.00000
G0 X-32.46882 Y-34.66084
G1 Z-2.50000
G1 Z2.00000

G00 Z15.000 ( All done -- retract )

M5      (Spindle off.)
G04 P1.000000
M9      (Coolant off.)
M2      (Program end.)

