( pcb2gcode 2.5.0 )
( Software-independent Gcode )

G94 ( Millimeters per minute feed rate. )
G21 ( Units == Millimeters. )

G90 ( Absolute coordinates. )
G00 S13000 ( RPM spindle speed. )
G01 F120.00000 ( Feedrate. )


G00 Z15.00000 (Retract to tool change height)
T0
M5      (Spindle stop.)
G04 P1.00000 (Wait for spindle to stop)
(MSG, Change tool bit to cutter diameter 1.00000mm)
M6      (Tool change.)
M0      (Temporary machine stop.)
M3 ( Spindle on clockwise. )
G04 P1.00000 (Wait for spindle to get up to speed)
G04 P0 ( dwell for no time -- G64 should not smooth over this point )
G00 Z2.00000 ( retract )

G00 X-0.49997 Y-40.00000 ( rapid move to begin. )
G01 Z-0.50000 F60.00000 ( plunge. )
G04 P0 ( dwell for no time -- G64 should not smooth over this point )
G01 F120.00000
G01 X-0.49997 Y-4.49999
G01 X-0.57683 Y-3.71960
G01 X-0.78793 Y-3.01544
G01 X-0.82545 Y-2.92489
G01 X-1.17409 Y-2.27769
G01 X-1.63860 Y-1.70790
G01 X-1.70790 Y-1.63860
G01 X-2.27769 Y-1.17409
G01 X-2.92489 Y-0.82545
G01 X-3.01544 Y-0.78793
G01 X-3.71960 Y-0.57683
G01 X-4.49999 Y-0.49997
G01 X-36.49998 Y-0.49997
G01 X-37.28034 Y-0.57683
G01 X-37.98451 Y-0.78793
G01 X-38.07506 Y-0.82545
G01 X-38.72225 Y-1.17409
G01 X-39.29205 Y-1.63860
G01 X-39.36134 Y-1.70790
G01 X-39.82585 Y-2.27769
G01 X-40.19550 Y-2.96923
G01 X-40.41120 Y-3.67200
G01 X-40.43032 Y-3.76814
G01 X-40.50000 Y-4.49999
G01 X-40.50000 Y-40.00000
G01 X-40.43032 Y-40.73180
G01 X-40.41120 Y-40.82791
G01 X-40.19550 Y-41.53073
G01 X-39.82585 Y-42.22227
G01 X-39.32839 Y-42.82841
G01 X-38.76164 Y-43.29661
G01 X-38.68016 Y-43.35107
G01 X-38.03071 Y-43.69549
G01 X-37.32794 Y-43.91119
G01 X-37.23180 Y-43.93032
G01 X-36.49998 Y-43.99999
G01 X-4.45097 Y-43.99758
G01 X-3.76814 Y-43.93032
G01 X-3.67200 Y-43.91119
G01 X-2.96923 Y-43.69549
G01 X-2.31978 Y-43.35107
G01 X-2.23830 Y-43.29661
G01 X-1.67155 Y-42.82841
G01 X-1.17409 Y-42.22227
G01 X-0.82545 Y-41.57508
G01 X-0.78793 Y-41.48452
G01 X-0.57683 Y-40.78034
G01 X-0.49997 Y-40.00000
G01 Z-1.00000 F60.00000 ( plunge. )
G04 P0 ( dwell for no time -- G64 should not smooth over this point )
G01 F120.00000
G01 X-0.49997 Y-4.49999
G01 X-0.57683 Y-3.71960
G01 X-0.78793 Y-3.01544
G01 X-0.82545 Y-2.92489
G01 X-1.17409 Y-2.27769
G01 X-1.63860 Y-1.70790
G01 X-1.70790 Y-1.63860
G01 X-2.27769 Y-1.17409
G01 X-2.92489 Y-0.82545
G01 X-3.01544 Y-0.78793
G01 X-3.71960 Y-0.57683
G01 X-4.49999 Y-0.49997
G01 X-36.49998 Y-0.49997
G01 X-37.28034 Y-0.57683
G01 X-37.98451 Y-0.78793
G01 X-38.07506 Y-0.82545
G01 X-38.72225 Y-1.17409
G01 X-39.29205 Y-1.63860
G01 X-39.36134 Y-1.70790
G01 X-39.82585 Y-2.27769
G01 X-40.19550 Y-2.96923
G01 X-40.41120 Y-3.67200
G01 X-40.43032 Y-3.76814
G01 X-40.50000 Y-4.49999
G01 X-40.50000 Y-40.00000
G01 X-40.43032 Y-40.73180
G01 X-40.41120 Y-40.82791
G01 X-40.19550 Y-41.53073
G01 X-39.82585 Y-42.22227
G01 X-39.32839 Y-42.82841
G01 X-38.76164 Y-43.29661
G01 X-38.68016 Y-43.35107
G01 X-38.03071 Y-43.69549
G01 X-37.32794 Y-43.91119
G01 X-37.23180 Y-43.93032
G01 X-36.49998 Y-43.99999
G01 X-4.45097 Y-43.99758
G01 X-3.76814 Y-43.93032
G01 X-3.67200 Y-43.91119
G01 X-2.96923 Y-43.69549
G01 X-2.31978 Y-43.35107
G01 X-2.23830 Y-43.29661
G01 X-1.67155 Y-42.82841
G01 X-1.17409 Y-42.22227
G01 X-0.82545 Y-41.57508
G01 X-0.78793 Y-41.48452
G01 X-0.57683 Y-40.78034
G01 X-0.49997 Y-40.00000
G01 Z-1.50000 F60.00000 ( plunge. )
G04 P0 ( dwell for no time -- G64 should not smooth over this point )
G01 F120.00000
G01 X-0.49997 Y-4.49999
G01 X-0.57683 Y-3.71960
G01 X-0.78793 Y-3.01544
G01 X-0.82545 Y-2.92489
G01 X-1.17409 Y-2.27769
G01 X-1.63860 Y-1.70790
G01 X-1.70790 Y-1.63860
G01 X-2.27769 Y-1.17409
G01 X-2.92489 Y-0.82545
G01 X-3.01544 Y-0.78793
G01 X-3.71960 Y-0.57683
G01 X-4.49999 Y-0.49997
G01 X-36.49998 Y-0.49997
G01 X-37.28034 Y-0.57683
G01 X-37.98451 Y-0.78793
G01 X-38.07506 Y-0.82545
G01 X-38.72225 Y-1.17409
G01 X-39.29205 Y-1.63860
G01 X-39.36134 Y-1.70790
G01 X-39.82585 Y-2.27769
G01 X-40.19550 Y-2.96923
G01 X-40.41120 Y-3.67200
G01 X-40.43032 Y-3.76814
G01 X-40.50000 Y-4.49999
G01 X-40.50000 Y-40.00000
G01 X-40.43032 Y-40.73180
G01 X-40.41120 Y-40.82791
G01 X-40.19550 Y-41.53073
G01 X-39.82585 Y-42.22227
G01 X-39.32839 Y-42.82841
G01 X-38.76164 Y-43.29661
G01 X-38.68016 Y-43.35107
G01 X-38.03071 Y-43.69549
G01 X-37.32794 Y-43.91119
G01 X-37.23180 Y-43.93032
G01 X-36.49998 Y-43.99999
G01 X-4.45097 Y-43.99758
G01 X-3.76814 Y-43.93032
G01 X-3.67200 Y-43.91119
G01 X-2.96923 Y-43.69549
G01 X-2.31978 Y-43.35107
G01 X-2.23830 Y-43.29661
G01 X-1.67155 Y-42.82841
G01 X-1.17409 Y-42.22227
G01 X-0.82545 Y-41.57508
G01 X-0.78793 Y-41.48452
G01 X-0.57683 Y-40.78034
G01 X-0.49997 Y-40.00000
G01 Z-2.00000 F60.00000 ( plunge. )
G04 P0 ( dwell for no time -- G64 should not smooth over this point )
G01 F120.00000
G01 X-0.49997 Y-4.49999
G01 X-0.57683 Y-3.71960
G01 X-0.78793 Y-3.01544
G01 X-0.82545 Y-2.92489
G01 X-1.17409 Y-2.27769
G01 X-1.63860 Y-1.70790
G01 X-1.70790 Y-1.63860
G01 X-2.27769 Y-1.17409
G01 X-2.92489 Y-0.82545
G01 X-3.01544 Y-0.78793
G01 X-3.71960 Y-0.57683
G01 X-4.49999 Y-0.49997
G01 X-36.49998 Y-0.49997
G01 X-37.28034 Y-0.57683
G01 X-37.98451 Y-0.78793
G01 X-38.07506 Y-0.82545
G01 X-38.72225 Y-1.17409
G01 X-39.29205 Y-1.63860
G01 X-39.36134 Y-1.70790
G01 X-39.82585 Y-2.27769
G01 X-40.19550 Y-2.96923
G01 X-40.41120 Y-3.67200
G01 X-40.43032 Y-3.76814
G01 X-40.50000 Y-4.49999
G01 X-40.50000 Y-40.00000
G01 X-40.43032 Y-40.73180
G01 X-40.41120 Y-40.82791
G01 X-40.19550 Y-41.53073
G01 X-39.82585 Y-42.22227
G01 X-39.32839 Y-42.82841
G01 X-38.76164 Y-43.29661
G01 X-38.68016 Y-43.35107
G01 X-38.03071 Y-43.69549
G01 X-37.32794 Y-43.91119
G01 X-37.23180 Y-43.93032
G01 X-36.49998 Y-43.99999
G01 X-4.45097 Y-43.99758
G01 X-3.76814 Y-43.93032
G01 X-3.67200 Y-43.91119
G01 X-2.96923 Y-43.69549
G01 X-2.31978 Y-43.35107
G01 X-2.23830 Y-43.29661
G01 X-1.67155 Y-42.82841
G01 X-1.17409 Y-42.22227
G01 X-0.82545 Y-41.57508
G01 X-0.78793 Y-41.48452
G01 X-0.57683 Y-40.78034
G01 X-0.49997 Y-40.00000
G01 Z-2.50000 F60.00000 ( plunge. )
G04 P0 ( dwell for no time -- G64 should not smooth over this point )
G01 F120.00000
G01 X-0.49997 Y-4.49999
G01 X-0.57683 Y-3.71960
G01 X-0.78793 Y-3.01544
G01 X-0.82545 Y-2.92489
G01 X-1.17409 Y-2.27769
G01 X-1.63860 Y-1.70790
G01 X-1.70790 Y-1.63860
G01 X-2.27769 Y-1.17409
G01 X-2.92489 Y-0.82545
G01 X-3.01544 Y-0.78793
G01 X-3.71960 Y-0.57683
G01 X-4.49999 Y-0.49997
G01 X-36.49998 Y-0.49997
G01 X-37.28034 Y-0.57683
G01 X-37.98451 Y-0.78793
G01 X-38.07506 Y-0.82545
G01 X-38.72225 Y-1.17409
G01 X-39.29205 Y-1.63860
G01 X-39.36134 Y-1.70790
G01 X-39.82585 Y-2.27769
G01 X-40.19550 Y-2.96923
G01 X-40.41120 Y-3.67200
G01 X-40.43032 Y-3.76814
G01 X-40.50000 Y-4.49999
G01 X-40.50000 Y-40.00000
G01 X-40.43032 Y-40.73180
G01 X-40.41120 Y-40.82791
G01 X-40.19550 Y-41.53073
G01 X-39.82585 Y-42.22227
G01 X-39.32839 Y-42.82841
G01 X-38.76164 Y-43.29661
G01 X-38.68016 Y-43.35107
G01 X-38.03071 Y-43.69549
G01 X-37.32794 Y-43.91119
G01 X-37.23180 Y-43.93032
G01 X-36.49998 Y-43.99999
G01 X-4.45097 Y-43.99758
G01 X-3.76814 Y-43.93032
G01 X-3.67200 Y-43.91119
G01 X-2.96923 Y-43.69549
G01 X-2.31978 Y-43.35107
G01 X-2.23830 Y-43.29661
G01 X-1.67155 Y-42.82841
G01 X-1.17409 Y-42.22227
G01 X-0.82545 Y-41.57508
G01 X-0.78793 Y-41.48452
G01 X-0.57683 Y-40.78034
G01 X-0.49997 Y-40.00000

G04 P0 ( dwell for no time -- G64 should not smooth over this point )
G00 Z15.000000 ( retract )

M5 ( Spindle off. )
G04 P1.000000
M9 ( Coolant off. )
M2 ( Program end. )

