( pcb2gcode 2.5.0 )
( Software-independent Gcode )

G94 ( Millimeters per minute feed rate. )
G21 ( Units == Millimeters. )

G90 ( Absolute coordinates. )
G00 S13000 ( RPM spindle speed. )
G01 F120.00000 ( Feedrate. )


G00 Z15.00000 (Retract to tool change height)
T0
M5      (Spindle stop.)
G04 P1.00000 (Wait for spindle to stop)
(MSG, Change tool bit to mill diameter 0.45360mm)
M6      (Tool change.)
M0      (Temporary machine stop.)
M3 ( Spindle on clockwise. )
G04 P1.00000 (Wait for spindle to get up to speed)
G04 P0 ( dwell for no time -- G64 should not smooth over this point )
G00 Z2.00000 ( retract )

G00 X-1.83573 Y-6.29407 ( rapid move to begin. )
G01 F60.00000
( Mill infeed pass 1/1 )
G01 Z-0.10000
G04 P0 ( dwell for no time -- G64 should not smooth over this point )
G01 F120.00000
G01 X-1.83573 Y-6.29407
G01 X-1.65006 Y-6.14106
G01 X-1.55189 Y-6.07995
G01 X-1.30096 Y-5.95307
G01 X-1.00000 Y-5.84807
G01 X-1.00000 Y-4.99999
G01 X-1.57320 Y-4.99999
G01 X-1.00000 Y-4.99999
G01 X-1.07686 Y-4.21963
G01 X-1.30447 Y-3.46926
G01 X-1.67411 Y-2.77772
G01 X-2.17155 Y-2.17155
G01 X-2.77772 Y-1.67411
G01 X-3.46926 Y-1.30447
G01 X-4.21963 Y-1.07686
G01 X-4.99999 Y-1.00000
G01 X-5.83357 Y-1.00000
G01 X-6.01215 Y-1.40081
G01 X-6.06925 Y-1.51000
G01 X-6.01215 Y-1.40081
G01 X-5.94581 Y-1.25194
G01 X-5.47594 Y-1.15207
G01 X-5.40560 Y-1.14092
G01 X-5.33448 Y-1.13721
G01 X-4.66550 Y-1.13721
G01 X-4.59438 Y-1.14092
G01 X-4.52404 Y-1.15207
G01 X-3.86969 Y-1.29116
G01 X-3.80091 Y-1.30960
G01 X-3.73443 Y-1.33510
G01 X-3.12329 Y-1.60721
G01 X-3.05984 Y-1.63949
G01 X-3.00012 Y-1.67833
G01 X-2.45890 Y-2.07155
G01 X-2.40355 Y-2.11635
G01 X-2.35321 Y-2.16670
G01 X-1.90556 Y-2.66385
G01 X-1.86075 Y-2.71920
G01 X-1.82197 Y-2.77891
G01 X-1.48747 Y-3.35826
G01 X-1.45514 Y-3.42171
G01 X-1.42961 Y-3.48821
G01 X-1.22291 Y-4.12445
G01 X-1.20447 Y-4.19324
G01 X-1.19332 Y-4.26357
G01 X-1.12339 Y-4.92887
G01 X-1.11968 Y-4.99999
G01 X-1.12339 Y-5.07111
G01 X-1.19332 Y-5.73641
G01 X-1.20447 Y-5.80674
G01 X-1.24130 Y-5.93222
G01 X-1.31503 Y-5.95909
G01 X-1.55189 Y-6.07995
G01 X-1.52293 Y-6.06516
G01 X-1.42626 Y-5.75960
G01 X-1.34892 Y-5.04739
G01 X-1.34892 Y-4.95257
G01 X-1.42626 Y-4.24038
G01 X-1.64528 Y-3.55826
G01 X-1.68384 Y-3.47165
G01 X-2.04419 Y-2.85247
G01 X-2.55529 Y-2.28486
G01 X-3.17320 Y-1.83591
G01 X-3.82666 Y-1.54226
G01 X-3.91683 Y-1.51295
G01 X-4.57119 Y-1.37386
G01 X-4.66550 Y-1.36395
G01 X-5.38188 Y-1.36644
G01 X-6.06925 Y-1.51000
G01 X-6.09582 Y-1.56246
G01 X-6.22612 Y-1.76789
G01 X-6.28734 Y-1.84125
G01 X-6.71340 Y-2.03228
G01 X-7.27451 Y-2.43845
G01 X-7.30974 Y-2.47018
G01 X-7.75739 Y-2.96730
G01 X-7.78525 Y-3.00568
G01 X-8.13051 Y-3.60619
G01 X-8.35190 Y-4.28752
G01 X-8.42678 Y-4.99999
G01 X-8.35561 Y-5.68902
G01 X-8.34575 Y-5.73540
G01 X-8.13051 Y-6.39379
G01 X-7.78525 Y-6.99430
G01 X-7.75739 Y-7.03265
G01 X-7.29298 Y-7.54659
G01 X-6.71340 Y-7.96768
G01 X-6.08109 Y-8.25055
G01 X-6.03601 Y-8.26521
G01 X-5.35818 Y-8.40801
G01 X-4.66550 Y-8.40925
G01 X-4.61833 Y-8.40430
G01 X-3.94104 Y-8.25906
G01 X-3.30774 Y-7.97847
G01 X-3.26667 Y-7.95475
G01 X-2.70701 Y-7.54659
G01 X-2.24259 Y-7.03265
G01 X-2.21473 Y-6.99430
G01 X-1.86944 Y-6.39379
G01 X-1.65423 Y-5.73540
G01 X-1.64435 Y-5.68902
G01 X-1.57320 Y-4.99999
G01 X-1.64435 Y-4.31096
G01 X-1.65423 Y-4.26458
G01 X-1.86944 Y-3.60619
G01 X-2.21473 Y-3.00568
G01 X-2.24259 Y-2.96730
G01 X-2.70701 Y-2.45339
G01 X-3.26667 Y-2.04523
G01 X-3.30774 Y-2.02151
G01 X-3.94104 Y-1.74092
G01 X-4.61833 Y-1.59568
G01 X-4.66550 Y-1.59073
G01 X-5.33448 Y-1.59073
G01 X-5.38162 Y-1.59568
G01 X-6.05892 Y-1.74092
G01 X-6.69224 Y-2.02151
G04 P0 ( dwell for no time -- G64 should not smooth over this point )
G00 Z2.00000 ( retract )

G00 X-17.67677 Y-14.14922 ( rapid move to begin. )
G01 F60.00000
( Mill infeed pass 1/1 )
G01 Z-0.10000
G04 P0 ( dwell for no time -- G64 should not smooth over this point )
G01 F120.00000
G01 X-17.67677 Y-14.14922
G01 X-17.67677 Y-14.10282
G01 X-18.43568 Y-14.10282
G01 X-18.45478 Y-14.10487
G01 X-18.53225 Y-14.13375
G01 X-18.59514 Y-14.18085
G01 X-18.64223 Y-14.24374
G01 X-18.67111 Y-14.32121
G01 X-18.67317 Y-14.34033
G01 X-18.67317 Y-15.09921
G01 X-18.62679 Y-15.09921
G01 X-18.62679 Y-14.37602
G01 X-18.62244 Y-14.33177
G01 X-18.60951 Y-14.28923
G01 X-18.58856 Y-14.25003
G01 X-18.56036 Y-14.21567
G01 X-18.52600 Y-14.18745
G01 X-18.48678 Y-14.16649
G01 X-18.44424 Y-14.15359
G01 X-18.39999 Y-14.14922
G01 X-17.67677 Y-14.14922
G04 P0 ( dwell for no time -- G64 should not smooth over this point )
G00 Z2.00000 ( retract )

G00 X-15.72679 Y-15.09921 ( rapid move to begin. )
G01 F60.00000
( Mill infeed pass 1/1 )
G01 Z-0.10000
G04 P0 ( dwell for no time -- G64 should not smooth over this point )
G01 F120.00000
G01 X-15.72679 Y-15.09921
G01 X-15.72679 Y-14.34033
G01 X-15.72885 Y-14.32121
G01 X-15.75773 Y-14.24374
G01 X-15.80479 Y-14.18087
G01 X-15.86771 Y-14.13378
G01 X-15.94518 Y-14.10487
G01 X-15.96428 Y-14.10282
G01 X-16.72316 Y-14.10282
G01 X-16.72316 Y-14.14922
G01 X-15.99999 Y-14.14922
G01 X-15.95575 Y-14.15359
G01 X-15.91320 Y-14.16649
G01 X-15.87398 Y-14.18745
G01 X-15.83962 Y-14.21567
G01 X-15.81140 Y-14.25003
G01 X-15.79044 Y-14.28923
G01 X-15.77754 Y-14.33177
G01 X-15.77320 Y-14.37602
G01 X-15.77320 Y-15.09921
G01 X-15.72679 Y-15.09921
G04 P0 ( dwell for no time -- G64 should not smooth over this point )
G00 Z2.00000 ( retract )

G00 X-15.72679 Y-16.81170 ( rapid move to begin. )
G01 F60.00000
( Mill infeed pass 1/1 )
G01 Z-0.10000
G04 P0 ( dwell for no time -- G64 should not smooth over this point )
G01 F120.00000
G01 X-15.72679 Y-16.81170
G01 X-15.72679 Y-16.05283
G01 X-15.77320 Y-16.05283
G01 X-15.77320 Y-16.77604
G01 X-15.77754 Y-16.82029
G01 X-15.79044 Y-16.86283
G01 X-15.81140 Y-16.90202
G01 X-15.83962 Y-16.93639
G01 X-15.87398 Y-16.96461
G01 X-15.91320 Y-16.98556
G01 X-15.95575 Y-16.99847
G01 X-15.99999 Y-17.00284
G01 X-16.72316 Y-17.00284
G01 X-16.72316 Y-17.04922
G01 X-15.94521 Y-17.04716
G01 X-15.86768 Y-17.01825
G01 X-15.80479 Y-16.97116
G01 X-15.75773 Y-16.90830
G01 X-15.72885 Y-16.83083
G01 X-15.72679 Y-16.81170
G04 P0 ( dwell for no time -- G64 should not smooth over this point )
G00 Z2.00000 ( retract )

G00 X-17.67677 Y-17.04922 ( rapid move to begin. )
G01 F60.00000
( Mill infeed pass 1/1 )
G01 Z-0.10000
G04 P0 ( dwell for no time -- G64 should not smooth over this point )
G01 F120.00000
G01 X-17.67677 Y-17.04922
G01 X-17.67677 Y-17.00284
G01 X-18.39999 Y-17.00284
G01 X-18.44424 Y-16.99847
G01 X-18.48678 Y-16.98556
G01 X-18.52600 Y-16.96461
G01 X-18.56036 Y-16.93639
G01 X-18.58856 Y-16.90202
G01 X-18.60951 Y-16.86283
G01 X-18.62244 Y-16.82029
G01 X-18.62679 Y-16.77604
G01 X-18.62679 Y-16.05283
G01 X-18.67317 Y-16.05283
G01 X-18.67317 Y-16.81170
G01 X-18.67111 Y-16.83083
G01 X-18.64223 Y-16.90830
G01 X-18.59514 Y-16.97116
G01 X-18.53225 Y-17.01825
G01 X-18.45475 Y-17.04716
G01 X-18.43565 Y-17.04922
G01 X-17.67677 Y-17.04922
G04 P0 ( dwell for no time -- G64 should not smooth over this point )
G00 Z2.00000 ( retract )

G00 X-18.48648 Y-21.18820 ( rapid move to begin. )
G01 F60.00000
( Mill infeed pass 1/1 )
G01 Z-0.10000
G04 P0 ( dwell for no time -- G64 should not smooth over this point )
G01 F120.00000
G01 X-18.48648 Y-21.18820
G01 X-18.52524 Y-21.22698
G01 X-18.61167 Y-21.01146
G01 X-18.66080 Y-20.79620
G01 X-18.67731 Y-20.57603
G01 X-18.66080 Y-20.35584
G01 X-18.61167 Y-20.14057
G01 X-18.52524 Y-19.92506
G01 X-18.48648 Y-19.96382
G01 X-18.51195 Y-20.01787
G01 X-18.59562 Y-20.27939
G01 X-18.62679 Y-20.57603
G01 X-18.59562 Y-20.87268
G01 X-18.51195 Y-21.13420
G01 X-18.48648 Y-21.18820
G04 P0 ( dwell for no time -- G64 should not smooth over this point )
G00 Z2.00000 ( retract )

G00 X-16.55145 Y-21.89884 ( rapid move to begin. )
G01 F60.00000
( Mill infeed pass 1/1 )
G01 Z-0.10000
G04 P0 ( dwell for no time -- G64 should not smooth over this point )
G01 F120.00000
G01 X-16.55145 Y-21.89884
G01 X-16.66024 Y-21.95121
G01 X-16.87124 Y-22.01631
G01 X-17.08958 Y-22.04921
G01 X-17.31035 Y-22.04921
G01 X-17.52872 Y-22.01631
G01 X-17.73969 Y-21.95121
G01 X-17.84850 Y-21.89884
G01 X-17.80911 Y-21.85944
G01 X-17.64088 Y-21.93300
G01 X-17.37258 Y-21.99129
G01 X-17.32542 Y-21.99625
G01 X-17.07457 Y-21.99625
G01 X-17.02740 Y-21.99129
G01 X-16.75907 Y-21.93300
G01 X-16.59085 Y-21.85944
G01 X-16.55145 Y-21.89884
G04 P0 ( dwell for no time -- G64 should not smooth over this point )
G00 Z2.00000 ( retract )

G00 X-15.72265 Y-20.57603 ( rapid move to begin. )
G01 F60.00000
( Mill infeed pass 1/1 )
G01 Z-0.10000
G04 P0 ( dwell for no time -- G64 should not smooth over this point )
G01 F120.00000
G01 X-15.72265 Y-20.57603
G01 X-15.73916 Y-20.35584
G01 X-15.78828 Y-20.14057
G01 X-15.87472 Y-19.92503
G01 X-15.91351 Y-19.96384
G01 X-15.88803 Y-20.01787
G01 X-15.80436 Y-20.27939
G01 X-15.77320 Y-20.57603
G01 X-15.80436 Y-20.87268
G01 X-15.88803 Y-21.13420
G01 X-15.91348 Y-21.18820
G01 X-15.87470 Y-21.22698
G01 X-15.78828 Y-21.01144
G01 X-15.73916 Y-20.79620
G01 X-15.72265 Y-20.57603
G04 P0 ( dwell for no time -- G64 should not smooth over this point )
G00 Z2.00000 ( retract )

G00 X-16.55145 Y-19.25320 ( rapid move to begin. )
G01 F60.00000
( Mill infeed pass 1/1 )
G01 Z-0.10000
G04 P0 ( dwell for no time -- G64 should not smooth over this point )
G01 F120.00000
G01 X-16.55145 Y-19.25320
G01 X-16.66024 Y-19.20083
G01 X-16.87124 Y-19.13573
G01 X-17.08958 Y-19.10283
G01 X-17.31038 Y-19.10283
G01 X-17.52872 Y-19.13573
G01 X-17.73969 Y-19.20083
G01 X-17.84848 Y-19.25320
G01 X-17.80911 Y-19.29260
G01 X-17.64088 Y-19.21906
G01 X-17.37258 Y-19.16077
G01 X-17.32542 Y-19.15579
G01 X-17.07457 Y-19.15579
G01 X-17.02740 Y-19.16077
G01 X-16.75907 Y-19.21906
G01 X-16.59085 Y-19.29260
G01 X-16.55145 Y-19.25320
G04 P0 ( dwell for no time -- G64 should not smooth over this point )
G00 Z2.00000 ( retract )

G00 X-7.34179 Y-14.63932 ( rapid move to begin. )
G01 F60.00000
( Mill infeed pass 1/1 )
G01 Z-0.10000
G04 P0 ( dwell for no time -- G64 should not smooth over this point )
G01 F120.00000
G01 X-7.34179 Y-14.63932
G01 X-7.40199 Y-14.66665
G01 X-7.42330 Y-14.68039
G01 X-7.58551 Y-14.79977
G01 X-7.73613 Y-14.96705
G01 X-7.82770 Y-15.12316
G01 X-7.88195 Y-15.12316
G01 X-7.84141 Y-15.03622
G01 X-7.72866 Y-14.87523
G01 X-7.58972 Y-14.73627
G01 X-7.42871 Y-14.62354
G01 X-7.34179 Y-14.58300
G01 X-7.34179 Y-14.63932
G04 P0 ( dwell for no time -- G64 should not smooth over this point )
G00 Z2.00000 ( retract )

G00 X-7.34179 Y-16.61693 ( rapid move to begin. )
G01 F60.00000
( Mill infeed pass 1/1 )
G01 Z-0.10000
G04 P0 ( dwell for no time -- G64 should not smooth over this point )
G01 F120.00000
G01 X-7.34179 Y-16.61693
G01 X-7.42871 Y-16.57640
G01 X-7.58972 Y-16.46367
G01 X-7.72866 Y-16.32471
G01 X-7.84141 Y-16.16372
G01 X-7.88195 Y-16.07678
G01 X-7.82772 Y-16.07678
G01 X-7.73613 Y-16.23291
G01 X-7.58551 Y-16.40020
G01 X-7.42330 Y-16.51960
G01 X-7.40199 Y-16.53332
G01 X-7.34179 Y-16.56065
G01 X-7.34179 Y-16.61693
G04 P0 ( dwell for no time -- G64 should not smooth over this point )
G00 Z2.00000 ( retract )

G00 X-4.80179 Y-14.52319 ( rapid move to begin. )
G01 F60.00000
( Mill infeed pass 1/1 )
G01 Z-0.10000
G04 P0 ( dwell for no time -- G64 should not smooth over this point )
G01 F120.00000
G01 X-4.80179 Y-14.52319
G01 X-5.17500 Y-14.52319
G01 X-5.21924 Y-14.52756
G01 X-5.26179 Y-14.54046
G01 X-5.30098 Y-14.56141
G01 X-5.33537 Y-14.58961
G01 X-5.36357 Y-14.62397
G01 X-5.38452 Y-14.66319
G01 X-5.39742 Y-14.70574
G01 X-5.40179 Y-14.74998
G01 X-5.40179 Y-15.12316
G01 X-5.90227 Y-15.12316
G01 X-5.99384 Y-14.96705
G01 X-6.14446 Y-14.79977
G01 X-6.30667 Y-14.68039
G01 X-6.32798 Y-14.66665
G01 X-6.38815 Y-14.63932
G01 X-6.38815 Y-14.58300
G01 X-6.30123 Y-14.62354
G01 X-6.14025 Y-14.73627
G01 X-6.00735 Y-14.86588
G01 X-5.91881 Y-14.91686
G01 X-5.87919 Y-14.93383
G01 X-5.83707 Y-14.94297
G01 X-5.79397 Y-14.94401
G01 X-5.72427 Y-14.93904
G01 X-5.68173 Y-14.93187
G01 X-5.64131 Y-14.91681
G01 X-5.60448 Y-14.89436
G01 X-5.52412 Y-14.83129
G01 X-5.50296 Y-14.80685
G01 X-5.46857 Y-14.74871
G01 X-5.41721 Y-14.61770
G01 X-5.37012 Y-14.55481
G01 X-5.30725 Y-14.50772
G01 X-5.22978 Y-14.47884
G01 X-5.21066 Y-14.47678
G01 X-4.80179 Y-14.47678
G01 X-4.80179 Y-14.52319
G04 P0 ( dwell for no time -- G64 should not smooth over this point )
G00 Z2.00000 ( retract )

G00 X-3.20177 Y-15.12316 ( rapid move to begin. )
G01 F60.00000
( Mill infeed pass 1/1 )
G01 Z-0.10000
G04 P0 ( dwell for no time -- G64 should not smooth over this point )
G01 F120.00000
G01 X-3.20177 Y-15.12316
G01 X-3.24818 Y-15.12316
G01 X-3.24818 Y-14.74998
G01 X-3.25255 Y-14.70574
G01 X-3.26545 Y-14.66319
G01 X-3.28640 Y-14.62397
G01 X-3.31462 Y-14.58961
G01 X-3.34899 Y-14.56141
G01 X-3.38818 Y-14.54046
G01 X-3.43075 Y-14.52756
G01 X-3.47500 Y-14.52319
G01 X-3.84818 Y-14.52319
G01 X-3.84818 Y-14.47678
G01 X-3.42016 Y-14.47884
G01 X-3.34269 Y-14.50772
G01 X-3.27977 Y-14.55481
G01 X-3.23273 Y-14.61770
G01 X-3.20383 Y-14.69520
G01 X-3.20177 Y-15.12316
G04 P0 ( dwell for no time -- G64 should not smooth over this point )
G00 Z2.00000 ( retract )

G00 X-4.80179 Y-16.72316 ( rapid move to begin. )
G01 F60.00000
( Mill infeed pass 1/1 )
G01 Z-0.10000
G04 P0 ( dwell for no time -- G64 should not smooth over this point )
G01 F120.00000
G01 X-4.80179 Y-16.72316
G01 X-5.21066 Y-16.72316
G01 X-5.22978 Y-16.72110
G01 X-5.30725 Y-16.69222
G01 X-5.37014 Y-16.64515
G01 X-5.41721 Y-16.58226
G01 X-5.46852 Y-16.45133
G01 X-5.52785 Y-16.36819
G01 X-5.55686 Y-16.33624
G01 X-5.59140 Y-16.31038
G01 X-5.63024 Y-16.29153
G01 X-5.73735 Y-16.25597
G01 X-5.78035 Y-16.25290
G01 X-5.82315 Y-16.25803
G01 X-5.89143 Y-16.27289
G01 X-5.95196 Y-16.29547
G01 X-6.03181 Y-16.35529
G01 X-6.14022 Y-16.46367
G01 X-6.30123 Y-16.57640
G01 X-6.38815 Y-16.61696
G01 X-6.38815 Y-16.56065
G01 X-6.32798 Y-16.53332
G01 X-6.30667 Y-16.51960
G01 X-6.14446 Y-16.40020
G01 X-5.99384 Y-16.23291
G01 X-5.90225 Y-16.07678
G01 X-5.40179 Y-16.07678
G01 X-5.40179 Y-16.44998
G01 X-5.39742 Y-16.49423
G01 X-5.38452 Y-16.53677
G01 X-5.36357 Y-16.57599
G01 X-5.33537 Y-16.61036
G01 X-5.30098 Y-16.63857
G01 X-5.26179 Y-16.65953
G01 X-5.21924 Y-16.67243
G01 X-5.17500 Y-16.67678
G01 X-4.80179 Y-16.67678
G01 X-4.80179 Y-16.72316
G04 P0 ( dwell for no time -- G64 should not smooth over this point )
G00 Z2.00000 ( retract )

G00 X-7.34179 Y-24.33932 ( rapid move to begin. )
G01 F60.00000
( Mill infeed pass 1/1 )
G01 Z-0.10000
G04 P0 ( dwell for no time -- G64 should not smooth over this point )
G01 F120.00000
G01 X-7.34179 Y-24.33932
G01 X-7.40199 Y-24.36665
G01 X-7.42330 Y-24.38039
G01 X-7.58551 Y-24.49977
G01 X-7.73613 Y-24.66706
G01 X-7.82770 Y-24.82317
G01 X-7.88195 Y-24.82317
G01 X-7.84141 Y-24.73622
G01 X-7.72866 Y-24.57524
G01 X-7.58972 Y-24.43627
G01 X-7.42871 Y-24.32355
G01 X-7.34179 Y-24.28301
G01 X-7.34179 Y-24.33932
G04 P0 ( dwell for no time -- G64 should not smooth over this point )
G00 Z2.00000 ( retract )

G00 X-7.34179 Y-26.31694 ( rapid move to begin. )
G01 F60.00000
( Mill infeed pass 1/1 )
G01 Z-0.10000
G04 P0 ( dwell for no time -- G64 should not smooth over this point )
G01 F120.00000
G01 X-7.34179 Y-26.31694
G01 X-7.42871 Y-26.27640
G01 X-7.58972 Y-26.16365
G01 X-7.72866 Y-26.02469
G01 X-7.84141 Y-25.86373
G01 X-7.88195 Y-25.77678
G01 X-7.82772 Y-25.77678
G01 X-7.73613 Y-25.93289
G01 X-7.58551 Y-26.10018
G01 X-7.42330 Y-26.21958
G01 X-7.40199 Y-26.23332
G01 X-7.34179 Y-26.26065
G01 X-7.34179 Y-26.31694
G04 P0 ( dwell for no time -- G64 should not smooth over this point )
G00 Z2.00000 ( retract )

G00 X-4.80179 Y-24.22319 ( rapid move to begin. )
G01 F60.00000
( Mill infeed pass 1/1 )
G01 Z-0.10000
G04 P0 ( dwell for no time -- G64 should not smooth over this point )
G01 F120.00000
G01 X-4.80179 Y-24.22319
G01 X-5.17500 Y-24.22319
G01 X-5.21924 Y-24.22754
G01 X-5.26179 Y-24.24044
G01 X-5.30098 Y-24.26142
G01 X-5.33537 Y-24.28961
G01 X-5.36357 Y-24.32398
G01 X-5.38452 Y-24.36320
G01 X-5.39742 Y-24.40574
G01 X-5.40179 Y-24.44999
G01 X-5.40179 Y-24.82317
G01 X-5.90227 Y-24.82317
G01 X-5.99384 Y-24.66706
G01 X-6.14446 Y-24.49977
G01 X-6.30667 Y-24.38039
G01 X-6.32798 Y-24.36665
G01 X-6.38815 Y-24.33932
G01 X-6.38815 Y-24.28298
G01 X-6.30123 Y-24.32355
G01 X-6.14025 Y-24.43627
G01 X-6.00735 Y-24.56589
G01 X-5.91881 Y-24.61687
G01 X-5.87919 Y-24.63383
G01 X-5.83707 Y-24.64298
G01 X-5.79397 Y-24.64402
G01 X-5.72427 Y-24.63904
G01 X-5.68173 Y-24.63188
G01 X-5.64131 Y-24.61682
G01 X-5.60448 Y-24.59436
G01 X-5.52412 Y-24.53129
G01 X-5.50296 Y-24.50686
G01 X-5.46857 Y-24.44872
G01 X-5.41721 Y-24.31771
G01 X-5.37012 Y-24.25479
G01 X-5.30725 Y-24.20772
G01 X-5.22978 Y-24.17884
G01 X-5.21066 Y-24.17679
G01 X-4.80179 Y-24.17679
G01 X-4.80179 Y-24.22319
G04 P0 ( dwell for no time -- G64 should not smooth over this point )
G00 Z2.00000 ( retract )

G00 X-4.80179 Y-26.42314 ( rapid move to begin. )
G01 F60.00000
( Mill infeed pass 1/1 )
G01 Z-0.10000
G04 P0 ( dwell for no time -- G64 should not smooth over this point )
G01 F120.00000
G01 X-4.80179 Y-26.42314
G01 X-5.21066 Y-26.42314
G01 X-5.22978 Y-26.42108
G01 X-5.30725 Y-26.39223
G01 X-5.37012 Y-26.34516
G01 X-5.41721 Y-26.28224
G01 X-5.46854 Y-26.15128
G01 X-5.52788 Y-26.06815
G01 X-5.55688 Y-26.03622
G01 X-5.59143 Y-26.01036
G01 X-5.63024 Y-25.99152
G01 X-5.69572 Y-25.96711
G01 X-5.73735 Y-25.95598
G01 X-5.78035 Y-25.95291
G01 X-5.82315 Y-25.95804
G01 X-5.89143 Y-25.97290
G01 X-5.95188 Y-25.99543
G01 X-6.03184 Y-26.05527
G01 X-6.14022 Y-26.16365
G01 X-6.30123 Y-26.27640
G01 X-6.38815 Y-26.31694
G01 X-6.38815 Y-26.26065
G01 X-6.32798 Y-26.23332
G01 X-6.30667 Y-26.21958
G01 X-6.14446 Y-26.10018
G01 X-5.99384 Y-25.93289
G01 X-5.90225 Y-25.77678
G01 X-5.40179 Y-25.77678
G01 X-5.40179 Y-26.14999
G01 X-5.39742 Y-26.19423
G01 X-5.38452 Y-26.23678
G01 X-5.36357 Y-26.27600
G01 X-5.33537 Y-26.31036
G01 X-5.30098 Y-26.33856
G01 X-5.26179 Y-26.35954
G01 X-5.21924 Y-26.37241
G01 X-5.17500 Y-26.37678
G01 X-4.80179 Y-26.37678
G01 X-4.80179 Y-26.42314
G04 P0 ( dwell for no time -- G64 should not smooth over this point )
G00 Z2.00000 ( retract )

G00 X-4.80179 Y-33.92320 ( rapid move to begin. )
G01 F60.00000
( Mill infeed pass 1/1 )
G01 Z-0.10000
G04 P0 ( dwell for no time -- G64 should not smooth over this point )
G01 F120.00000
G01 X-4.80179 Y-33.92320
G01 X-4.80179 Y-33.87679
G01 X-5.21066 Y-33.87679
G01 X-5.22978 Y-33.87885
G01 X-5.30725 Y-33.90773
G01 X-5.37014 Y-33.95480
G01 X-5.41721 Y-34.01769
G01 X-5.46852 Y-34.14862
G01 X-5.50294 Y-34.20684
G01 X-5.52412 Y-34.23128
G01 X-5.60448 Y-34.29437
G01 X-5.64131 Y-34.31682
G01 X-5.68173 Y-34.33188
G01 X-5.72427 Y-34.33905
G01 X-5.79397 Y-34.34403
G01 X-5.83710 Y-34.34298
G01 X-5.87924 Y-34.33382
G01 X-5.91889 Y-34.31682
G01 X-6.00738 Y-34.26584
G01 X-6.14025 Y-34.13628
G01 X-6.30123 Y-34.02355
G01 X-6.38815 Y-33.98299
G01 X-6.38815 Y-34.03933
G01 X-6.32798 Y-34.06666
G01 X-6.30667 Y-34.08037
G01 X-6.14446 Y-34.19978
G01 X-5.99384 Y-34.36706
G01 X-5.90227 Y-34.52317
G01 X-5.40179 Y-34.52317
G01 X-5.40179 Y-34.15000
G01 X-5.39742 Y-34.10575
G01 X-5.38452 Y-34.06320
G01 X-5.36357 Y-34.02399
G01 X-5.33537 Y-33.98962
G01 X-5.30098 Y-33.96140
G01 X-5.26179 Y-33.94045
G01 X-5.21924 Y-33.92754
G01 X-5.17500 Y-33.92320
G01 X-4.80179 Y-33.92320
G04 P0 ( dwell for no time -- G64 should not smooth over this point )
G00 Z2.00000 ( retract )

G00 X-1.27317 Y-39.10000 ( rapid move to begin. )
G01 F60.00000
( Mill infeed pass 1/1 )
G01 Z-0.10000
G04 P0 ( dwell for no time -- G64 should not smooth over this point )
G01 F120.00000
G01 X-1.27317 Y-39.10000
G01 X-1.04643 Y-39.10000
G01 X-1.04643 Y-17.92498
G01 X-1.05181 Y-17.83867
G01 X-1.04691 Y-17.77599
G01 X-1.04691 Y-6.79938
G01 X-1.05153 Y-6.73481
G01 X-1.06528 Y-6.67156
G01 X-1.08496 Y-6.60453
G01 X-1.11702 Y-6.52450
G01 X-1.16360 Y-6.45198
G01 X-1.22309 Y-6.38957
G01 X-1.27589 Y-6.34383
G01 X-1.34617 Y-6.29379
G01 X-1.41260 Y-6.26344
G01 X-1.51168 Y-6.32155
G01 X-1.67162 Y-6.45279
G01 X-1.51168 Y-6.32155
G01 X-1.44452 Y-6.27972
G01 X-1.21882 Y-6.16458
G01 X-1.16495 Y-6.14573
G01 X-1.12738 Y-6.17248
G01 X-1.07457 Y-6.21825
G01 X-1.00000 Y-6.29648
G01 X-1.07457 Y-6.21825
G01 X-1.12738 Y-6.17248
G01 X-1.16495 Y-6.14573
G01 X-1.00000 Y-6.08802
G01 X-1.00000 Y-39.72418
G01 X-1.07815 Y-39.83571
G01 X-1.16538 Y-39.93459
G01 X-5.46763 Y-44.23684
G01 X-5.54116 Y-44.27184
G01 X-5.37787 Y-44.19430
G01 X-4.70888 Y-43.91718
G01 X-4.45145 Y-43.82625
G01 X-3.71607 Y-43.60827
G01 X-3.50611 Y-43.55805
G01 X-1.00000 Y-41.05194
G01 X-1.00000 Y-40.73126
G01 X-3.94472 Y-43.67599
G01 X-4.40035 Y-43.81096
G01 X-1.00000 Y-40.41056
G01 X-1.00000 Y-40.08948
G01 X-4.91101 Y-44.00093
G01 X-5.37787 Y-44.19430
G01 X-5.54116 Y-44.27184
G01 X-6.15973 Y-44.60751
G01 X-1.32573 Y-39.77424
G01 X-1.25059 Y-39.68844
G01 X-1.20876 Y-39.63086
G01 X-1.16776 Y-39.56395
G01 X-1.13546 Y-39.50056
G01 X-1.10543 Y-39.42806
G01 X-1.08344 Y-39.36037
G01 X-1.06512 Y-39.28407
G01 X-1.05397 Y-39.21379
G01 X-1.04643 Y-39.10000
G01 X-1.00000 Y-39.72418
G01 X-1.00000 Y-41.37261
G01 X-3.09951 Y-43.47213
G01 X-3.30373 Y-43.51000
G01 X-2.70586 Y-43.39918
G01 X-1.00000 Y-41.69331
G01 X-1.00000 Y-42.01399
G01 X-2.32440 Y-43.33845
G01 X-1.95600 Y-43.29072
G01 X-1.00000 Y-42.33466
G01 X-1.00000 Y-41.37261
G01 X-1.00000 Y-42.65536
G01 X-1.60254 Y-43.25795
G01 X-1.25451 Y-43.23055
G01 X-1.00000 Y-42.97604
G01 X-1.00000 Y-42.65536
G01 X-1.00000 Y-43.21053
G01 X-1.85570 Y-43.27787
G01 X-2.49949 Y-43.36110
G01 X-3.30934 Y-43.51119
G01 X-3.71607 Y-43.60827
G01 X-4.45145 Y-43.82625
G01 X-4.70888 Y-43.91718
G01 X-5.37787 Y-44.19430
G01 X-5.54116 Y-44.27184
G01 X-6.15973 Y-44.60751
G01 X-6.26527 Y-44.67189
G01 X-6.83600 Y-45.06377
G01 X-6.90349 Y-45.11591
G01 X-7.42305 Y-45.55922
G01 X-7.47944 Y-45.61340
G01 X-7.94007 Y-46.09882
G01 X-7.99401 Y-46.16122
G01 X-8.40824 Y-46.70135
G01 X-8.46988 Y-46.79109
G01 X-8.58543 Y-46.81385
G01 X-8.73663 Y-46.86450
G01 X-9.18604 Y-47.31390
G01 X-9.27829 Y-47.39102
G01 X-9.31527 Y-47.41573
G01 X-9.42183 Y-47.47146
G01 X-9.55817 Y-47.51281
G01 X-9.69998 Y-47.52678
G01 X-19.45325 Y-47.52678
G01 X-19.47319 Y-47.54707
G01 X-19.45325 Y-47.52678
G01 X-19.47319 Y-47.52678
G01 X-19.47319 Y-48.29998
G01 X-19.47753 Y-48.34423
G01 X-19.49046 Y-48.38677
G01 X-19.51142 Y-48.42599
G01 X-19.53961 Y-48.46036
G01 X-19.57398 Y-48.48857
G01 X-19.61319 Y-48.50953
G01 X-19.65574 Y-48.52243
G01 X-19.69999 Y-48.52678
G01 X-22.69998 Y-48.52678
G01 X-22.74423 Y-48.52243
G01 X-22.78677 Y-48.50953
G01 X-22.82599 Y-48.48857
G01 X-22.86036 Y-48.46036
G01 X-22.88857 Y-48.42599
G01 X-22.90953 Y-48.38677
G01 X-22.92243 Y-48.34423
G01 X-22.92678 Y-48.29998
G01 X-22.92678 Y-45.29999
G01 X-22.92243 Y-45.25574
G01 X-22.90953 Y-45.21319
G01 X-22.88857 Y-45.17398
G01 X-22.86036 Y-45.13961
G01 X-22.82599 Y-45.11142
G01 X-22.78677 Y-45.09046
G01 X-22.74423 Y-45.07756
G01 X-22.69998 Y-45.07319
G01 X-19.69999 Y-45.07319
G01 X-19.65574 Y-45.07756
G01 X-19.61319 Y-45.09046
G01 X-19.57398 Y-45.11142
G01 X-19.53961 Y-45.13961
G01 X-19.51142 Y-45.17398
G01 X-19.49046 Y-45.21319
G01 X-19.47753 Y-45.25574
G01 X-19.47319 Y-45.29999
G01 X-19.47319 Y-46.05322
G01 X-19.45287 Y-46.07316
G01 X-19.47319 Y-46.05322
G01 X-19.47319 Y-46.07316
G01 X-10.00102 Y-46.07316
G01 X-2.72679 Y-38.79893
G01 X-2.72679 Y-35.98118
G01 X-2.75105 Y-35.93097
G01 X-2.87411 Y-35.74082
G01 X-2.87411 Y-34.26308
G01 X-2.72679 Y-34.02020
G01 X-2.72679 Y-35.98118
G01 X-2.72679 Y-26.28118
G01 X-2.75105 Y-26.23096
G01 X-2.87411 Y-26.04082
G01 X-2.87411 Y-24.56307
G01 X-2.72679 Y-24.32022
G01 X-2.72679 Y-26.28118
G01 X-2.72679 Y-18.22602
G01 X-2.82603 Y-18.12679
G01 X-19.64654 Y-18.12679
G01 X-19.67316 Y-18.15353
G01 X-19.64654 Y-18.12679
G01 X-19.67316 Y-18.12679
G01 X-19.67316 Y-19.77522
G01 X-19.67852 Y-19.82414
G01 X-19.70131 Y-19.91258
G01 X-19.71845 Y-19.94644
G01 X-19.78708 Y-20.02950
G01 X-19.81848 Y-20.05907
G01 X-19.85488 Y-20.08215
G01 X-19.89501 Y-20.09793
G01 X-19.96216 Y-20.11721
G01 X-20.02612 Y-20.12599
G01 X-36.07811 Y-20.02752
G01 X-36.12561 Y-20.02221
G01 X-36.21220 Y-19.99991
G01 X-36.24572 Y-19.98307
G01 X-36.32883 Y-19.91515
G01 X-36.35858 Y-19.88396
G01 X-36.38187 Y-19.84769
G01 X-36.39790 Y-19.80766
G01 X-36.42446 Y-19.70900
G01 X-36.42677 Y-18.65340
G01 X-36.45355 Y-18.62679
G01 X-36.42677 Y-18.65340
G01 X-36.42677 Y-18.62679
G01 X-37.54369 Y-18.62679
G01 X-37.58075 Y-18.62374
G01 X-37.65377 Y-18.60906
G01 X-37.68522 Y-18.59615
G01 X-37.77148 Y-18.53844
G01 X-37.80419 Y-18.51035
G01 X-37.83970 Y-18.45993
G01 X-37.95824 Y-18.40128
G01 X-37.97490 Y-18.39460
G01 X-38.01029 Y-18.38952
G01 X-38.00963 Y-18.37550
G01 X-38.01029 Y-18.38952
G01 X-38.04552 Y-18.39572
G01 X-38.23393 Y-18.45749
G01 X-38.04552 Y-18.39572
G01 X-38.01029 Y-18.38952
G01 X-37.97490 Y-18.39460
G01 X-37.95824 Y-18.40128
G01 X-37.83970 Y-18.45993
G01 X-37.87722 Y-18.37360
G01 X-37.88954 Y-18.33232
G01 X-37.89385 Y-18.28945
G01 X-37.88997 Y-18.24652
G01 X-37.86886 Y-18.14655
G01 X-37.80539 Y-18.01696
G01 X-37.75321 Y-17.85628
G01 X-37.72677 Y-17.68178
G01 X-37.78001 Y-17.68178
G01 X-37.79563 Y-17.81848
G01 X-37.85344 Y-18.00047
G01 X-37.87275 Y-18.04378
G01 X-37.95636 Y-18.18861
G01 X-37.98423 Y-18.22696
G01 X-38.11293 Y-18.36806
G01 X-38.26667 Y-18.48129
G01 X-38.30775 Y-18.50499
G01 X-38.46053 Y-18.57301
G01 X-38.50561 Y-18.58767
G01 X-38.66921 Y-18.62244
G01 X-38.71636 Y-18.62739
G01 X-38.90731 Y-18.62615
G01 X-39.09436 Y-18.58767
G01 X-39.13944 Y-18.57301
G01 X-39.29223 Y-18.50499
G01 X-39.36604 Y-18.45749
G01 X-39.52497 Y-18.40588
G01 X-39.60373 Y-18.37553
G01 X-39.76553 Y-18.30349
G01 X-39.87000 Y-18.25003
G01 X-39.92362 Y-18.15716
G01 X-39.95659 Y-18.08508
G01 X-39.92362 Y-18.15716
G01 X-39.87000 Y-18.25003
G01 X-39.95659 Y-18.20001
G01 X-39.95659 Y-16.75663
G01 X-39.96505 Y-16.71371
G01 X-39.95069 Y-16.70825
G01 X-39.96505 Y-16.71371
G01 X-39.98910 Y-16.67716
G01 X-40.07579 Y-16.58897
G01 X-40.15801 Y-16.49466
G01 X-40.07579 Y-16.58897
G01 X-39.98910 Y-16.67716
G01 X-39.97528 Y-16.69428
G01 X-39.95872 Y-16.73476
G01 X-39.95659 Y-18.08508
G01 X-39.94516 Y-18.11485
G01 X-39.87000 Y-18.25003
G01 X-39.76553 Y-18.30349
G01 X-39.60373 Y-18.37553
G01 X-39.52497 Y-18.40588
G01 X-39.36604 Y-18.45749
G01 X-39.48704 Y-18.36806
G01 X-39.63068 Y-18.20852
G01 X-39.73802 Y-18.02262
G01 X-39.79819 Y-17.84139
G01 X-39.80807 Y-17.79501
G01 X-39.82679 Y-17.60499
G01 X-39.82679 Y-16.80500
G01 X-39.80434 Y-16.59151
G01 X-39.74653 Y-16.40952
G01 X-39.72723 Y-16.36621
G01 X-39.63068 Y-16.20144
G01 X-39.50383 Y-16.05872
G01 X-39.46860 Y-16.02699
G01 X-39.33330 Y-15.92867
G01 X-39.27678 Y-15.89809
G01 X-39.27678 Y-15.84343
G01 X-39.36246 Y-15.88709
G01 X-39.49913 Y-15.98638
G01 X-39.61856 Y-16.10584
G01 X-39.71788 Y-16.24251
G01 X-39.77109 Y-16.34327
G01 X-39.82684 Y-16.41015
G01 X-39.85550 Y-16.43789
G01 X-39.88857 Y-16.46017
G01 X-39.92504 Y-16.47629
G01 X-40.03314 Y-16.50886
G01 X-40.07627 Y-16.51069
G01 X-40.11894 Y-16.50434
G01 X-40.22740 Y-16.47325
G01 X-40.26461 Y-16.45153
G01 X-40.34500 Y-16.37238
G01 X-40.38224 Y-16.31960
G01 X-40.42174 Y-16.24211
G01 X-40.50345 Y-16.12930
G01 X-40.52339 Y-16.09618
G01 X-40.55709 Y-15.99311
G01 X-40.56629 Y-15.92923
G01 X-40.56629 Y-14.50576
G01 X-40.56212 Y-14.45506
G01 X-40.55306 Y-14.41160
G01 X-40.53571 Y-14.37076
G01 X-40.48473 Y-14.28217
G01 X-36.55901 Y-10.35319
G01 X-36.47432 Y-10.22645
G01 X-36.41601 Y-10.08565
G01 X-36.38626 Y-9.93610
G01 X-36.38443 Y-6.93288
G01 X-36.38177 Y-6.89841
G01 X-36.37389 Y-6.86473
G01 X-36.36101 Y-6.83265
G01 X-36.31374 Y-6.74210
G01 X-36.23059 Y-6.64832
G01 X-36.12418 Y-6.48548
G01 X-36.04608 Y-6.30738
G01 X-35.99830 Y-6.11881
G01 X-35.98225 Y-5.92498
G01 X-35.99830 Y-5.73113
G01 X-36.04608 Y-5.54258
G01 X-36.12418 Y-5.36445
G01 X-36.23059 Y-5.20162
G01 X-36.36234 Y-5.05849
G01 X-36.51580 Y-4.93903
G01 X-36.68690 Y-4.84645
G01 X-36.87087 Y-4.78328
G01 X-37.06271 Y-4.75127
G01 X-37.25723 Y-4.75127
G01 X-37.44910 Y-4.78328
G01 X-37.63305 Y-4.84642
G01 X-37.80414 Y-4.93903
G01 X-37.95761 Y-5.05849
G01 X-38.08936 Y-5.20162
G01 X-38.15504 Y-5.29836
G01 X-38.19942 Y-5.34617
G01 X-38.25263 Y-5.38074
G01 X-38.31595 Y-5.41023
G01 X-38.35659 Y-5.42463
G01 X-38.39230 Y-5.43004
G01 X-38.51138 Y-5.53438
G01 X-38.53505 Y-5.57073
G01 X-38.55255 Y-5.56339
G01 X-38.53505 Y-5.57073
G01 X-38.54336 Y-5.61330
G01 X-38.54336 Y-6.23664
G01 X-38.53612 Y-6.27647
G01 X-38.54435 Y-6.27873
G01 X-38.53612 Y-6.27647
G01 X-38.51537 Y-6.31124
G01 X-38.51763 Y-6.31312
G01 X-38.51537 Y-6.31124
G01 X-38.38301 Y-6.42539
G01 X-38.51537 Y-6.31124
G01 X-38.53612 Y-6.27647
G01 X-38.54336 Y-6.23664
G01 X-38.54125 Y-5.59161
G01 X-38.53505 Y-5.57073
G01 X-38.51138 Y-5.53438
G01 X-38.39230 Y-5.43004
G01 X-38.44229 Y-5.42935
G01 X-38.55352 Y-5.41007
G01 X-38.59289 Y-5.39245
G01 X-38.62819 Y-5.36768
G01 X-38.70437 Y-5.29963
G01 X-38.77097 Y-5.20192
G01 X-38.90267 Y-5.05884
G01 X-38.97318 Y-5.00395
G01 X-38.97318 Y-5.06633
G01 X-38.92923 Y-5.10441
G01 X-38.78839 Y-5.26268
G01 X-38.68138 Y-5.44553
G01 X-38.66210 Y-5.48884
G01 X-38.59781 Y-5.69072
G01 X-38.57442 Y-5.90128
G01 X-38.57442 Y-5.94871
G01 X-38.59411 Y-6.13583
G01 X-38.60396 Y-6.18218
G01 X-38.67061 Y-6.38330
G01 X-38.78839 Y-6.58731
G01 X-38.94602 Y-6.76237
G01 X-39.13660 Y-6.90082
G01 X-39.22316 Y-6.94073
G01 X-39.22316 Y-7.00093
G01 X-39.05608 Y-6.91050
G01 X-38.90267 Y-6.79110
G01 X-38.77099 Y-6.64802
G01 X-38.70549 Y-6.55160
G01 X-38.66114 Y-6.50382
G01 X-38.60797 Y-6.46925
G01 X-38.50396 Y-6.42531
G01 X-38.46131 Y-6.41886
G01 X-38.41824 Y-6.42056
G01 X-38.30706 Y-6.43987
G01 X-38.26769 Y-6.45744
G01 X-38.23238 Y-6.48221
G01 X-38.15616 Y-6.55030
G01 X-38.08849 Y-6.64969
G01 X-38.01118 Y-6.73605
G01 X-37.97437 Y-6.79199
G01 X-37.94285 Y-6.89046
G01 X-37.93366 Y-6.95437
G01 X-37.93366 Y-9.39422
G01 X-37.93782 Y-9.44489
G01 X-37.94689 Y-9.48835
G01 X-37.96424 Y-9.52919
G01 X-37.99771 Y-9.59053
G01 X-38.03642 Y-9.64225
G01 X-41.94096 Y-13.54676
G01 X-42.02562 Y-13.67348
G01 X-42.08394 Y-13.81430
G01 X-42.11366 Y-13.96378
G01 X-42.11386 Y-15.93632
G01 X-42.11719 Y-15.97503
G01 X-42.12709 Y-16.01259
G01 X-42.16359 Y-16.10794
G01 X-42.25828 Y-16.24223
G01 X-42.29743 Y-16.31907
G01 X-42.32808 Y-16.36456
G01 X-42.39580 Y-16.43738
G01 X-42.42890 Y-16.45966
G01 X-42.52531 Y-16.49623
G01 X-42.61101 Y-16.59336
G01 X-42.69816 Y-16.49415
G01 X-42.61650 Y-16.51013
G01 X-42.57342 Y-16.50830
G01 X-42.52531 Y-16.49623
G01 X-42.57342 Y-16.50830
G01 X-42.61650 Y-16.51013
G01 X-42.65915 Y-16.50380
G01 X-42.72699 Y-16.48701
G01 X-42.76768 Y-16.47271
G01 X-42.80494 Y-16.45097
G01 X-42.83743 Y-16.42255
G01 X-42.90583 Y-16.34673
G01 X-42.96174 Y-16.24211
G01 X-43.04345 Y-16.12933
G01 X-43.06339 Y-16.09618
G01 X-43.09709 Y-15.99311
G01 X-43.10629 Y-15.92923
G01 X-43.10629 Y-8.03077
G01 X-43.10212 Y-7.98007
G01 X-43.09306 Y-7.93659
G01 X-43.07571 Y-7.89572
G01 X-43.04223 Y-7.83440
G01 X-43.00352 Y-7.78271
G01 X-42.42224 Y-7.20143
G01 X-42.38351 Y-7.16854
G01 X-42.34635 Y-7.14418
G01 X-42.30512 Y-7.12754
G01 X-42.23809 Y-7.10786
G01 X-42.17421 Y-7.09866
G01 X-41.28506 Y-7.09661
G01 X-41.20746 Y-7.06765
G01 X-41.14444 Y-7.02048
G01 X-41.09728 Y-6.95749
G01 X-41.07983 Y-6.91068
G01 X-41.04404 Y-6.84218
G01 X-41.02501 Y-6.81406
G01 X-41.00200 Y-6.78912
G01 X-40.91788 Y-6.72836
G01 X-40.88016 Y-6.70745
G01 X-40.83916 Y-6.69407
G01 X-40.79639 Y-6.68868
G01 X-40.68356 Y-6.68942
G01 X-40.64185 Y-6.70032
G01 X-40.60297 Y-6.71891
G01 X-40.51910 Y-6.77151
G01 X-40.34302 Y-6.91096
G01 X-40.17678 Y-7.00093
G01 X-40.17678 Y-6.94075
G01 X-40.26339 Y-6.90082
G01 X-40.45397 Y-6.76237
G01 X-40.61158 Y-6.58731
G01 X-40.72938 Y-6.38330
G01 X-40.79603 Y-6.18218
G01 X-40.80589 Y-6.13583
G01 X-40.82679 Y-5.92498
G01 X-40.80589 Y-5.71416
G01 X-40.79603 Y-5.66778
G01 X-40.73787 Y-5.48884
G01 X-40.71859 Y-5.44553
G01 X-40.61158 Y-5.26268
G01 X-40.47076 Y-5.10441
G01 X-40.42679 Y-5.06633
G01 X-40.42679 Y-5.00520
G01 X-40.57952 Y-5.12262
G01 X-40.61056 Y-5.13730
G01 X-40.64348 Y-5.14711
G01 X-40.75455 Y-5.16710
G01 X-40.79756 Y-5.16402
G01 X-40.83919 Y-5.15287
G01 X-40.90586 Y-5.12790
G01 X-40.86126 Y-5.21475
G01 X-40.81155 Y-5.28625
G01 X-40.79578 Y-5.31929
G01 X-40.78442 Y-5.31691
G01 X-40.79578 Y-5.31929
G01 X-40.79136 Y-5.35564
G01 X-40.79359 Y-5.37388
G01 X-40.83817 Y-5.63235
G01 X-40.84602 Y-5.70692
G01 X-40.85560 Y-5.88912
G01 X-40.85560 Y-5.96082
G01 X-40.84602 Y-6.14302
G01 X-40.83817 Y-6.21759
G01 X-40.79192 Y-6.49539
G01 X-40.78648 Y-6.49577
G01 X-40.79192 Y-6.49539
G01 X-40.79385 Y-6.51721
G01 X-40.80810 Y-6.55861
G01 X-40.89044 Y-6.68269
G01 X-40.91308 Y-6.72569
G01 X-40.91788 Y-6.72836
G01 X-40.91308 Y-6.72569
G01 X-40.89044 Y-6.68269
G01 X-40.80998 Y-6.55777
G01 X-40.79385 Y-6.51721
G01 X-40.79423 Y-6.47362
G01 X-40.83817 Y-6.21759
G01 X-40.84602 Y-6.14302
G01 X-40.85560 Y-5.96082
G01 X-40.85560 Y-5.88912
G01 X-40.84602 Y-5.70692
G01 X-40.83817 Y-5.63235
G01 X-40.79359 Y-5.37388
G01 X-40.79210 Y-5.33730
G01 X-40.80231 Y-5.30215
G01 X-40.86126 Y-5.21475
G01 X-40.90586 Y-5.12790
G01 X-40.94350 Y-5.10962
G01 X-40.97805 Y-5.08376
G01 X-41.00706 Y-5.05181
G01 X-41.06639 Y-4.96867
G01 X-41.09728 Y-4.89247
G01 X-41.14444 Y-4.82945
G01 X-41.20746 Y-4.78229
G01 X-41.28508 Y-4.75333
G01 X-41.30429 Y-4.75127
G01 X-43.19486 Y-4.75333
G01 X-43.27251 Y-4.78229
G01 X-43.33474 Y-4.82887
G01 X-43.41779 Y-4.94033
G01 X-43.49222 Y-5.01881
G01 X-43.52808 Y-5.04165
G01 X-43.56758 Y-5.05739
G01 X-43.63463 Y-5.07708
G01 X-43.69854 Y-5.08627
G01 X-47.04220 Y-5.08627
G01 X-47.07844 Y-5.08335
G01 X-47.18807 Y-5.04995
G01 X-47.21979 Y-5.03667
G01 X-47.24916 Y-5.01871
G01 X-47.27545 Y-4.99654
G01 X-47.29808 Y-4.97065
G01 X-47.33994 Y-4.91472
G01 X-47.35744 Y-4.88749
G01 X-47.38228 Y-4.82747
G01 X-47.42945 Y-4.76446
G01 X-47.49246 Y-4.71729
G01 X-47.57009 Y-4.68833
G01 X-47.58929 Y-4.68627
G01 X-49.47986 Y-4.68833
G01 X-49.55751 Y-4.71729
G01 X-49.62050 Y-4.76446
G01 X-49.66795 Y-4.82783
G01 X-49.70015 Y-4.90317
G01 X-49.76939 Y-4.98836
G01 X-49.80059 Y-5.01810
G01 X-49.83683 Y-5.04137
G01 X-49.87684 Y-5.05739
G01 X-49.94387 Y-5.07708
G01 X-50.00777 Y-5.08627
G01 X-55.63619 Y-5.08627
G01 X-55.78564 Y-5.11599
G01 X-55.92646 Y-5.17434
G01 X-56.05318 Y-5.25899
G01 X-56.31818 Y-5.52402
G01 X-56.35694 Y-5.55691
G01 X-56.39410 Y-5.58127
G01 X-56.43532 Y-5.59791
G01 X-56.53397 Y-5.62447
G01 X-56.65092 Y-5.62679
G01 X-56.99750 Y-5.77035
G01 X-59.00087 Y-5.77035
G01 X-59.04316 Y-5.73989
G01 X-59.24492 Y-5.62679
G01 X-56.65092 Y-5.62679
G01 X-61.88309 Y-5.62679
G01 X-61.94082 Y-5.65465
G01 X-62.15367 Y-5.79544
G01 X-62.29627 Y-5.78046
G01 X-62.41067 Y-5.77426
G01 X-62.73023 Y-5.77461
G01 X-62.83869 Y-5.78046
G01 X-62.97643 Y-5.79493
G01 X-63.09652 Y-5.71010
G01 X-63.25992 Y-5.62679
G01 X-61.88309 Y-5.62679
G01 X-65.24655 Y-5.62679
G01 X-65.27317 Y-5.65356
G01 X-65.24655 Y-5.62679
G01 X-65.27317 Y-5.62679
G01 X-65.27447 Y-22.10021
G01 X-65.28956 Y-22.17567
G01 X-65.30063 Y-22.21174
G01 X-65.31752 Y-22.24550
G01 X-65.38552 Y-22.32878
G01 X-65.41671 Y-22.35855
G01 X-65.45301 Y-22.38187
G01 X-65.49304 Y-22.39790
G01 X-65.59172 Y-22.42447
G01 X-68.25386 Y-22.42678
G01 X-68.27317 Y-22.44555
G01 X-68.25386 Y-22.42678
G01 X-68.27317 Y-22.42678
G01 X-68.27495 Y-25.54821
G01 X-68.29539 Y-25.63543
G01 X-68.30883 Y-25.67358
G01 X-68.32884 Y-25.70871
G01 X-68.35478 Y-25.73975
G01 X-68.43339 Y-25.81326
G01 X-68.55836 Y-26.01816
G01 X-68.62237 Y-26.09705
G01 X-68.66560 Y-26.09393
G01 X-68.62237 Y-26.09705
G01 X-68.65310 Y-26.13690
G01 X-68.65828 Y-26.13439
G01 X-68.65310 Y-26.13690
G01 X-68.66646 Y-26.17694
G01 X-68.66745 Y-26.40396
G01 X-68.66651 Y-26.42563
G01 X-68.65976 Y-26.45047
G01 X-68.66542 Y-26.50452
G01 X-68.62074 Y-26.50625
G01 X-68.66542 Y-26.50452
G01 X-68.72795 Y-26.56510
G01 X-68.66542 Y-26.50452
G01 X-68.65976 Y-26.45047
G01 X-68.65429 Y-26.46736
G01 X-68.59171 Y-26.53972
G01 X-68.44538 Y-26.76088
G01 X-68.43210 Y-26.78999
G01 X-68.44538 Y-26.76088
G01 X-68.59171 Y-26.53972
G01 X-68.63989 Y-26.48415
G01 X-68.66146 Y-26.44671
G01 X-68.66745 Y-26.40396
G01 X-68.66486 Y-26.35463
G01 X-68.66735 Y-26.19807
G01 X-68.66646 Y-26.17694
G01 X-68.65955 Y-26.15146
G01 X-68.66560 Y-26.09393
G01 X-68.73517 Y-26.01791
G01 X-68.66560 Y-26.09393
G01 X-68.66166 Y-26.15629
G01 X-68.64109 Y-26.11943
G01 X-68.55836 Y-26.01816
G01 X-68.43339 Y-25.81326
G01 X-68.47525 Y-25.83726
G01 X-68.51632 Y-25.85039
G01 X-68.62742 Y-25.87038
G01 X-68.67047 Y-25.86728
G01 X-68.71213 Y-25.85611
G01 X-68.77759 Y-25.83170
G01 X-68.81635 Y-25.81285
G01 X-68.85084 Y-25.78705
G01 X-68.87982 Y-25.75517
G01 X-68.93921 Y-25.67201
G01 X-68.98289 Y-25.56147
G01 X-69.05506 Y-25.42934
G01 X-69.09509 Y-25.46939
G01 X-69.02247 Y-25.59764
G01 X-68.91091 Y-25.94097
G01 X-68.87319 Y-26.30000
G01 X-68.91091 Y-26.65900
G01 X-69.02247 Y-27.00233
G01 X-69.09509 Y-27.13058
G01 X-69.05506 Y-27.17061
G01 X-68.98289 Y-27.03848
G01 X-68.94114 Y-26.93154
G01 X-68.89151 Y-26.85694
G01 X-68.86557 Y-26.82591
G01 X-68.83451 Y-26.79997
G01 X-68.73580 Y-26.75095
G01 X-68.69509 Y-26.73685
G01 X-68.65244 Y-26.73073
G01 X-68.60939 Y-26.73276
G01 X-68.49831 Y-26.75285
G01 X-68.45910 Y-26.77076
G01 X-68.42397 Y-26.79578
G01 X-68.34139 Y-26.87272
G01 X-68.31808 Y-26.90901
G01 X-68.30205 Y-26.94904
G01 X-68.27548 Y-27.04772
G01 X-68.27317 Y-30.17548
G01 X-68.27835 Y-30.22366
G01 X-68.30063 Y-30.31124
G01 X-68.31752 Y-30.34500
G01 X-68.38551 Y-30.42829
G01 X-68.41670 Y-30.45805
G01 X-68.45300 Y-30.48137
G01 X-68.49303 Y-30.49740
G01 X-68.56009 Y-30.51708
G01 X-68.62399 Y-30.52628
G01 X-68.82166 Y-30.52450
G01 X-68.90890 Y-30.50405
G01 X-68.94703 Y-30.49062
G01 X-68.98218 Y-30.47060
G01 X-69.06260 Y-30.39527
G01 X-69.25607 Y-30.13550
G01 X-69.43547 Y-29.95610
G01 X-69.63857 Y-29.80403
G01 X-69.86125 Y-29.68244
G01 X-70.09900 Y-29.59377
G01 X-70.34690 Y-29.53984
G01 X-70.59999 Y-29.52173
G01 X-70.85307 Y-29.53984
G01 X-71.10095 Y-29.59377
G01 X-71.33867 Y-29.68244
G01 X-71.56135 Y-29.80403
G01 X-71.76445 Y-29.95607
G01 X-71.94385 Y-30.13547
G01 X-72.09592 Y-30.33860
G01 X-72.21753 Y-30.56125
G01 X-72.30618 Y-30.79897
G01 X-72.36010 Y-31.04690
G01 X-72.37821 Y-31.29999
G01 X-72.36010 Y-31.55305
G01 X-72.30585 Y-31.80250
G01 X-72.23219 Y-32.01744
G01 X-72.22851 Y-32.05399
G01 X-72.23077 Y-32.09064
G01 X-72.24072 Y-32.15980
G01 X-72.25091 Y-32.20169
G01 X-72.27512 Y-32.24975
G01 X-72.27423 Y-32.26156
G01 X-72.28802 Y-32.26786
G01 X-72.27512 Y-32.24975
G01 X-72.33956 Y-32.32879
G01 X-72.37075 Y-32.35856
G01 X-72.40702 Y-32.38188
G01 X-72.51410 Y-32.41759
G01 X-72.57801 Y-32.42678
G01 X-75.47549 Y-32.42678
G01 X-75.52367 Y-32.42160
G01 X-75.61128 Y-32.39933
G01 X-75.64504 Y-32.38243
G01 X-75.70358 Y-32.33585
G01 X-76.09997 Y-32.33740
G01 X-76.09997 Y-6.30047
G01 X-75.99002 Y-6.18178
G01 X-75.94285 Y-6.14853
G01 X-75.99002 Y-6.18178
G01 X-76.09997 Y-6.30047
G01 X-76.09997 Y-6.08711
G01 X-75.79599 Y-6.20593
G01 X-75.71468 Y-6.24665
G01 X-75.57750 Y-6.32595
G01 X-75.46802 Y-6.41200
G01 X-75.41974 Y-6.45696
G01 X-75.46802 Y-6.41200
G01 X-75.57750 Y-6.32595
G01 X-75.68270 Y-6.26514
G01 X-75.77183 Y-6.30415
G01 X-75.84234 Y-6.35386
G01 X-75.90216 Y-6.41601
G01 X-75.94559 Y-6.47073
G01 X-75.98583 Y-6.53064
G01 X-76.01605 Y-6.59615
G01 X-76.03548 Y-6.66570
G01 X-76.04460 Y-6.71233
G01 X-76.05304 Y-6.79938
G01 X-76.05304 Y-32.07598
G01 X-76.04841 Y-32.14052
G01 X-76.01499 Y-32.27080
G01 X-75.98771 Y-32.33890
G01 X-75.95779 Y-32.33931
G01 X-75.70358 Y-32.33585
G01 X-75.75809 Y-32.28320
G01 X-75.78138 Y-32.24693
G01 X-75.81709 Y-32.13986
G01 X-75.82629 Y-32.07598
G01 X-75.82629 Y-6.79938
G01 X-75.82207 Y-6.75584
G01 X-75.80323 Y-6.67446
G01 X-75.78811 Y-6.64167
G01 X-75.72456 Y-6.55701
G01 X-75.69464 Y-6.52592
G01 X-75.65939 Y-6.50103
G01 X-75.55393 Y-6.46077
G01 X-75.51199 Y-6.45081
G01 X-75.46891 Y-6.44901
G01 X-75.42629 Y-6.45533
G01 X-75.35847 Y-6.47210
G01 X-75.31778 Y-6.48642
G01 X-75.28055 Y-6.50814
G01 X-75.24808 Y-6.53654
G01 X-75.17961 Y-6.61238
G01 X-75.11242 Y-6.73920
G01 X-74.91412 Y-7.04456
G01 X-74.68499 Y-7.32752
G01 X-74.42751 Y-7.58497
G01 X-74.14458 Y-7.81413
G01 X-73.83922 Y-8.01240
G01 X-73.51481 Y-8.17771
G01 X-73.17486 Y-8.30819
G01 X-72.82317 Y-8.40245
G01 X-72.46358 Y-8.45939
G01 X-72.09998 Y-8.47844
G01 X-71.73638 Y-8.45939
G01 X-71.37677 Y-8.40245
G01 X-71.02508 Y-8.30819
G01 X-70.68515 Y-8.17771
G01 X-70.36074 Y-8.01240
G01 X-70.05538 Y-7.81413
G01 X-69.77243 Y-7.58497
G01 X-69.51497 Y-7.32752
G01 X-69.28582 Y-7.04456
G01 X-69.08754 Y-6.73923
G01 X-68.92224 Y-6.41480
G01 X-68.79176 Y-6.07487
G01 X-68.69750 Y-5.72318
G01 X-68.64055 Y-5.36357
G01 X-68.62150 Y-4.99996
G01 X-68.64055 Y-4.63636
G01 X-68.69750 Y-4.27678
G01 X-68.79176 Y-3.92506
G01 X-68.92224 Y-3.58513
G01 X-69.08754 Y-3.26067
G01 X-69.28582 Y-2.95539
G01 X-69.51495 Y-2.67241
G01 X-69.77240 Y-2.41496
G01 X-70.05538 Y-2.18582
G01 X-70.36074 Y-1.98752
G01 X-70.45983 Y-1.93705
G01 X-70.49666 Y-1.91356
G01 X-70.56064 Y-1.85981
G01 X-70.58299 Y-1.83147
G01 X-70.62960 Y-1.73637
G01 X-70.64372 Y-1.69563
G01 X-70.64985 Y-1.65290
G01 X-70.64781 Y-1.60988
G01 X-70.63788 Y-1.54071
G01 X-70.62772 Y-1.49880
G01 X-70.60979 Y-1.45956
G01 X-70.58477 Y-1.42441
G01 X-70.50781 Y-1.34186
G01 X-70.47154 Y-1.31856
G01 X-70.36448 Y-1.28285
G01 X-70.30060 Y-1.27366
G01 X-6.79938 Y-1.27366
G01 X-6.70921 Y-1.28699
G01 X-6.67446 Y-1.29672
G01 X-6.64167 Y-1.31183
G01 X-6.55701 Y-1.37538
G01 X-6.52592 Y-1.40531
G01 X-6.50103 Y-1.44056
G01 X-6.48332 Y-1.47988
G01 X-6.46077 Y-1.54602
G01 X-6.45081 Y-1.58796
G01 X-6.44901 Y-1.63101
G01 X-6.46008 Y-1.69299
G01 X-6.41383 Y-1.63947
G01 X-6.29041 Y-1.44587
G01 X-6.26989 Y-1.40411
G01 X-6.30415 Y-1.32812
G01 X-6.35386 Y-1.25760
G01 X-6.41601 Y-1.19779
G01 X-6.47073 Y-1.15435
G01 X-6.53064 Y-1.11412
G01 X-6.59615 Y-1.08389
G01 X-6.71233 Y-1.05534
G01 X-6.79938 Y-1.04691
G01 X-70.30060 Y-1.04691
G01 X-70.36514 Y-1.05153
G01 X-70.42838 Y-1.06528
G01 X-70.49541 Y-1.08496
G01 X-70.57545 Y-1.11702
G01 X-70.64797 Y-1.16360
G01 X-70.71035 Y-1.22309
G01 X-70.75612 Y-1.27589
G01 X-70.80616 Y-1.34617
G01 X-70.83191 Y-1.40259
G01 X-70.76864 Y-1.51750
G01 X-70.64532 Y-1.68453
G01 X-70.64372 Y-1.69563
G01 X-70.64532 Y-1.68453
G01 X-70.76864 Y-1.51750
G01 X-70.88365 Y-1.30866
G01 X-70.95343 Y-1.16385
G01 X-70.92747 Y-1.12738
G01 X-70.88170 Y-1.07457
G01 X-70.80347 Y-1.00000
G01 X-70.88170 Y-1.07457
G01 X-70.92747 Y-1.12738
G01 X-70.95343 Y-1.16385
G01 X-70.97916 Y-1.11049
G01 X-71.02079 Y-1.00000
G01 X-6.30047 Y-1.00000
G01 X-6.18178 Y-1.10993
G01 X-6.15053 Y-1.15425
G01 X-6.18178 Y-1.10993
G01 X-6.30047 Y-1.00000
G01 X-6.08180 Y-1.00000
G01 X-6.21769 Y-1.30495
G01 X-6.29041 Y-1.44587
G01 X-6.41383 Y-1.63947
G01 X-6.46008 Y-1.69299
G01 X-6.48642 Y-1.78217
G01 X-6.50814 Y-1.81940
G01 X-6.53654 Y-1.85186
G01 X-6.61238 Y-1.92034
G01 X-6.73923 Y-1.98752
G01 X-7.04456 Y-2.18582
G01 X-7.32752 Y-2.41496
G01 X-7.58497 Y-2.67241
G01 X-7.81413 Y-2.95539
G01 X-8.01240 Y-3.26067
G01 X-8.17771 Y-3.58516
G01 X-8.30819 Y-3.92509
G01 X-8.40245 Y-4.27678
G01 X-8.45939 Y-4.63636
G01 X-8.47844 Y-4.99996
G01 X-8.45939 Y-5.36357
G01 X-8.40245 Y-5.72318
G01 X-8.30819 Y-6.07487
G01 X-8.17771 Y-6.41480
G01 X-8.01240 Y-6.73920
G01 X-7.81413 Y-7.04456
G01 X-7.58497 Y-7.32752
G01 X-7.32752 Y-7.58497
G01 X-7.04456 Y-7.81413
G01 X-6.73920 Y-8.01240
G01 X-6.41480 Y-8.17771
G01 X-6.07487 Y-8.30819
G01 X-5.72318 Y-8.40245
G01 X-5.36357 Y-8.45939
G01 X-4.99996 Y-8.47844
G01 X-4.63636 Y-8.45939
G01 X-4.27678 Y-8.40245
G01 X-3.92509 Y-8.30819
G01 X-3.58516 Y-8.17771
G01 X-3.26067 Y-8.01240
G01 X-2.95539 Y-7.81413
G01 X-2.67241 Y-7.58497
G01 X-2.41496 Y-7.32752
G01 X-2.18582 Y-7.04456
G01 X-1.98752 Y-6.73923
G01 X-1.93705 Y-6.64014
G01 X-1.91356 Y-6.60326
G01 X-1.85981 Y-6.53931
G01 X-1.83147 Y-6.51695
G01 X-1.79992 Y-6.49938
G01 X-1.69563 Y-6.45622
G01 X-1.65290 Y-6.45008
G01 X-1.54071 Y-6.46206
G01 X-1.49880 Y-6.47220
G01 X-1.45956 Y-6.49016
G01 X-1.42441 Y-6.51515
G01 X-1.34186 Y-6.59214
G01 X-1.31856 Y-6.62841
G01 X-1.30254 Y-6.66844
G01 X-1.27597 Y-6.76709
G01 X-1.27366 Y-17.77599
G01 X-1.28001 Y-17.82945
G01 X-1.27317 Y-17.92498
G01 X-1.27389 Y-39.11778
G01 X-1.28560 Y-39.23114
G01 X-1.30391 Y-39.30744
G01 X-1.34496 Y-39.41376
G01 X-1.40211 Y-39.51239
G01 X-1.48605 Y-39.61392
G01 X-8.73663 Y-46.86450
G04 P0 ( dwell for no time -- G64 should not smooth over this point )
G00 Z2.00000 ( retract )

G00 X-6.28899 Y-51.45796 ( rapid move to begin. )
G01 F60.00000
( Mill infeed pass 1/1 )
G01 Z-0.10000
G04 P0 ( dwell for no time -- G64 should not smooth over this point )
G01 F120.00000
G01 X-6.28899 Y-51.45796
G01 X-6.05892 Y-51.55908
G01 X-5.35818 Y-51.70802
G01 X-4.66550 Y-51.70927
G01 X-4.61833 Y-51.70429
G01 X-3.94104 Y-51.55908
G01 X-3.30774 Y-51.27846
G01 X-3.26667 Y-51.25476
G01 X-2.72547 Y-50.86152
G01 X-2.69022 Y-50.82979
G01 X-2.22766 Y-50.31420
G01 X-1.88023 Y-49.71494
G01 X-1.86093 Y-49.67163
G01 X-1.64808 Y-49.01245
G01 X-1.57442 Y-48.32370
G01 X-1.57442 Y-48.27628
G01 X-1.64808 Y-47.58751
G01 X-1.86944 Y-46.90618
G01 X-2.22766 Y-46.28576
G01 X-2.69022 Y-45.77016
G01 X-2.72547 Y-45.73844
G01 X-3.28658 Y-45.33229
G01 X-3.91889 Y-45.04941
G01 X-3.96397 Y-45.03476
G01 X-4.64180 Y-44.89196
G01 X-5.33448 Y-44.89072
G01 X-5.38162 Y-44.89567
G01 X-6.03601 Y-45.03476
G01 X-6.08109 Y-45.04941
G01 X-6.71340 Y-45.33229
G01 X-7.29298 Y-45.75338
G01 X-7.75739 Y-46.26732
G01 X-7.78525 Y-46.30567
G01 X-8.13051 Y-46.90618
G01 X-8.34575 Y-47.56457
G01 X-8.21878 Y-47.17379
G01 X-8.23244 Y-47.08322
G01 X-8.27829 Y-46.91245
G01 X-8.22650 Y-46.83702
G01 X-7.81936 Y-46.30644
G01 X-7.77354 Y-46.25274
G01 X-7.31698 Y-45.77164
G01 X-7.26890 Y-45.72599
G01 X-6.76313 Y-45.29404
G01 X-6.70016 Y-45.24576
G01 X-6.14436 Y-44.86377
G01 X-6.04972 Y-44.80585
G01 X-5.38188 Y-44.66643
G01 X-4.66550 Y-44.66397
G01 X-4.57119 Y-44.67388
G01 X-3.91683 Y-44.81297
G01 X-3.82666 Y-44.84225
G01 X-3.17320 Y-45.13590
G01 X-2.55529 Y-45.58487
G01 X-2.07406 Y-46.11558
G01 X-2.01833 Y-46.19229
G01 X-1.66230 Y-46.81395
G01 X-1.42626 Y-47.54037
G01 X-1.34643 Y-48.29998
G01 X-1.41884 Y-49.01270
G01 X-1.43855 Y-49.10546
G01 X-1.64528 Y-49.74171
G01 X-1.68384 Y-49.82832
G01 X-2.04419 Y-50.44750
G01 X-2.52171 Y-50.98151
G01 X-2.59217 Y-51.04498
G01 X-3.13339 Y-51.43820
G01 X-3.21551 Y-51.48562
G01 X-3.87099 Y-51.77470
G01 X-4.61808 Y-51.93353
G01 X-5.38188 Y-51.93353
G01 X-6.06816 Y-51.79019
G01 X-6.01335 Y-51.89007
G01 X-5.93626 Y-52.05004
G01 X-5.47594 Y-52.14790
G01 X-5.40560 Y-52.15905
G01 X-5.33448 Y-52.16276
G01 X-4.66550 Y-52.16276
G01 X-4.59438 Y-52.15905
G01 X-4.52404 Y-52.14790
G01 X-3.86969 Y-52.00881
G01 X-3.80091 Y-51.99040
G01 X-3.73443 Y-51.96487
G01 X-3.12329 Y-51.69276
G01 X-3.05984 Y-51.66042
G01 X-3.00012 Y-51.62166
G01 X-2.45890 Y-51.22845
G01 X-2.40355 Y-51.18359
G01 X-2.35321 Y-51.13327
G01 X-1.90556 Y-50.63612
G01 X-1.86075 Y-50.58077
G01 X-1.82197 Y-50.52106
G01 X-1.48747 Y-49.94171
G01 X-1.45514 Y-49.87826
G01 X-1.42961 Y-49.81176
G01 X-1.22291 Y-49.17554
G01 X-1.20447 Y-49.10676
G01 X-1.19332 Y-49.03643
G01 X-1.12339 Y-48.37110
G01 X-1.11968 Y-48.29998
G01 X-1.12339 Y-48.22888
G01 X-1.19332 Y-47.56356
G01 X-1.20447 Y-47.49322
G01 X-1.22291 Y-47.42444
G01 X-1.42961 Y-46.78820
G01 X-1.45514 Y-46.72173
G01 X-1.48747 Y-46.65828
G01 X-1.82197 Y-46.07893
G01 X-1.86075 Y-46.01919
G01 X-1.90556 Y-45.96387
G01 X-2.35321 Y-45.46671
G01 X-2.40355 Y-45.41634
G01 X-2.45890 Y-45.37154
G01 X-3.00012 Y-44.97832
G01 X-3.05984 Y-44.93953
G01 X-3.12329 Y-44.90720
G01 X-3.73443 Y-44.63512
G01 X-3.80091 Y-44.60959
G01 X-3.86969 Y-44.59115
G01 X-4.52404 Y-44.45206
G01 X-4.59438 Y-44.44093
G01 X-4.66550 Y-44.43720
G01 X-5.36423 Y-44.43877
G01 X-5.28838 Y-44.40268
G01 X-4.82430 Y-44.21045
G01 X-4.66550 Y-44.21045
G01 X-4.57068 Y-44.21541
G01 X-4.47690 Y-44.23026
G01 X-3.82255 Y-44.36935
G01 X-3.73083 Y-44.39394
G01 X-3.64218 Y-44.42795
G01 X-3.03106 Y-44.70006
G01 X-2.94645 Y-44.74317
G01 X-2.86682 Y-44.79488
G01 X-2.32560 Y-45.18810
G01 X-2.25181 Y-45.24784
G01 X-2.18468 Y-45.31497
G01 X-1.73706 Y-45.81213
G01 X-1.67729 Y-45.88591
G01 X-1.62557 Y-45.96554
G01 X-1.29108 Y-46.54489
G01 X-1.24798 Y-46.62950
G01 X-1.21397 Y-46.71812
G01 X-1.00000 Y-47.38144
G01 X-1.00000 Y-46.64367
G01 X-1.04084 Y-46.53727
G01 X-1.09471 Y-46.43150
G01 X-1.42921 Y-45.85216
G01 X-1.49385 Y-45.75264
G01 X-1.56853 Y-45.66039
G01 X-2.01618 Y-45.16323
G01 X-2.10010 Y-45.07934
G01 X-2.19232 Y-45.00463
G01 X-2.73355 Y-44.61142
G01 X-2.83307 Y-44.54677
G01 X-2.93881 Y-44.49290
G01 X-3.54995 Y-44.22079
G01 X-3.66075 Y-44.17827
G01 X-3.77541 Y-44.14756
G01 X-4.33598 Y-44.02841
G01 X-3.88031 Y-43.89344
G01 X-3.72826 Y-43.92574
G01 X-3.59070 Y-43.96260
G01 X-3.45773 Y-44.01365
G01 X-2.84658 Y-44.28574
G01 X-2.71970 Y-44.35041
G01 X-2.60025 Y-44.42798
G01 X-2.05903 Y-44.82120
G01 X-1.94836 Y-44.91081
G01 X-1.84765 Y-45.01152
G01 X-1.40002 Y-45.50867
G01 X-1.31039 Y-45.61934
G01 X-1.23284 Y-45.73877
G01 X-1.00000 Y-46.14207
G01 X-1.00000 Y-45.68855
G01 X-1.03645 Y-45.62541
G01 X-1.12695 Y-45.48607
G01 X-1.23152 Y-45.35693
G01 X-1.67914 Y-44.85978
G01 X-1.79662 Y-44.74230
G01 X-1.92575 Y-44.63773
G01 X-2.46698 Y-44.24451
G01 X-2.60632 Y-44.15401
G01 X-2.75435 Y-44.07860
G01 X-3.36550 Y-43.80649
G01 X-3.44399 Y-43.77637
G01 X-3.25961 Y-43.73242
G01 X-3.05819 Y-43.69511
G01 X-2.66212 Y-43.87144
G01 X-2.49293 Y-43.95765
G01 X-2.33368 Y-44.06108
G01 X-1.79248 Y-44.45429
G01 X-1.64490 Y-44.57377
G01 X-1.51064 Y-44.70806
G01 X-1.06299 Y-45.20519
G01 X-1.00000 Y-45.28302
G01 X-1.00000 Y-44.93631
G01 X-1.34211 Y-44.55632
G01 X-1.49316 Y-44.40527
G01 X-1.65918 Y-44.27083
G01 X-2.20040 Y-43.87761
G01 X-2.37955 Y-43.76128
G01 X-2.56990 Y-43.66428
G01 X-2.66454 Y-43.62216
G01 X-2.46731 Y-43.58559
G01 X-2.27452 Y-43.56064
G01 X-2.26619 Y-43.56489
G01 X-2.06713 Y-43.69417
G01 X-1.52591 Y-44.08739
G01 X-1.34145 Y-44.23677
G01 X-1.17361 Y-44.40458
G01 X-1.00000 Y-44.59742
G01 X-1.00000 Y-44.25853
G01 X-1.18971 Y-44.06824
G01 X-1.39261 Y-43.90393
G01 X-1.92707 Y-43.51564
G01 X-1.83505 Y-43.50370
G01 X-1.58481 Y-43.48401
G01 X-1.25933 Y-43.72049
G01 X-1.03797 Y-43.89973
G01 X-1.00000 Y-43.93773
G01 X-1.00000 Y-43.63911
G01 X-1.12603 Y-43.53702
G01 X-1.23670 Y-43.45663
G01 X-1.83505 Y-43.50370
G01 X-2.46731 Y-43.58559
G01 X-3.25961 Y-43.73242
G01 X-3.65460 Y-43.82656
G01 X-4.37876 Y-44.04106
G01 X-4.62491 Y-44.12785
G01 X-5.28838 Y-44.40268
G01 X-5.44101 Y-44.47530
G01 X-6.04893 Y-44.80537
G01 X-6.14436 Y-44.86377
G01 X-6.70016 Y-45.24576
G01 X-6.76313 Y-45.29404
G01 X-7.26890 Y-45.72599
G01 X-7.31698 Y-45.77164
G01 X-7.77354 Y-46.25274
G01 X-7.81936 Y-46.30644
G01 X-8.22650 Y-46.83702
G01 X-8.27829 Y-46.91245
G01 X-8.23244 Y-47.08322
G01 X-8.21878 Y-47.17379
G01 X-8.35190 Y-47.58751
G01 X-8.42678 Y-48.29998
G01 X-8.35190 Y-49.01245
G01 X-8.13902 Y-49.67163
G01 X-8.11974 Y-49.71494
G01 X-7.77232 Y-50.31420
G01 X-7.30974 Y-50.82979
G01 X-7.27451 Y-50.86152
G01 X-6.71340 Y-51.26766
G01 X-6.28899 Y-51.45796
G01 X-6.14403 Y-51.65357
G01 X-6.01619 Y-51.88458
G01 X-5.91426 Y-52.09573
G01 X-5.83684 Y-52.29997
G01 X-4.99999 Y-52.29997
G01 X-4.21963 Y-52.22314
G01 X-3.46926 Y-51.99550
G01 X-2.77772 Y-51.62586
G01 X-2.17155 Y-51.12842
G01 X-1.67411 Y-50.52228
G01 X-1.30447 Y-49.83071
G01 X-1.07686 Y-49.08034
G01 X-1.00000 Y-48.29998
G01 X-1.57320 Y-48.29998
G01 X-1.00000 Y-48.29998
G01 X-1.00000 Y-43.43799
G01 X-1.23670 Y-43.45663
G04 P0 ( dwell for no time -- G64 should not smooth over this point )
G00 Z2.00000 ( retract )

G00 X-4.80179 Y-36.12317 ( rapid move to begin. )
G01 F60.00000
( Mill infeed pass 1/1 )
G01 Z-0.10000
G04 P0 ( dwell for no time -- G64 should not smooth over this point )
G01 F120.00000
G01 X-4.80179 Y-36.12317
G01 X-5.21066 Y-36.12317
G01 X-5.22978 Y-36.12111
G01 X-5.30725 Y-36.09223
G01 X-5.37012 Y-36.04514
G01 X-5.41721 Y-35.98225
G01 X-5.46854 Y-35.85129
G01 X-5.52788 Y-35.76815
G01 X-5.55688 Y-35.73623
G01 X-5.59143 Y-35.71039
G01 X-5.63024 Y-35.69155
G01 X-5.73733 Y-35.65599
G01 X-5.78030 Y-35.65291
G01 X-5.82308 Y-35.65802
G01 X-5.89135 Y-35.67285
G01 X-5.95193 Y-35.69543
G01 X-6.03184 Y-35.75528
G01 X-6.14022 Y-35.86368
G01 X-6.30123 Y-35.97641
G01 X-6.38815 Y-36.01695
G01 X-6.38815 Y-35.96066
G01 X-6.32798 Y-35.93333
G01 X-6.30667 Y-35.91959
G01 X-6.14446 Y-35.80021
G01 X-5.99384 Y-35.63292
G01 X-5.90225 Y-35.47679
G01 X-5.40179 Y-35.47679
G01 X-5.40179 Y-35.84999
G01 X-5.39742 Y-35.89424
G01 X-5.38452 Y-35.93678
G01 X-5.36357 Y-35.97600
G01 X-5.33537 Y-36.01037
G01 X-5.30098 Y-36.03856
G01 X-5.26179 Y-36.05952
G01 X-5.21924 Y-36.07242
G01 X-5.17500 Y-36.07679
G01 X-4.80179 Y-36.07679
G01 X-4.80179 Y-36.12317
G04 P0 ( dwell for no time -- G64 should not smooth over this point )
G00 Z2.00000 ( retract )

G00 X-7.34179 Y-34.03933 ( rapid move to begin. )
G01 F60.00000
( Mill infeed pass 1/1 )
G01 Z-0.10000
G04 P0 ( dwell for no time -- G64 should not smooth over this point )
G01 F120.00000
G01 X-7.34179 Y-34.03933
G01 X-7.40199 Y-34.06666
G01 X-7.42330 Y-34.08037
G01 X-7.58551 Y-34.19978
G01 X-7.73613 Y-34.36706
G01 X-7.82770 Y-34.52317
G01 X-7.88195 Y-34.52317
G01 X-7.84141 Y-34.43623
G01 X-7.72866 Y-34.27524
G01 X-7.58972 Y-34.13628
G01 X-7.42871 Y-34.02353
G01 X-7.34179 Y-33.98299
G01 X-7.34179 Y-34.03933
G04 P0 ( dwell for no time -- G64 should not smooth over this point )
G00 Z2.00000 ( retract )

G00 X-7.34179 Y-36.01695 ( rapid move to begin. )
G01 F60.00000
( Mill infeed pass 1/1 )
G01 Z-0.10000
G04 P0 ( dwell for no time -- G64 should not smooth over this point )
G01 F120.00000
G01 X-7.34179 Y-36.01695
G01 X-7.42871 Y-35.97641
G01 X-7.58972 Y-35.86368
G01 X-7.72866 Y-35.72472
G01 X-7.84141 Y-35.56373
G01 X-7.88195 Y-35.47679
G01 X-7.82772 Y-35.47679
G01 X-7.73613 Y-35.63292
G01 X-7.58551 Y-35.80021
G01 X-7.42330 Y-35.91959
G01 X-7.40199 Y-35.93333
G01 X-7.34179 Y-35.96066
G01 X-7.34179 Y-36.01695
G04 P0 ( dwell for no time -- G64 should not smooth over this point )
G00 Z2.00000 ( retract )

G00 X-15.72679 Y-29.49920 ( rapid move to begin. )
G01 F60.00000
( Mill infeed pass 1/1 )
G01 Z-0.10000
G04 P0 ( dwell for no time -- G64 should not smooth over this point )
G01 F120.00000
G01 X-15.72679 Y-29.49920
G01 X-15.77320 Y-29.49920
G01 X-15.77320 Y-28.77604
G01 X-15.77754 Y-28.73179
G01 X-15.79044 Y-28.68922
G01 X-15.81140 Y-28.65003
G01 X-15.83962 Y-28.61567
G01 X-15.87398 Y-28.58745
G01 X-15.91320 Y-28.56649
G01 X-15.95575 Y-28.55359
G01 X-15.99999 Y-28.54922
G01 X-16.72316 Y-28.54922
G01 X-16.72316 Y-28.50281
G01 X-15.96433 Y-28.50281
G01 X-15.94521 Y-28.50487
G01 X-15.86768 Y-28.53378
G01 X-15.80479 Y-28.58084
G01 X-15.75773 Y-28.64373
G01 X-15.72885 Y-28.72120
G01 X-15.72679 Y-28.74033
G01 X-15.72679 Y-29.49920
G04 P0 ( dwell for no time -- G64 should not smooth over this point )
G00 Z2.00000 ( retract )

G00 X-17.67677 Y-28.54922 ( rapid move to begin. )
G01 F60.00000
( Mill infeed pass 1/1 )
G01 Z-0.10000
G04 P0 ( dwell for no time -- G64 should not smooth over this point )
G01 F120.00000
G01 X-17.67677 Y-28.54922
G01 X-18.39999 Y-28.54922
G01 X-18.44424 Y-28.55359
G01 X-18.48678 Y-28.56649
G01 X-18.52600 Y-28.58745
G01 X-18.56036 Y-28.61567
G01 X-18.58856 Y-28.65003
G01 X-18.60951 Y-28.68922
G01 X-18.62244 Y-28.73179
G01 X-18.62679 Y-28.77604
G01 X-18.62679 Y-29.49920
G01 X-18.67317 Y-29.49920
G01 X-18.67317 Y-28.74033
G01 X-18.67111 Y-28.72120
G01 X-18.64223 Y-28.64373
G01 X-18.59514 Y-28.58087
G01 X-18.53225 Y-28.53378
G01 X-18.45475 Y-28.50485
G01 X-18.43568 Y-28.50281
G01 X-17.67677 Y-28.50281
G01 X-17.67677 Y-28.54922
G04 P0 ( dwell for no time -- G64 should not smooth over this point )
G00 Z2.00000 ( retract )

G00 X-15.72679 Y-31.21170 ( rapid move to begin. )
G01 F60.00000
( Mill infeed pass 1/1 )
G01 Z-0.10000
G04 P0 ( dwell for no time -- G64 should not smooth over this point )
G01 F120.00000
G01 X-15.72679 Y-31.21170
G01 X-15.72679 Y-30.45282
G01 X-15.77320 Y-30.45282
G01 X-15.77320 Y-31.17604
G01 X-15.77754 Y-31.22028
G01 X-15.79044 Y-31.26283
G01 X-15.81140 Y-31.30202
G01 X-15.83962 Y-31.33641
G01 X-15.87398 Y-31.36461
G01 X-15.91320 Y-31.38556
G01 X-15.95575 Y-31.39846
G01 X-15.99999 Y-31.40283
G01 X-16.72316 Y-31.40283
G01 X-16.72316 Y-31.44921
G01 X-15.94518 Y-31.44716
G01 X-15.86771 Y-31.41825
G01 X-15.80479 Y-31.37116
G01 X-15.75773 Y-31.30829
G01 X-15.72885 Y-31.23082
G01 X-15.72679 Y-31.21170
G04 P0 ( dwell for no time -- G64 should not smooth over this point )
G00 Z2.00000 ( retract )

G00 X-17.67677 Y-31.44921 ( rapid move to begin. )
G01 F60.00000
( Mill infeed pass 1/1 )
G01 Z-0.10000
G04 P0 ( dwell for no time -- G64 should not smooth over this point )
G01 F120.00000
G01 X-17.67677 Y-31.44921
G01 X-17.67677 Y-31.40283
G01 X-18.39999 Y-31.40283
G01 X-18.44424 Y-31.39846
G01 X-18.48678 Y-31.38556
G01 X-18.52600 Y-31.36461
G01 X-18.56036 Y-31.33641
G01 X-18.58856 Y-31.30202
G01 X-18.60951 Y-31.26283
G01 X-18.62244 Y-31.22028
G01 X-18.62679 Y-31.17604
G01 X-18.62679 Y-30.45282
G01 X-18.67317 Y-30.45282
G01 X-18.67317 Y-31.21170
G01 X-18.67111 Y-31.23082
G01 X-18.64223 Y-31.30829
G01 X-18.59514 Y-31.37118
G01 X-18.53225 Y-31.41828
G01 X-18.45478 Y-31.44716
G01 X-18.43565 Y-31.44921
G01 X-17.67677 Y-31.44921
G04 P0 ( dwell for no time -- G64 should not smooth over this point )
G00 Z2.00000 ( retract )

G00 X-16.55145 Y-33.65320 ( rapid move to begin. )
G01 F60.00000
( Mill infeed pass 1/1 )
G01 Z-0.10000
G04 P0 ( dwell for no time -- G64 should not smooth over this point )
G01 F120.00000
G01 X-16.55145 Y-33.65320
G01 X-16.59087 Y-33.69259
G01 X-16.75907 Y-33.61906
G01 X-17.02740 Y-33.56077
G01 X-17.07457 Y-33.55581
G01 X-17.32542 Y-33.55581
G01 X-17.37258 Y-33.56077
G01 X-17.64088 Y-33.61906
G01 X-17.80908 Y-33.69259
G01 X-17.84848 Y-33.65320
G01 X-17.73969 Y-33.60082
G01 X-17.52872 Y-33.53572
G01 X-17.31038 Y-33.50283
G01 X-17.08958 Y-33.50283
G01 X-16.87124 Y-33.53572
G01 X-16.66024 Y-33.60082
G01 X-16.55145 Y-33.65320
G04 P0 ( dwell for no time -- G64 should not smooth over this point )
G00 Z2.00000 ( retract )

G00 X-15.72265 Y-34.97603 ( rapid move to begin. )
G01 F60.00000
( Mill infeed pass 1/1 )
G01 Z-0.10000
G04 P0 ( dwell for no time -- G64 should not smooth over this point )
G01 F120.00000
G01 X-15.72265 Y-34.97603
G01 X-15.73916 Y-35.19620
G01 X-15.78828 Y-35.41146
G01 X-15.87472 Y-35.62698
G01 X-15.91348 Y-35.58822
G01 X-15.88803 Y-35.53419
G01 X-15.80436 Y-35.27268
G01 X-15.77320 Y-34.97603
G01 X-15.80436 Y-34.67938
G01 X-15.88803 Y-34.41786
G01 X-15.91351 Y-34.36384
G01 X-15.87472 Y-34.32505
G01 X-15.78828 Y-34.54057
G01 X-15.73916 Y-34.75584
G01 X-15.72265 Y-34.97603
G04 P0 ( dwell for no time -- G64 should not smooth over this point )
G00 Z2.00000 ( retract )

G00 X-16.55145 Y-36.29884 ( rapid move to begin. )
G01 F60.00000
( Mill infeed pass 1/1 )
G01 Z-0.10000
G04 P0 ( dwell for no time -- G64 should not smooth over this point )
G01 F120.00000
G01 X-16.55145 Y-36.29884
G01 X-16.59085 Y-36.25944
G01 X-16.75907 Y-36.33300
G01 X-17.02740 Y-36.39129
G01 X-17.07457 Y-36.39624
G01 X-17.32542 Y-36.39624
G01 X-17.37258 Y-36.39129
G01 X-17.64088 Y-36.33300
G01 X-17.80911 Y-36.25947
G01 X-17.84848 Y-36.29884
G01 X-17.73969 Y-36.35121
G01 X-17.52872 Y-36.41631
G01 X-17.31035 Y-36.44920
G01 X-17.08958 Y-36.44920
G01 X-16.87124 Y-36.41631
G01 X-16.66024 Y-36.35121
G01 X-16.55145 Y-36.29884
G04 P0 ( dwell for no time -- G64 should not smooth over this point )
G00 Z2.00000 ( retract )

G00 X-18.48648 Y-35.58822 ( rapid move to begin. )
G01 F60.00000
( Mill infeed pass 1/1 )
G01 Z-0.10000
G04 P0 ( dwell for no time -- G64 should not smooth over this point )
G01 F120.00000
G01 X-18.48648 Y-35.58822
G01 X-18.51195 Y-35.53419
G01 X-18.59562 Y-35.27268
G01 X-18.62679 Y-34.97603
G01 X-18.59562 Y-34.67938
G01 X-18.51195 Y-34.41786
G01 X-18.48648 Y-34.36381
G01 X-18.52524 Y-34.32505
G01 X-18.61167 Y-34.54057
G01 X-18.66080 Y-34.75584
G01 X-18.67731 Y-34.97603
G01 X-18.66080 Y-35.19620
G01 X-18.61167 Y-35.41146
G01 X-18.52524 Y-35.62698
G01 X-18.48648 Y-35.58822
G04 P0 ( dwell for no time -- G64 should not smooth over this point )
G00 Z2.00000 ( retract )

G00 X-27.25179 Y-36.61542 ( rapid move to begin. )
G01 F60.00000
( Mill infeed pass 1/1 )
G01 Z-0.10000
G04 P0 ( dwell for no time -- G64 should not smooth over this point )
G01 F120.00000
G01 X-27.25179 Y-36.61542
G01 X-27.25179 Y-35.14999
G01 X-27.24742 Y-35.10575
G01 X-27.23451 Y-35.06320
G01 X-27.21356 Y-35.02398
G01 X-27.18537 Y-34.98962
G01 X-27.15100 Y-34.96140
G01 X-27.11178 Y-34.94044
G01 X-27.06924 Y-34.92754
G01 X-27.02499 Y-34.92320
G01 X-25.32499 Y-34.92320
G01 X-25.28075 Y-34.92754
G01 X-25.23820 Y-34.94044
G01 X-25.19898 Y-34.96140
G01 X-25.16462 Y-34.98962
G01 X-25.13640 Y-35.02398
G01 X-25.11544 Y-35.06320
G01 X-25.10254 Y-35.10575
G01 X-25.09820 Y-35.14999
G01 X-25.09820 Y-36.84999
G01 X-25.10254 Y-36.89424
G01 X-25.11544 Y-36.93678
G01 X-25.13640 Y-36.97600
G01 X-25.16462 Y-37.01037
G01 X-25.19898 Y-37.03856
G01 X-25.23820 Y-37.05951
G01 X-25.28075 Y-37.07242
G01 X-25.32499 Y-37.07679
G01 X-25.44813 Y-37.07679
G01 X-25.44813 Y-45.25350
G01 X-25.35773 Y-45.29376
G01 X-25.31669 Y-45.31746
G01 X-25.04453 Y-45.51672
G01 X-24.81791 Y-45.76656
G01 X-24.79004 Y-45.80491
G01 X-24.62248 Y-46.09762
G01 X-24.51707 Y-46.41804
G01 X-24.50722 Y-46.46442
G01 X-24.47442 Y-46.77628
G01 X-24.47442 Y-46.82371
G01 X-24.51092 Y-47.15901
G01 X-24.62248 Y-47.50234
G01 X-24.80297 Y-47.81497
G01 X-25.02774 Y-48.06645
G01 X-25.06299 Y-48.09820
G01 X-25.31669 Y-48.28250
G01 X-25.35773 Y-48.30623
G01 X-25.66634 Y-48.44227
G01 X-26.01948 Y-48.51733
G01 X-26.38049 Y-48.51733
G01 X-26.73360 Y-48.44227
G01 X-27.06340 Y-48.29543
G01 X-27.33700 Y-48.09820
G01 X-27.37223 Y-48.06645
G01 X-27.59700 Y-47.81497
G01 X-27.76672 Y-47.52350
G01 X-27.78600 Y-47.48017
G01 X-27.88290 Y-47.18195
G01 X-27.89276 Y-47.13557
G01 X-27.92679 Y-46.79998
G01 X-27.89276 Y-46.46442
G01 X-27.88290 Y-46.41804
G01 X-27.78600 Y-46.11980
G01 X-27.76672 Y-46.07649
G01 X-27.59700 Y-45.78500
G01 X-27.35544 Y-45.51672
G01 X-27.06340 Y-45.30453
G01 X-26.90178 Y-45.23123
G01 X-26.90178 Y-37.07679
G01 X-27.02499 Y-37.07679
G01 X-27.06924 Y-37.07242
G01 X-27.11178 Y-37.05951
G01 X-27.15100 Y-37.03856
G01 X-27.18537 Y-37.01037
G01 X-27.21356 Y-36.97600
G01 X-27.23451 Y-36.93678
G01 X-27.24742 Y-36.89424
G01 X-27.25179 Y-36.84999
G01 X-27.25179 Y-36.61542
G01 X-27.32029 Y-36.48202
G01 X-27.36629 Y-36.41400
G01 X-27.34198 Y-36.22764
G01 X-27.33291 Y-36.04989
G01 X-27.33220 Y-35.95594
G01 X-27.34269 Y-35.76640
G01 X-27.35306 Y-35.66955
G01 X-27.37990 Y-35.50006
G01 X-27.31663 Y-35.41517
G01 X-27.27173 Y-35.34529
G01 X-27.25179 Y-35.30712
G01 X-27.82651 Y-35.39457
G01 X-27.69283 Y-35.48901
G01 X-27.60254 Y-35.54382
G01 X-27.57747 Y-35.70209
G01 X-27.56850 Y-35.78718
G01 X-27.55951 Y-35.95893
G01 X-27.55951 Y-36.04100
G01 X-27.56850 Y-36.21275
G01 X-27.58874 Y-36.36904
G01 X-27.74475 Y-36.46378
G01 X-27.72278 Y-36.41580
G01 X-27.66786 Y-36.24679
G01 X-27.65801 Y-36.20041
G01 X-27.63820 Y-35.99998
G01 X-27.66172 Y-35.77610
G01 X-27.72278 Y-35.58418
G01 X-27.74206 Y-35.54087
G01 X-27.84384 Y-35.36706
G01 X-27.98816 Y-35.20608
G01 X-27.98816 Y-32.43895
G01 X-27.95722 Y-32.37512
G01 X-27.98816 Y-32.25376
G01 X-27.98816 Y-32.43895
G01 X-27.98816 Y-32.08292
G01 X-27.94615 Y-32.04627
G01 X-27.81930 Y-31.90352
G01 X-27.72273 Y-31.73877
G01 X-27.70345 Y-31.69547
G01 X-27.64561 Y-31.51348
G01 X-27.62443 Y-31.32369
G01 X-27.62443 Y-31.27629
G01 X-27.64191 Y-31.10995
G01 X-27.65176 Y-31.06356
G01 X-27.71196 Y-30.88236
G01 X-27.81930 Y-30.69646
G01 X-27.96294 Y-30.53692
G01 X-28.11668 Y-30.42369
G01 X-28.15773 Y-30.39996
G01 X-28.31054 Y-30.33194
G01 X-28.35562 Y-30.31729
G01 X-28.54267 Y-30.27881
G01 X-28.73360 Y-30.27756
G01 X-28.78077 Y-30.28252
G01 X-28.96728 Y-30.32343
G01 X-29.14223 Y-30.39996
G01 X-29.18330 Y-30.42369
G01 X-29.33705 Y-30.53692
G01 X-29.46575 Y-30.67799
G01 X-29.49362 Y-30.71635
G01 X-29.58803 Y-30.88236
G01 X-29.65435 Y-31.08650
G01 X-29.67678 Y-31.29999
G01 X-29.65435 Y-31.51348
G01 X-29.58803 Y-31.71762
G01 X-29.49362 Y-31.88360
G01 X-29.44177 Y-31.94860
G01 X-29.44177 Y-35.20603
G01 X-29.57119 Y-35.34862
G01 X-29.59908 Y-35.38698
G01 X-29.69870 Y-35.56201
G01 X-29.76006 Y-35.74684
G01 X-29.87159 Y-35.85360
G01 X-29.87159 Y-36.14880
G01 X-29.80400 Y-36.21044
G01 X-29.75765 Y-36.26056
G01 X-29.77198 Y-36.20041
G01 X-29.79179 Y-35.99998
G01 X-29.77198 Y-35.79955
G01 X-29.76006 Y-35.74684
G01 X-29.77198 Y-35.79955
G01 X-29.79179 Y-35.99998
G01 X-29.76827 Y-36.22385
G01 X-29.69870 Y-36.43795
G01 X-29.58615 Y-36.63292
G01 X-29.43550 Y-36.80021
G01 X-29.25338 Y-36.93251
G01 X-29.04774 Y-37.02408
G01 X-28.82755 Y-37.07089
G01 X-28.62613 Y-37.07214
G01 X-28.57899 Y-37.06719
G01 X-28.38224 Y-37.02408
G01 X-28.17658 Y-36.93251
G01 X-28.01292 Y-36.81514
G01 X-27.97769 Y-36.78342
G01 X-27.84384 Y-36.63292
G01 X-27.74475 Y-36.46378
G04 P0 ( dwell for no time -- G64 should not smooth over this point )
G00 Z2.00000 ( retract )

G00 X-30.21236 Y-35.73932 ( rapid move to begin. )
G01 F60.00000
( Mill infeed pass 1/1 )
G01 Z-0.10000
G04 P0 ( dwell for no time -- G64 should not smooth over this point )
G01 F120.00000
G01 X-30.21236 Y-35.73932
G01 X-30.19801 Y-35.79955
G01 X-30.17820 Y-35.99998
G01 X-30.09836 Y-36.14636
G01 X-30.20992 Y-36.25309
G01 X-30.09836 Y-36.14636
G01 X-30.09836 Y-35.85113
G01 X-30.16595 Y-35.78951
G01 X-30.21236 Y-35.73932
G01 X-30.27129 Y-35.56201
G01 X-30.38384 Y-35.36706
G01 X-30.53446 Y-35.19978
G01 X-30.71658 Y-35.06744
G01 X-30.92224 Y-34.97590
G01 X-31.14243 Y-34.92909
G01 X-31.36755 Y-34.92909
G01 X-31.58774 Y-34.97590
G01 X-31.77222 Y-35.05667
G01 X-31.81330 Y-35.08037
G01 X-31.97550 Y-35.19978
G01 X-32.04327 Y-35.27316
G01 X-37.19998 Y-35.27316
G01 X-37.34176 Y-35.28713
G01 X-37.45715 Y-35.32099
G01 X-37.49822 Y-35.33800
G01 X-37.58466 Y-35.38421
G01 X-37.62164 Y-35.40892
G01 X-37.71389 Y-35.48604
G01 X-39.81392 Y-37.58606
G01 X-39.89103 Y-37.67831
G01 X-39.91574 Y-37.71529
G01 X-39.96195 Y-37.80173
G01 X-39.97896 Y-37.84280
G01 X-40.01282 Y-37.95819
G01 X-40.02679 Y-38.10000
G01 X-40.02679 Y-44.44820
G01 X-40.14998 Y-44.44820
G01 X-40.19423 Y-44.45254
G01 X-40.23677 Y-44.46544
G01 X-40.27599 Y-44.48640
G01 X-40.31036 Y-44.51462
G01 X-40.33855 Y-44.54898
G01 X-40.35953 Y-44.58820
G01 X-40.37244 Y-44.63075
G01 X-40.37678 Y-44.67499
G01 X-40.37678 Y-46.37499
G01 X-40.37244 Y-46.41924
G01 X-40.35953 Y-46.46178
G01 X-40.33855 Y-46.50100
G01 X-40.31036 Y-46.53537
G01 X-40.27599 Y-46.56356
G01 X-40.23677 Y-46.58451
G01 X-40.19423 Y-46.59742
G01 X-40.14998 Y-46.60179
G01 X-40.02679 Y-46.60179
G01 X-40.02679 Y-47.27105
G01 X-40.17114 Y-47.43206
G01 X-40.28369 Y-47.62701
G01 X-40.35326 Y-47.84110
G01 X-40.37554 Y-48.04128
G01 X-40.37554 Y-48.08870
G01 X-40.35326 Y-48.28885
G01 X-40.28369 Y-48.50295
G01 X-40.17114 Y-48.69792
G01 X-40.03728 Y-48.84842
G01 X-40.00205 Y-48.88014
G01 X-39.85829 Y-48.98459
G01 X-39.81724 Y-49.00831
G01 X-39.63274 Y-49.08908
G01 X-39.43599 Y-49.13219
G01 X-39.38885 Y-49.13714
G01 X-39.18742 Y-49.13589
G01 X-38.96723 Y-49.08908
G01 X-38.78275 Y-49.00831
G01 X-38.74168 Y-48.98459
G01 X-38.57948 Y-48.86521
G01 X-38.44379 Y-48.71636
G01 X-38.41590 Y-48.67801
G01 X-38.31628 Y-48.50295
G01 X-38.25286 Y-48.31179
G01 X-38.24300 Y-48.26541
G01 X-38.22319 Y-48.06498
G01 X-38.24300 Y-47.86455
G01 X-38.25286 Y-47.81817
G01 X-38.30777 Y-47.64918
G01 X-38.32705 Y-47.60587
G01 X-38.42883 Y-47.43206
G01 X-38.57318 Y-47.27105
G01 X-38.57318 Y-46.60179
G01 X-38.44999 Y-46.60179
G01 X-38.40574 Y-46.59742
G01 X-38.36319 Y-46.58451
G01 X-38.32398 Y-46.56356
G01 X-38.28961 Y-46.53537
G01 X-38.26142 Y-46.50100
G01 X-38.24046 Y-46.46178
G01 X-38.22753 Y-46.41924
G01 X-38.22319 Y-46.37499
G01 X-38.22319 Y-44.67499
G01 X-38.22753 Y-44.63075
G01 X-38.24046 Y-44.58820
G01 X-38.26142 Y-44.54898
G01 X-38.28961 Y-44.51462
G01 X-38.32398 Y-44.48640
G01 X-38.36319 Y-44.46544
G01 X-38.40574 Y-44.45254
G01 X-38.44999 Y-44.44820
G01 X-38.57318 Y-44.44820
G01 X-38.57318 Y-38.40104
G01 X-36.89891 Y-36.72677
G01 X-32.04329 Y-36.72677
G01 X-31.97550 Y-36.80021
G01 X-31.81330 Y-36.91959
G01 X-31.77222 Y-36.94331
G01 X-31.58774 Y-37.02408
G01 X-31.36755 Y-37.07089
G01 X-31.14243 Y-37.07089
G01 X-30.92224 Y-37.02408
G01 X-30.71658 Y-36.93251
G01 X-30.53446 Y-36.80021
G01 X-30.39877 Y-36.65136
G01 X-30.37091 Y-36.61301
G01 X-30.28206 Y-36.45911
G01 X-30.26278 Y-36.41580
G01 X-30.20172 Y-36.22385
G01 X-30.17820 Y-35.99998
G04 P0 ( dwell for no time -- G64 should not smooth over this point )
G00 Z2.00000 ( retract )

G00 X-30.32935 Y-45.25505 ( rapid move to begin. )
G01 F60.00000
( Mill infeed pass 1/1 )
G01 Z-0.10000
G04 P0 ( dwell for no time -- G64 should not smooth over this point )
G01 F120.00000
G01 X-30.32935 Y-45.25505
G01 X-30.36489 Y-45.29059
G01 X-30.66639 Y-45.15769
G01 X-30.99605 Y-45.08637
G01 X-31.04319 Y-45.08139
G01 X-31.35678 Y-45.08139
G01 X-31.40392 Y-45.08637
G01 X-31.73359 Y-45.15769
G01 X-32.03509 Y-45.29056
G01 X-32.07062 Y-45.25505
G01 X-31.93849 Y-45.18289
G01 X-31.70080 Y-45.09425
G01 X-31.45300 Y-45.04032
G01 X-31.19999 Y-45.02224
G01 X-30.94695 Y-45.04032
G01 X-30.69915 Y-45.09425
G01 X-30.46148 Y-45.18289
G01 X-30.32935 Y-45.25505
G04 P0 ( dwell for no time -- G64 should not smooth over this point )
G00 Z2.00000 ( retract )

G00 X-29.42224 Y-46.79998 ( rapid move to begin. )
G01 F60.00000
( Mill infeed pass 1/1 )
G01 Z-0.10000
G04 P0 ( dwell for no time -- G64 should not smooth over this point )
G01 F120.00000
G01 X-29.42224 Y-46.79998
G01 X-29.44033 Y-47.05299
G01 X-29.49425 Y-47.30079
G01 X-29.58290 Y-47.53849
G01 X-29.65506 Y-47.67062
G01 X-29.69509 Y-47.63059
G01 X-29.62247 Y-47.50234
G01 X-29.51091 Y-47.15901
G01 X-29.47319 Y-46.79998
G01 X-29.51091 Y-46.44095
G01 X-29.62247 Y-46.09762
G01 X-29.69509 Y-45.96938
G01 X-29.65506 Y-45.92935
G01 X-29.58290 Y-46.06148
G01 X-29.49425 Y-46.29915
G01 X-29.44033 Y-46.54695
G01 X-29.42224 Y-46.79998
G04 P0 ( dwell for no time -- G64 should not smooth over this point )
G00 Z2.00000 ( retract )

G00 X-30.32933 Y-48.34491 ( rapid move to begin. )
G01 F60.00000
( Mill infeed pass 1/1 )
G01 Z-0.10000
G04 P0 ( dwell for no time -- G64 should not smooth over this point )
G01 F120.00000
G01 X-30.32933 Y-48.34491
G01 X-30.36486 Y-48.30938
G01 X-30.66639 Y-48.44227
G01 X-30.99605 Y-48.51362
G01 X-31.04319 Y-48.51857
G01 X-31.35678 Y-48.51857
G01 X-31.40392 Y-48.51362
G01 X-31.73359 Y-48.44227
G01 X-32.03511 Y-48.30940
G01 X-32.07062 Y-48.34491
G01 X-31.93849 Y-48.41705
G01 X-31.70083 Y-48.50569
G01 X-31.45300 Y-48.55962
G01 X-31.19999 Y-48.57770
G01 X-30.94695 Y-48.55962
G01 X-30.69913 Y-48.50569
G01 X-30.46146 Y-48.41705
G01 X-30.32933 Y-48.34491
G04 P0 ( dwell for no time -- G64 should not smooth over this point )
G00 Z2.00000 ( retract )

G00 X-32.70486 Y-45.96935 ( rapid move to begin. )
G01 F60.00000
( Mill infeed pass 1/1 )
G01 Z-0.10000
G04 P0 ( dwell for no time -- G64 should not smooth over this point )
G01 F120.00000
G01 X-32.70486 Y-45.96935
G01 X-32.74489 Y-45.92935
G01 X-32.81705 Y-46.06148
G01 X-32.90570 Y-46.29915
G01 X-32.95962 Y-46.54695
G01 X-32.97771 Y-46.79998
G01 X-32.95962 Y-47.05299
G01 X-32.90570 Y-47.30079
G01 X-32.81705 Y-47.53849
G01 X-32.74489 Y-47.67062
G01 X-32.70489 Y-47.63059
G01 X-32.77751 Y-47.50234
G01 X-32.88906 Y-47.15901
G01 X-32.92678 Y-46.79998
G01 X-32.88906 Y-46.44095
G01 X-32.77751 Y-46.09762
G01 X-32.70486 Y-45.96935
G04 P0 ( dwell for no time -- G64 should not smooth over this point )
G00 Z2.00000 ( retract )

G00 X-41.22100 Y-32.31774 ( rapid move to begin. )
G01 F60.00000
( Mill infeed pass 1/1 )
G01 Z-0.10000
G04 P0 ( dwell for no time -- G64 should not smooth over this point )
G01 F120.00000
G01 X-41.22100 Y-32.31774
G01 X-41.31244 Y-32.36293
G01 X-41.45984 Y-32.42399
G01 X-41.52712 Y-32.38127
G01 X-41.62057 Y-32.32968
G01 X-41.73662 Y-32.27530
G01 X-41.86768 Y-32.22577
G01 X-42.12613 Y-32.14233
G01 X-42.16123 Y-32.13674
G01 X-42.16077 Y-32.13390
G01 X-42.16123 Y-32.13674
G01 X-43.65683 Y-32.13580
G01 X-43.85241 Y-32.20034
G01 X-43.92612 Y-32.22015
G01 X-44.07322 Y-32.25142
G01 X-44.15561 Y-32.28269
G01 X-44.34322 Y-32.32122
G01 X-44.44418 Y-32.32201
G01 X-56.67317 Y-44.55102
G01 X-56.67317 Y-45.24235
G01 X-56.53659 Y-45.30453
G01 X-56.26298 Y-45.50179
G01 X-56.22775 Y-45.53351
G01 X-56.00299 Y-45.78500
G01 X-55.82247 Y-46.09762
G01 X-55.71091 Y-46.44095
G01 X-55.67319 Y-46.79998
G01 X-55.71091 Y-47.15901
G01 X-55.82247 Y-47.50234
G01 X-55.99006 Y-47.79505
G01 X-56.01792 Y-47.83343
G01 X-56.24454 Y-48.08324
G01 X-56.53659 Y-48.29543
G01 X-56.86638 Y-48.44227
G01 X-57.21949 Y-48.51733
G01 X-57.58048 Y-48.51733
G01 X-57.93359 Y-48.44227
G01 X-58.26338 Y-48.29543
G01 X-58.55543 Y-48.08324
G01 X-58.79699 Y-47.81497
G01 X-58.96671 Y-47.52350
G01 X-58.98601 Y-47.48017
G01 X-59.08291 Y-47.18195
G01 X-59.09277 Y-47.13557
G01 X-59.12678 Y-46.79998
G01 X-59.09277 Y-46.46442
G01 X-59.08291 Y-46.41804
G01 X-58.97750 Y-46.09762
G01 X-58.79699 Y-45.78500
G01 X-58.57222 Y-45.53351
G01 X-58.53699 Y-45.50179
G01 X-58.26338 Y-45.30453
G01 X-58.12678 Y-45.24235
G01 X-58.12678 Y-44.24997
G01 X-58.11606 Y-44.13019
G01 X-58.10740 Y-44.08658
G01 X-58.07895 Y-43.99277
G01 X-58.06194 Y-43.95170
G01 X-58.00428 Y-43.84617
G01 X-57.91390 Y-43.73603
G01 X-45.47672 Y-31.29887
G01 X-45.45434 Y-31.08650
G01 X-45.38802 Y-30.88236
G01 X-45.28068 Y-30.69646
G01 X-45.15383 Y-30.55371
G01 X-45.09539 Y-30.50512
G01 X-45.13704 Y-30.53692
G01 X-45.16143 Y-30.56217
G01 X-45.14220 Y-30.51203
G01 X-45.09539 Y-30.50512
G01 X-44.96338 Y-30.41076
G01 X-44.76730 Y-30.32343
G01 X-44.55731 Y-30.27881
G01 X-44.36636 Y-30.27756
G01 X-44.31922 Y-30.28252
G01 X-44.13268 Y-30.32343
G01 X-43.95775 Y-30.39996
G01 X-43.91668 Y-30.42369
G01 X-43.78137 Y-30.52199
G01 X-43.72861 Y-30.57317
G01 X-42.07137 Y-30.57317
G01 X-42.06679 Y-30.56809
G01 X-42.06679 Y-30.55287
G01 X-42.08673 Y-30.57317
G01 X-42.06679 Y-30.55287
G01 X-42.06679 Y-25.94577
G01 X-42.17068 Y-25.82852
G01 X-42.26723 Y-25.66378
G01 X-42.28653 Y-25.62047
G01 X-42.34434 Y-25.43846
G01 X-42.36679 Y-25.22499
G01 X-42.36679 Y-24.42500
G01 X-42.35084 Y-24.26144
G01 X-42.36679 Y-24.42500
G01 X-42.36679 Y-25.22499
G01 X-42.35110 Y-25.38618
G01 X-42.43568 Y-25.28918
G01 X-42.49659 Y-25.22692
G01 X-42.49659 Y-24.42230
G01 X-42.40548 Y-24.32705
G01 X-42.35084 Y-24.26144
G01 X-42.33819 Y-24.18857
G01 X-42.27802 Y-24.00734
G01 X-42.17068 Y-23.82144
G01 X-42.02704 Y-23.66193
G01 X-41.87330 Y-23.54867
G01 X-41.83223 Y-23.52497
G01 X-41.65730 Y-23.44844
G01 X-41.44731 Y-23.40381
G01 X-41.23266 Y-23.40381
G01 X-41.02268 Y-23.44844
G01 X-40.82659 Y-23.53574
G01 X-40.65293 Y-23.66193
G01 X-40.50929 Y-23.82144
G01 X-40.41275 Y-23.98621
G01 X-40.38201 Y-24.06470
G01 X-40.29359 Y-24.13411
G01 X-40.19438 Y-24.20267
G01 X-40.18336 Y-24.42647
G01 X-40.18336 Y-25.22350
G01 X-40.31318 Y-25.22499
G01 X-40.18336 Y-25.22350
G01 X-40.19311 Y-25.43261
G01 X-40.20317 Y-25.52807
G01 X-40.22872 Y-25.68943
G01 X-40.25108 Y-25.79426
G01 X-40.32641 Y-26.06429
G01 X-40.33124 Y-26.09845
G01 X-40.33606 Y-26.09825
G01 X-40.33124 Y-26.09845
G01 X-40.28361 Y-26.39604
G01 X-40.18336 Y-26.65588
G01 X-40.18504 Y-30.39123
G01 X-40.11706 Y-30.64807
G01 X-40.09611 Y-30.74269
G01 X-40.14114 Y-30.93027
G01 X-40.17528 Y-31.04614
G01 X-40.23512 Y-31.21518
G01 X-40.26786 Y-31.29443
G01 X-40.33647 Y-31.43832
G01 X-40.26786 Y-31.29443
G01 X-40.23512 Y-31.21518
G01 X-40.17528 Y-31.04614
G01 X-40.14851 Y-30.95531
G01 X-40.18780 Y-30.83443
G01 X-40.22636 Y-30.74782
G01 X-40.33583 Y-30.56316
G01 X-40.38643 Y-30.50327
G01 X-40.39588 Y-30.50609
G01 X-40.38643 Y-30.50327
G01 X-40.38643 Y-26.03282
G01 X-40.39735 Y-26.02928
G01 X-40.38643 Y-26.03282
G01 X-40.32583 Y-25.96180
G01 X-40.27256 Y-25.87452
G01 X-40.22872 Y-25.68943
G01 X-40.20317 Y-25.52807
G01 X-40.19311 Y-25.43261
G01 X-40.18336 Y-25.22350
G01 X-40.18336 Y-24.42647
G01 X-40.19438 Y-24.20267
G01 X-40.29359 Y-24.13411
G01 X-40.38201 Y-24.06470
G01 X-40.33563 Y-24.21151
G01 X-40.31318 Y-24.42500
G01 X-40.31318 Y-25.22499
G01 X-40.33192 Y-25.41501
G01 X-40.34178 Y-25.46137
G01 X-40.39344 Y-25.62047
G01 X-40.41275 Y-25.66378
G01 X-40.50929 Y-25.82852
G01 X-40.61318 Y-25.94577
G01 X-40.61318 Y-30.59031
G01 X-40.51930 Y-30.69646
G01 X-40.42273 Y-30.86120
G01 X-40.40345 Y-30.90451
G01 X-40.34561 Y-31.08650
G01 X-40.32319 Y-31.29999
G01 X-40.34191 Y-31.49003
G01 X-40.35176 Y-31.53641
G01 X-40.41196 Y-31.71762
G01 X-40.51930 Y-31.90352
G01 X-40.64615 Y-32.04627
G01 X-40.68138 Y-32.07799
G01 X-40.83660 Y-32.18922
G01 X-41.01054 Y-32.26803
G01 X-41.05562 Y-32.28269
G01 X-41.24267 Y-32.32117
G01 X-41.45732 Y-32.32117
G01 X-41.66728 Y-32.27654
G01 X-41.86339 Y-32.18922
G01 X-42.01861 Y-32.07799
G01 X-42.07139 Y-32.02678
G01 X-43.72859 Y-32.02678
G01 X-43.78137 Y-32.07799
G01 X-43.91668 Y-32.17629
G01 X-43.95775 Y-32.20001
G01 X-44.07322 Y-32.25142
G04 P0 ( dwell for no time -- G64 should not smooth over this point )
G00 Z2.00000 ( retract )

G00 X-46.89678 Y-26.18649 ( rapid move to begin. )
G01 F60.00000
( Mill infeed pass 1/1 )
G01 Z-0.10000
G04 P0 ( dwell for no time -- G64 should not smooth over this point )
G01 F120.00000
G01 X-46.89678 Y-26.18649
G01 X-46.89678 Y-26.13185
G01 X-46.95330 Y-26.10127
G01 X-47.10704 Y-25.98806
G01 X-47.25068 Y-25.82852
G01 X-47.34723 Y-25.66378
G01 X-47.36653 Y-25.62047
G01 X-47.42434 Y-25.43846
G01 X-47.43996 Y-25.30178
G01 X-47.49317 Y-25.30178
G01 X-47.46673 Y-25.47628
G01 X-47.41454 Y-25.63693
G01 X-47.33788 Y-25.78745
G01 X-47.23856 Y-25.92410
G01 X-47.11911 Y-26.04356
G01 X-46.98246 Y-26.14287
G01 X-46.89678 Y-26.18649
G04 P0 ( dwell for no time -- G64 should not smooth over this point )
G00 Z2.00000 ( retract )

G00 X-45.53179 Y-26.17874 ( rapid move to begin. )
G01 F60.00000
( Mill infeed pass 1/1 )
G01 Z-0.10000
G04 P0 ( dwell for no time -- G64 should not smooth over this point )
G01 F120.00000
G01 X-45.53179 Y-26.17874
G01 X-45.55907 Y-26.15933
G01 X-45.59831 Y-26.14138
G01 X-45.64022 Y-26.13124
G01 X-45.74327 Y-26.11902
G01 X-45.77710 Y-26.12177
G01 X-45.84878 Y-26.14186
G01 X-45.94316 Y-26.18649
G01 X-45.94316 Y-26.13185
G01 X-45.88667 Y-26.10127
G01 X-45.73293 Y-25.98806
G01 X-45.60423 Y-25.84696
G01 X-45.57636 Y-25.80861
G01 X-45.49275 Y-25.66378
G01 X-45.47344 Y-25.62047
G01 X-45.41563 Y-25.43846
G01 X-45.39442 Y-25.24869
G01 X-45.39318 Y-24.42500
G01 X-45.41192 Y-24.23495
G01 X-45.42178 Y-24.18857
G01 X-45.48195 Y-24.00734
G01 X-45.58929 Y-23.82144
G01 X-45.73293 Y-23.66193
G01 X-45.88667 Y-23.54867
G01 X-45.94316 Y-23.51811
G01 X-45.94316 Y-23.46343
G01 X-45.85343 Y-23.50656
G01 X-45.75350 Y-23.52769
G01 X-45.71053 Y-23.53160
G01 X-45.66760 Y-23.52728
G01 X-45.62627 Y-23.51494
G01 X-45.56153 Y-23.48865
G01 X-45.52333 Y-23.46871
G01 X-45.48957 Y-23.44189
G01 X-45.46150 Y-23.40920
G01 X-45.40380 Y-23.32294
G01 X-45.39089 Y-23.29150
G01 X-45.38284 Y-23.25848
G01 X-45.37316 Y-23.18141
G01 X-45.37316 Y-22.82398
G01 X-45.38236 Y-22.76008
G01 X-45.41807 Y-22.65302
G01 X-45.44136 Y-22.61674
G01 X-45.47111 Y-22.58555
G01 X-45.55442 Y-22.51751
G01 X-45.58817 Y-22.50062
G01 X-45.62427 Y-22.48954
G01 X-45.69973 Y-22.47445
G01 X-67.87599 Y-22.47316
G01 X-67.93987 Y-22.48235
G01 X-68.00690 Y-22.50204
G01 X-68.04693 Y-22.51807
G01 X-68.08320 Y-22.54136
G01 X-68.11439 Y-22.57110
G01 X-68.18244 Y-22.65441
G01 X-68.19933 Y-22.68817
G01 X-68.21040 Y-22.72426
G01 X-68.22161 Y-22.77577
G01 X-68.22679 Y-22.82398
G01 X-68.22679 Y-25.90767
G01 X-68.21848 Y-25.90998
G01 X-68.22679 Y-25.90767
G01 X-68.36824 Y-26.14282
G01 X-68.43857 Y-26.23071
G01 X-68.43860 Y-26.37015
G01 X-68.40667 Y-26.40846
G01 X-68.25140 Y-26.64313
G01 X-68.22679 Y-26.69370
G01 X-68.21731 Y-26.69088
G01 X-68.22679 Y-26.69370
G01 X-68.22679 Y-25.90767
G01 X-68.22679 Y-30.17548
G01 X-68.21759 Y-30.23936
G01 X-68.19791 Y-30.30642
G01 X-68.18188 Y-30.34645
G01 X-68.15856 Y-30.38274
G01 X-68.07599 Y-30.45968
G01 X-68.04551 Y-30.48193
G01 X-68.01175 Y-30.49882
G01 X-67.92417 Y-30.52110
G01 X-67.87599 Y-30.52628
G01 X-58.02757 Y-30.52628
G01 X-57.96366 Y-30.51708
G01 X-57.86229 Y-30.48419
G01 X-57.83052 Y-30.46562
G01 X-57.68929 Y-30.36595
G01 X-57.51891 Y-30.28635
G01 X-57.33727 Y-30.23768
G01 X-57.14997 Y-30.22133
G01 X-56.96265 Y-30.23768
G01 X-56.78104 Y-30.28635
G01 X-56.61063 Y-30.36580
G01 X-56.45661 Y-30.47365
G01 X-56.32369 Y-30.60662
G01 X-56.21581 Y-30.76064
G01 X-56.13636 Y-30.93105
G01 X-56.08770 Y-31.11266
G01 X-56.07131 Y-31.29999
G01 X-56.08770 Y-31.48729
G01 X-56.13636 Y-31.66890
G01 X-56.21581 Y-31.83931
G01 X-56.32369 Y-31.99333
G01 X-56.45661 Y-32.12630
G01 X-56.61063 Y-32.23415
G01 X-56.78104 Y-32.31360
G01 X-56.96267 Y-32.36227
G01 X-57.14997 Y-32.37862
G01 X-57.33727 Y-32.36227
G01 X-57.51891 Y-32.31360
G01 X-57.68927 Y-32.23405
G01 X-57.85411 Y-32.12051
G01 X-57.95020 Y-32.08566
G01 X-57.98594 Y-32.07677
G01 X-58.02264 Y-32.07377
G01 X-67.90825 Y-32.07598
G01 X-68.00690 Y-32.10255
G01 X-68.04693 Y-32.11858
G01 X-68.08320 Y-32.14187
G01 X-68.11439 Y-32.17161
G01 X-68.16486 Y-32.23357
G01 X-68.19730 Y-32.24660
G01 X-68.38135 Y-32.35597
G01 X-68.37939 Y-32.36316
G01 X-68.38135 Y-32.35597
G01 X-68.42163 Y-32.36336
G01 X-68.87588 Y-32.36336
G01 X-69.06816 Y-32.47316
G01 X-69.06628 Y-32.47992
G01 X-69.06816 Y-32.47316
G01 X-68.87588 Y-32.36336
G01 X-68.40116 Y-32.36148
G01 X-68.36288 Y-32.34693
G01 X-68.19730 Y-32.24660
G01 X-68.16588 Y-32.23224
G01 X-68.18244 Y-32.25493
G01 X-68.19933 Y-32.28868
G01 X-68.21040 Y-32.32478
G01 X-68.22549 Y-32.40024
G01 X-68.22679 Y-32.47316
G01 X-69.11950 Y-32.47316
G01 X-69.18338 Y-32.48236
G01 X-69.28424 Y-32.51500
G01 X-69.31556 Y-32.53316
G01 X-69.43362 Y-32.64248
G01 X-69.63811 Y-32.79661
G01 X-69.86102 Y-32.91802
G01 X-70.09882 Y-33.00674
G01 X-70.34682 Y-33.06067
G01 X-70.59999 Y-33.07878
G01 X-70.85312 Y-33.06067
G01 X-71.10113 Y-33.00674
G01 X-71.33892 Y-32.91802
G01 X-71.56186 Y-32.79663
G01 X-71.76447 Y-32.64388
G01 X-71.83239 Y-32.57596
G01 X-71.88413 Y-32.53722
G01 X-71.94547 Y-32.50374
G01 X-71.98632 Y-32.48640
G01 X-72.05612 Y-32.47448
G01 X-72.13178 Y-32.47316
G01 X-72.15914 Y-32.45828
G01 X-72.19173 Y-32.47316
G01 X-72.19061 Y-32.47834
G01 X-72.19173 Y-32.47316
G01 X-72.13178 Y-32.47316
G01 X-72.13318 Y-32.47776
G01 X-72.13178 Y-32.47316
G01 X-75.47549 Y-32.47316
G01 X-75.53937 Y-32.48236
G01 X-75.64643 Y-32.51807
G01 X-75.68270 Y-32.54136
G01 X-75.70503 Y-32.56267
G01 X-75.70262 Y-32.57111
G01 X-75.70503 Y-32.56267
G01 X-75.75212 Y-32.56128
G01 X-75.95448 Y-32.56605
G01 X-76.09997 Y-32.56417
G01 X-76.09997 Y-47.21192
G01 X-75.88115 Y-47.13536
G01 X-75.65542 Y-47.02020
G01 X-75.58827 Y-46.97837
G01 X-75.42827 Y-46.84718
G01 X-75.42952 Y-46.84486
G01 X-75.42827 Y-46.84718
G01 X-75.58827 Y-46.97837
G01 X-75.65542 Y-47.02020
G01 X-75.88115 Y-47.13536
G01 X-75.93503 Y-47.15421
G01 X-75.97257 Y-47.12746
G01 X-76.02537 Y-47.08169
G01 X-76.09997 Y-47.00346
G01 X-76.02537 Y-47.08169
G01 X-75.97257 Y-47.12746
G01 X-75.93503 Y-47.15421
G01 X-75.88115 Y-47.13536
G01 X-75.68735 Y-47.03651
G01 X-75.75377 Y-47.00615
G01 X-75.82405 Y-46.95612
G01 X-75.87686 Y-46.91035
G01 X-75.93635 Y-46.84796
G01 X-75.98293 Y-46.77545
G01 X-76.01499 Y-46.69541
G01 X-76.04841 Y-46.56513
G01 X-76.05304 Y-46.50059
G01 X-76.05304 Y-32.82399
G01 X-76.05044 Y-32.77550
G01 X-76.03147 Y-32.67608
G01 X-76.00935 Y-32.60390
G01 X-75.99020 Y-32.56567
G01 X-75.75212 Y-32.56128
G01 X-75.70503 Y-32.56267
G01 X-75.75967 Y-32.62391
G01 X-75.78194 Y-32.65442
G01 X-75.79883 Y-32.68817
G01 X-75.82111 Y-32.77578
G01 X-75.82629 Y-32.82399
G01 X-75.82629 Y-46.50059
G01 X-75.81709 Y-46.56447
G01 X-75.78138 Y-46.67153
G01 X-75.75809 Y-46.70781
G01 X-75.67554 Y-46.78477
G01 X-75.64039 Y-46.80979
G01 X-75.60114 Y-46.82772
G01 X-75.55923 Y-46.83788
G01 X-75.49007 Y-46.84781
G01 X-75.44702 Y-46.84984
G01 X-75.40437 Y-46.84372
G01 X-75.36365 Y-46.82962
G01 X-75.26851 Y-46.78304
G01 X-75.24011 Y-46.76066
G01 X-75.18634 Y-46.69660
G01 X-75.16289 Y-46.65983
G01 X-75.11242 Y-46.56074
G01 X-74.91451 Y-46.25513
G01 X-74.68522 Y-45.97222
G01 X-74.42774 Y-45.71474
G01 X-74.14473 Y-45.48558
G01 X-73.83937 Y-45.28726
G01 X-73.51494 Y-45.12196
G01 X-73.17496 Y-44.99148
G01 X-72.82325 Y-44.89722
G01 X-72.46361 Y-44.84027
G01 X-72.09998 Y-44.82120
G01 X-71.73636 Y-44.84027
G01 X-71.37669 Y-44.89722
G01 X-71.02498 Y-44.99148
G01 X-70.68502 Y-45.12196
G01 X-70.36059 Y-45.28726
G01 X-70.05521 Y-45.48558
G01 X-69.77220 Y-45.71474
G01 X-69.51472 Y-45.97222
G01 X-69.28556 Y-46.25520
G01 X-69.08726 Y-46.56059
G01 X-68.92196 Y-46.88502
G01 X-68.79148 Y-47.22498
G01 X-68.69720 Y-47.57669
G01 X-68.64025 Y-47.93635
G01 X-68.62120 Y-48.29998
G01 X-68.64025 Y-48.66361
G01 X-68.69720 Y-49.02324
G01 X-68.79148 Y-49.37498
G01 X-68.92196 Y-49.71494
G01 X-69.08726 Y-50.03937
G01 X-69.28556 Y-50.34476
G01 X-69.51475 Y-50.62774
G01 X-69.77220 Y-50.88522
G01 X-70.05510 Y-51.11450
G01 X-70.36074 Y-51.31242
G01 X-70.48754 Y-51.37960
G01 X-70.56341 Y-51.44808
G01 X-70.59178 Y-51.48054
G01 X-70.61352 Y-51.51775
G01 X-70.62782 Y-51.55847
G01 X-70.63984 Y-51.60693
G01 X-70.63727 Y-51.60818
G01 X-70.64583 Y-51.61242
G01 X-70.68607 Y-51.66042
G01 X-70.80954 Y-51.85407
G01 X-70.88221 Y-51.99489
G01 X-70.94939 Y-52.14567
G01 X-70.91825 Y-52.18989
G01 X-70.79945 Y-52.29997
G01 X-70.91825 Y-52.18989
G01 X-70.94939 Y-52.14567
G01 X-71.01817 Y-52.29997
G01 X-6.07916 Y-52.29997
G01 X-6.12071 Y-52.18963
G01 X-6.21629 Y-51.99126
G01 X-6.33131 Y-51.78245
G01 X-6.45460 Y-51.61547
G01 X-6.33131 Y-51.78245
G01 X-6.21629 Y-51.99126
G01 X-6.14652 Y-52.13612
G01 X-6.17248 Y-52.17254
G01 X-6.21825 Y-52.22537
G01 X-6.29651 Y-52.29997
G01 X-6.21825 Y-52.22537
G01 X-6.17248 Y-52.17254
G01 X-6.14652 Y-52.13612
G01 X-6.21629 Y-51.99126
G01 X-6.26801 Y-51.89736
G01 X-6.29379 Y-51.95377
G01 X-6.34383 Y-52.02405
G01 X-6.38957 Y-52.07683
G01 X-6.45198 Y-52.13632
G01 X-6.52450 Y-52.18293
G01 X-6.60453 Y-52.21498
G01 X-6.73481 Y-52.24841
G01 X-6.79938 Y-52.25301
G01 X-70.30060 Y-52.25301
G01 X-70.38739 Y-52.24465
G01 X-70.50364 Y-52.21610
G01 X-70.56930 Y-52.18585
G01 X-70.62932 Y-52.14551
G01 X-70.68403 Y-52.10208
G01 X-70.74616 Y-52.04226
G01 X-70.79582 Y-51.97178
G01 X-70.83006 Y-51.89583
G01 X-70.80954 Y-51.85407
G01 X-70.68607 Y-51.66042
G01 X-70.63984 Y-51.60693
G01 X-70.65094 Y-51.66891
G01 X-70.64911 Y-51.71199
G01 X-70.61662 Y-51.82006
G01 X-70.59889 Y-51.85936
G01 X-70.57405 Y-51.89461
G01 X-70.54299 Y-51.92448
G01 X-70.45828 Y-51.98814
G01 X-70.42544 Y-52.00327
G01 X-70.39061 Y-52.01300
G01 X-70.30060 Y-52.02629
G01 X-6.79938 Y-52.02629
G01 X-6.73547 Y-52.01709
G01 X-6.62841 Y-51.98138
G01 X-6.59214 Y-51.95809
G01 X-6.51515 Y-51.87554
G01 X-6.49016 Y-51.84038
G01 X-6.47220 Y-51.80114
G01 X-6.45213 Y-51.69004
G01 X-6.45008 Y-51.64696
G01 X-6.45622 Y-51.60432
G01 X-6.47035 Y-51.56357
G01 X-6.51695 Y-51.46845
G01 X-6.53931 Y-51.44013
G01 X-6.60326 Y-51.38638
G01 X-6.64012 Y-51.36289
G01 X-6.73920 Y-51.31242
G01 X-7.04484 Y-51.11450
G01 X-7.32775 Y-50.88522
G01 X-7.58520 Y-50.62774
G01 X-7.81439 Y-50.34476
G01 X-8.01268 Y-50.03937
G01 X-8.17799 Y-49.71494
G01 X-8.30847 Y-49.37496
G01 X-8.40275 Y-49.02324
G01 X-8.45970 Y-48.66361
G01 X-8.47875 Y-48.29998
G01 X-8.45977 Y-47.93633
G01 X-8.40242 Y-47.57674
G01 X-8.38253 Y-47.50242
G01 X-8.37486 Y-47.43839
G01 X-8.38162 Y-47.32569
G01 X-8.39475 Y-47.28461
G01 X-8.44438 Y-47.20399
G01 X-8.45322 Y-47.13534
G01 X-8.48312 Y-47.02406
G01 X-8.52056 Y-47.03128
G01 X-8.64230 Y-47.07204
G01 X-8.64192 Y-47.07583
G01 X-8.64230 Y-47.07204
G01 X-8.61736 Y-47.08002
G01 X-8.55312 Y-47.10753
G01 X-8.51530 Y-47.12820
G01 X-8.48205 Y-47.15563
G01 X-8.44438 Y-47.20399
G01 X-8.48205 Y-47.15563
G01 X-8.51530 Y-47.12820
G01 X-8.55312 Y-47.10753
G01 X-8.65843 Y-47.06689
G01 X-8.70125 Y-47.06178
G01 X-8.74425 Y-47.06485
G01 X-8.84629 Y-47.08461
G01 X-8.87783 Y-47.09767
G01 X-8.94057 Y-47.13917
G01 X-8.96940 Y-47.16358
G01 X-9.20608 Y-47.40178
G01 X-9.33298 Y-47.48660
G01 X-9.47397 Y-47.54499
G01 X-9.62368 Y-47.57476
G01 X-19.10773 Y-47.57598
G01 X-19.20641 Y-47.60255
G01 X-19.24644 Y-47.61857
G01 X-19.28274 Y-47.64189
G01 X-19.31393 Y-47.67166
G01 X-19.38193 Y-47.75495
G01 X-19.39882 Y-47.78870
G01 X-19.40989 Y-47.82477
G01 X-19.42498 Y-47.90023
G01 X-19.42833 Y-48.35487
G01 X-19.42488 Y-48.35550
G01 X-19.42833 Y-48.35487
G01 X-19.45526 Y-48.43363
G01 X-19.50278 Y-48.49716
G01 X-19.56633 Y-48.54471
G01 X-19.64505 Y-48.57161
G01 X-19.64441 Y-48.57521
G01 X-19.64505 Y-48.57161
G01 X-22.75492 Y-48.57161
G01 X-22.75556 Y-48.57521
G01 X-22.75492 Y-48.57161
G01 X-22.83361 Y-48.54473
G01 X-22.89716 Y-48.49716
G01 X-22.94268 Y-48.43249
G01 X-22.94550 Y-48.43394
G01 X-22.94268 Y-48.43249
G01 X-22.97161 Y-48.35492
G01 X-22.97367 Y-48.33572
G01 X-22.97641 Y-48.33612
G01 X-22.97367 Y-48.33572
G01 X-22.97161 Y-45.24505
G01 X-22.97521 Y-45.24441
G01 X-22.97161 Y-45.24505
G01 X-22.94471 Y-45.16633
G01 X-22.89716 Y-45.10278
G01 X-22.83252 Y-45.05729
G01 X-22.83396 Y-45.05447
G01 X-22.83252 Y-45.05729
G01 X-22.75487 Y-45.02833
G01 X-22.73567 Y-45.02628
G01 X-22.73607 Y-45.02353
G01 X-22.73567 Y-45.02628
G01 X-19.64507 Y-45.02833
G01 X-19.64444 Y-45.02475
G01 X-19.64507 Y-45.02833
G01 X-19.56631 Y-45.05526
G01 X-19.50281 Y-45.10278
G01 X-19.45526 Y-45.16633
G01 X-19.42833 Y-45.24507
G01 X-19.42493 Y-45.24444
G01 X-19.42833 Y-45.24507
G01 X-19.42396 Y-45.70776
G01 X-19.39740 Y-45.80641
G01 X-19.38137 Y-45.84647
G01 X-19.35805 Y-45.88274
G01 X-19.32828 Y-45.91393
G01 X-19.24500 Y-45.98192
G01 X-19.21124 Y-45.99882
G01 X-19.17517 Y-46.00989
G01 X-19.09971 Y-46.02498
G01 X-10.16577 Y-46.02627
G01 X-10.10186 Y-46.01708
G01 X-10.03483 Y-45.99739
G01 X-9.99368 Y-45.98078
G01 X-9.95657 Y-45.95650
G01 X-9.91771 Y-45.92353
G01 X-2.87642 Y-38.88224
G01 X-2.83771 Y-38.83053
G01 X-2.80424 Y-38.76919
G01 X-2.78689 Y-38.72835
G01 X-2.77782 Y-38.68489
G01 X-2.77365 Y-38.63421
G01 X-2.77597 Y-36.33480
G01 X-2.80253 Y-36.23612
G01 X-2.81856 Y-36.19609
G01 X-2.84188 Y-36.15980
G01 X-2.87165 Y-36.12860
G01 X-2.93309 Y-36.07811
G01 X-2.94592 Y-36.04720
G01 X-3.08458 Y-35.83678
G01 X-3.09880 Y-35.79589
G01 X-3.10680 Y-35.79810
G01 X-3.09880 Y-35.79589
G01 X-3.10322 Y-35.77466
G01 X-3.10271 Y-34.22350
G01 X-3.09923 Y-34.20461
G01 X-3.10733 Y-34.20237
G01 X-3.09923 Y-34.20461
G01 X-3.08651 Y-34.16851
G01 X-3.08902 Y-34.16742
G01 X-3.08651 Y-34.16851
G01 X-3.05890 Y-34.13166
G01 X-2.93461 Y-33.92457
G01 X-3.05890 Y-34.13166
G01 X-3.08651 Y-34.16851
G01 X-3.09923 Y-34.20461
G01 X-3.10086 Y-35.77433
G01 X-3.09880 Y-35.79589
G01 X-3.08267 Y-35.83592
G01 X-2.94592 Y-36.04720
G01 X-2.93215 Y-36.07737
G01 X-2.95958 Y-36.05784
G01 X-2.99880 Y-36.03993
G01 X-3.04071 Y-36.02977
G01 X-3.15023 Y-36.01768
G01 X-3.19034 Y-36.02271
G01 X-3.22890 Y-36.03480
G01 X-3.31104 Y-36.07074
G01 X-3.34269 Y-36.09223
G01 X-3.42016 Y-36.12111
G01 X-3.84818 Y-36.12317
G01 X-3.84818 Y-36.07679
G01 X-3.47500 Y-36.07679
G01 X-3.43075 Y-36.07242
G01 X-3.38818 Y-36.05952
G01 X-3.34899 Y-36.03856
G01 X-3.31462 Y-36.01037
G01 X-3.28640 Y-35.97600
G01 X-3.26545 Y-35.93678
G01 X-3.25255 Y-35.89424
G01 X-3.24818 Y-35.84999
G01 X-3.24818 Y-34.15000
G01 X-3.25255 Y-34.10575
G01 X-3.26545 Y-34.06320
G01 X-3.28640 Y-34.02399
G01 X-3.31462 Y-33.98962
G01 X-3.34899 Y-33.96140
G01 X-3.38818 Y-33.94045
G01 X-3.43075 Y-33.92754
G01 X-3.47500 Y-33.92320
G01 X-3.84818 Y-33.92320
G01 X-3.84818 Y-33.87679
G01 X-3.42016 Y-33.87885
G01 X-3.34269 Y-33.90773
G01 X-3.30749 Y-33.93120
G01 X-3.21257 Y-33.96907
G01 X-3.17094 Y-33.98022
G01 X-3.12791 Y-33.98329
G01 X-3.08511 Y-33.97816
G01 X-2.97576 Y-33.95017
G01 X-2.93792 Y-33.92952
G01 X-2.90469 Y-33.90207
G01 X-2.82938 Y-33.82167
G01 X-2.80937 Y-33.78657
G01 X-2.78074 Y-33.68906
G01 X-2.77365 Y-33.63290
G01 X-2.77365 Y-32.82399
G01 X-2.78285 Y-32.76008
G01 X-2.81856 Y-32.65302
G01 X-2.84185 Y-32.61675
G01 X-2.87160 Y-32.58556
G01 X-2.95491 Y-32.51751
G01 X-2.98867 Y-32.50062
G01 X-3.07627 Y-32.47834
G01 X-3.12448 Y-32.47316
G01 X-27.59050 Y-32.47316
G01 X-27.65438 Y-32.48236
G01 X-27.76083 Y-32.51782
G01 X-27.77300 Y-32.51492
G01 X-27.78041 Y-32.53026
G01 X-27.76083 Y-32.51782
G01 X-27.79773 Y-32.54139
G01 X-27.82893 Y-32.57116
G01 X-27.89692 Y-32.65442
G01 X-27.91379 Y-32.68812
G01 X-27.92486 Y-32.72417
G01 X-27.93609 Y-32.77568
G01 X-27.94130 Y-32.82399
G01 X-27.94130 Y-34.87913
G01 X-27.93210 Y-34.94301
G01 X-27.89639 Y-35.05007
G01 X-27.87310 Y-35.08634
G01 X-27.84335 Y-35.11753
G01 X-27.79055 Y-35.16330
G01 X-27.75539 Y-35.18832
G01 X-27.71615 Y-35.20625
G01 X-27.69177 Y-35.21217
G01 X-27.62885 Y-35.25853
G01 X-27.53045 Y-35.32284
G01 X-27.46568 Y-35.22769
G01 X-27.44902 Y-35.19465
G01 X-27.45321 Y-35.19038
G01 X-27.44902 Y-35.19465
G01 X-27.47858 Y-35.20813
G01 X-27.51933 Y-35.22226
G01 X-27.56200 Y-35.22838
G01 X-27.60508 Y-35.22635
G01 X-27.67424 Y-35.21641
G01 X-27.69098 Y-35.21067
G01 X-27.67424 Y-35.21641
G01 X-27.60508 Y-35.22635
G01 X-27.56200 Y-35.22838
G01 X-27.51933 Y-35.22226
G01 X-27.41503 Y-35.17910
G01 X-27.37993 Y-35.15911
G01 X-27.34892 Y-35.13318
G01 X-27.32298 Y-35.10216
G01 X-27.27056 Y-35.02132
G01 X-27.22049 Y-34.95444
G01 X-27.22240 Y-34.95258
G01 X-27.22049 Y-34.95444
G01 X-27.15748 Y-34.90727
G01 X-27.15892 Y-34.90445
G01 X-27.15748 Y-34.90727
G01 X-27.07991 Y-34.87834
G01 X-27.06070 Y-34.87628
G01 X-27.06111 Y-34.87354
G01 X-27.06070 Y-34.87628
G01 X-25.27005 Y-34.87834
G01 X-25.26942 Y-34.87476
G01 X-25.27005 Y-34.87834
G01 X-25.19134 Y-34.90524
G01 X-25.12779 Y-34.95281
G01 X-25.08021 Y-35.01634
G01 X-25.05334 Y-35.09503
G01 X-25.04973 Y-35.09439
G01 X-25.05334 Y-35.09503
G01 X-25.05334 Y-36.90490
G01 X-25.04973 Y-36.90556
G01 X-25.05334 Y-36.90490
G01 X-25.08021 Y-36.98359
G01 X-25.12703 Y-37.04544
G01 X-25.28293 Y-37.15621
G01 X-25.30975 Y-37.17905
G01 X-25.33272 Y-37.20577
G01 X-25.35126 Y-37.23571
G01 X-25.36495 Y-37.26815
G01 X-25.38969 Y-37.34247
G01 X-25.39837 Y-37.37783
G01 X-25.40130 Y-37.41412
G01 X-25.40130 Y-45.00725
G01 X-25.39210 Y-45.07113
G01 X-25.37242 Y-45.13816
G01 X-25.35880 Y-45.17337
G01 X-25.33955 Y-45.20583
G01 X-25.31516 Y-45.23463
G01 X-25.25334 Y-45.29318
G01 X-25.03505 Y-45.45569
G01 X-24.85565 Y-45.63511
G01 X-24.70353 Y-45.83829
G01 X-24.58192 Y-46.06102
G01 X-24.49322 Y-46.29884
G01 X-24.43927 Y-46.54682
G01 X-24.42119 Y-46.79998
G01 X-24.43927 Y-47.05314
G01 X-24.49322 Y-47.30112
G01 X-24.58192 Y-47.53892
G01 X-24.70353 Y-47.76168
G01 X-24.85565 Y-47.96483
G01 X-25.03510 Y-48.14430
G01 X-25.23828 Y-48.29640
G01 X-25.46101 Y-48.41804
G01 X-25.69883 Y-48.50674
G01 X-25.94681 Y-48.56066
G01 X-26.20000 Y-48.57877
G01 X-26.45313 Y-48.56069
G01 X-26.70112 Y-48.50674
G01 X-26.93891 Y-48.41804
G01 X-27.16167 Y-48.29640
G01 X-27.36484 Y-48.14430
G01 X-27.54429 Y-47.96485
G01 X-27.69641 Y-47.76168
G01 X-27.81803 Y-47.53892
G01 X-27.90673 Y-47.30112
G01 X-27.96068 Y-47.05314
G01 X-27.97879 Y-46.79998
G01 X-27.96068 Y-46.54682
G01 X-27.90673 Y-46.29882
G01 X-27.81803 Y-46.06105
G01 X-27.69641 Y-45.83829
G01 X-27.54429 Y-45.63509
G01 X-27.36497 Y-45.45548
G01 X-27.16136 Y-45.30405
G01 X-27.10414 Y-45.27017
G01 X-27.03027 Y-45.19955
G01 X-27.00434 Y-45.16854
G01 X-26.98433 Y-45.13339
G01 X-26.97089 Y-45.09526
G01 X-26.95572 Y-45.03583
G01 X-26.94866 Y-44.97977
G01 X-26.94866 Y-37.41412
G01 X-26.95786 Y-37.35022
G01 X-26.97754 Y-37.28319
G01 X-26.99357 Y-37.24316
G01 X-27.01686 Y-37.20689
G01 X-27.09941 Y-37.12992
G01 X-27.22184 Y-37.04684
G01 X-27.26898 Y-36.98324
G01 X-27.30530 Y-36.88161
G01 X-27.33622 Y-36.82500
G01 X-27.40706 Y-36.73716
G01 X-27.44158 Y-36.71133
G01 X-27.46271 Y-36.70104
G01 X-27.46855 Y-36.70633
G01 X-27.46271 Y-36.70104
G01 X-27.51953 Y-36.59088
G01 X-27.62192 Y-36.65444
G01 X-27.62077 Y-36.65723
G01 X-27.62192 Y-36.65444
G01 X-27.58750 Y-36.65687
G01 X-27.54584 Y-36.66805
G01 X-27.46271 Y-36.70104
G01 X-27.54584 Y-36.66805
G01 X-27.58750 Y-36.65687
G01 X-27.63053 Y-36.65380
G01 X-27.67335 Y-36.65893
G01 X-27.77269 Y-36.68291
G01 X-27.80215 Y-36.69637
G01 X-27.85763 Y-36.73503
G01 X-27.98966 Y-36.86437
G01 X-28.15054 Y-36.97760
G01 X-28.32890 Y-37.06076
G01 X-28.51894 Y-37.11169
G01 X-28.71498 Y-37.12883
G01 X-28.91099 Y-37.11169
G01 X-29.10108 Y-37.06076
G01 X-29.27942 Y-36.97760
G01 X-29.44058 Y-36.86472
G01 X-29.57949 Y-36.72540
G01 X-29.69760 Y-36.55573
G01 X-29.74177 Y-36.50866
G01 X-29.79636 Y-36.46503
G01 X-29.83245 Y-36.44143
G01 X-29.87236 Y-36.42507
G01 X-29.92300 Y-36.41573
G01 X-29.92699 Y-36.42241
G01 X-29.92300 Y-36.41573
G01 X-29.98658 Y-36.35113
G01 X-30.04919 Y-36.41311
G01 X-30.04683 Y-36.41669
G01 X-30.04919 Y-36.41311
G01 X-30.02724 Y-36.40905
G01 X-29.92300 Y-36.41573
G01 X-30.02724 Y-36.40905
G01 X-30.06964 Y-36.41687
G01 X-30.10979 Y-36.43259
G01 X-30.20317 Y-36.48306
G01 X-30.23078 Y-36.50671
G01 X-30.25424 Y-36.53450
G01 X-30.38955 Y-36.72462
G01 X-30.52935 Y-36.86475
G01 X-30.69054 Y-36.97760
G01 X-30.86890 Y-37.06076
G01 X-31.05894 Y-37.11169
G01 X-31.25498 Y-37.12883
G01 X-31.45099 Y-37.11169
G01 X-31.64108 Y-37.06076
G01 X-31.81909 Y-36.97747
G01 X-32.00009 Y-36.84946
G01 X-32.08190 Y-36.80361
G01 X-32.12221 Y-36.78669
G01 X-32.19138 Y-36.77498
G01 X-36.76647 Y-36.77597
G01 X-36.86513 Y-36.80254
G01 X-36.90635 Y-36.81918
G01 X-36.94351 Y-36.84354
G01 X-36.98225 Y-36.87643
G01 X-38.42352 Y-38.31770
G01 X-38.46223 Y-38.36942
G01 X-38.49571 Y-38.43076
G01 X-38.51305 Y-38.47160
G01 X-38.52212 Y-38.51506
G01 X-38.52629 Y-38.56576
G01 X-38.52629 Y-44.11083
G01 X-38.51709 Y-44.17471
G01 X-38.49741 Y-44.24177
G01 X-38.48138 Y-44.28180
G01 X-38.45806 Y-44.31810
G01 X-38.37549 Y-44.39503
G01 X-38.25309 Y-44.47812
G01 X-38.20526 Y-44.54131
G01 X-38.17833 Y-44.62008
G01 X-38.17475 Y-44.61944
G01 X-38.17833 Y-44.62008
G01 X-38.17628 Y-46.41068
G01 X-38.17353 Y-46.41108
G01 X-38.17628 Y-46.41068
G01 X-38.17833 Y-46.42988
G01 X-38.20729 Y-46.50748
G01 X-38.20447 Y-46.50895
G01 X-38.20729 Y-46.50748
G01 X-38.25342 Y-46.56910
G01 X-38.25159 Y-46.57095
G01 X-38.25342 Y-46.56910
G01 X-38.40792 Y-46.68121
G01 X-38.44105 Y-46.71057
G01 X-38.46782 Y-46.74580
G01 X-38.48725 Y-46.78558
G01 X-38.52230 Y-46.88982
G01 X-38.52596 Y-46.92985
G01 X-38.52629 Y-47.10379
G01 X-38.51709 Y-47.16810
G01 X-38.48379 Y-47.27039
G01 X-38.46449 Y-47.30290
G01 X-38.32197 Y-47.50143
G01 X-38.23919 Y-47.67890
G01 X-38.18826 Y-47.86894
G01 X-38.17112 Y-48.06498
G01 X-38.18826 Y-48.26099
G01 X-38.23919 Y-48.45106
G01 X-38.32235 Y-48.62942
G01 X-38.43523 Y-48.79058
G01 X-38.57435 Y-48.92975
G01 X-38.73553 Y-49.04260
G01 X-38.91387 Y-49.12576
G01 X-39.10396 Y-49.17669
G01 X-39.27991 Y-49.19121
G01 X-39.30000 Y-49.42065
G01 X-39.32006 Y-49.19121
G01 X-39.27991 Y-49.19121
G01 X-39.30000 Y-49.19297
G01 X-39.49601 Y-49.17669
G01 X-39.68605 Y-49.12576
G01 X-39.86441 Y-49.04260
G01 X-40.02560 Y-48.92975
G01 X-40.16472 Y-48.79058
G01 X-40.27759 Y-48.62942
G01 X-40.36075 Y-48.45108
G01 X-40.41168 Y-48.26099
G01 X-40.42882 Y-48.06498
G01 X-40.41168 Y-47.86894
G01 X-40.36075 Y-47.67890
G01 X-40.27747 Y-47.50087
G01 X-40.14945 Y-47.31987
G01 X-40.10360 Y-47.23806
G01 X-40.08669 Y-47.19772
G01 X-40.07782 Y-47.15490
G01 X-40.07366 Y-47.10422
G01 X-40.07597 Y-46.90684
G01 X-40.10254 Y-46.80819
G01 X-40.11856 Y-46.76816
G01 X-40.14186 Y-46.73189
G01 X-40.22441 Y-46.65492
G01 X-40.34714 Y-46.57217
G01 X-40.39471 Y-46.50859
G01 X-40.42161 Y-46.42990
G01 X-40.42519 Y-46.43054
G01 X-40.42161 Y-46.42990
G01 X-40.42367 Y-44.63923
G01 X-40.42641 Y-44.63882
G01 X-40.42367 Y-44.63923
G01 X-40.42161 Y-44.62005
G01 X-40.39265 Y-44.54246
G01 X-40.39547 Y-44.54101
G01 X-40.39265 Y-44.54246
G01 X-40.34653 Y-44.48084
G01 X-40.34836 Y-44.47898
G01 X-40.34653 Y-44.48084
G01 X-40.19202 Y-44.36872
G01 X-40.15890 Y-44.33936
G01 X-40.13213 Y-44.30413
G01 X-40.11270 Y-44.26438
G01 X-40.08829 Y-44.19892
G01 X-40.07759 Y-44.15996
G01 X-40.07399 Y-44.11970
G01 X-40.07475 Y-38.02367
G01 X-40.04500 Y-37.87397
G01 X-39.98658 Y-37.73297
G01 X-39.90180 Y-37.60607
G01 X-37.69388 Y-35.39815
G01 X-37.56696 Y-35.31334
G01 X-37.42599 Y-35.25495
G01 X-37.27630 Y-35.22520
G01 X-32.21573 Y-35.22629
G01 X-32.15183 Y-35.21710
G01 X-32.04954 Y-35.18378
G01 X-32.01706 Y-35.16450
G01 X-31.81853 Y-35.02198
G01 X-31.64106 Y-34.93920
G01 X-31.45099 Y-34.88827
G01 X-31.25498 Y-34.87113
G01 X-31.05894 Y-34.88827
G01 X-30.86887 Y-34.93920
G01 X-30.69054 Y-35.02233
G01 X-30.52935 Y-35.13521
G01 X-30.39046 Y-35.27455
G01 X-30.27233 Y-35.44423
G01 X-30.22816 Y-35.49129
G01 X-30.17360 Y-35.53490
G01 X-30.13751 Y-35.55850
G01 X-30.09758 Y-35.57486
G01 X-30.04696 Y-35.58421
G01 X-29.98338 Y-35.64880
G01 X-29.92074 Y-35.58685
G01 X-29.92313 Y-35.58324
