( pcb2gcode 2.5.0 )
( Software-independent Gcode )

( This file uses 4 drill bit sizes. )
( Bit sizes: [0.8mm] [1mm] [1.2mm] [1.3mm] )

G94       (Millimeters per minute feed rate.)
G21       (Units == Millimeters.)
G91.1     (Incremental arc distance mode.)
G90       (Absolute coordinates.)
G00 S13000     (RPM spindle speed.)

G00 Z15.00000 (Retract)
T1
M5      (Spindle stop.)
G04 P1.00000
(MSG, Change tool bit to drill size 0.8mm)
M6      (Tool change.)
M0      (Temporary machine stop.)
M3      (Spindle on clockwise.)
G0 Z2.00000
G04 P1.00000

G1 F120.00000
G0 X-30.70098 Y-12.40028
G1 Z-2.50000
G1 Z2.00000
G0 X-30.70098 Y-14.65072
G1 Z-2.50000
G1 Z2.00000
G0 X-34.89960 Y-17.20088
G1 Z-2.50000
G1 Z2.00000
G0 X-38.80104 Y-17.20596
G1 Z-2.50000
G1 Z2.00000
G0 X-41.34104 Y-17.20596
G1 Z-2.50000
G1 Z2.00000
G0 X-45.69968 Y-12.40028
G1 Z-2.50000
G1 Z2.00000
G0 X-43.88104 Y-17.20596
G1 Z-2.50000
G1 Z2.00000
G0 X-46.42104 Y-17.20596
G1 Z-2.50000
G1 Z2.00000
G0 X-54.59984 Y-14.20114
G1 Z-2.50000
G1 Z2.00000
G0 X-51.30038 Y-19.79930
G1 Z-2.50000
G1 Z2.00000
G0 X-54.59984 Y-24.30018
G1 Z-2.50000
G1 Z2.00000
G0 X-51.30038 Y-24.80056
G1 Z-2.50000
G1 Z2.00000
G0 X-46.42104 Y-24.82596
G1 Z-2.50000
G1 Z2.00000
G0 X-43.88104 Y-24.82596
G1 Z-2.50000
G1 Z2.00000
G0 X-41.34104 Y-24.82596
G1 Z-2.50000
G1 Z2.00000
G0 X-38.80104 Y-24.82596
G1 Z-2.50000
G1 Z2.00000
G0 X-34.89960 Y-22.19960
G1 Z-2.50000
G1 Z2.00000
G0 X-30.70098 Y-27.35072
G1 Z-2.50000
G1 Z2.00000
G0 X-28.65120 Y-31.30042
G1 Z-2.50000
G1 Z2.00000
G0 X-41.35120 Y-31.30042
G1 Z-2.50000
G1 Z2.00000
G0 X-44.45000 Y-31.30042
G1 Z-2.50000
G1 Z2.00000
G0 X-57.15000 Y-31.30042
G1 Z-2.50000
G1 Z2.00000

G00 Z15.00000 (Retract)
T3
M5      (Spindle stop.)
G04 P1.00000
(MSG, Change tool bit to drill size 1mm)
M6      (Tool change.)
M0      (Temporary machine stop.)
M3      (Spindle on clockwise.)
G0 Z2.00000
G04 P1.00000

G1 F120.00000
G0 X-4.32562 Y-15.60068
G1 Z-2.50000
G1 Z2.00000
G0 X-6.86562 Y-15.60068
G1 Z-2.50000
G1 Z2.00000
G0 X-4.32562 Y-25.30094
G1 Z-2.50000
G1 Z2.00000
G0 X-6.86562 Y-25.30094
G1 Z-2.50000
G1 Z2.00000
G0 X-4.32562 Y-35.00120
G1 Z-2.50000
G1 Z2.00000
G0 X-6.86562 Y-35.00120
G1 Z-2.50000
G1 Z2.00000
G0 X-26.17470 Y-35.99942
G1 Z-2.50000
G1 Z2.00000
G0 X-39.29888 Y-48.06442
G1 Z-2.50000
G1 Z2.00000
G0 X-39.29888 Y-45.52442
G1 Z-2.50000
G1 Z2.00000
G0 X-31.25470 Y-35.99942
G1 Z-2.50000
G1 Z2.00000
G0 X-28.71470 Y-35.99942
G1 Z-2.50000
G1 Z2.00000
G0 X-48.52416 Y-10.93978
G1 Z-2.50000
G1 Z2.00000
G0 X-48.52416 Y-8.39978
G1 Z-2.50000
G1 Z2.00000
G0 X-48.52416 Y-5.85978
G1 Z-2.50000
G1 Z2.00000
G0 X-42.24020 Y-5.92582
G1 Z-2.50000
G1 Z2.00000
G0 X-39.70020 Y-5.92582
G1 Z-2.50000
G1 Z2.00000
G0 X-37.16020 Y-5.92582
G1 Z-2.50000
G1 Z2.00000

G00 Z15.00000 (Retract)
T4
M5      (Spindle stop.)
G04 P1.00000
(MSG, Change tool bit to drill size 1.2mm)
M6      (Tool change.)
M0      (Temporary machine stop.)
M3      (Spindle on clockwise.)
G0 Z2.00000
G04 P1.00000

G1 F120.00000
G0 X-17.20088 Y-15.57528
G1 Z-2.50000
G1 Z2.00000
G0 X-17.20088 Y-20.57654
G1 Z-2.50000
G1 Z2.00000
G0 X-17.20088 Y-29.97708
G1 Z-2.50000
G1 Z2.00000
G0 X-17.20088 Y-34.97580
G1 Z-2.50000
G1 Z2.00000
G0 X-21.19884 Y-46.79950
G1 Z-2.50000
G1 Z2.00000
G0 X-26.20010 Y-46.79950
G1 Z-2.50000
G1 Z2.00000
G0 X-31.19882 Y-46.79950
G1 Z-2.50000
G1 Z2.00000
G0 X-47.39894 Y-46.79950
G1 Z-2.50000
G1 Z2.00000
G0 X-52.40020 Y-46.79950
G1 Z-2.50000
G1 Z2.00000
G0 X-57.39892 Y-46.79950
G1 Z-2.50000
G1 Z2.00000
G0 X-70.59930 Y-36.29914
G1 Z-2.50000
G1 Z2.00000
G0 X-70.59930 Y-31.30042
G1 Z-2.50000
G1 Z2.00000
G0 X-70.59930 Y-26.29916
G1 Z-2.50000
G1 Z2.00000

G00 Z15.00000 (Retract)
T5
M5      (Spindle stop.)
G04 P1.00000
(MSG, Change tool bit to drill size 1.3mm)
M6      (Tool change.)
M0      (Temporary machine stop.)
M3      (Spindle on clockwise.)
G0 Z2.00000
G04 P1.00000

G1 F120.00000
G0 X-57.56656 Y-7.86638
G1 Z-2.50000
G1 Z2.00000
G0 X-62.56782 Y-7.86638
G1 Z-2.50000
G1 Z2.00000

G00 Z15.000 ( All done -- retract )

M5      (Spindle off.)
G04 P1.000000
M9      (Coolant off.)
M2      (Program end.)

