( pcb2gcode 2.5.0 )
( Software-independent Gcode )

G94 ( Millimeters per minute feed rate. )
G21 ( Units == Millimeters. )

G90 ( Absolute coordinates. )
G00 S13000 ( RPM spindle speed. )
G01 F120.00000 ( Feedrate. )


G00 Z15.00000 (Retract to tool change height)
T0
M5      (Spindle stop.)
G04 P1.00000 (Wait for spindle to stop)
(MSG, Change tool bit to cutter diameter 1.00000mm)
M6      (Tool change.)
M0      (Temporary machine stop.)
M3 ( Spindle on clockwise. )
G04 P1.00000 (Wait for spindle to get up to speed)
G04 P0 ( dwell for no time -- G64 should not smooth over this point )
G00 Z2.00000 ( retract )

G00 X-0.49997 Y-48.29998 ( rapid move to begin. )
G01 Z-0.50000 F60.00000 ( plunge. )
G04 P0 ( dwell for no time -- G64 should not smooth over this point )
G01 F120.00000
G01 X-0.49997 Y-4.99999
G01 X-0.57925 Y-4.17060
G01 X-0.59837 Y-4.07449
G01 X-0.84252 Y-3.27790
G01 X-1.23314 Y-2.54201
G01 X-1.28758 Y-2.46052
G01 X-1.81798 Y-1.81798
G01 X-2.46052 Y-1.28758
G01 X-2.54201 Y-1.23314
G01 X-3.27790 Y-0.84252
G01 X-4.07449 Y-0.59837
G01 X-4.17060 Y-0.57925
G01 X-4.99999 Y-0.49997
G01 X-72.09998 Y-0.49997
G01 X-72.92934 Y-0.57925
G01 X-73.02546 Y-0.59837
G01 X-73.82203 Y-0.84252
G01 X-74.55797 Y-1.23314
G01 X-74.63945 Y-1.28760
G01 X-75.28197 Y-1.81798
G01 X-75.81237 Y-2.46052
G01 X-75.86680 Y-2.54201
G01 X-76.23645 Y-3.23355
G01 X-76.27396 Y-3.32407
G01 X-76.50160 Y-4.07446
G01 X-76.52073 Y-4.17063
G01 X-76.59997 Y-4.99999
G01 X-76.59997 Y-48.29998
G01 X-76.52073 Y-49.12931
G01 X-76.50160 Y-49.22548
G01 X-76.27396 Y-49.97585
G01 X-76.23645 Y-50.06640
G01 X-75.86680 Y-50.75796
G01 X-75.81235 Y-50.83945
G01 X-75.28197 Y-51.48196
G01 X-74.63945 Y-52.01234
G01 X-74.55797 Y-52.06680
G01 X-73.86640 Y-52.43642
G01 X-73.77585 Y-52.47396
G01 X-73.02548 Y-52.70160
G01 X-72.92934 Y-52.72072
G01 X-72.09998 Y-52.79997
G01 X-4.95097 Y-52.79756
G01 X-4.12206 Y-52.71351
G01 X-3.32407 Y-52.47396
G01 X-3.23355 Y-52.43642
G01 X-2.54201 Y-52.06680
G01 X-2.46052 Y-52.01237
G01 X-1.81798 Y-51.48196
G01 X-1.28760 Y-50.83945
G01 X-1.23314 Y-50.75796
G01 X-0.84252 Y-50.02202
G01 X-0.59837 Y-49.22545
G01 X-0.57925 Y-49.12934
G01 X-0.49997 Y-48.29998
G01 Z-1.00000 F60.00000 ( plunge. )
G04 P0 ( dwell for no time -- G64 should not smooth over this point )
G01 F120.00000
G01 X-0.49997 Y-4.99999
G01 X-0.57925 Y-4.17060
G01 X-0.59837 Y-4.07449
G01 X-0.84252 Y-3.27790
G01 X-1.23314 Y-2.54201
G01 X-1.28758 Y-2.46052
G01 X-1.81798 Y-1.81798
G01 X-2.46052 Y-1.28758
G01 X-2.54201 Y-1.23314
G01 X-3.27790 Y-0.84252
G01 X-4.07449 Y-0.59837
G01 X-4.17060 Y-0.57925
G01 X-4.99999 Y-0.49997
G01 X-72.09998 Y-0.49997
G01 X-72.92934 Y-0.57925
G01 X-73.02546 Y-0.59837
G01 X-73.82203 Y-0.84252
G01 X-74.55797 Y-1.23314
G01 X-74.63945 Y-1.28760
G01 X-75.28197 Y-1.81798
G01 X-75.81237 Y-2.46052
G01 X-75.86680 Y-2.54201
G01 X-76.23645 Y-3.23355
G01 X-76.27396 Y-3.32407
G01 X-76.50160 Y-4.07446
G01 X-76.52073 Y-4.17063
G01 X-76.59997 Y-4.99999
G01 X-76.59997 Y-48.29998
G01 X-76.52073 Y-49.12931
G01 X-76.50160 Y-49.22548
G01 X-76.27396 Y-49.97585
G01 X-76.23645 Y-50.06640
G01 X-75.86680 Y-50.75796
G01 X-75.81235 Y-50.83945
G01 X-75.28197 Y-51.48196
G01 X-74.63945 Y-52.01234
G01 X-74.55797 Y-52.06680
G01 X-73.86640 Y-52.43642
G01 X-73.77585 Y-52.47396
G01 X-73.02548 Y-52.70160
G01 X-72.92934 Y-52.72072
G01 X-72.09998 Y-52.79997
G01 X-4.95097 Y-52.79756
G01 X-4.12206 Y-52.71351
G01 X-3.32407 Y-52.47396
G01 X-3.23355 Y-52.43642
G01 X-2.54201 Y-52.06680
G01 X-2.46052 Y-52.01237
G01 X-1.81798 Y-51.48196
G01 X-1.28760 Y-50.83945
G01 X-1.23314 Y-50.75796
G01 X-0.84252 Y-50.02202
G01 X-0.59837 Y-49.22545
G01 X-0.57925 Y-49.12934
G01 X-0.49997 Y-48.29998
G01 Z-1.50000 F60.00000 ( plunge. )
G04 P0 ( dwell for no time -- G64 should not smooth over this point )
G01 F120.00000
G01 X-0.49997 Y-4.99999
G01 X-0.57925 Y-4.17060
G01 X-0.59837 Y-4.07449
G01 X-0.84252 Y-3.27790
G01 X-1.23314 Y-2.54201
G01 X-1.28758 Y-2.46052
G01 X-1.81798 Y-1.81798
G01 X-2.46052 Y-1.28758
G01 X-2.54201 Y-1.23314
G01 X-3.27790 Y-0.84252
G01 X-4.07449 Y-0.59837
G01 X-4.17060 Y-0.57925
G01 X-4.99999 Y-0.49997
G01 X-72.09998 Y-0.49997
G01 X-72.92934 Y-0.57925
G01 X-73.02546 Y-0.59837
G01 X-73.82203 Y-0.84252
G01 X-74.55797 Y-1.23314
G01 X-74.63945 Y-1.28760
G01 X-75.28197 Y-1.81798
G01 X-75.81237 Y-2.46052
G01 X-75.86680 Y-2.54201
G01 X-76.23645 Y-3.23355
G01 X-76.27396 Y-3.32407
G01 X-76.50160 Y-4.07446
G01 X-76.52073 Y-4.17063
G01 X-76.59997 Y-4.99999
G01 X-76.59997 Y-48.29998
G01 X-76.52073 Y-49.12931
G01 X-76.50160 Y-49.22548
G01 X-76.27396 Y-49.97585
G01 X-76.23645 Y-50.06640
G01 X-75.86680 Y-50.75796
G01 X-75.81235 Y-50.83945
G01 X-75.28197 Y-51.48196
G01 X-74.63945 Y-52.01234
G01 X-74.55797 Y-52.06680
G01 X-73.86640 Y-52.43642
G01 X-73.77585 Y-52.47396
G01 X-73.02548 Y-52.70160
G01 X-72.92934 Y-52.72072
G01 X-72.09998 Y-52.79997
G01 X-4.95097 Y-52.79756
G01 X-4.12206 Y-52.71351
G01 X-3.32407 Y-52.47396
G01 X-3.23355 Y-52.43642
G01 X-2.54201 Y-52.06680
G01 X-2.46052 Y-52.01237
G01 X-1.81798 Y-51.48196
G01 X-1.28760 Y-50.83945
G01 X-1.23314 Y-50.75796
G01 X-0.84252 Y-50.02202
G01 X-0.59837 Y-49.22545
G01 X-0.57925 Y-49.12934
G01 X-0.49997 Y-48.29998
G01 Z-2.00000 F60.00000 ( plunge. )
G04 P0 ( dwell for no time -- G64 should not smooth over this point )
G01 F120.00000
G01 X-0.49997 Y-4.99999
G01 X-0.57925 Y-4.17060
G01 X-0.59837 Y-4.07449
G01 X-0.84252 Y-3.27790
G01 X-1.23314 Y-2.54201
G01 X-1.28758 Y-2.46052
G01 X-1.81798 Y-1.81798
G01 X-2.46052 Y-1.28758
G01 X-2.54201 Y-1.23314
G01 X-3.27790 Y-0.84252
G01 X-4.07449 Y-0.59837
G01 X-4.17060 Y-0.57925
G01 X-4.99999 Y-0.49997
G01 X-72.09998 Y-0.49997
G01 X-72.92934 Y-0.57925
G01 X-73.02546 Y-0.59837
G01 X-73.82203 Y-0.84252
G01 X-74.55797 Y-1.23314
G01 X-74.63945 Y-1.28760
G01 X-75.28197 Y-1.81798
G01 X-75.81237 Y-2.46052
G01 X-75.86680 Y-2.54201
G01 X-76.23645 Y-3.23355
G01 X-76.27396 Y-3.32407
G01 X-76.50160 Y-4.07446
G01 X-76.52073 Y-4.17063
G01 X-76.59997 Y-4.99999
G01 X-76.59997 Y-48.29998
G01 X-76.52073 Y-49.12931
G01 X-76.50160 Y-49.22548
G01 X-76.27396 Y-49.97585
G01 X-76.23645 Y-50.06640
G01 X-75.86680 Y-50.75796
G01 X-75.81235 Y-50.83945
G01 X-75.28197 Y-51.48196
G01 X-74.63945 Y-52.01234
G01 X-74.55797 Y-52.06680
G01 X-73.86640 Y-52.43642
G01 X-73.77585 Y-52.47396
G01 X-73.02548 Y-52.70160
G01 X-72.92934 Y-52.72072
G01 X-72.09998 Y-52.79997
G01 X-4.95097 Y-52.79756
G01 X-4.12206 Y-52.71351
G01 X-3.32407 Y-52.47396
G01 X-3.23355 Y-52.43642
G01 X-2.54201 Y-52.06680
G01 X-2.46052 Y-52.01237
G01 X-1.81798 Y-51.48196
G01 X-1.28760 Y-50.83945
G01 X-1.23314 Y-50.75796
G01 X-0.84252 Y-50.02202
G01 X-0.59837 Y-49.22545
G01 X-0.57925 Y-49.12934
G01 X-0.49997 Y-48.29998
G01 Z-2.50000 F60.00000 ( plunge. )
G04 P0 ( dwell for no time -- G64 should not smooth over this point )
G01 F120.00000
G01 X-0.49997 Y-4.99999
G01 X-0.57925 Y-4.17060
G01 X-0.59837 Y-4.07449
G01 X-0.84252 Y-3.27790
G01 X-1.23314 Y-2.54201
G01 X-1.28758 Y-2.46052
G01 X-1.81798 Y-1.81798
G01 X-2.46052 Y-1.28758
G01 X-2.54201 Y-1.23314
G01 X-3.27790 Y-0.84252
G01 X-4.07449 Y-0.59837
G01 X-4.17060 Y-0.57925
G01 X-4.99999 Y-0.49997
G01 X-72.09998 Y-0.49997
G01 X-72.92934 Y-0.57925
G01 X-73.02546 Y-0.59837
G01 X-73.82203 Y-0.84252
G01 X-74.55797 Y-1.23314
G01 X-74.63945 Y-1.28760
G01 X-75.28197 Y-1.81798
G01 X-75.81237 Y-2.46052
G01 X-75.86680 Y-2.54201
G01 X-76.23645 Y-3.23355
G01 X-76.27396 Y-3.32407
G01 X-76.50160 Y-4.07446
G01 X-76.52073 Y-4.17063
G01 X-76.59997 Y-4.99999
G01 X-76.59997 Y-48.29998
G01 X-76.52073 Y-49.12931
G01 X-76.50160 Y-49.22548
G01 X-76.27396 Y-49.97585
G01 X-76.23645 Y-50.06640
G01 X-75.86680 Y-50.75796
G01 X-75.81235 Y-50.83945
G01 X-75.28197 Y-51.48196
G01 X-74.63945 Y-52.01234
G01 X-74.55797 Y-52.06680
G01 X-73.86640 Y-52.43642
G01 X-73.77585 Y-52.47396
G01 X-73.02548 Y-52.70160
G01 X-72.92934 Y-52.72072
G01 X-72.09998 Y-52.79997
G01 X-4.95097 Y-52.79756
G01 X-4.12206 Y-52.71351
G01 X-3.32407 Y-52.47396
G01 X-3.23355 Y-52.43642
G01 X-2.54201 Y-52.06680
G01 X-2.46052 Y-52.01237
G01 X-1.81798 Y-51.48196
G01 X-1.28760 Y-50.83945
G01 X-1.23314 Y-50.75796
G01 X-0.84252 Y-50.02202
G01 X-0.59837 Y-49.22545
G01 X-0.57925 Y-49.12934
G01 X-0.49997 Y-48.29998

G04 P0 ( dwell for no time -- G64 should not smooth over this point )
G00 Z15.000000 ( retract )

M5 ( Spindle off. )
G04 P1.000000
M9 ( Coolant off. )
M2 ( Program end. )

