( pcb2gcode 2.5.0 )
( Software-independent Gcode )

G94 ( Millimeters per minute feed rate. )
G21 ( Units == Millimeters. )

G90 ( Absolute coordinates. )
G00 S12000 ( RPM spindle speed. )
G01 F120.00000 ( Feedrate. )


G00 Z15.00000 (Retract to tool change height)
T0
M5      (Spindle stop.)
G04 P1.00000 (Wait for spindle to stop)
(MSG, Change tool bit to mill diameter 0.15360mm)
M6      (Tool change.)
M0      (Temporary machine stop.)
M3 ( Spindle on clockwise. )
G04 P1.00000 (Wait for spindle to get up to speed)
G04 P0 ( dwell for no time -- G64 should not smooth over this point )
G00 Z2.00000 ( retract )

G00 X-2.70627 Y-4.63123 ( rapid move to begin. )
G01 F60.00000
( Mill infeed pass 1/1 )
G01 Z-0.10000
G04 P0 ( dwell for no time -- G64 should not smooth over this point )
G01 F120.00000
G01 X-2.70627 Y-4.63123
G01 X-2.70627 Y-4.39872
G01 X-2.73662 Y-4.16822
G01 X-2.79682 Y-3.94360
G01 X-2.88577 Y-3.72882
G01 X-3.00203 Y-3.52745
G01 X-3.14358 Y-3.34297
G01 X-3.30792 Y-3.17858
G01 X-3.49245 Y-3.03703
G01 X-3.69382 Y-2.92077
G01 X-3.90860 Y-2.83180
G01 X-4.13321 Y-2.77162
G01 X-4.36372 Y-2.74127
G01 X-4.59623 Y-2.74127
G01 X-4.82674 Y-2.77162
G01 X-5.05135 Y-2.83180
G01 X-5.26613 Y-2.92077
G01 X-5.46750 Y-3.03703
G01 X-5.65198 Y-3.17858
G01 X-5.81637 Y-3.34297
G01 X-5.95793 Y-3.52745
G01 X-6.07418 Y-3.72882
G01 X-6.16313 Y-3.94360
G01 X-6.22333 Y-4.16822
G01 X-6.25368 Y-4.39872
G01 X-6.25368 Y-4.63123
G01 X-6.22333 Y-4.86174
G01 X-6.16313 Y-5.08635
G01 X-6.07418 Y-5.30113
G01 X-5.95793 Y-5.50250
G01 X-5.81637 Y-5.68698
G01 X-5.65198 Y-5.85137
G01 X-5.46750 Y-5.99293
G01 X-5.26613 Y-6.10918
G01 X-5.05135 Y-6.19813
G01 X-4.82674 Y-6.25833
G01 X-4.59623 Y-6.28868
G01 X-4.36372 Y-6.28868
G01 X-4.13321 Y-6.25833
G01 X-3.90860 Y-6.19813
G01 X-3.69382 Y-6.10918
G01 X-3.49245 Y-5.99293
G01 X-3.30792 Y-5.85137
G01 X-3.14358 Y-5.68698
G01 X-3.00203 Y-5.50250
G01 X-2.88577 Y-5.30113
G01 X-2.79682 Y-5.08635
G01 X-2.73662 Y-4.86174
G01 X-2.70627 Y-4.63123
G01 X-2.78290 Y-4.62620
G01 X-2.78290 Y-4.40375
G01 X-2.81196 Y-4.18320
G01 X-2.86954 Y-3.96829
G01 X-2.95465 Y-3.76278
G01 X-3.06588 Y-3.57012
G01 X-3.20131 Y-3.39362
G01 X-3.35862 Y-3.23632
G01 X-3.53512 Y-3.10088
G01 X-3.72778 Y-2.98966
G01 X-3.93329 Y-2.90452
G01 X-4.14818 Y-2.84696
G01 X-4.36875 Y-2.81790
G01 X-4.59120 Y-2.81808
G01 X-4.81173 Y-2.84711
G01 X-5.02661 Y-2.90467
G01 X-5.23210 Y-2.98981
G01 X-5.42475 Y-3.10101
G01 X-5.60123 Y-3.23644
G01 X-5.75851 Y-3.39372
G01 X-5.89394 Y-3.57020
G01 X-6.00514 Y-3.76286
G01 X-6.09026 Y-3.96834
G01 X-6.14784 Y-4.18323
G01 X-6.17687 Y-4.40375
G01 X-6.17687 Y-4.62620
G01 X-6.14784 Y-4.84673
G01 X-6.09026 Y-5.06161
G01 X-6.00514 Y-5.26710
G01 X-5.89394 Y-5.45976
G01 X-5.75851 Y-5.63623
G01 X-5.60123 Y-5.79351
G01 X-5.42475 Y-5.92894
G01 X-5.23210 Y-6.04015
G01 X-5.02661 Y-6.12526
G01 X-4.81173 Y-6.18284
G01 X-4.59120 Y-6.21187
G01 X-4.36875 Y-6.21205
G01 X-4.14820 Y-6.18300
G01 X-3.93329 Y-6.12541
G01 X-3.72778 Y-6.04030
G01 X-3.53512 Y-5.92907
G01 X-3.35862 Y-5.79364
G01 X-3.20131 Y-5.63634
G01 X-3.06588 Y-5.45983
G01 X-2.95465 Y-5.26717
G01 X-2.86954 Y-5.06166
G01 X-2.81196 Y-4.84675
G01 X-2.78290 Y-4.62620
G01 X-2.85971 Y-4.62117
G01 X-2.85971 Y-4.40878
G01 X-2.88745 Y-4.19821
G01 X-2.94241 Y-3.99303
G01 X-3.02369 Y-3.79682
G01 X-3.12986 Y-3.61287
G01 X-3.25918 Y-3.44437
G01 X-3.40937 Y-3.29418
G01 X-3.57787 Y-3.16487
G01 X-3.76182 Y-3.05867
G01 X-3.95803 Y-2.97739
G01 X-4.16321 Y-2.92245
G01 X-4.37378 Y-2.89471
G01 X-4.58617 Y-2.89486
G01 X-4.79671 Y-2.92260
G01 X-5.00187 Y-2.97754
G01 X-5.19806 Y-3.05882
G01 X-5.38198 Y-3.16502
G01 X-5.55048 Y-3.29430
G01 X-5.70065 Y-3.44447
G01 X-5.82993 Y-3.61297
G01 X-5.93613 Y-3.79689
G01 X-6.01739 Y-3.99308
G01 X-6.07235 Y-4.19824
G01 X-6.10009 Y-4.40878
G01 X-6.10009 Y-4.62117
G01 X-6.07235 Y-4.83171
G01 X-6.01739 Y-5.03687
G01 X-5.93613 Y-5.23306
G01 X-5.82993 Y-5.41698
G01 X-5.70065 Y-5.58549
G01 X-5.55048 Y-5.73565
G01 X-5.38198 Y-5.86494
G01 X-5.19806 Y-5.97113
G01 X-5.00187 Y-6.05239
G01 X-4.79671 Y-6.10735
G01 X-4.58617 Y-6.13509
G01 X-4.37378 Y-6.13524
G01 X-4.16321 Y-6.10751
G01 X-3.95803 Y-6.05254
G01 X-3.76182 Y-5.97126
G01 X-3.57787 Y-5.86509
G01 X-3.40937 Y-5.73578
G01 X-3.25918 Y-5.58559
G01 X-3.12986 Y-5.41708
G01 X-3.02369 Y-5.23314
G01 X-2.94241 Y-5.03692
G01 X-2.88745 Y-4.83174
G01 X-2.85971 Y-4.62117
G01 X-2.93649 Y-4.61615
G01 X-2.93649 Y-4.41381
G01 X-2.96291 Y-4.21322
G01 X-3.01531 Y-4.01777
G01 X-3.09270 Y-3.83085
G01 X-3.19387 Y-3.65562
G01 X-3.31704 Y-3.49512
G01 X-3.46012 Y-3.35204
G01 X-3.62062 Y-3.22887
G01 X-3.79585 Y-3.12771
G01 X-3.98277 Y-3.05029
G01 X-4.17822 Y-2.99794
G01 X-4.37881 Y-2.97150
G01 X-4.58112 Y-2.97167
G01 X-4.78170 Y-2.99809
G01 X-4.97713 Y-3.05044
G01 X-5.16402 Y-3.12786
G01 X-5.33923 Y-3.22895
G01 X-5.49973 Y-3.35216
G01 X-5.64279 Y-3.49522
G01 X-5.76595 Y-3.65572
G01 X-5.86710 Y-3.83093
G01 X-5.94449 Y-4.01782
G01 X-5.99686 Y-4.21325
G01 X-6.02328 Y-4.41383
G01 X-6.02328 Y-4.61612
G01 X-5.99686 Y-4.81670
G01 X-5.94449 Y-5.01213
G01 X-5.86710 Y-5.19902
G01 X-5.76595 Y-5.37423
G01 X-5.64279 Y-5.53474
G01 X-5.49973 Y-5.67779
G01 X-5.33923 Y-5.80095
G01 X-5.16402 Y-5.90210
G01 X-4.97713 Y-5.97949
G01 X-4.78170 Y-6.03186
G01 X-4.58112 Y-6.05828
G01 X-4.37881 Y-6.05846
G01 X-4.17822 Y-6.03204
G01 X-3.98277 Y-5.97964
G01 X-3.79585 Y-5.90225
G01 X-3.62062 Y-5.80108
G01 X-3.46012 Y-5.67792
G01 X-3.31704 Y-5.53484
G01 X-3.19387 Y-5.37434
G01 X-3.09270 Y-5.19910
G01 X-3.01531 Y-5.01218
G01 X-2.96291 Y-4.81673
G01 X-2.93649 Y-4.61615
G01 X-3.01330 Y-4.61112
G01 X-3.01330 Y-4.41884
G01 X-3.03840 Y-4.22824
G01 X-3.08818 Y-4.04251
G01 X-3.16174 Y-3.86489
G01 X-3.25780 Y-3.69839
G01 X-3.37490 Y-3.54587
G01 X-3.51086 Y-3.40990
G01 X-3.66339 Y-3.29286
G01 X-3.82991 Y-3.19674
G01 X-4.00751 Y-3.12316
G01 X-4.19324 Y-3.07340
G01 X-4.38384 Y-3.04830
G01 X-4.57609 Y-3.04846
G01 X-4.76669 Y-3.07358
G01 X-4.95239 Y-3.12331
G01 X-5.12999 Y-3.19687
G01 X-5.29648 Y-3.29301
G01 X-5.44899 Y-3.41003
G01 X-5.58493 Y-3.54597
G01 X-5.70194 Y-3.69847
G01 X-5.79806 Y-3.86497
G01 X-5.87162 Y-4.04256
G01 X-5.92137 Y-4.22829
G01 X-5.94650 Y-4.41886
G01 X-5.94650 Y-4.61109
G01 X-5.92137 Y-4.80167
G01 X-5.87162 Y-4.98739
G01 X-5.79806 Y-5.16499
G01 X-5.70194 Y-5.33149
G01 X-5.58493 Y-5.48399
G01 X-5.44899 Y-5.61993
G01 X-5.29648 Y-5.73695
G01 X-5.12999 Y-5.83306
G01 X-4.95239 Y-5.90662
G01 X-4.76667 Y-5.95638
G01 X-4.57609 Y-5.98150
G01 X-4.38384 Y-5.98165
G01 X-4.19324 Y-5.95655
G01 X-4.00751 Y-5.90677
G01 X-3.82989 Y-5.83321
G01 X-3.66339 Y-5.73710
G01 X-3.51086 Y-5.62005
G01 X-3.37490 Y-5.48409
G01 X-3.25780 Y-5.33156
G01 X-3.16174 Y-5.16506
G01 X-3.08818 Y-4.98744
G01 X-3.03840 Y-4.80172
G01 X-3.01330 Y-4.61112
G01 X-3.09011 Y-4.60606
G01 X-3.09011 Y-4.42389
G01 X-3.11389 Y-4.24327
G01 X-3.16106 Y-4.06725
G01 X-3.23078 Y-3.89893
G01 X-3.32186 Y-3.74114
G01 X-3.43276 Y-3.59659
G01 X-3.56159 Y-3.46776
G01 X-3.70614 Y-3.35686
G01 X-3.86395 Y-3.26575
G01 X-4.03225 Y-3.19603
G01 X-4.20825 Y-3.14889
G01 X-4.38889 Y-3.12511
G01 X-4.57106 Y-3.12527
G01 X-4.75168 Y-3.14907
G01 X-4.92765 Y-3.19618
G01 X-5.09593 Y-3.26591
G01 X-5.25371 Y-3.35699
G01 X-5.39824 Y-3.46789
G01 X-5.52707 Y-3.59672
G01 X-5.63796 Y-3.74124
G01 X-5.72905 Y-3.89900
G01 X-5.79874 Y-4.06730
G01 X-5.84591 Y-4.24330
G01 X-5.86969 Y-4.42389
G01 X-5.86969 Y-4.60606
G01 X-5.84591 Y-4.78666
G01 X-5.79874 Y-4.96265
G01 X-5.72905 Y-5.13095
G01 X-5.63796 Y-5.28871
G01 X-5.52707 Y-5.43324
G01 X-5.39824 Y-5.56207
G01 X-5.25371 Y-5.67296
G01 X-5.09595 Y-5.76405
G01 X-4.92765 Y-5.83374
G01 X-4.75165 Y-5.88091
G01 X-4.57106 Y-5.90469
G01 X-4.38889 Y-5.90484
G01 X-4.20827 Y-5.88107
G01 X-4.03225 Y-5.83390
G01 X-3.86392 Y-5.76417
G01 X-3.70614 Y-5.67309
G01 X-3.56159 Y-5.56219
G01 X-3.43276 Y-5.43336
G01 X-3.32186 Y-5.28881
G01 X-3.23078 Y-5.13103
G01 X-3.16106 Y-4.96270
G01 X-3.11389 Y-4.78668
G01 X-3.09011 Y-4.60606
G01 X-3.16690 Y-4.60103
G01 X-3.16690 Y-4.42892
G01 X-3.18938 Y-4.25828
G01 X-3.23388 Y-4.09199
G01 X-3.29979 Y-3.93296
G01 X-3.38585 Y-3.78391
G01 X-3.49065 Y-3.64734
G01 X-3.61234 Y-3.52565
G01 X-3.74891 Y-3.42085
G01 X-3.89799 Y-3.33479
G01 X-4.05699 Y-3.26890
G01 X-4.22326 Y-3.22438
G01 X-4.39392 Y-3.20190
G01 X-4.56603 Y-3.20208
G01 X-4.73667 Y-3.22453
G01 X-4.90291 Y-3.26908
G01 X-5.06189 Y-3.33494
G01 X-5.21096 Y-3.42100
G01 X-5.34749 Y-3.52575
G01 X-5.46920 Y-3.64747
G01 X-5.57395 Y-3.78399
G01 X-5.66001 Y-3.93304
G01 X-5.72587 Y-4.09204
G01 X-5.77042 Y-4.25831
G01 X-5.79288 Y-4.42892
G01 X-5.79288 Y-4.60103
G01 X-5.77042 Y-4.77164
G01 X-5.72587 Y-4.93791
G01 X-5.66001 Y-5.09692
G01 X-5.57395 Y-5.24596
G01 X-5.46920 Y-5.38249
G01 X-5.34749 Y-5.50421
G01 X-5.21096 Y-5.60895
G01 X-5.06192 Y-5.69501
G01 X-4.90291 Y-5.76087
G01 X-4.73664 Y-5.80542
G01 X-4.56603 Y-5.82788
G01 X-4.39392 Y-5.82806
G01 X-4.22328 Y-5.80558
G01 X-4.05699 Y-5.76102
G01 X-3.89796 Y-5.69516
G01 X-3.74891 Y-5.60911
G01 X-3.61234 Y-5.50431
G01 X-3.49065 Y-5.38262
G01 X-3.38585 Y-5.24604
G01 X-3.29979 Y-5.09699
G01 X-3.23388 Y-4.93796
G01 X-3.18938 Y-4.77167
G01 X-3.16690 Y-4.60103
G01 X-3.24371 Y-4.59600
G01 X-3.24371 Y-4.43395
G01 X-3.26487 Y-4.27330
G01 X-3.30683 Y-4.11673
G01 X-3.36883 Y-3.96700
G01 X-3.44985 Y-3.82666
G01 X-3.54851 Y-3.69809
G01 X-3.66309 Y-3.58351
G01 X-3.79166 Y-3.48485
G01 X-3.93202 Y-3.40380
G01 X-4.08173 Y-3.34180
G01 X-4.23827 Y-3.29987
G01 X-4.39895 Y-3.27871
G01 X-4.56098 Y-3.27886
G01 X-4.72166 Y-3.30002
G01 X-4.87817 Y-3.34195
G01 X-5.02785 Y-3.40396
G01 X-5.16819 Y-3.48498
G01 X-5.29676 Y-3.58364
G01 X-5.41132 Y-3.69819
G01 X-5.50997 Y-3.82676
G01 X-5.59097 Y-3.96707
G01 X-5.65297 Y-4.11678
G01 X-5.69493 Y-4.27332
G01 X-5.71609 Y-4.43398
G01 X-5.71609 Y-4.59598
G01 X-5.69493 Y-4.75663
G01 X-5.65297 Y-4.91317
G01 X-5.59097 Y-5.06288
G01 X-5.50997 Y-5.20319
G01 X-5.41132 Y-5.33176
G01 X-5.29676 Y-5.44632
G01 X-5.16819 Y-5.54497
G01 X-5.02788 Y-5.62597
G01 X-4.87817 Y-5.68797
G01 X-4.72163 Y-5.72994
G01 X-4.56098 Y-5.75109
G01 X-4.39895 Y-5.75125
G01 X-4.23829 Y-5.73009
G01 X-4.08173 Y-5.68813
G01 X-3.93200 Y-5.62613
G01 X-3.79166 Y-5.54510
G01 X-3.66309 Y-5.44645
G01 X-3.54851 Y-5.33187
G01 X-3.44985 Y-5.20329
G01 X-3.36883 Y-5.06296
G01 X-3.30683 Y-4.91322
G01 X-3.26487 Y-4.75666
G01 X-3.24371 Y-4.59600
G01 X-3.32062 Y-4.59095
G01 X-3.32029 Y-4.43898
G01 X-3.34015 Y-4.28826
G01 X-3.37985 Y-4.14152
G01 X-3.43766 Y-4.00096
G01 X-3.51368 Y-3.86928
G01 X-3.60650 Y-3.74894
G01 X-3.71368 Y-3.64122
G01 X-3.83431 Y-3.54866
G01 X-3.96613 Y-3.47299
G01 X-4.10639 Y-3.41450
G01 X-4.25326 Y-3.37515
G01 X-4.40400 Y-3.35567
G01 X-4.55597 Y-3.35529
G01 X-4.70665 Y-3.37551
G01 X-4.85356 Y-3.41450
G01 X-4.99382 Y-3.47299
G01 X-5.12582 Y-3.54843
G01 X-5.24601 Y-3.64150
G01 X-5.35374 Y-3.74868
G01 X-5.44599 Y-3.86951
G01 X-5.52229 Y-4.00096
G01 X-5.58010 Y-4.14152
G01 X-5.62011 Y-4.28823
G01 X-5.63928 Y-4.43901
G01 X-5.63966 Y-4.59097
G01 X-5.61980 Y-4.74170
G01 X-5.58010 Y-4.88843
G01 X-5.52229 Y-5.02900
G01 X-5.44627 Y-5.16067
G01 X-5.35346 Y-5.28102
G01 X-5.24627 Y-5.38874
G01 X-5.12544 Y-5.48099
G01 X-4.99400 Y-5.55729
G01 X-4.85343 Y-5.61510
G01 X-4.70672 Y-5.65511
G01 X-4.55595 Y-5.67428
G01 X-4.40398 Y-5.67466
G01 X-4.25326 Y-5.65480
G01 X-4.10652 Y-5.61510
G01 X-3.96596 Y-5.55729
G01 X-3.83428 Y-5.48127
G01 X-3.71394 Y-5.38846
G01 X-3.60622 Y-5.28127
G01 X-3.51384 Y-5.16054
G01 X-3.43766 Y-5.02900
G01 X-3.37985 Y-4.88843
G01 X-3.33985 Y-4.74172
G01 X-3.32062 Y-4.59095
G01 X-3.39745 Y-4.58592
G01 X-3.39710 Y-4.44403
G01 X-3.41564 Y-4.30329
G01 X-3.45272 Y-4.16626
G01 X-3.50670 Y-4.03499
G01 X-3.57767 Y-3.91206
G01 X-3.66436 Y-3.79969
G01 X-3.76443 Y-3.69908
G01 X-3.87708 Y-3.61264
G01 X-4.00017 Y-3.54200
G01 X-4.13113 Y-3.48737
G01 X-4.26827 Y-3.45064
G01 X-4.40903 Y-3.43245
G01 X-4.55092 Y-3.43210
G01 X-4.69163 Y-3.45100
G01 X-4.82882 Y-3.48737
G01 X-4.95978 Y-3.54200
G01 X-5.08305 Y-3.61241
G01 X-5.19527 Y-3.69936
G01 X-5.29587 Y-3.79943
G01 X-5.38198 Y-3.91226
G01 X-5.45325 Y-4.03499
G01 X-5.50723 Y-4.16626
G01 X-5.54462 Y-4.30324
G01 X-5.56250 Y-4.44403
G01 X-5.56285 Y-4.58592
G01 X-5.54431 Y-4.72666
G01 X-5.50723 Y-4.86369
G01 X-5.45325 Y-4.99496
G01 X-5.38198 Y-5.11769
G01 X-5.29587 Y-5.23052
G01 X-5.19527 Y-5.33060
G01 X-5.08290 Y-5.41729
G01 X-4.95996 Y-5.48825
G01 X-4.82869 Y-5.54223
G01 X-4.69171 Y-5.57962
G01 X-4.55092 Y-5.59750
G01 X-4.40903 Y-5.59786
G01 X-4.26829 Y-5.57931
G01 X-4.13126 Y-5.54223
G01 X-3.99999 Y-5.48825
G01 X-3.87706 Y-5.41729
G01 X-3.76469 Y-5.33060
G01 X-3.66408 Y-5.23052
G01 X-3.57782 Y-5.11777
G01 X-3.50670 Y-4.99496
G01 X-3.45272 Y-4.86369
G01 X-3.41533 Y-4.72671
G01 X-3.39745 Y-4.58592
G01 X-3.47409 Y-4.58089
G01 X-3.47388 Y-4.44904
G01 X-3.49148 Y-4.31838
G01 X-3.52527 Y-4.19087
G01 X-3.57574 Y-4.06900
G01 X-3.64195 Y-3.95503
G01 X-3.72171 Y-3.85000
G01 X-3.81544 Y-3.75722
G01 X-3.91980 Y-3.67665
G01 X-4.03415 Y-3.61089
G01 X-4.15587 Y-3.56024
G01 X-4.28333 Y-3.52649
G01 X-4.41404 Y-3.50888
G01 X-4.54591 Y-3.50888
G01 X-4.67662 Y-3.52649
G01 X-4.80418 Y-3.55996
G01 X-4.92572 Y-3.61104
G01 X-5.04012 Y-3.67665
G01 X-5.14477 Y-3.75694
G01 X-5.23773 Y-3.85044
G01 X-5.31830 Y-3.95481
G01 X-5.38424 Y-4.06903
G01 X-5.43433 Y-4.19100
G01 X-5.46885 Y-4.31830
G01 X-5.48569 Y-4.44906
G01 X-5.48607 Y-4.58092
G01 X-5.46847 Y-4.71157
G01 X-5.43469 Y-4.83908
G01 X-5.38422 Y-4.96095
G01 X-5.31800 Y-5.07492
G01 X-5.23824 Y-5.17995
G01 X-5.14452 Y-5.27274
G01 X-5.04015 Y-5.35330
G01 X-4.92592 Y-5.41924
G01 X-4.80395 Y-5.46933
G01 X-4.67665 Y-5.50385
G01 X-4.54589 Y-5.52069
G01 X-4.41404 Y-5.52107
G01 X-4.28338 Y-5.50347
G01 X-4.15587 Y-5.46969
G01 X-4.03400 Y-5.41922
G01 X-3.92003 Y-5.35300
G01 X-3.81500 Y-5.27324
G01 X-3.72222 Y-5.17952
G01 X-3.64165 Y-5.07515
G01 X-3.57571 Y-4.96092
G01 X-3.52562 Y-4.83895
G01 X-3.49110 Y-4.71165
G01 X-3.47409 Y-4.58089
G01 X-3.55107 Y-4.57586
G01 X-3.55107 Y-4.45412
G01 X-3.56659 Y-4.33334
G01 X-3.59834 Y-4.21566
G01 X-3.64475 Y-4.10304
G01 X-3.70596 Y-3.99778
G01 X-3.77957 Y-3.90075
G01 X-3.86618 Y-3.81508
G01 X-3.96258 Y-3.74066
G01 X-4.06819 Y-3.67993
G01 X-4.18061 Y-3.63311
G01 X-4.29837 Y-3.60197
G01 X-4.41907 Y-3.58569
G01 X-4.54088 Y-3.58569
G01 X-4.66159 Y-3.60197
G01 X-4.77944 Y-3.63284
G01 X-4.89168 Y-3.68005
G01 X-4.99737 Y-3.74063
G01 X-5.09377 Y-3.81508
G01 X-5.18015 Y-3.90096
G01 X-5.25399 Y-3.99778
G01 X-5.31546 Y-4.10294
G01 X-5.36146 Y-4.21574
G01 X-5.39336 Y-4.33332
G01 X-5.40926 Y-4.45409
G01 X-5.40888 Y-4.57584
G01 X-5.39336 Y-4.69661
G01 X-5.36146 Y-4.81421
G01 X-5.31520 Y-4.92691
G01 X-5.25399 Y-5.03217
G01 X-5.18015 Y-5.12900
G01 X-5.09400 Y-5.21515
G01 X-4.99717 Y-5.28899
G01 X-4.89201 Y-5.35046
G01 X-4.77921 Y-5.39646
G01 X-4.66164 Y-5.42836
G01 X-4.54086 Y-5.44426
G01 X-4.41912 Y-5.44388
G01 X-4.29834 Y-5.42836
G01 X-4.18066 Y-5.39661
G01 X-4.06804 Y-5.35021
G01 X-3.96278 Y-5.28899
G01 X-3.86596 Y-5.21515
G01 X-3.77980 Y-5.12900
G01 X-3.70596 Y-5.03217
G01 X-3.64449 Y-4.92702
G01 X-3.59849 Y-4.81421
G01 X-3.56659 Y-4.69664
G01 X-3.55107 Y-4.57586
G01 X-3.62786 Y-4.57083
G01 X-3.62786 Y-4.45915
G01 X-3.64208 Y-4.34835
G01 X-3.67121 Y-4.24040
G01 X-3.71378 Y-4.13708
G01 X-3.76994 Y-4.04056
G01 X-3.83746 Y-3.95150
G01 X-3.91693 Y-3.87294
G01 X-4.00533 Y-3.80464
G01 X-4.10223 Y-3.74894
G01 X-4.20535 Y-3.70599
G01 X-4.31338 Y-3.67746
G01 X-4.42410 Y-3.66250
G01 X-4.53586 Y-3.66250
G01 X-4.64657 Y-3.67746
G01 X-4.75470 Y-3.70573
G01 X-4.85765 Y-3.74909
G01 X-4.95460 Y-3.80464
G01 X-5.04302 Y-3.87294
G01 X-5.12229 Y-3.95168
G01 X-5.19001 Y-4.04056
G01 X-5.24642 Y-4.13697
G01 X-5.28858 Y-4.24048
G01 X-5.31787 Y-4.34833
G01 X-5.33248 Y-4.45912
G01 X-5.33209 Y-4.57081
G01 X-5.31787 Y-4.68160
G01 X-5.28858 Y-4.78947
G01 X-5.24617 Y-4.89288
G01 X-5.19001 Y-4.98940
G01 X-5.12229 Y-5.07827
G01 X-5.04327 Y-5.15729
G01 X-4.95440 Y-5.22501
G01 X-4.85798 Y-5.28142
G01 X-4.75447 Y-5.32359
G01 X-4.64663 Y-5.35287
G01 X-4.53583 Y-5.36748
G01 X-4.42415 Y-5.36710
G01 X-4.31335 Y-5.35287
G01 X-4.20540 Y-5.32374
G01 X-4.10207 Y-5.28117
G01 X-4.00555 Y-5.22501
G01 X-3.91668 Y-5.15729
G01 X-3.83766 Y-5.07827
G01 X-3.76994 Y-4.98940
G01 X-3.71353 Y-4.89298
G01 X-3.67137 Y-4.78947
G01 X-3.64208 Y-4.68163
G01 X-3.62786 Y-4.57083
G01 X-3.70467 Y-4.56578
G01 X-3.70429 Y-4.46418
G01 X-3.71757 Y-4.36336
G01 X-3.74424 Y-4.26519
G01 X-3.78254 Y-4.17101
G01 X-3.83395 Y-4.08330
G01 X-3.89552 Y-4.00243
G01 X-3.96756 Y-3.93068
G01 X-4.04810 Y-3.86862
G01 X-4.13634 Y-3.81813
G01 X-4.22999 Y-3.77861
G01 X-4.32839 Y-3.75293
G01 X-4.42915 Y-3.73929
G01 X-4.53080 Y-3.73929
G01 X-4.63156 Y-3.75293
G01 X-4.72986 Y-3.77888
G01 X-4.82361 Y-3.81813
G01 X-4.91188 Y-3.86865
G01 X-4.99227 Y-3.93080
G01 X-5.06463 Y-4.00223
G01 X-5.12600 Y-4.08330
G01 X-5.17713 Y-4.17111
G01 X-5.21571 Y-4.26519
G01 X-5.24238 Y-4.36339
G01 X-5.25529 Y-4.46418
G01 X-5.25567 Y-4.56578
G01 X-5.24238 Y-4.66659
G01 X-5.21571 Y-4.76476
G01 X-5.17741 Y-4.85894
G01 X-5.12600 Y-4.94665
G01 X-5.06443 Y-5.02752
G01 X-4.99252 Y-5.09943
G01 X-4.91165 Y-5.16100
G01 X-4.82384 Y-5.21213
G01 X-4.72976 Y-5.25071
G01 X-4.63156 Y-5.27738
G01 X-4.53078 Y-5.29029
G01 X-4.42918 Y-5.29067
G01 X-4.32836 Y-5.27738
G01 X-4.23019 Y-5.25071
G01 X-4.13601 Y-5.21241
G01 X-4.04830 Y-5.16100
G01 X-3.96743 Y-5.09943
G01 X-3.89552 Y-5.02752
G01 X-3.83395 Y-4.94665
G01 X-3.78282 Y-4.85884
G01 X-3.74409 Y-4.76481
G01 X-3.71757 Y-4.66656
G01 X-3.70467 Y-4.56578
G01 X-3.78145 Y-4.56075
G01 X-3.78079 Y-4.46918
G01 X-3.79341 Y-4.37845
G01 X-3.81678 Y-4.28983
G01 X-3.85183 Y-4.20515
G01 X-3.89793 Y-4.12605
G01 X-3.95338 Y-4.05318
G01 X-4.01831 Y-3.98856
G01 X-4.09087 Y-3.93263
G01 X-4.17038 Y-3.88714
G01 X-4.25473 Y-3.85148
G01 X-4.34340 Y-3.82841
G01 X-4.43418 Y-3.81610
G01 X-4.52577 Y-3.81610
G01 X-4.61655 Y-3.82841
G01 X-4.70512 Y-3.85176
G01 X-4.78958 Y-3.88714
G01 X-4.86910 Y-3.93263
G01 X-4.94154 Y-3.98866
G01 X-5.00677 Y-4.05298
G01 X-5.06202 Y-4.12605
G01 X-5.10812 Y-4.20515
G01 X-5.14281 Y-4.28993
G01 X-5.16692 Y-4.37840
G01 X-5.17850 Y-4.46921
G01 X-5.17916 Y-4.56077
G01 X-5.16654 Y-4.65150
G01 X-5.14317 Y-4.74012
G01 X-5.10812 Y-4.82481
G01 X-5.06202 Y-4.90390
G01 X-5.00657 Y-4.97677
G01 X-4.94177 Y-5.04157
G01 X-4.86890 Y-5.09702
G01 X-4.78980 Y-5.14312
G01 X-4.70502 Y-5.17782
G01 X-4.61655 Y-5.20192
G01 X-4.52575 Y-5.21350
G01 X-4.43418 Y-5.21416
G01 X-4.34345 Y-5.20154
G01 X-4.25483 Y-5.17817
G01 X-4.17015 Y-5.14312
G01 X-4.09105 Y-5.09702
G01 X-4.01818 Y-5.04157
G01 X-3.95338 Y-4.97677
G01 X-3.89793 Y-4.90390
G01 X-3.85183 Y-4.82481
G01 X-3.81698 Y-4.74007
G01 X-3.79303 Y-4.65155
G01 X-3.78145 Y-4.56075
G01 X-3.85826 Y-4.55569
G01 X-3.85788 Y-4.47424
G01 X-3.86872 Y-4.39344
G01 X-3.88965 Y-4.31455
G01 X-3.92120 Y-4.23936
G01 X-3.96138 Y-4.16844
G01 X-4.01155 Y-4.10416
G01 X-4.06890 Y-4.04627
G01 X-4.13362 Y-3.99661
G01 X-4.20441 Y-3.95618
G01 X-4.27954 Y-3.92466
G01 X-4.35836 Y-3.90355
G01 X-4.43926 Y-3.89326
G01 X-4.52072 Y-3.89288
G01 X-4.60154 Y-3.90390
G01 X-4.68041 Y-3.92466
G01 X-4.75554 Y-3.95618
G01 X-4.82651 Y-3.99639
G01 X-4.89080 Y-4.04655
G01 X-4.94868 Y-4.10390
G01 X-4.99834 Y-4.16862
G01 X-5.03875 Y-4.23936
G01 X-5.07030 Y-4.31455
G01 X-5.09143 Y-4.39341
G01 X-5.10169 Y-4.47426
G01 X-5.10207 Y-4.55572
G01 X-5.09105 Y-4.63649
G01 X-5.07030 Y-4.71541
G01 X-5.03875 Y-4.79059
G01 X-4.99834 Y-4.86133
G01 X-4.94868 Y-4.92605
G01 X-4.89080 Y-4.98340
G01 X-4.82651 Y-5.03357
G01 X-4.75559 Y-5.07375
G01 X-4.68041 Y-5.10530
G01 X-4.60154 Y-5.12643
G01 X-4.52069 Y-5.13669
G01 X-4.43923 Y-5.13707
G01 X-4.35844 Y-5.12623
G01 X-4.27954 Y-5.10530
G01 X-4.20436 Y-5.07375
G01 X-4.13344 Y-5.03357
G01 X-4.06916 Y-4.98340
G01 X-4.01127 Y-4.92605
G01 X-3.96161 Y-4.86133
G01 X-3.92120 Y-4.79059
G01 X-3.88965 Y-4.71541
G01 X-3.86852 Y-4.63654
G01 X-3.85826 Y-4.55569
G01 X-3.93504 Y-4.55066
G01 X-3.93504 Y-4.47929
G01 X-3.94289 Y-4.40820
G01 X-3.96288 Y-4.33941
G01 X-3.99024 Y-4.27340
G01 X-4.02468 Y-4.21074
G01 X-4.06941 Y-4.15491
G01 X-4.11991 Y-4.10441
G01 X-4.17573 Y-4.05968
G01 X-4.23847 Y-4.02519
G01 X-4.30441 Y-3.99788
G01 X-4.37312 Y-3.97792
G01 X-4.44429 Y-3.97005
G01 X-4.51566 Y-3.97005
G01 X-4.58683 Y-3.97792
G01 X-4.65554 Y-3.99788
G01 X-4.72148 Y-4.02519
G01 X-4.78422 Y-4.05968
G01 X-4.84005 Y-4.10441
G01 X-4.89054 Y-4.15491
G01 X-4.93527 Y-4.21074
G01 X-4.96971 Y-4.27340
G01 X-4.99707 Y-4.33941
G01 X-5.01706 Y-4.40820
G01 X-5.02491 Y-4.47929
G01 X-5.02491 Y-4.55066
G01 X-5.01706 Y-4.62176
G01 X-4.99707 Y-4.69054
G01 X-4.96971 Y-4.75656
G01 X-4.93527 Y-4.81922
G01 X-4.89054 Y-4.87505
G01 X-4.84005 Y-4.92554
G01 X-4.78422 Y-4.97027
G01 X-4.72156 Y-5.00471
G01 X-4.65554 Y-5.03207
G01 X-4.58676 Y-5.05206
G01 X-4.51566 Y-5.05991
G01 X-4.44429 Y-5.05991
G01 X-4.37319 Y-5.05206
G01 X-4.30441 Y-5.03207
G01 X-4.23840 Y-5.00471
G01 X-4.17573 Y-4.97027
G01 X-4.11991 Y-4.92554
G01 X-4.06941 Y-4.87505
G01 X-4.02468 Y-4.81922
G01 X-3.99024 Y-4.75656
G01 X-3.96288 Y-4.69054
G01 X-3.94289 Y-4.62176
G01 X-3.93504 Y-4.55066
G01 X-4.01185 Y-4.54566
G01 X-4.01185 Y-4.48432
G01 X-4.01985 Y-4.42351
G01 X-4.03436 Y-4.36367
G01 X-4.05925 Y-4.30746
G01 X-4.08991 Y-4.25432
G01 X-4.12613 Y-4.20467
G01 X-4.17065 Y-4.16227
G01 X-4.21932 Y-4.12491
G01 X-4.27185 Y-4.09288
G01 X-4.32915 Y-4.07076
G01 X-4.38843 Y-4.05488
G01 X-4.44922 Y-4.04536
G01 X-4.51063 Y-4.04685
G01 X-4.57152 Y-4.05488
G01 X-4.63128 Y-4.06933
G01 X-4.68744 Y-4.09423
G01 X-4.74063 Y-4.12491
G01 X-4.79029 Y-4.16113
G01 X-4.83268 Y-4.20566
G01 X-4.87004 Y-4.25432
G01 X-4.90205 Y-4.30677
G01 X-4.92417 Y-4.36415
G01 X-4.94010 Y-4.42351
G01 X-4.94960 Y-4.48422
G01 X-4.94810 Y-4.54563
G01 X-4.94010 Y-4.60644
G01 X-4.92559 Y-4.66628
G01 X-4.90070 Y-4.72250
G01 X-4.87004 Y-4.77563
G01 X-4.83382 Y-4.82529
G01 X-4.78930 Y-4.86768
G01 X-4.74063 Y-4.90504
G01 X-4.68818 Y-4.93705
G01 X-4.63080 Y-4.95917
G01 X-4.57144 Y-4.97510
G01 X-4.51074 Y-4.98460
G01 X-4.44932 Y-4.98310
G01 X-4.38851 Y-4.97510
G01 X-4.32867 Y-4.96059
G01 X-4.27246 Y-4.93570
G01 X-4.21932 Y-4.90504
G01 X-4.16966 Y-4.86882
G01 X-4.12727 Y-4.82430
G01 X-4.08991 Y-4.77563
G01 X-4.05790 Y-4.72318
G01 X-4.03578 Y-4.66580
G01 X-4.01985 Y-4.60644
G01 X-4.01185 Y-4.54566
G01 X-4.08866 Y-4.54061
G01 X-4.08866 Y-4.48935
G01 X-4.09534 Y-4.43852
G01 X-4.10723 Y-4.38841
G01 X-4.12829 Y-4.34149
G01 X-4.15392 Y-4.29710
G01 X-4.18399 Y-4.25541
G01 X-4.22140 Y-4.22013
G01 X-4.26209 Y-4.18892
G01 X-4.30588 Y-4.16189
G01 X-4.35389 Y-4.14363
G01 X-4.40345 Y-4.13037
G01 X-4.45427 Y-4.12217
G01 X-4.50560 Y-4.12366
G01 X-4.55651 Y-4.13037
G01 X-4.60654 Y-4.14221
G01 X-4.65341 Y-4.16324
G01 X-4.69786 Y-4.18892
G01 X-4.73954 Y-4.21899
G01 X-4.77482 Y-4.25640
G01 X-4.80604 Y-4.29710
G01 X-4.83301 Y-4.34081
G01 X-4.85130 Y-4.38889
G01 X-4.86461 Y-4.43852
G01 X-4.87281 Y-4.48927
G01 X-4.87129 Y-4.54061
G01 X-4.86461 Y-4.59143
G01 X-4.85272 Y-4.64155
G01 X-4.83166 Y-4.68846
G01 X-4.80604 Y-4.73286
G01 X-4.77596 Y-4.77454
G01 X-4.73855 Y-4.80982
G01 X-4.69786 Y-4.84104
G01 X-4.65414 Y-4.86801
G01 X-4.60606 Y-4.88630
G01 X-4.55643 Y-4.89961
G01 X-4.50568 Y-4.90781
G01 X-4.45435 Y-4.90629
G01 X-4.40352 Y-4.89961
G01 X-4.35341 Y-4.88772
G01 X-4.30649 Y-4.86667
G01 X-4.26209 Y-4.84104
G01 X-4.22041 Y-4.81096
G01 X-4.18513 Y-4.77355
G01 X-4.15392 Y-4.73286
G01 X-4.12694 Y-4.68914
G01 X-4.10865 Y-4.64106
G01 X-4.09534 Y-4.59143
G01 X-4.08866 Y-4.54061
G01 X-4.16545 Y-4.53555
G01 X-4.16936 Y-4.45326
G01 X-4.19730 Y-4.37553
G01 X-4.21665 Y-4.33901
G01 X-4.24299 Y-4.30715
G01 X-4.30400 Y-4.25166
G01 X-4.34058 Y-4.23227
G01 X-4.41818 Y-4.20436
G01 X-4.50055 Y-4.20045
G01 X-4.54177 Y-4.20436
G01 X-4.58132 Y-4.21653
G01 X-4.65595 Y-4.25166
G01 X-4.68780 Y-4.27799
G01 X-4.74330 Y-4.33901
G01 X-4.77843 Y-4.41363
G01 X-4.79059 Y-4.45326
G01 X-4.79450 Y-4.49440
G01 X-4.79059 Y-4.57670
G01 X-4.77843 Y-4.61632
G01 X-4.74330 Y-4.69095
G01 X-4.71696 Y-4.72280
G01 X-4.65595 Y-4.77830
G01 X-4.58132 Y-4.81343
G01 X-4.54170 Y-4.82559
G01 X-4.50055 Y-4.82951
G01 X-4.41825 Y-4.82559
G01 X-4.37863 Y-4.81343
G01 X-4.30400 Y-4.77830
G01 X-4.24299 Y-4.72280
G01 X-4.21665 Y-4.69095
G01 X-4.19730 Y-4.65442
G01 X-4.16936 Y-4.57670
G01 X-4.16545 Y-4.53555
G01 X-4.24226 Y-4.53052
G01 X-4.24485 Y-4.46827
G01 X-4.26634 Y-4.40957
G01 X-4.28064 Y-4.38178
G01 X-4.30085 Y-4.35790
G01 X-4.34678 Y-4.31564
G01 X-4.40337 Y-4.28940
G01 X-4.43319 Y-4.27985
G01 X-4.49552 Y-4.27726
G01 X-4.52676 Y-4.27985
G01 X-4.55658 Y-4.28940
G01 X-4.61317 Y-4.31564
G01 X-4.63705 Y-4.33586
G01 X-4.67931 Y-4.38178
G01 X-4.70555 Y-4.43837
G01 X-4.71510 Y-4.46827
G01 X-4.71769 Y-4.49943
G01 X-4.71510 Y-4.56169
G01 X-4.70555 Y-4.59158
G01 X-4.67931 Y-4.64817
G01 X-4.65910 Y-4.67205
G01 X-4.61317 Y-4.71432
G01 X-4.55658 Y-4.74055
G01 X-4.52669 Y-4.75010
G01 X-4.49552 Y-4.75270
G01 X-4.43327 Y-4.75010
G01 X-4.40337 Y-4.74055
G01 X-4.34678 Y-4.71432
G01 X-4.30085 Y-4.67205
G01 X-4.28064 Y-4.64817
G01 X-4.25440 Y-4.59158
G01 X-4.24485 Y-4.56169
G01 X-4.24226 Y-4.53052
G01 X-4.31904 Y-4.52549
G01 X-4.32034 Y-4.48328
G01 X-4.34464 Y-4.42453
G01 X-4.35872 Y-4.40863
G01 X-4.38953 Y-4.37965
G01 X-4.42811 Y-4.36227
G01 X-4.44820 Y-4.35534
G01 X-4.49049 Y-4.35404
G01 X-4.51175 Y-4.35534
G01 X-4.57043 Y-4.37965
G01 X-4.61531 Y-4.42453
G01 X-4.63961 Y-4.48328
G01 X-4.63961 Y-4.54668
G01 X-4.61531 Y-4.60543
G01 X-4.57043 Y-4.65031
G01 X-4.51167 Y-4.67462
G01 X-4.44828 Y-4.67462
G01 X-4.38953 Y-4.65031
G01 X-4.34464 Y-4.60543
G01 X-4.32034 Y-4.54668
G01 X-4.31904 Y-4.52549
G01 X-4.39585 Y-4.50952
G01 X-4.40017 Y-4.54210
G01 X-4.41660 Y-4.57058
G01 X-4.41183 Y-4.57474
G01 X-4.41660 Y-4.57058
G01 X-4.44264 Y-4.59057
G01 X-4.47449 Y-4.59910
G01 X-4.47408 Y-4.60543
G01 X-4.47449 Y-4.59910
G01 X-4.50710 Y-4.59478
G01 X-4.53558 Y-4.57835
G01 X-4.53974 Y-4.58313
G01 X-4.53558 Y-4.57835
G01 X-4.55557 Y-4.55231
G01 X-4.56410 Y-4.52046
G01 X-4.57043 Y-4.52087
G01 X-4.56410 Y-4.52046
G01 X-4.55978 Y-4.48785
G01 X-4.54335 Y-4.45938
G01 X-4.54812 Y-4.45521
G01 X-4.54335 Y-4.45938
G01 X-4.51724 Y-4.43936
G01 X-4.48546 Y-4.43085
G01 X-4.48587 Y-4.42453
G01 X-4.48546 Y-4.43085
G01 X-4.45285 Y-4.43514
G01 X-4.42438 Y-4.45160
G01 X-4.42021 Y-4.44683
G01 X-4.42438 Y-4.45160
G01 X-4.40439 Y-4.47764
G01 X-4.39585 Y-4.50952
G01 X-4.47266 Y-4.51455
G01 X-4.47954 Y-4.52229
G01 X-4.48729 Y-4.51541
G01 X-4.48041 Y-4.50766
G01 X-4.47266 Y-4.51455
G04 P0 ( dwell for no time -- G64 should not smooth over this point )
G00 Z2.00000 ( retract )

G00 X-15.77337 Y-13.22657 ( rapid move to begin. )
G01 F60.00000
( Mill infeed pass 1/1 )
G01 Z-0.10000
G04 P0 ( dwell for no time -- G64 should not smooth over this point )
G01 F120.00000
G01 X-15.77337 Y-13.22657
G01 X-15.67081 Y-13.19967
G01 X-15.54922 Y-13.18837
G01 X-14.02865 Y-13.18923
G01 X-13.92913 Y-13.19967
G01 X-13.81478 Y-13.23038
G01 X-13.73444 Y-13.26373
G01 X-13.68567 Y-13.28870
G01 X-13.56073 Y-13.36896
G01 X-13.54884 Y-13.42629
G01 X-13.54280 Y-13.50000
G01 X-13.54447 Y-13.93210
G01 X-13.55387 Y-14.00543
G01 X-13.57511 Y-14.07627
G01 X-13.60124 Y-14.13492
G01 X-13.63965 Y-14.19812
G01 X-13.68786 Y-14.25418
G01 X-13.73558 Y-14.29715
G01 X-13.79639 Y-14.33924
G01 X-13.89327 Y-14.38237
G01 X-13.96520 Y-14.39939
G01 X-14.02845 Y-14.40609
G01 X-14.24280 Y-14.40655
G01 X-14.26505 Y-14.38448
G01 X-14.24280 Y-14.40655
G01 X-14.24280 Y-15.54343
G01 X-14.26505 Y-15.56550
G01 X-14.24280 Y-15.54343
G01 X-14.02845 Y-15.54389
G01 X-13.96520 Y-15.55059
G01 X-13.89327 Y-15.56761
G01 X-13.82504 Y-15.59613
G01 X-13.76942 Y-15.62826
G01 X-13.71062 Y-15.67307
G01 X-13.63965 Y-15.75186
G01 X-13.60124 Y-15.81503
G01 X-13.57511 Y-15.87370
G01 X-13.55387 Y-15.94455
G01 X-13.54280 Y-16.04998
G01 X-13.54280 Y-16.44998
G01 X-13.31237 Y-16.44998
G01 X-13.25961 Y-16.50213
G01 X-13.31237 Y-16.44998
G01 X-13.77318 Y-16.44998
G01 X-13.77925 Y-16.50754
G01 X-13.79713 Y-16.56258
G01 X-13.82606 Y-16.61269
G01 X-13.85908 Y-16.65000
G01 X-13.91158 Y-16.68970
G01 X-13.95694 Y-16.71036
G01 X-14.04998 Y-16.72679
G01 X-15.54998 Y-16.72679
G01 X-15.63360 Y-16.71383
G01 X-15.68839 Y-16.68970
G01 X-15.73520 Y-16.65569
G01 X-15.77393 Y-16.61269
G01 X-15.80286 Y-16.56258
G01 X-15.82199 Y-16.49959
G01 X-15.82679 Y-16.44998
G01 X-15.82636 Y-16.04195
G01 X-15.81866 Y-15.98468
G01 X-15.80286 Y-15.93741
G01 X-15.77830 Y-15.89402
G01 X-15.73520 Y-15.84429
G01 X-15.68839 Y-15.81028
G01 X-15.63553 Y-15.78673
G01 X-15.58686 Y-15.77597
G01 X-15.12679 Y-15.77335
G01 X-15.12679 Y-14.17678
G01 X-15.54998 Y-14.17678
G01 X-15.62379 Y-14.16606
G01 X-15.68839 Y-14.13970
G01 X-15.73520 Y-14.10569
G01 X-15.77393 Y-14.06268
G01 X-15.79514 Y-14.02679
G01 X-17.71104 Y-14.02679
G01 X-17.64673 Y-14.22611
G01 X-17.62361 Y-14.44196
G01 X-17.64673 Y-14.67386
G01 X-17.71627 Y-14.88796
G01 X-17.82445 Y-15.07617
G01 X-17.97947 Y-15.25021
G01 X-18.16158 Y-15.38252
G01 X-18.35973 Y-15.47122
G01 X-18.58744 Y-15.52090
G01 X-18.82049 Y-15.51963
G01 X-19.03306 Y-15.47398
G01 X-19.19056 Y-15.40274
G01 X-19.57316 Y-15.78534
G01 X-19.57316 Y-17.39999
G01 X-19.57946 Y-17.46374
G01 X-19.59552 Y-17.51795
G01 X-19.62437 Y-17.57507
G01 X-19.66890 Y-17.63105
G01 X-20.66889 Y-18.63105
G01 X-20.71235 Y-18.66722
G01 X-20.78200 Y-18.70443
G01 X-20.83620 Y-18.72049
G01 X-20.89998 Y-18.72678
G01 X-23.70483 Y-18.72678
G01 X-23.72606 Y-18.76268
G01 X-23.77102 Y-18.81076
G01 X-23.81159 Y-18.83971
G01 X-23.87618 Y-18.86605
G01 X-23.94999 Y-18.87680
G01 X-24.37315 Y-18.87680
G01 X-24.37315 Y-21.19998
G01 X-24.37648 Y-21.24509
G01 X-24.38753 Y-21.29516
G01 X-24.41174 Y-21.35360
G01 X-24.43932 Y-21.39681
G01 X-24.46889 Y-21.43105
G01 X-25.26891 Y-22.23105
G01 X-25.31237 Y-22.26721
G01 X-25.36812 Y-22.29866
G01 X-25.42893 Y-22.31865
G01 X-25.49246 Y-22.32640
G01 X-26.42319 Y-22.32678
G01 X-26.42319 Y-23.19998
G01 X-26.42903 Y-23.22937
G01 X-26.43614 Y-23.24265
G01 X-26.45733 Y-23.26383
G01 X-26.48499 Y-23.27532
G01 X-28.89999 Y-23.27679
G01 X-28.92938 Y-23.27095
G01 X-28.94266 Y-23.26383
G01 X-28.96385 Y-23.24265
G01 X-28.97530 Y-23.21496
G01 X-28.97678 Y-23.19998
G01 X-28.97678 Y-20.79998
G01 X-28.97530 Y-20.78500
G01 X-28.96385 Y-20.75731
G01 X-28.94266 Y-20.73613
G01 X-28.91498 Y-20.72467
G01 X-28.89999 Y-20.72320
G01 X-26.50000 Y-20.72320
G01 X-26.47058 Y-20.72904
G01 X-26.45733 Y-20.73613
G01 X-26.43614 Y-20.75731
G01 X-26.42903 Y-20.77060
G01 X-26.42319 Y-20.79998
G01 X-26.42319 Y-21.67316
G01 X-25.63536 Y-21.67316
G01 X-25.02677 Y-21.06460
G01 X-25.02677 Y-18.87662
G01 X-25.48687 Y-18.87400
G01 X-25.53553 Y-18.86323
G01 X-25.58839 Y-18.83971
G01 X-25.63520 Y-18.80568
G01 X-25.67831 Y-18.75594
G01 X-25.70282 Y-18.71256
G01 X-25.71867 Y-18.66529
G01 X-25.72636 Y-18.60801
G01 X-25.72680 Y-18.19999
G01 X-25.72200 Y-18.15038
G01 X-25.70282 Y-18.08739
G01 X-25.67389 Y-18.03728
G01 X-25.63520 Y-17.99427
G01 X-25.58839 Y-17.96026
G01 X-25.53360 Y-17.93613
G01 X-25.44991 Y-17.92318
G01 X-23.92904 Y-17.92427
G01 X-23.86444 Y-17.93674
G01 X-23.80485 Y-17.96466
G01 X-23.75908 Y-17.99996
G01 X-23.72606 Y-18.03728
G01 X-23.70485 Y-18.07317
G01 X-21.03534 Y-18.07317
G01 X-20.22678 Y-17.26461
G01 X-20.22678 Y-15.64998
G01 X-20.22345 Y-15.60485
G01 X-20.21241 Y-15.55478
G01 X-20.18820 Y-15.49634
G01 X-20.16061 Y-15.45313
G01 X-20.13514 Y-15.42331
G01 X-19.65340 Y-14.94125
G01 X-19.68657 Y-14.88046
G01 X-19.75325 Y-14.67386
G01 X-19.77680 Y-14.44998
G01 X-19.75325 Y-14.22611
G01 X-19.68005 Y-14.00485
G01 X-19.57113 Y-13.81707
G01 X-19.42051 Y-13.64976
G01 X-19.23839 Y-13.51745
G01 X-19.04025 Y-13.42878
G01 X-18.81254 Y-13.37909
G01 X-18.58744 Y-13.37909
G01 X-18.36692 Y-13.42598
G01 X-18.20939 Y-13.49726
G01 X-18.13758 Y-13.43274
G01 X-18.08183 Y-13.40129
G01 X-18.02102 Y-13.38130
G01 X-17.95750 Y-13.37356
G01 X-15.79514 Y-13.37318
G01 X-15.77393 Y-13.33729
G01 X-15.74089 Y-13.29997
G01 X-15.68839 Y-13.26027
G01 X-15.63360 Y-13.23614
G01 X-15.54998 Y-13.22319
G01 X-14.04998 Y-13.22319
G01 X-13.96637 Y-13.23614
G01 X-13.91158 Y-13.26027
G01 X-13.86477 Y-13.29428
G01 X-13.82606 Y-13.33729
G01 X-13.79713 Y-13.38740
G01 X-13.77798 Y-13.45037
G01 X-13.77318 Y-13.50000
G01 X-13.77361 Y-13.90802
G01 X-13.77925 Y-13.95753
G01 X-13.79423 Y-14.00508
G01 X-13.82166 Y-14.05595
G01 X-13.86477 Y-14.10569
G01 X-13.91158 Y-14.13970
G01 X-13.96446 Y-14.16324
G01 X-14.01310 Y-14.17401
G01 X-14.47317 Y-14.17663
G01 X-14.47317 Y-15.77335
G01 X-14.02098 Y-15.77472
G01 X-13.95694 Y-15.78961
G01 X-13.91158 Y-15.81028
G01 X-13.87102 Y-15.83924
G01 X-13.82166 Y-15.89402
G01 X-13.79713 Y-15.93741
G01 X-13.77798 Y-16.00037
G01 X-13.77318 Y-16.04998
G01 X-13.77318 Y-16.44998
G01 X-13.54280 Y-16.44998
G01 X-13.54447 Y-16.48211
G01 X-13.55387 Y-16.55544
G01 X-13.58664 Y-16.65628
G01 X-13.62215 Y-16.72115
G01 X-13.65989 Y-16.77309
G01 X-13.71062 Y-16.82692
G01 X-13.79639 Y-16.88922
G01 X-13.86324 Y-16.92084
G01 X-13.90094 Y-16.93474
G01 X-13.94013 Y-16.94360
G01 X-14.04998 Y-16.95719
G01 X-15.54998 Y-16.95719
G01 X-15.59804 Y-16.95341
G01 X-15.69903 Y-16.93474
G01 X-15.80358 Y-16.88922
G01 X-15.88938 Y-16.82692
G01 X-15.96032 Y-16.74810
G01 X-16.01333 Y-16.65628
G01 X-16.04609 Y-16.55544
G01 X-16.05719 Y-16.44998
G01 X-16.05719 Y-16.04998
G01 X-16.04609 Y-15.94455
G01 X-16.01333 Y-15.84368
G01 X-15.96032 Y-15.75186
G01 X-15.88938 Y-15.67307
G01 X-15.80358 Y-15.61074
G01 X-15.70672 Y-15.56761
G01 X-15.60332 Y-15.54561
G01 X-15.35717 Y-15.54343
G01 X-15.33492 Y-15.56550
G01 X-15.35717 Y-15.54343
G01 X-15.35717 Y-14.40718
G01 X-15.33469 Y-14.38468
G01 X-15.35717 Y-14.40718
G01 X-15.54998 Y-14.40718
G01 X-15.59804 Y-14.40340
G01 X-15.69903 Y-14.38476
G01 X-15.80358 Y-14.33924
G01 X-15.88938 Y-14.27691
G01 X-15.90909 Y-14.25717
G01 X-15.90766 Y-14.25303
G01 X-15.90909 Y-14.25717
G01 X-17.41137 Y-14.25717
G01 X-17.43906 Y-14.23203
G01 X-17.41137 Y-14.25717
G01 X-17.39280 Y-14.44998
G01 X-17.41632 Y-14.69001
G01 X-17.42968 Y-14.75283
G01 X-17.50581 Y-14.98168
G01 X-17.62493 Y-15.19136
G01 X-17.66268 Y-15.24333
G01 X-17.82531 Y-15.42143
G01 X-18.01942 Y-15.56454
G01 X-18.07505 Y-15.59664
G01 X-18.29605 Y-15.69321
G01 X-18.53159 Y-15.74500
G01 X-18.59547 Y-15.75171
G01 X-18.83661 Y-15.75003
G01 X-19.07289 Y-15.70152
G01 X-19.14065 Y-15.67863
G01 X-19.14370 Y-15.66796
G01 X-19.14065 Y-15.67863
G01 X-19.34279 Y-15.88077
G01 X-19.34858 Y-15.87835
G01 X-19.34279 Y-15.88077
G01 X-19.34279 Y-17.39999
G01 X-19.34616 Y-17.44983
G01 X-19.26598 Y-17.36461
G01 X-19.26598 Y-15.91259
G01 X-19.27182 Y-15.91015
G01 X-19.26598 Y-15.91259
G01 X-19.12127 Y-15.76789
G01 X-19.12429 Y-15.75775
G01 X-19.12127 Y-15.76789
G01 X-19.08884 Y-15.77665
G01 X-18.88434 Y-15.82011
G01 X-18.80451 Y-15.82849
G01 X-18.55531 Y-15.82641
G01 X-18.27230 Y-15.76624
G01 X-18.00799 Y-15.64856
G01 X-17.77390 Y-15.47851
G01 X-17.58031 Y-15.26347
G01 X-17.45389 Y-15.04871
G01 X-17.42125 Y-14.97538
G01 X-17.34624 Y-14.73774
G01 X-17.31810 Y-14.49012
G01 X-17.31599 Y-14.44998
G01 X-17.32608 Y-14.33398
G01 X-17.35323 Y-14.30909
G01 X-17.32608 Y-14.33398
G01 X-15.94076 Y-14.33398
G01 X-15.93954 Y-14.33022
G01 X-15.94076 Y-14.33398
G01 X-15.90952 Y-14.35928
G01 X-15.84198 Y-14.40574
G01 X-15.76796 Y-14.44099
G01 X-15.72085 Y-14.45839
G01 X-15.61005 Y-14.47924
G01 X-15.54998 Y-14.48399
G01 X-15.43398 Y-14.48399
G01 X-15.41221 Y-14.46279
G01 X-15.43398 Y-14.48399
G01 X-15.43398 Y-15.46680
G01 X-15.41328 Y-15.48615
G01 X-15.43398 Y-15.46680
G01 X-15.61142 Y-15.46923
G01 X-15.73045 Y-15.49458
G01 X-15.84198 Y-15.54424
G01 X-15.94076 Y-15.61600
G01 X-16.02245 Y-15.70672
G01 X-16.08348 Y-15.81247
G01 X-16.12123 Y-15.92857
G01 X-16.13398 Y-16.04998
G01 X-16.13398 Y-16.44998
G01 X-16.12123 Y-16.57142
G01 X-16.08348 Y-16.68752
G01 X-16.02245 Y-16.79326
G01 X-15.94076 Y-16.88399
G01 X-15.87569 Y-16.93385
G01 X-15.80617 Y-16.97398
G01 X-15.72085 Y-17.00837
G01 X-15.61005 Y-17.02925
G01 X-15.54998 Y-17.03398
G01 X-14.04998 Y-17.03398
G01 X-13.98991 Y-17.02925
G01 X-13.87912 Y-17.00837
G01 X-13.79380 Y-16.97398
G01 X-13.72428 Y-16.93385
G01 X-13.65921 Y-16.88399
G01 X-13.57752 Y-16.79326
G01 X-13.51648 Y-16.68752
G01 X-13.47876 Y-16.57142
G01 X-13.46599 Y-16.44998
G01 X-13.46599 Y-16.04998
G01 X-13.47876 Y-15.92857
G01 X-13.51648 Y-15.81247
G01 X-13.57752 Y-15.70672
G01 X-13.65921 Y-15.61600
G01 X-13.75799 Y-15.54424
G01 X-13.86952 Y-15.49458
G01 X-13.98854 Y-15.46923
G01 X-14.16599 Y-15.46680
G01 X-14.18669 Y-15.48615
G01 X-14.16599 Y-15.46680
G01 X-14.16599 Y-14.48318
G01 X-14.18811 Y-14.46136
G01 X-14.16599 Y-14.48318
G01 X-13.98854 Y-14.48074
G01 X-13.90835 Y-14.46581
G01 X-13.83200 Y-14.44099
G01 X-13.75799 Y-14.40574
G01 X-13.65921 Y-14.33398
G01 X-13.57752 Y-14.24325
G01 X-13.53472 Y-14.17333
G01 X-13.51648 Y-14.13751
G01 X-13.48915 Y-14.06022
G01 X-13.47876 Y-14.02141
G01 X-13.46810 Y-13.94013
G01 X-13.46599 Y-13.50000
G01 X-13.47003 Y-13.44135
G01 X-13.56073 Y-13.36896
G01 X-13.42575 Y-13.48090
G01 X-13.23558 Y-13.66863
G01 X-13.23558 Y-13.88890
G01 X-13.25961 Y-13.95214
G01 X-13.23558 Y-13.88890
G01 X-13.23558 Y-13.66863
G01 X-13.17031 Y-13.73391
G01 X-13.23457 Y-13.88623
G01 X-13.45443 Y-14.48148
G01 X-13.53944 Y-14.66619
G01 X-13.58750 Y-14.74925
G01 X-13.67582 Y-14.79179
G01 X-13.75087 Y-14.82060
G01 X-13.78199 Y-14.82895
G01 X-13.79502 Y-14.82021
G01 X-13.78199 Y-14.82895
G01 X-13.78199 Y-15.12103
G01 X-13.79565 Y-15.13050
G01 X-13.78199 Y-15.12103
G01 X-13.67582 Y-15.15819
G01 X-13.56599 Y-15.21168
G01 X-13.50861 Y-15.25125
G01 X-13.63642 Y-15.09166
G01 X-13.70520 Y-15.06477
G01 X-13.71857 Y-15.07388
G01 X-13.70520 Y-15.06477
G01 X-13.70520 Y-14.88521
G01 X-13.71869 Y-14.87594
G01 X-13.70520 Y-14.88521
G01 X-13.65748 Y-14.86692
G01 X-13.53944 Y-14.66619
G01 X-13.68113 Y-14.90520
G01 X-13.68659 Y-14.92136
G01 X-13.69047 Y-14.92054
G01 X-13.68659 Y-14.92136
G01 X-13.68146 Y-15.02352
G01 X-13.67343 Y-15.04475
G01 X-13.67640 Y-15.04597
G01 X-13.67343 Y-15.04475
G01 X-13.02448 Y-15.85504
G01 X-13.01420 Y-15.92011
G01 X-13.00815 Y-15.99326
G01 X-13.01420 Y-15.92011
G01 X-13.02448 Y-15.85504
G01 X-12.99439 Y-15.89306
G01 X-12.99045 Y-15.96464
G01 X-13.12827 Y-16.19763
G01 X-13.21615 Y-16.38836
G01 X-13.43609 Y-16.98366
G01 X-13.50361 Y-17.14355
G01 X-13.55933 Y-17.16156
G01 X-15.73835 Y-17.16156
G01 X-15.76448 Y-17.15564
G01 X-15.86865 Y-17.11432
G01 X-15.91879 Y-17.08876
G01 X-15.99982 Y-17.03354
G01 X-16.04353 Y-16.99814
G01 X-16.08333 Y-16.95834
G01 X-16.14670 Y-16.88353
G01 X-16.17736 Y-16.83634
G01 X-16.22382 Y-16.75000
G01 X-16.24399 Y-16.69745
G01 X-16.27147 Y-16.60335
G01 X-16.28463 Y-16.50619
G01 X-16.28757 Y-16.44998
G01 X-16.28757 Y-16.04998
G01 X-16.28463 Y-15.99380
G01 X-16.27147 Y-15.89664
G01 X-16.24399 Y-15.80251
G01 X-16.22382 Y-15.74998
G01 X-16.17736 Y-15.66362
G01 X-16.14670 Y-15.61643
G01 X-16.08333 Y-15.54162
G01 X-16.04353 Y-15.50185
G01 X-15.99982 Y-15.46644
G01 X-15.91879 Y-15.41122
G01 X-15.83045 Y-15.36865
G01 X-15.77792 Y-15.34848
G01 X-15.72357 Y-15.33393
G01 X-15.62765 Y-15.31650
G01 X-15.58757 Y-15.31432
G01 X-15.56883 Y-15.33058
G01 X-15.58757 Y-15.31432
G01 X-15.58757 Y-14.63462
G01 X-15.56931 Y-14.61910
G01 X-15.58757 Y-14.63462
G01 X-15.69588 Y-14.62118
G01 X-15.76448 Y-14.60566
G01 X-15.83045 Y-14.58133
G01 X-15.91879 Y-14.53876
G01 X-15.99425 Y-14.48758
G01 X-15.99321 Y-14.48420
G01 X-15.99425 Y-14.48758
G01 X-17.16435 Y-14.48758
G01 X-17.18183 Y-14.46804
G01 X-17.16435 Y-14.48758
G01 X-17.18719 Y-14.71409
G01 X-17.19600 Y-14.76967
G01 X-17.21056 Y-14.82402
G01 X-17.29532 Y-15.07538
G01 X-17.42539 Y-15.30657
G01 X-17.45605 Y-15.35377
G01 X-17.63133 Y-15.55285
G01 X-17.67114 Y-15.59265
G01 X-17.71487 Y-15.62806
G01 X-17.93118 Y-15.78158
G01 X-18.17230 Y-15.89217
G01 X-18.22486 Y-15.91234
G01 X-18.27919 Y-15.92689
G01 X-18.48368 Y-15.97035
G01 X-18.53926 Y-15.97917
G01 X-18.59547 Y-15.98211
G01 X-18.86072 Y-15.97917
G01 X-19.07319 Y-15.93700
G01 X-19.07616 Y-15.92717
G01 X-19.07319 Y-15.93700
G01 X-19.11238 Y-15.97619
G01 X-19.11822 Y-15.97378
G01 X-19.11238 Y-15.97619
G01 X-19.11238 Y-16.42367
G01 X-19.07555 Y-16.34139
G01 X-19.03557 Y-16.26725
G01 X-19.03557 Y-16.02351
G01 X-19.06346 Y-15.98978
G01 X-19.03557 Y-16.02351
G01 X-18.86875 Y-16.05554
G01 X-18.80451 Y-16.05890
G01 X-18.59547 Y-16.05890
G01 X-18.53123 Y-16.05554
G01 X-18.46773 Y-16.04548
G01 X-18.26323 Y-16.00200
G01 X-18.20111 Y-15.98536
G01 X-18.14109 Y-15.96233
G01 X-17.95010 Y-15.87729
G01 X-17.89280 Y-15.84810
G01 X-17.83885 Y-15.81307
G01 X-17.66971 Y-15.69019
G01 X-17.61975 Y-15.64973
G01 X-17.57429 Y-15.60424
G01 X-17.43438 Y-15.44889
G01 X-17.39392 Y-15.39890
G01 X-17.35889 Y-15.34498
G01 X-17.25437 Y-15.16393
G01 X-17.22516 Y-15.10662
G01 X-17.20212 Y-15.04658
G01 X-17.13751 Y-14.84775
G01 X-17.12087 Y-14.78564
G01 X-17.09423 Y-14.56439
G01 X-17.11140 Y-14.54503
G01 X-17.09423 Y-14.56439
G01 X-16.01856 Y-14.56195
G01 X-15.95719 Y-14.60528
G01 X-15.89989 Y-14.63446
G01 X-15.78628 Y-14.67929
G01 X-15.66438 Y-14.70393
G01 X-15.64846 Y-14.69169
G01 X-15.66438 Y-14.70393
G01 X-15.66438 Y-15.24467
G01 X-15.64861 Y-15.25671
G01 X-15.66438 Y-15.24467
G01 X-15.73954 Y-15.25882
G01 X-15.80164 Y-15.27546
G01 X-15.86169 Y-15.29850
G01 X-15.95719 Y-15.34470
G01 X-16.01112 Y-15.37973
G01 X-16.09491 Y-15.44477
G01 X-16.16837 Y-15.52133
G01 X-16.20886 Y-15.57129
G01 X-16.24386 Y-15.62524
G01 X-16.29397 Y-15.71874
G01 X-16.31701 Y-15.77878
G01 X-16.34658 Y-15.88066
G01 X-16.35663 Y-15.94419
G01 X-16.36438 Y-16.04998
G01 X-16.36438 Y-16.43883
G01 X-16.16377 Y-16.98376
G01 X-16.09491 Y-17.05521
G01 X-16.01112 Y-17.12023
G01 X-15.94482 Y-17.16156
G01 X-15.73835 Y-17.16156
G01 X-16.04061 Y-17.16156
G01 X-16.09634 Y-17.14355
G01 X-16.16283 Y-16.98628
G01 X-16.38313 Y-16.38996
G01 X-16.44119 Y-16.25984
G01 X-16.44119 Y-16.04998
G01 X-16.43301 Y-15.93616
G01 X-16.42171 Y-15.86469
G01 X-16.39006 Y-15.75506
G01 X-16.36413 Y-15.68750
G01 X-16.33129 Y-15.62303
G01 X-16.27099 Y-15.52616
G01 X-16.22544 Y-15.46992
G01 X-16.14632 Y-15.38770
G01 X-16.05625 Y-15.31760
G01 X-15.99557 Y-15.27820
G01 X-15.89293 Y-15.22834
G01 X-15.82537 Y-15.20241
G01 X-15.74117 Y-15.18064
G01 X-15.72628 Y-15.19156
G01 X-15.74117 Y-15.18064
G01 X-15.74117 Y-14.76807
G01 X-15.72611 Y-14.75694
G01 X-15.74117 Y-14.76807
G01 X-15.80810 Y-14.75293
G01 X-15.89293 Y-14.72164
G01 X-15.99557 Y-14.67178
G01 X-16.04213 Y-14.63886
G01 X-17.02509 Y-14.64117
G01 X-17.04035 Y-14.62308
G01 X-17.02509 Y-14.64117
G01 X-17.04576 Y-14.80160
G01 X-17.06448 Y-14.87150
G01 X-17.12907 Y-15.07030
G01 X-17.15501 Y-15.13787
G01 X-17.18785 Y-15.20233
G01 X-17.29237 Y-15.38336
G01 X-17.33179 Y-15.44404
G01 X-17.37731 Y-15.50027
G01 X-17.51721 Y-15.65562
G01 X-17.56837 Y-15.70678
G01 X-17.62458 Y-15.75232
G01 X-17.79372 Y-15.87520
G01 X-17.85440 Y-15.91460
G01 X-17.91886 Y-15.94744
G01 X-18.11210 Y-16.03334
G01 X-18.24881 Y-16.05511
G01 X-18.10052 Y-16.03151
G01 X-17.89346 Y-15.98742
G01 X-17.72859 Y-15.94305
G01 X-17.52148 Y-15.87569
G01 X-17.34353 Y-15.80708
G01 X-17.20609 Y-15.65443
G01 X-17.14538 Y-15.57947
G01 X-17.09285 Y-15.49857
G01 X-16.98833 Y-15.31752
G01 X-16.94452 Y-15.23157
G01 X-16.90995 Y-15.14150
G01 X-16.84536 Y-14.94269
G01 X-16.82631 Y-14.87157
G01 X-16.83733 Y-14.85659
G01 X-16.82631 Y-14.87157
G01 X-16.10985 Y-14.86969
G01 X-15.98663 Y-14.93210
G01 X-15.97157 Y-14.93766
G01 X-15.95971 Y-14.93020
G01 X-15.97157 Y-14.93766
G01 X-15.97157 Y-15.01209
G01 X-15.95973 Y-15.01953
G01 X-15.97157 Y-15.01209
G01 X-15.98663 Y-15.01785
G01 X-16.11079 Y-15.07866
G01 X-16.22552 Y-15.15577
G01 X-16.30048 Y-15.21648
G01 X-16.39667 Y-15.31577
G01 X-16.45737 Y-15.39072
G01 X-16.50990 Y-15.47165
G01 X-16.57462 Y-15.59380
G01 X-16.60919 Y-15.68386
G01 X-16.64706 Y-15.81678
G01 X-16.65811 Y-15.88663
G01 X-16.59179 Y-15.99319
G01 X-16.58577 Y-15.92011
G01 X-16.57195 Y-15.83276
G01 X-16.54907 Y-15.74734
G01 X-16.50446 Y-15.62504
G01 X-16.44340 Y-15.51003
G01 X-16.39524 Y-15.43588
G01 X-16.31163 Y-15.33609
G01 X-16.24909 Y-15.27355
G01 X-16.18036 Y-15.21790
G01 X-16.07238 Y-15.14518
G01 X-15.99359 Y-15.10502
G01 X-15.89476 Y-15.06474
G01 X-15.88252 Y-15.07266
G01 X-15.89476 Y-15.06474
G01 X-15.89476 Y-14.88432
G01 X-15.88270 Y-14.87660
G01 X-15.89476 Y-14.88432
G01 X-15.95539 Y-14.86195
G01 X-16.07238 Y-14.80480
G01 X-16.08742 Y-14.79296
G01 X-16.88937 Y-14.79476
G01 X-16.90042 Y-14.77978
G01 X-16.88937 Y-14.79476
G01 X-16.89552 Y-14.83355
G01 X-16.91841 Y-14.91894
G01 X-16.98300 Y-15.11778
G01 X-17.01470 Y-15.20033
G01 X-17.05483 Y-15.27912
G01 X-17.15935 Y-15.46017
G01 X-17.20751 Y-15.53434
G01 X-17.26316 Y-15.60304
G01 X-17.40306 Y-15.75841
G01 X-17.46557 Y-15.82092
G01 X-17.54243 Y-15.88249
G01 X-17.72859 Y-15.94305
G01 X-17.89346 Y-15.98742
G01 X-17.77776 Y-15.95628
G01 X-17.57944 Y-15.81445
G01 X-17.51698 Y-15.76385
G01 X-17.46014 Y-15.70703
G01 X-17.32023 Y-15.55166
G01 X-17.26966 Y-15.48917
G01 X-17.22587 Y-15.42176
G01 X-17.12135 Y-15.24071
G01 X-17.08485 Y-15.16908
G01 X-17.05605 Y-15.09405
G01 X-16.99143 Y-14.89522
G01 X-16.97063 Y-14.81757
G01 X-16.95592 Y-14.71798
G01 X-16.97020 Y-14.70058
G01 X-16.95592 Y-14.71798
G01 X-16.06489 Y-14.71628
G01 X-16.03398 Y-14.73830
G01 X-15.92415 Y-14.79179
G01 X-15.82991 Y-14.82656
G01 X-15.81798 Y-14.82926
G01 X-15.80566 Y-14.82131
G01 X-15.81798 Y-14.82926
G01 X-15.81798 Y-15.12103
G01 X-15.80512 Y-15.12956
G01 X-15.81798 Y-15.12103
G01 X-15.84912 Y-15.12938
G01 X-15.96235 Y-15.17518
G01 X-16.03398 Y-15.21168
G01 X-16.13522 Y-15.28003
G01 X-16.19771 Y-15.33063
G01 X-16.28252 Y-15.41854
G01 X-16.33311 Y-15.48102
G01 X-16.39781 Y-15.58465
G01 X-16.43428 Y-15.65628
G01 X-16.47601 Y-15.77109
G01 X-16.49682 Y-15.84874
G01 X-16.51376 Y-15.96972
G01 X-16.51798 Y-16.11749
G01 X-16.47152 Y-16.19791
G01 X-16.44119 Y-16.25984
G01 X-16.47251 Y-16.19611
G01 X-16.56817 Y-16.03075
G01 X-16.71960 Y-15.79128
G01 X-16.68221 Y-15.66012
G01 X-16.64477 Y-15.56255
G01 X-16.59733 Y-15.46944
G01 X-16.51950 Y-15.34559
G01 X-16.42575 Y-15.23329
G01 X-16.35186 Y-15.15941
G01 X-16.23682 Y-15.06906
G01 X-16.14919 Y-15.01216
G01 X-16.07624 Y-14.97498
G01 X-15.99306 Y-14.97254
G01 X-16.07624 Y-14.97498
G01 X-16.12796 Y-14.94625
G01 X-16.76748 Y-14.94838
G01 X-16.77825 Y-14.93360
G01 X-16.76748 Y-14.94838
G01 X-16.77231 Y-14.96642
G01 X-16.83692 Y-15.16525
G01 X-16.87436 Y-15.26281
G01 X-16.92181 Y-15.35593
G01 X-17.02633 Y-15.53698
G01 X-17.08325 Y-15.62461
G01 X-17.17213 Y-15.73152
G01 X-17.01368 Y-15.65834
G01 X-16.95983 Y-15.57536
G01 X-16.85531 Y-15.39430
G01 X-16.80421 Y-15.29405
G01 X-16.76387 Y-15.18897
G01 X-16.71066 Y-15.02517
G01 X-16.72074 Y-15.01097
G01 X-16.71066 Y-15.02517
G01 X-16.30705 Y-15.02517
G01 X-16.17731 Y-14.97571
G01 X-16.30705 Y-15.02517
G01 X-16.31579 Y-15.03152
G01 X-16.40324 Y-15.10233
G01 X-16.48282 Y-15.18191
G01 X-16.58163 Y-15.30045
G01 X-16.66385 Y-15.43106
G01 X-16.71493 Y-15.53131
G01 X-16.76819 Y-15.67614
G01 X-16.77571 Y-15.70429
G01 X-16.71960 Y-15.79128
G01 X-16.83001 Y-15.61795
G01 X-16.78508 Y-15.50010
G01 X-16.70944 Y-15.35643
G01 X-16.64376 Y-15.25532
G01 X-16.56789 Y-15.16159
G01 X-16.51135 Y-15.10198
G01 X-16.41338 Y-15.05715
G01 X-16.51135 Y-15.10198
G01 X-16.65486 Y-15.10198
G01 X-16.66479 Y-15.08790
G01 X-16.65486 Y-15.10198
G01 X-16.69085 Y-15.21270
G01 X-16.73405 Y-15.32527
G01 X-16.78879 Y-15.43271
G01 X-16.88308 Y-15.59606
G01 X-16.87706 Y-15.59385
G01 X-16.87723 Y-15.58709
G01 X-16.87706 Y-15.59385
G01 X-16.86311 Y-15.59273
G01 X-16.84967 Y-15.59672
G01 X-16.83436 Y-15.61087
G01 X-16.83169 Y-15.60769
G01 X-16.83436 Y-15.61087
G01 X-16.83001 Y-15.61795
G01 X-16.84967 Y-15.59672
G01 X-16.86311 Y-15.59273
G01 X-16.87706 Y-15.59385
G01 X-17.12214 Y-15.70921
G01 X-17.32999 Y-15.80187
G01 X-17.52148 Y-15.87569
G01 X-17.72859 Y-15.94305
G01 X-17.89346 Y-15.98742
G01 X-18.10052 Y-16.03151
G01 X-18.24881 Y-16.05511
G01 X-18.45602 Y-16.07698
G01 X-18.71739 Y-16.09209
G01 X-18.93981 Y-16.12194
G01 X-18.95879 Y-16.11836
G01 X-18.96501 Y-16.10934
G01 X-18.95879 Y-16.11836
G01 X-18.95879 Y-16.13715
G01 X-18.97151 Y-16.15679
G01 X-18.95879 Y-16.13715
G01 X-18.95879 Y-16.11836
G01 X-18.95452 Y-16.13164
G01 X-18.93981 Y-16.12194
G01 X-18.95452 Y-16.13164
G01 X-18.97151 Y-16.15679
G01 X-19.07642 Y-16.34317
G01 X-19.14761 Y-16.50855
G01 X-19.19592 Y-16.66476
G01 X-19.21779 Y-16.76756
G01 X-19.23489 Y-16.90901
G01 X-19.23837 Y-16.99999
G01 X-19.23837 Y-17.33494
G01 X-19.35223 Y-17.45645
G01 X-19.54212 Y-17.69288
G01 X-19.57372 Y-17.72686
G01 X-20.57306 Y-18.72620
G01 X-20.60664 Y-18.75742
G01 X-20.68200 Y-18.80779
G01 X-20.74530 Y-18.83514
G01 X-20.78678 Y-18.84774
G01 X-20.85464 Y-18.86016
G01 X-20.90044 Y-18.86181
G01 X-23.47463 Y-18.86191
G01 X-23.62093 Y-18.87563
G01 X-23.72299 Y-18.94345
G01 X-23.78045 Y-18.97644
G01 X-23.85883 Y-19.00156
G01 X-23.99845 Y-19.03039
G01 X-24.21956 Y-19.03039
G01 X-24.24206 Y-19.00789
G01 X-24.21956 Y-19.03039
G01 X-24.21956 Y-19.26590
G01 X-24.23201 Y-19.32709
G01 X-24.20783 Y-19.20644
G01 X-24.17275 Y-19.10072
G01 X-24.16063 Y-19.08355
G01 X-24.16688 Y-19.07670
G01 X-24.16063 Y-19.08355
G01 X-23.99845 Y-19.03039
G01 X-24.14824 Y-19.07685
G01 X-24.16571 Y-19.08848
G01 X-24.20640 Y-19.20240
G01 X-24.23264 Y-19.33151
G01 X-24.23810 Y-19.41883
G01 X-24.23810 Y-21.19960
G01 X-24.24052 Y-21.25274
G01 X-24.25697 Y-21.33435
G01 X-24.29172 Y-21.41819
G01 X-24.33777 Y-21.48751
G01 X-24.36056 Y-21.51319
G01 X-25.19017 Y-22.34250
G01 X-25.22403 Y-22.37031
G01 X-25.30160 Y-22.41705
G01 X-25.36574 Y-22.44245
G01 X-25.45464 Y-22.46013
G01 X-25.87544 Y-22.46180
G01 X-25.95291 Y-22.46737
G01 X-26.03406 Y-22.48037
G01 X-26.26957 Y-22.48037
G01 X-26.29012 Y-22.45977
G01 X-26.26957 Y-22.48037
G01 X-26.26957 Y-22.72190
G01 X-26.24447 Y-22.61855
G01 X-26.21199 Y-22.53988
G01 X-26.21958 Y-22.53214
G01 X-26.21199 Y-22.53988
G01 X-26.19096 Y-22.52746
G01 X-26.03406 Y-22.48037
G01 X-26.19586 Y-22.52929
G01 X-26.21199 Y-22.53988
G01 X-26.21986 Y-22.55263
G01 X-26.24582 Y-22.62299
G01 X-26.27854 Y-22.75911
G01 X-26.28501 Y-22.81669
G01 X-26.29040 Y-23.23970
G01 X-26.31331 Y-23.30199
G01 X-26.34953 Y-23.35037
G01 X-26.39797 Y-23.38662
G01 X-26.46022 Y-23.40953
G01 X-28.93972 Y-23.40953
G01 X-29.00197 Y-23.38664
G01 X-29.05039 Y-23.35040
G01 X-29.08663 Y-23.30199
G01 X-29.11074 Y-23.23112
G01 X-29.11107 Y-20.80118
G01 X-29.09997 Y-20.68772
G01 X-29.06291 Y-20.63707
G01 X-29.02798 Y-20.60842
G01 X-28.98816 Y-20.58713
G01 X-28.94493 Y-20.57403
G01 X-28.89999 Y-20.56958
G01 X-26.50000 Y-20.56958
G01 X-26.45501 Y-20.57403
G01 X-26.41181 Y-20.58713
G01 X-26.37198 Y-20.60842
G01 X-26.33708 Y-20.63707
G01 X-26.30843 Y-20.67199
G01 X-26.28712 Y-20.71182
G01 X-26.27401 Y-20.75505
G01 X-26.26957 Y-20.79998
G01 X-26.26957 Y-21.51957
G01 X-26.29179 Y-21.54192
G01 X-26.26957 Y-21.51957
G01 X-25.69896 Y-21.51957
G01 X-25.69655 Y-21.52541
G01 X-25.69896 Y-21.51957
G01 X-25.18037 Y-21.00097
G01 X-25.17452 Y-21.00341
G01 X-25.18037 Y-21.00097
G01 X-25.18037 Y-19.02991
G01 X-25.15791 Y-19.00751
G01 X-25.18037 Y-19.02991
G01 X-25.49522 Y-19.02800
G01 X-25.58298 Y-19.00931
G01 X-25.65573 Y-18.97753
G01 X-25.60140 Y-19.08381
G01 X-25.57564 Y-19.09069
G01 X-25.50333 Y-19.10438
G01 X-25.47150 Y-19.10608
G01 X-25.25715 Y-19.10654
G01 X-25.23490 Y-19.08447
G01 X-25.25715 Y-19.10654
G01 X-25.25715 Y-20.96917
G01 X-25.25131 Y-20.97159
G01 X-25.25715 Y-20.96917
G01 X-25.73078 Y-21.44278
G01 X-25.72837 Y-21.44862
G01 X-25.73078 Y-21.44278
G01 X-26.19278 Y-21.44278
G01 X-26.21488 Y-21.46503
G01 X-26.19278 Y-21.44278
G01 X-26.19278 Y-20.79998
G01 X-26.19870 Y-20.74007
G01 X-26.21618 Y-20.68243
G01 X-26.24455 Y-20.62932
G01 X-26.28278 Y-20.58276
G01 X-26.32928 Y-20.54456
G01 X-26.38242 Y-20.51616
G01 X-26.44005 Y-20.49869
G01 X-26.50000 Y-20.49280
G01 X-28.89999 Y-20.49280
G01 X-28.95991 Y-20.49869
G01 X-29.01754 Y-20.51616
G01 X-29.06664 Y-20.54243
G01 X-29.04122 Y-20.44349
G01 X-28.97490 Y-20.42338
G01 X-28.89999 Y-20.41599
G01 X-26.50000 Y-20.41599
G01 X-26.42507 Y-20.42338
G01 X-26.35301 Y-20.44522
G01 X-26.28664 Y-20.48071
G01 X-26.22845 Y-20.52846
G01 X-26.18069 Y-20.58665
G01 X-26.14521 Y-20.65304
G01 X-26.12334 Y-20.72508
G01 X-26.11600 Y-20.79998
G01 X-26.11600 Y-21.36597
G01 X-26.13848 Y-21.38848
G01 X-26.11600 Y-21.36597
G01 X-25.76258 Y-21.36597
G01 X-25.76017 Y-21.37181
G01 X-25.76258 Y-21.36597
G01 X-25.33396 Y-20.93735
G01 X-25.32812 Y-20.93979
G01 X-25.33396 Y-20.93735
G01 X-25.33396 Y-19.18317
G01 X-25.31260 Y-19.16270
G01 X-25.33396 Y-19.18317
G01 X-25.47170 Y-19.18289
G01 X-25.55385 Y-19.17382
G01 X-25.51087 Y-19.25757
G01 X-25.41077 Y-19.25980
G01 X-25.38887 Y-19.23842
G01 X-25.41077 Y-19.25980
G01 X-25.41077 Y-20.90555
G01 X-25.40490 Y-20.90796
G01 X-25.41077 Y-20.90555
G01 X-25.79441 Y-21.28916
G01 X-25.79195 Y-21.29503
G01 X-25.79441 Y-21.28916
G01 X-26.03919 Y-21.28916
G01 X-26.06170 Y-21.31167
G01 X-26.03919 Y-21.28916
G01 X-26.03919 Y-20.79998
G01 X-26.04806 Y-20.71009
G01 X-26.07427 Y-20.62366
G01 X-26.11684 Y-20.54398
G01 X-26.17414 Y-20.47415
G01 X-26.24399 Y-20.41685
G01 X-26.32365 Y-20.37428
G01 X-26.41008 Y-20.34804
G01 X-26.50000 Y-20.33920
G01 X-28.84561 Y-20.33920
G01 X-29.03924 Y-20.43577
G01 X-29.08798 Y-20.62536
G01 X-29.09997 Y-20.68772
G01 X-29.08798 Y-20.62536
G01 X-29.03924 Y-20.43577
G01 X-28.74142 Y-20.28431
G01 X-28.59834 Y-20.30506
G01 X-28.44998 Y-20.31337
G01 X-26.94996 Y-20.31342
G01 X-26.79908 Y-20.30494
G01 X-26.65758 Y-20.28419
G01 X-26.56670 Y-20.26239
G01 X-26.50000 Y-20.26239
G01 X-26.39510 Y-20.27273
G01 X-26.29426 Y-20.30331
G01 X-26.20129 Y-20.35299
G01 X-26.11986 Y-20.41985
G01 X-26.05298 Y-20.50131
G01 X-26.00330 Y-20.59427
G01 X-25.97272 Y-20.69511
G01 X-25.96238 Y-20.79998
G01 X-25.96238 Y-21.21238
G01 X-25.98390 Y-21.23432
G01 X-25.96238 Y-21.21238
G01 X-25.82621 Y-21.21238
G01 X-25.82380 Y-21.21822
G01 X-25.82621 Y-21.21238
G01 X-25.48755 Y-20.87372
G01 X-25.48171 Y-20.87616
G01 X-25.48755 Y-20.87372
G01 X-25.48755 Y-19.42887
G01 X-25.54280 Y-19.58508
G01 X-25.71796 Y-20.00799
G01 X-25.71796 Y-20.77829
G01 X-25.71212 Y-20.78071
G01 X-25.71796 Y-20.77829
G01 X-25.73269 Y-20.79302
G01 X-25.76733 Y-20.88982
G01 X-25.73269 Y-20.79302
G01 X-25.74676 Y-20.65015
G01 X-25.79042 Y-20.50608
G01 X-25.86139 Y-20.37331
G01 X-25.95695 Y-20.25693
G01 X-25.98610 Y-20.23300
G01 X-26.11145 Y-20.22897
G01 X-26.01125 Y-20.31124
G01 X-25.92527 Y-20.41599
G01 X-25.86139 Y-20.53547
G01 X-25.82207 Y-20.66514
G01 X-25.80879 Y-20.79998
G01 X-25.80879 Y-20.97773
G01 X-25.85021 Y-21.08411
G01 X-25.80879 Y-20.97773
G01 X-25.64112 Y-20.81012
G01 X-25.63528 Y-20.81253
G01 X-25.64112 Y-20.81012
G01 X-25.64112 Y-19.82254
G01 X-25.56434 Y-19.63712
G01 X-25.56434 Y-20.84192
G01 X-25.55850 Y-20.84433
G01 X-25.56434 Y-20.84192
G01 X-25.85801 Y-21.13557
G01 X-25.85560 Y-21.14141
G01 X-25.85801 Y-21.13557
G01 X-25.88560 Y-21.13557
G01 X-25.90808 Y-21.15807
G01 X-25.88560 Y-21.13557
G01 X-25.88560 Y-20.79998
G01 X-25.89738 Y-20.68012
G01 X-25.93236 Y-20.56488
G01 X-25.98910 Y-20.45866
G01 X-26.06556 Y-20.36554
G01 X-26.15865 Y-20.28914
G01 X-26.26484 Y-20.23237
G01 X-26.27945 Y-20.22792
G01 X-26.46324 Y-20.23349
G01 X-26.56670 Y-20.26239
G01 X-26.46324 Y-20.23349
G01 X-26.41603 Y-20.23110
G01 X-26.10853 Y-20.22899
G01 X-25.87394 Y-20.23755
G01 X-25.79756 Y-20.33064
G01 X-25.74348 Y-20.48129
G01 X-25.79474 Y-20.33593
G01 X-25.79474 Y-20.19132
G01 X-25.80874 Y-20.22201
G01 X-25.81793 Y-20.23166
G01 X-25.80955 Y-20.24433
G01 X-25.81793 Y-20.23166
G01 X-25.83637 Y-20.23895
G01 X-25.87394 Y-20.23755
G01 X-25.82984 Y-20.23760
G01 X-25.81293 Y-20.22724
G01 X-25.80556 Y-20.21614
G01 X-25.54280 Y-19.58508
G01 X-25.50104 Y-19.47304
G01 X-25.46759 Y-19.36346
G01 X-25.46657 Y-19.34512
G01 X-25.46144 Y-19.34456
G01 X-25.46657 Y-19.34512
G01 X-25.64021 Y-19.00837
G01 X-25.70444 Y-18.87441
G01 X-25.74257 Y-18.75739
G01 X-25.75588 Y-18.68475
G01 X-25.76116 Y-18.61419
G01 X-25.76116 Y-18.18576
G01 X-25.75588 Y-18.11520
G01 X-25.74257 Y-18.04256
G01 X-25.70447 Y-17.92559
G01 X-25.66426 Y-17.84124
G01 X-25.60704 Y-17.74726
G01 X-25.54102 Y-17.65948
G01 X-25.42195 Y-17.52625
G01 X-25.28128 Y-17.38574
G01 X-23.92863 Y-17.38668
G01 X-23.86465 Y-17.39008
G01 X-23.76046 Y-17.40880
G01 X-23.69833 Y-17.42544
G01 X-23.63828 Y-17.44850
G01 X-23.54280 Y-17.49471
G01 X-23.48131 Y-17.53768
G01 X-21.25802 Y-17.53558
G01 X-21.25558 Y-17.54142
G01 X-21.25802 Y-17.53558
G01 X-20.76437 Y-17.04193
G01 X-20.75853 Y-17.04437
G01 X-20.76437 Y-17.04193
G01 X-20.76437 Y-16.47383
G01 X-20.77679 Y-16.56479
G01 X-20.80727 Y-16.70715
G01 X-20.84116 Y-16.82110
G01 X-20.84116 Y-17.01013
G01 X-20.83532 Y-17.01254
G01 X-20.84116 Y-17.01013
G01 X-21.28982 Y-17.45879
G01 X-21.28741 Y-17.46463
G01 X-21.28982 Y-17.45879
G01 X-23.45774 Y-17.46077
G01 X-23.50440 Y-17.42818
G01 X-23.56886 Y-17.39534
G01 X-23.67460 Y-17.35242
G01 X-23.78537 Y-17.32498
G01 X-23.85659 Y-17.31371
G01 X-23.92858 Y-17.30990
G01 X-25.20450 Y-17.30898
G01 X-25.28128 Y-17.38574
G01 X-25.12769 Y-17.23225
G01 X-23.92853 Y-17.23309
G01 X-23.84852 Y-17.23733
G01 X-23.72850 Y-17.25856
G01 X-23.65085 Y-17.27937
G01 X-23.53762 Y-17.32519
G01 X-23.46599 Y-17.36169
G01 X-23.43516 Y-17.38386
G01 X-21.32165 Y-17.38198
G01 X-21.31921 Y-17.38782
G01 X-21.32165 Y-17.38198
G01 X-21.13783 Y-17.19816
G01 X-21.01906 Y-17.10357
G01 X-20.90118 Y-16.99052
G01 X-20.89884 Y-16.99207
G01 X-20.90118 Y-16.99052
G01 X-20.87232 Y-16.91668
G01 X-20.82234 Y-16.76331
G01 X-20.80727 Y-16.70715
G01 X-20.77679 Y-16.56479
G01 X-20.75378 Y-16.37335
G01 X-20.74906 Y-16.24998
G01 X-20.74809 Y-15.60109
G01 X-20.73491 Y-15.42857
G01 X-20.69036 Y-15.30134
G01 X-20.64657 Y-15.21544
G01 X-20.56940 Y-15.10401
G01 X-20.51119 Y-15.03876
G01 X-20.27466 Y-14.80223
G01 X-20.26689 Y-14.80487
G01 X-20.27466 Y-14.80223
G01 X-20.28916 Y-14.72212
G01 X-20.31101 Y-14.51422
G01 X-20.31439 Y-14.44998
G01 X-20.31101 Y-14.38577
G01 X-20.28916 Y-14.17785
G01 X-20.27911 Y-14.11435
G01 X-20.26247 Y-14.05222
G01 X-20.19785 Y-13.85339
G01 X-20.17481 Y-13.79334
G01 X-20.11375 Y-13.68087
G01 X-19.98114 Y-13.60480
G01 X-20.10466 Y-13.82458
G01 X-20.18942 Y-14.07594
G01 X-20.20397 Y-14.13030
G01 X-20.21279 Y-14.18587
G01 X-20.23758 Y-14.44998
G01 X-20.21279 Y-14.71409
G01 X-20.20397 Y-14.76967
G01 X-20.18942 Y-14.82402
G01 X-20.18091 Y-14.82794
G01 X-20.18904 Y-14.82522
G01 X-20.45688 Y-15.09306
G01 X-20.51101 Y-15.15387
G01 X-20.56059 Y-15.22212
G01 X-20.61939 Y-15.33073
G01 X-20.66049 Y-15.44721
G01 X-20.66963 Y-15.48536
G01 X-20.68284 Y-15.56868
G01 X-20.68756 Y-15.64998
G01 X-20.68756 Y-17.07375
G01 X-20.68172 Y-17.07617
G01 X-20.68756 Y-17.07375
G01 X-21.22620 Y-17.61239
G01 X-21.22378 Y-17.61823
G01 X-21.22620 Y-17.61239
G01 X-23.50574 Y-17.61239
G01 X-23.50643 Y-17.61495
G01 X-23.53399 Y-17.59186
G01 X-23.58118 Y-17.56120
G01 X-23.66952 Y-17.51866
G01 X-23.72205 Y-17.49849
G01 X-23.81730 Y-17.47523
G01 X-23.87270 Y-17.46646
G01 X-23.92870 Y-17.46349
G01 X-25.35806 Y-17.46247
G01 X-25.43393 Y-17.53921
G01 X-23.88075 Y-17.54284
G01 X-23.79238 Y-17.55905
G01 X-23.70077 Y-17.58881
G01 X-23.61959 Y-17.62773
G01 X-23.54532 Y-17.67858
G01 X-23.53221 Y-17.68917
G01 X-23.53333 Y-17.69275
G01 X-23.53221 Y-17.68917
G01 X-21.19439 Y-17.68917
G01 X-21.19198 Y-17.69504
G01 X-21.19439 Y-17.68917
G01 X-20.61078 Y-17.10555
G01 X-20.60491 Y-17.10797
G01 X-20.61078 Y-17.10555
G01 X-20.61078 Y-15.64998
G01 X-20.60626 Y-15.57470
G01 X-20.58581 Y-15.46515
G01 X-20.54845 Y-15.36014
G01 X-20.49511 Y-15.26225
G01 X-20.45261 Y-15.20375
G01 X-20.40258 Y-15.14737
G01 X-20.10146 Y-14.84622
G01 X-20.09064 Y-14.84917
G01 X-20.10146 Y-14.84622
G01 X-20.12887 Y-14.75369
G01 X-20.16079 Y-14.44998
G01 X-20.13641 Y-14.19390
G01 X-20.11637 Y-14.09969
G01 X-20.03448 Y-13.85583
G01 X-19.88180 Y-13.59136
G01 X-19.83075 Y-13.53091
G01 X-19.65914 Y-13.45509
G01 X-19.81967 Y-13.63650
G01 X-19.94609 Y-13.85125
G01 X-19.97873 Y-13.92458
G01 X-20.05373 Y-14.16223
G01 X-20.08188 Y-14.40985
G01 X-20.08188 Y-14.49012
G01 X-20.05373 Y-14.73774
G01 X-20.01385 Y-14.86725
G01 X-20.00159 Y-14.87025
G01 X-20.01385 Y-14.86725
G01 X-20.34827 Y-15.20167
G01 X-20.39422 Y-15.25364
G01 X-20.45012 Y-15.33583
G01 X-20.47748 Y-15.38953
G01 X-20.51113 Y-15.48308
G01 X-20.52028 Y-15.52123
G01 X-20.52970 Y-15.58074
G01 X-20.53397 Y-15.64998
G01 X-20.53397 Y-17.13738
G01 X-20.52813 Y-17.13979
G01 X-20.53397 Y-17.13738
G01 X-21.16257 Y-17.76598
G01 X-21.16016 Y-17.77182
G01 X-21.16257 Y-17.76598
G01 X-23.55924 Y-17.76598
G01 X-23.56007 Y-17.76893
G01 X-23.55924 Y-17.76598
G01 X-23.59045 Y-17.74071
G01 X-23.65799 Y-17.69422
G01 X-23.73201 Y-17.65897
G01 X-23.76952 Y-17.64457
G01 X-23.84925 Y-17.62547
G01 X-23.92881 Y-17.61708
G01 X-25.44971 Y-17.61599
G01 X-25.50775 Y-17.62054
G01 X-25.57963 Y-17.71084
G01 X-25.49804 Y-17.69656
G01 X-25.44976 Y-17.69280
G01 X-23.89685 Y-17.69557
G01 X-23.79325 Y-17.71762
G01 X-23.72505 Y-17.74614
G01 X-23.69640 Y-17.76075
G01 X-23.63559 Y-17.80283
G01 X-23.59089 Y-17.84279
G01 X-23.59208 Y-17.84650
G01 X-23.59089 Y-17.84279
G01 X-21.13077 Y-17.84279
G01 X-21.12835 Y-17.84863
G01 X-21.13077 Y-17.84279
G01 X-20.45716 Y-17.16918
G01 X-20.45132 Y-17.17159
G01 X-20.45716 Y-17.16918
G01 X-20.45716 Y-15.64998
G01 X-20.45315 Y-15.58676
G01 X-20.44560 Y-15.53914
G01 X-20.42155 Y-15.45516
G01 X-20.40654 Y-15.41892
G01 X-20.38464 Y-15.37597
G01 X-20.33582 Y-15.30350
G01 X-20.29397 Y-15.25598
G01 X-19.92627 Y-14.88829
G01 X-19.91383 Y-14.89131
G01 X-19.92627 Y-14.88829
G01 X-19.97862 Y-14.72176
G01 X-20.00717 Y-14.44998
G01 X-19.97862 Y-14.17820
G01 X-19.89417 Y-13.91831
G01 X-19.75754 Y-13.68163
G01 X-19.57466 Y-13.47856
G01 X-19.44213 Y-13.38019
G01 X-19.31515 Y-13.34249
G01 X-19.14091 Y-13.30546
G01 X-19.31518 Y-13.38443
G01 X-19.52328 Y-13.53563
G01 X-19.69539 Y-13.72677
G01 X-19.81307 Y-13.92804
G01 X-19.83265 Y-13.97206
G01 X-19.90349 Y-14.19418
G01 X-19.93039 Y-14.44998
G01 X-19.90349 Y-14.70581
G01 X-19.83870 Y-14.90932
G01 X-19.82600 Y-14.91239
G01 X-19.83870 Y-14.90932
G01 X-20.25195 Y-15.32357
G01 X-20.27743 Y-15.35339
G01 X-20.31916 Y-15.41610
G01 X-20.33560 Y-15.44831
G01 X-20.36176 Y-15.51892
G01 X-20.37659 Y-15.59278
G01 X-20.38038 Y-15.64998
G01 X-20.38038 Y-17.20098
G01 X-20.37453 Y-17.20342
G01 X-20.38038 Y-17.20098
G01 X-21.09897 Y-17.91957
G01 X-21.09653 Y-17.92542
G01 X-21.09897 Y-17.91957
G01 X-23.62479 Y-17.91957
G01 X-23.62624 Y-17.92379
G01 X-23.62479 Y-17.91957
G01 X-23.66201 Y-17.88013
G01 X-23.73478 Y-17.82724
G01 X-23.81700 Y-17.79064
G01 X-23.90491 Y-17.77195
G01 X-25.44981 Y-17.76959
G01 X-25.48603 Y-17.77243
G01 X-25.57722 Y-17.78886
G01 X-25.65232 Y-17.82072
G01 X-25.68466 Y-17.88124
G01 X-25.72344 Y-17.97693
G01 X-25.70447 Y-17.92559
G01 X-25.66426 Y-17.84124
G01 X-25.60704 Y-17.74726
G01 X-25.54102 Y-17.65948
G01 X-25.42195 Y-17.52625
G01 X-25.05880 Y-17.16336
G01 X-23.82523 Y-17.16336
G01 X-23.71255 Y-17.18346
G01 X-23.62713 Y-17.20634
G01 X-23.56208 Y-17.23131
G01 X-23.62713 Y-17.20634
G01 X-23.71255 Y-17.18346
G01 X-23.82523 Y-17.16336
G01 X-23.69276 Y-17.16336
G01 X-23.40958 Y-17.30980
G01 X-23.18101 Y-17.34784
G01 X-22.96879 Y-17.36281
G01 X-21.64794 Y-17.36268
G01 X-21.47319 Y-17.35366
G01 X-21.33869 Y-17.33804
G01 X-21.19470 Y-17.24198
G01 X-21.05894 Y-17.13761
G01 X-20.90435 Y-16.99524
G01 X-20.87232 Y-16.91668
G01 X-20.82175 Y-16.76136
G01 X-20.77679 Y-16.56479
G01 X-20.75363 Y-16.37134
G01 X-20.74906 Y-16.24998
G01 X-20.74659 Y-15.56299
G01 X-20.70590 Y-15.16527
G01 X-20.62782 Y-15.05412
G01 X-20.60232 Y-15.02430
G01 X-20.35810 Y-14.77706
G01 X-20.35048 Y-14.77975
G01 X-20.35810 Y-14.77706
G01 X-20.36554 Y-14.73015
G01 X-20.38739 Y-14.52225
G01 X-20.39117 Y-14.44998
G01 X-20.38739 Y-14.37775
G01 X-20.36554 Y-14.16982
G01 X-20.35421 Y-14.09837
G01 X-20.33549 Y-14.02850
G01 X-20.27090 Y-13.82967
G01 X-20.24357 Y-13.75938
G01 X-20.35178 Y-13.83007
G01 X-20.40854 Y-14.00475
G01 X-20.42935 Y-14.08239
G01 X-20.44192 Y-14.16180
G01 X-20.46376 Y-14.36972
G01 X-20.46798 Y-14.44998
G01 X-20.46376 Y-14.53027
G01 X-20.44192 Y-14.73817
G01 X-20.43999 Y-14.75034
G01 X-20.43328 Y-14.75280
G01 X-20.43999 Y-14.75034
G01 X-20.61980 Y-14.93015
G01 X-20.68744 Y-15.00594
G01 X-20.70590 Y-15.16527
G01 X-20.67339 Y-14.87513
G01 X-20.52079 Y-14.72253
G01 X-20.51398 Y-14.72512
G01 X-20.52079 Y-14.72253
G01 X-20.54014 Y-14.53830
G01 X-20.54479 Y-14.44998
G01 X-20.54014 Y-14.36169
G01 X-20.51830 Y-14.15377
G01 X-20.50445 Y-14.06644
G01 X-20.45749 Y-13.90688
G01 X-20.65861 Y-14.05910
G01 X-20.67105 Y-14.13772
G01 X-20.69290 Y-14.34562
G01 X-20.69838 Y-14.44998
G01 X-20.69130 Y-14.56964
G01 X-20.69838 Y-14.44998
G01 X-20.69290 Y-14.34562
G01 X-20.67105 Y-14.13772
G01 X-20.65861 Y-14.05910
G01 X-20.56140 Y-13.98262
G01 X-20.57959 Y-14.05047
G01 X-20.59468 Y-14.14574
G01 X-20.61652 Y-14.35367
G01 X-20.62157 Y-14.44998
G01 X-20.61652 Y-14.54633
G01 X-20.60100 Y-14.69410
G01 X-20.59435 Y-14.69669
G01 X-20.60100 Y-14.69410
G01 X-20.66232 Y-14.75547
G01 X-20.67339 Y-14.87513
G01 X-20.65259 Y-14.66446
G01 X-20.67662 Y-14.60259
G01 X-20.77202 Y-14.39014
G01 X-20.75457 Y-14.19753
G01 X-20.77202 Y-14.39014
G01 X-20.81154 Y-14.30221
G01 X-20.70006 Y-14.09172
G01 X-20.55736 Y-13.97942
G01 X-20.34969 Y-13.82855
G01 X-20.19579 Y-13.72822
G01 X-19.98848 Y-13.60853
G01 X-19.87636 Y-13.55120
G01 X-19.66915 Y-13.45893
G01 X-19.58591 Y-13.42687
G01 X-19.37878 Y-13.35959
G01 X-19.31515 Y-13.34249
G01 X-19.05640 Y-13.29027
G01 X-18.80349 Y-13.26606
G01 X-18.59646 Y-13.26606
G01 X-18.34358 Y-13.29027
G01 X-18.26009 Y-13.30538
G01 X-18.23707 Y-13.31770
G01 X-18.21891 Y-13.30325
G01 X-18.24424 Y-13.30904
G01 X-18.26009 Y-13.30538
G01 X-18.23801 Y-13.30810
G01 X-18.15473 Y-13.28666
G01 X-18.06151 Y-13.27048
G01 X-17.97065 Y-13.26388
G01 X-15.87261 Y-13.26439
G01 X-15.77337 Y-13.22657
G01 X-15.82593 Y-13.27965
G01 X-15.83880 Y-13.29637
G01 X-15.83606 Y-13.30272
G01 X-15.83880 Y-13.29637
G01 X-17.96501 Y-13.29713
G01 X-18.04332 Y-13.30780
G01 X-18.11805 Y-13.33355
G01 X-18.18630 Y-13.37338
G01 X-18.22539 Y-13.40556
G01 X-18.22445 Y-13.41651
G01 X-18.22539 Y-13.40556
G01 X-18.34289 Y-13.35306
G01 X-18.56351 Y-13.30521
G01 X-18.59547 Y-13.30188
G01 X-18.82056 Y-13.30272
G01 X-19.05648 Y-13.35286
G01 X-19.26247 Y-13.44364
G01 X-19.29026 Y-13.45969
G01 X-19.47189 Y-13.59271
G01 X-19.62315 Y-13.75943
G01 X-19.64202 Y-13.78539
G01 X-19.75386 Y-13.98077
G01 X-19.82838 Y-14.21013
G01 X-19.85358 Y-14.44998
G01 X-19.83090 Y-14.67396
G01 X-19.82422 Y-14.70536
G01 X-19.75963 Y-14.90419
G01 X-19.74916 Y-14.92839
G01 X-19.73610 Y-14.93149
G01 X-19.74916 Y-14.92839
G01 X-20.19353 Y-15.37343
G01 X-20.21903 Y-15.40327
G01 X-20.25368 Y-15.45620
G01 X-20.27964 Y-15.51394
G01 X-20.29625 Y-15.57500
G01 X-20.30357 Y-15.64998
G01 X-20.30357 Y-17.23281
G01 X-20.29772 Y-17.23522
G01 X-20.30357 Y-17.23281
G01 X-21.06714 Y-17.99638
G01 X-21.06473 Y-18.00222
G01 X-21.06714 Y-17.99638
G01 X-23.66117 Y-17.99638
G01 X-23.66320 Y-18.00159
G01 X-23.66391 Y-17.99214
G01 X-23.71339 Y-17.93720
G01 X-23.77318 Y-17.89377
G01 X-23.84072 Y-17.86369
G01 X-23.92896 Y-17.84749
G01 X-25.44989 Y-17.84640
G01 X-25.55542 Y-17.86250
G01 X-25.62680 Y-17.89377
G01 X-25.67409 Y-17.92709
G01 X-25.72344 Y-17.97693
G01 X-25.74958 Y-18.07535
G01 X-25.75908 Y-18.14548
G01 X-25.75908 Y-18.65447
G01 X-25.74958 Y-18.72460
G01 X-25.72344 Y-18.82305
G01 X-25.68656 Y-18.86275
G01 X-25.62680 Y-18.90621
G01 X-25.55926 Y-18.93628
G01 X-25.50282 Y-18.94914
G01 X-25.47122 Y-18.95249
G01 X-25.10356 Y-18.95325
G01 X-25.08136 Y-18.93128
G01 X-25.10356 Y-18.95325
G01 X-25.10356 Y-21.03280
G01 X-25.09771 Y-21.03521
G01 X-25.10356 Y-21.03280
G01 X-25.66716 Y-21.59638
G01 X-25.66474 Y-21.60222
G01 X-25.66716 Y-21.59638
G01 X-26.34635 Y-21.59638
G01 X-26.36871 Y-21.61878
G01 X-26.34635 Y-21.59638
G01 X-26.34635 Y-20.79998
G01 X-26.34935 Y-20.77001
G01 X-26.35809 Y-20.74121
G01 X-26.37229 Y-20.71464
G01 X-26.39139 Y-20.69137
G01 X-26.41465 Y-20.67227
G01 X-26.44117 Y-20.65807
G01 X-26.47003 Y-20.64934
G01 X-26.50000 Y-20.64639
G01 X-28.89999 Y-20.64639
G01 X-28.92996 Y-20.64934
G01 X-28.95877 Y-20.65807
G01 X-28.98531 Y-20.67227
G01 X-29.00860 Y-20.69137
G01 X-29.02770 Y-20.71464
G01 X-29.04190 Y-20.74121
G01 X-29.05064 Y-20.77001
G01 X-29.05359 Y-20.79998
G01 X-29.05359 Y-23.19998
G01 X-29.05064 Y-23.22995
G01 X-29.04190 Y-23.25875
G01 X-29.02770 Y-23.28532
G01 X-29.00860 Y-23.30859
G01 X-28.98531 Y-23.32769
G01 X-28.95877 Y-23.34189
G01 X-28.92996 Y-23.35063
G01 X-28.89999 Y-23.35360
G01 X-26.50000 Y-23.35360
G01 X-26.47003 Y-23.35063
G01 X-26.44117 Y-23.34189
G01 X-26.41465 Y-23.32769
G01 X-26.39139 Y-23.30859
G01 X-26.37229 Y-23.28532
G01 X-26.35809 Y-23.25875
G01 X-26.34935 Y-23.22995
G01 X-26.34635 Y-23.19998
G01 X-26.34635 Y-22.40356
G01 X-26.36855 Y-22.38146
G01 X-26.34635 Y-22.40356
G01 X-25.48494 Y-22.40283
G01 X-25.40663 Y-22.39216
G01 X-25.33190 Y-22.36640
G01 X-25.26365 Y-22.32657
G01 X-25.21461 Y-22.28535
G01 X-24.41458 Y-21.48535
G01 X-24.38093 Y-21.44667
G01 X-24.34626 Y-21.39373
G01 X-24.31285 Y-21.31309
G01 X-24.29993 Y-21.25114
G01 X-24.29637 Y-21.19998
G01 X-24.29637 Y-18.95358
G01 X-24.31885 Y-18.93110
G01 X-24.29637 Y-18.95358
G01 X-23.94999 Y-18.95358
G01 X-23.86416 Y-18.94190
G01 X-23.82571 Y-18.93052
G01 X-23.75969 Y-18.89745
G01 X-23.70201 Y-18.85140
G01 X-23.66391 Y-18.80784
G01 X-23.66117 Y-18.80357
G01 X-23.66391 Y-18.79722
G01 X-23.66117 Y-18.80357
G01 X-20.89998 Y-18.80357
G01 X-20.82124 Y-18.79582
G01 X-20.75972 Y-18.77794
G01 X-20.73189 Y-18.76641
G01 X-20.66364 Y-18.72658
G01 X-20.61459 Y-18.68536
G01 X-19.61459 Y-17.68536
G01 X-19.57337 Y-17.63631
G01 X-19.52709 Y-17.55442
G01 X-19.50413 Y-17.47871
G01 X-19.49638 Y-17.39999
G01 X-19.49638 Y-15.81714
G01 X-19.50222 Y-15.81473
G01 X-19.49638 Y-15.81714
G01 X-19.17393 Y-15.49471
G01 X-19.17692 Y-15.47856
G01 X-19.17393 Y-15.49471
G01 X-19.05709 Y-15.54693
G01 X-18.83646 Y-15.59476
G01 X-18.80451 Y-15.59811
G01 X-18.57941 Y-15.59728
G01 X-18.35904 Y-15.55128
G01 X-18.32849 Y-15.54137
G01 X-18.12318 Y-15.44904
G01 X-17.92808 Y-15.30728
G01 X-17.77682 Y-15.14056
G01 X-17.75795 Y-15.11457
G01 X-17.64612 Y-14.91920
G01 X-17.57159 Y-14.68984
G01 X-17.54640 Y-14.44998
G01 X-17.56908 Y-14.22603
G01 X-17.60532 Y-14.10358
G01 X-17.64825 Y-14.07216
G01 X-17.60532 Y-14.10358
G01 X-15.83880 Y-14.10358
G01 X-15.83604 Y-14.09723
G01 X-15.83880 Y-14.10358
G01 X-15.83606 Y-14.10782
G01 X-15.79796 Y-14.15138
G01 X-15.74028 Y-14.19746
G01 X-15.67426 Y-14.23053
G01 X-15.63581 Y-14.24191
G01 X-15.54998 Y-14.25359
G01 X-15.20358 Y-14.25359
G01 X-15.18110 Y-14.23109
G01 X-15.20358 Y-14.25359
G01 X-15.20358 Y-15.69672
G01 X-15.18188 Y-15.71780
G01 X-15.20358 Y-15.69672
G01 X-15.57122 Y-15.69748
G01 X-15.60284 Y-15.70083
G01 X-15.65925 Y-15.71368
G01 X-15.72679 Y-15.74376
G01 X-15.78658 Y-15.78722
G01 X-15.83606 Y-15.84216
G01 X-15.87878 Y-15.92118
G01 X-15.89585 Y-15.97647
G01 X-15.90358 Y-16.04998
G01 X-15.90274 Y-16.46603
G01 X-15.89585 Y-16.52351
G01 X-15.86573 Y-16.60815
G01 X-15.83606 Y-16.65783
G01 X-15.79796 Y-16.70139
G01 X-15.72679 Y-16.75620
G01 X-15.65542 Y-16.78747
G01 X-15.54998 Y-16.80360
G01 X-14.04998 Y-16.80360
G01 X-13.94455 Y-16.78747
G01 X-13.88750 Y-16.76352
G01 X-13.85971 Y-16.74746
G01 X-13.81338 Y-16.71277
G01 X-13.76393 Y-16.65783
G01 X-13.72695 Y-16.59382
G01 X-13.70160 Y-16.50764
G01 X-13.69639 Y-16.44998
G01 X-13.69723 Y-16.03393
G01 X-13.70411 Y-15.97647
G01 X-13.73426 Y-15.89184
G01 X-13.76393 Y-15.84216
G01 X-13.81338 Y-15.78722
G01 X-13.87318 Y-15.74376
G01 X-13.95626 Y-15.70954
G01 X-14.02875 Y-15.69748
G01 X-14.39639 Y-15.69672
G01 X-14.41882 Y-15.71909
G01 X-14.39639 Y-15.69672
G01 X-14.39639 Y-14.25326
G01 X-14.41882 Y-14.23088
G01 X-14.39639 Y-14.25326
G01 X-14.02875 Y-14.25250
G01 X-13.99715 Y-14.24915
G01 X-13.94071 Y-14.23627
G01 X-13.87318 Y-14.20622
G01 X-13.81338 Y-14.16276
G01 X-13.75517 Y-14.09433
G01 X-13.72695 Y-14.04381
G01 X-13.70828 Y-13.98902
G01 X-13.69723 Y-13.91605
G01 X-13.69723 Y-13.48392
G01 X-13.70411 Y-13.42647
G01 X-13.72695 Y-13.35616
G01 X-13.76393 Y-13.29215
G01 X-13.80200 Y-13.24859
G01 X-13.82662 Y-13.22654
G01 X-13.73444 Y-13.26373
G01 X-13.67155 Y-13.29685
G01 X-13.64816 Y-13.34745
G01 X-13.62900 Y-13.41051
G01 X-13.61958 Y-13.50000
G01 X-13.61958 Y-13.90000
G01 X-13.62900 Y-13.98948
G01 X-13.65679 Y-14.07505
G01 X-13.70178 Y-14.15298
G01 X-13.76200 Y-14.21983
G01 X-13.81455 Y-14.25959
G01 X-13.85628 Y-14.28366
G01 X-13.94028 Y-14.31557
G01 X-14.02860 Y-14.32928
G01 X-14.31958 Y-14.32989
G01 X-14.34203 Y-14.30752
G01 X-14.31958 Y-14.32989
G01 X-14.31958 Y-15.62009
G01 X-14.34191 Y-15.64226
G01 X-14.31958 Y-15.62009
G01 X-14.02860 Y-15.62070
G01 X-13.98118 Y-15.62572
G01 X-13.91699 Y-15.64066
G01 X-13.83480 Y-15.67726
G01 X-13.76200 Y-15.73014
G01 X-13.70178 Y-15.79700
G01 X-13.65679 Y-15.87492
G01 X-13.62900 Y-15.96050
G01 X-13.61958 Y-16.04998
G01 X-13.61958 Y-16.44998
G01 X-13.62522 Y-16.51566
G01 X-13.64816 Y-16.60253
G01 X-13.68864 Y-16.68275
G01 X-13.74493 Y-16.75277
G01 X-13.78074 Y-16.78501
G01 X-13.83480 Y-16.82272
G01 X-13.92276 Y-16.86110
G01 X-14.01394 Y-16.87754
G01 X-14.04998 Y-16.88038
G01 X-15.54998 Y-16.88038
G01 X-15.58602 Y-16.87754
G01 X-15.67724 Y-16.86110
G01 X-15.76520 Y-16.82272
G01 X-15.83799 Y-16.76984
G01 X-15.88300 Y-16.72171
G01 X-15.91132 Y-16.68275
G01 X-15.94317 Y-16.62504
G01 X-15.96474 Y-16.56276
G01 X-15.97475 Y-16.51566
G01 X-15.98038 Y-16.44998
G01 X-15.98038 Y-16.04998
G01 X-15.97475 Y-15.98432
G01 X-15.95181 Y-15.89745
G01 X-15.91132 Y-15.81724
G01 X-15.88300 Y-15.77825
G01 X-15.81925 Y-15.71495
G01 X-15.74371 Y-15.66631
G01 X-15.65968 Y-15.63441
G01 X-15.57137 Y-15.62070
G01 X-15.28039 Y-15.62009
G01 X-15.25806 Y-15.64226
G01 X-15.28039 Y-15.62009
G01 X-15.28039 Y-14.33038
G01 X-15.25788 Y-14.30790
G01 X-15.28039 Y-14.33038
G01 X-15.54998 Y-14.33038
G01 X-15.64782 Y-14.31775
G01 X-15.70551 Y-14.30068
G01 X-15.76520 Y-14.27272
G01 X-15.83799 Y-14.21983
G01 X-15.87520 Y-14.18039
G01 X-15.87332 Y-14.17541
G01 X-15.87520 Y-14.18039
G01 X-17.50017 Y-14.18039
G01 X-17.52890 Y-14.15473
G01 X-17.50017 Y-14.18039
G01 X-17.49649 Y-14.19418
G01 X-17.46959 Y-14.44998
G01 X-17.49270 Y-14.68199
G01 X-17.50271 Y-14.72910
G01 X-17.57596 Y-14.95044
G01 X-17.69143 Y-15.15298
G01 X-17.71975 Y-15.19194
G01 X-17.87670 Y-15.36436
G01 X-18.06456 Y-15.50241
G01 X-18.10629 Y-15.52649
G01 X-18.31978 Y-15.62016
G01 X-18.54756 Y-15.66987
G01 X-18.59547 Y-15.67490
G01 X-18.80451 Y-15.67490
G01 X-18.85241 Y-15.66987
G01 X-19.08114 Y-15.61986
G01 X-19.15729 Y-15.58668
G01 X-19.16034 Y-15.57190
G01 X-19.15729 Y-15.58668
G01 X-19.41957 Y-15.84896
G01 X-19.42541 Y-15.84653
G01 X-19.41957 Y-15.84896
G01 X-19.41957 Y-17.39999
G01 X-19.42882 Y-17.49369
G01 X-19.45681 Y-17.58531
G01 X-19.35223 Y-17.45645
G01 X-19.23837 Y-17.33494
G01 X-19.23837 Y-16.99999
G01 X-19.23489 Y-16.90901
G01 X-19.21779 Y-16.76756
G01 X-19.18917 Y-16.63936
G01 X-19.18917 Y-15.94439
G01 X-19.19503 Y-15.94198
G01 X-19.18917 Y-15.94439
G01 X-19.09801 Y-15.85321
G01 X-19.10100 Y-15.84330
G01 X-19.09801 Y-15.85321
G01 X-18.90032 Y-15.89524
G01 X-18.80451 Y-15.90530
G01 X-18.54728 Y-15.90279
G01 X-18.29516 Y-15.85176
G01 X-18.20354 Y-15.82199
G01 X-17.96959 Y-15.71508
G01 X-17.76001 Y-15.56593
G01 X-17.68841 Y-15.50147
G01 X-17.51818 Y-15.30863
G01 X-17.36547 Y-15.04414
G01 X-17.27111 Y-14.75369
G01 X-17.23918 Y-14.44998
G01 X-17.24124 Y-14.41079
G01 X-17.25976 Y-14.39060
G01 X-17.24124 Y-14.41079
G01 X-15.96779 Y-14.41079
G01 X-15.96664 Y-14.40721
G01 X-15.96779 Y-14.41079
G01 X-15.95465 Y-14.42141
G01 X-15.88038 Y-14.47226
G01 X-15.79921 Y-14.51115
G01 X-15.74267 Y-14.53203
G01 X-15.62207 Y-14.55511
G01 X-15.54998 Y-14.56078
G01 X-15.51079 Y-14.56078
G01 X-15.49154 Y-14.54379
G01 X-15.51079 Y-14.56078
G01 X-15.51079 Y-15.39016
G01 X-15.48895 Y-15.41145
G01 X-15.51079 Y-15.39016
G01 X-15.61955 Y-15.39286
G01 X-15.70759 Y-15.40906
G01 X-15.75417 Y-15.42153
G01 X-15.83741 Y-15.45582
G01 X-15.92085 Y-15.50398
G01 X-15.99214 Y-15.55892
G01 X-16.08458 Y-15.66159
G01 X-16.15366 Y-15.78122
G01 X-16.19634 Y-15.91259
G01 X-16.21079 Y-16.04998
G01 X-16.21079 Y-16.44998
G01 X-16.19634 Y-16.58737
G01 X-16.15366 Y-16.71876
G01 X-16.11084 Y-16.79793
G01 X-16.08458 Y-16.83840
G01 X-16.02626 Y-16.90695
G01 X-15.95465 Y-16.97142
G01 X-15.88038 Y-17.02224
G01 X-15.79921 Y-17.06115
G01 X-15.74267 Y-17.08201
G01 X-15.62207 Y-17.10510
G01 X-15.54998 Y-17.11079
G01 X-14.04998 Y-17.11079
G01 X-13.97790 Y-17.10510
G01 X-13.91610 Y-17.09532
G01 X-13.85730 Y-17.08201
G01 X-13.76256 Y-17.04416
G01 X-13.71958 Y-17.02224
G01 X-13.64531 Y-16.97142
G01 X-13.57373 Y-16.90695
G01 X-13.51539 Y-16.83840
G01 X-13.44633 Y-16.71876
G01 X-13.40363 Y-16.58737
G01 X-13.39172 Y-16.49816
G01 X-13.39172 Y-16.00182
G01 X-13.40363 Y-15.91259
G01 X-13.44633 Y-15.78122
G01 X-13.51539 Y-15.66159
G01 X-13.60782 Y-15.55892
G01 X-13.71958 Y-15.47772
G01 X-13.84579 Y-15.42153
G01 X-13.93327 Y-15.40035
G01 X-14.02812 Y-15.39029
G01 X-14.08918 Y-15.39016
G01 X-14.11102 Y-15.41145
G01 X-14.08918 Y-15.39016
G01 X-14.08918 Y-14.55981
G01 X-14.10993 Y-14.54038
G01 X-14.08918 Y-14.55981
G01 X-13.98044 Y-14.55712
G01 X-13.89238 Y-14.54092
G01 X-13.80076 Y-14.51115
G01 X-13.71958 Y-14.47226
G01 X-13.64531 Y-14.42141
G01 X-13.57373 Y-14.35694
G01 X-13.51539 Y-14.28839
G01 X-13.44633 Y-14.16875
G01 X-13.40363 Y-14.03739
G01 X-13.38920 Y-13.90000
G01 X-13.38920 Y-13.51564
G01 X-13.31237 Y-13.59184
G01 X-13.31237 Y-13.90000
G01 X-13.31971 Y-13.99776
G01 X-13.32852 Y-14.05334
G01 X-13.34308 Y-14.10769
G01 X-13.37617 Y-14.20000
G01 X-13.42260 Y-14.28633
G01 X-13.45326 Y-14.33352
G01 X-13.48867 Y-14.37726
G01 X-13.55644 Y-14.44813
G01 X-13.63401 Y-14.50812
G01 X-13.68120 Y-14.53876
G01 X-13.76952 Y-14.58133
G01 X-13.82207 Y-14.60147
G01 X-13.87640 Y-14.61605
G01 X-13.97234 Y-14.63347
G01 X-14.01239 Y-14.63563
G01 X-14.03027 Y-14.62067
G01 X-14.01239 Y-14.63563
G01 X-14.01239 Y-15.31432
G01 X-14.03027 Y-15.32931
G01 X-14.01239 Y-15.31432
G01 X-13.97234 Y-15.31650
G01 X-13.87640 Y-15.33393
G01 X-13.82207 Y-15.34848
G01 X-13.76952 Y-15.36865
G01 X-13.68120 Y-15.41122
G01 X-13.63401 Y-15.44185
G01 X-13.55644 Y-15.50185
G01 X-13.51666 Y-15.54162
G01 X-13.45326 Y-15.61643
G01 X-13.40170 Y-15.69984
G01 X-13.37617 Y-15.74998
G01 X-13.34308 Y-15.84228
G01 X-13.32852 Y-15.89664
G01 X-13.31971 Y-15.95222
G01 X-13.31237 Y-16.04998
G01 X-13.31237 Y-16.44998
G01 X-13.31532 Y-16.50619
G01 X-13.32852 Y-16.60335
G01 X-13.34308 Y-16.65770
G01 X-13.37617 Y-16.75000
G01 X-13.40170 Y-16.80014
G01 X-13.45326 Y-16.88353
G01 X-13.48867 Y-16.92727
G01 X-13.55644 Y-16.99814
G01 X-13.60018 Y-17.03354
G01 X-13.68120 Y-17.08876
G01 X-13.76952 Y-17.13131
G01 X-13.86164 Y-17.16159
G01 X-13.65514 Y-17.16156
G01 X-13.58885 Y-17.12023
G01 X-13.50505 Y-17.05521
G01 X-13.43609 Y-16.98366
G01 X-13.23558 Y-16.43891
G01 X-13.23558 Y-16.04998
G01 X-13.24333 Y-15.94419
G01 X-13.25339 Y-15.88066
G01 X-13.27000 Y-15.81854
G01 X-13.30599 Y-15.71874
G01 X-13.33520 Y-15.66144
G01 X-13.39113 Y-15.57129
G01 X-13.45959 Y-15.49024
G01 X-13.50505 Y-15.44477
G01 X-13.58885 Y-15.37973
G01 X-13.64280 Y-15.34470
G01 X-13.73828 Y-15.29850
G01 X-13.79832 Y-15.27546
G01 X-13.90134 Y-15.25011
G01 X-13.93558 Y-15.24467
G01 X-13.95075 Y-15.25595
G01 X-13.93558 Y-15.24467
G01 X-13.93558 Y-14.70530
G01 X-13.95245 Y-14.69182
G01 X-13.93558 Y-14.70530
G01 X-13.86045 Y-14.69116
G01 X-13.79832 Y-14.67452
G01 X-13.70010 Y-14.63446
G01 X-13.64280 Y-14.60528
G01 X-13.55504 Y-14.54567
G01 X-13.50505 Y-14.50520
G01 X-13.43609 Y-14.43365
G01 X-13.51133 Y-14.60884
G01 X-13.60439 Y-14.67178
G01 X-13.70706 Y-14.72164
G01 X-13.77460 Y-14.74757
G01 X-13.84447 Y-14.76629
G01 X-13.85880 Y-14.76934
G01 X-13.87315 Y-14.75905
G01 X-13.85880 Y-14.76934
G01 X-13.85880 Y-15.18064
G01 X-13.87231 Y-15.18994
G01 X-13.85880 Y-15.18064
G01 X-13.77460 Y-15.20241
G01 X-13.70706 Y-15.22834
G01 X-13.60439 Y-15.27820
G01 X-13.54371 Y-15.31760
G01 X-13.45367 Y-15.38770
G01 X-13.37452 Y-15.46992
G01 X-13.32901 Y-15.52616
G01 X-13.26868 Y-15.62303
G01 X-13.23584 Y-15.68750
G01 X-13.20988 Y-15.75506
G01 X-13.17828 Y-15.86469
G01 X-13.16693 Y-15.93616
G01 X-13.15880 Y-16.04998
G01 X-13.15880 Y-16.25994
G01 X-13.12730 Y-16.19583
G01 X-13.08199 Y-16.11754
G01 X-13.08621 Y-15.96972
G01 X-13.10315 Y-15.84874
G01 X-13.12395 Y-15.77109
G01 X-13.14907 Y-15.69956
G01 X-13.05187 Y-16.26479
G01 X-12.99558 Y-16.22819
G01 X-12.93109 Y-16.19534
G01 X-12.82537 Y-16.15242
G01 X-12.74112 Y-16.13065
G01 X-12.72680 Y-16.14091
G01 X-12.74112 Y-16.13065
G01 X-12.74112 Y-15.71932
G01 X-12.72764 Y-15.71005
G01 X-12.74112 Y-15.71932
G01 X-12.82537 Y-15.69756
G01 X-12.93109 Y-15.65463
G01 X-12.99558 Y-15.62179
G01 X-13.09009 Y-15.55780
G01 X-13.14630 Y-15.51226
G01 X-13.22545 Y-15.43004
G01 X-13.27097 Y-15.37381
G01 X-13.31039 Y-15.31315
G01 X-13.36413 Y-15.21247
G01 X-13.39007 Y-15.14493
G01 X-13.42172 Y-15.03528
G01 X-13.43739 Y-14.92225
G01 X-13.44117 Y-14.84998
G01 X-13.44117 Y-14.64013
G01 X-13.47147 Y-14.70195
G01 X-13.51798 Y-14.78247
G01 X-13.51798 Y-14.84998
G01 X-13.50940 Y-14.97185
G01 X-13.49682 Y-15.05125
G01 X-13.47602 Y-15.12890
G01 X-13.45095 Y-15.20027
G01 X-13.47602 Y-15.12890
G01 X-13.49682 Y-15.05125
G01 X-13.51377 Y-14.93027
G01 X-13.51798 Y-14.78247
G01 X-13.45016 Y-14.66014
G01 X-13.38311 Y-14.50995
G01 X-13.16375 Y-13.91623
G01 X-13.09492 Y-13.84478
G01 X-13.01110 Y-13.77973
G01 X-12.94475 Y-13.73838
G01 X-10.85980 Y-13.73838
G01 X-10.76952 Y-13.76865
G01 X-10.68118 Y-13.81122
G01 X-10.63399 Y-13.84186
G01 X-10.55644 Y-13.90185
G01 X-10.51664 Y-13.94163
G01 X-10.45327 Y-14.01643
G01 X-10.42261 Y-14.06362
G01 X-10.37615 Y-14.14998
G01 X-10.35599 Y-14.20251
G01 X-10.32850 Y-14.29664
G01 X-10.31535 Y-14.39380
G01 X-10.31240 Y-14.44998
G01 X-10.31240 Y-14.84998
G01 X-10.31535 Y-14.90619
G01 X-10.32850 Y-15.00335
G01 X-10.35599 Y-15.09746
G01 X-10.37615 Y-15.14998
G01 X-10.42261 Y-15.23634
G01 X-10.45327 Y-15.28354
G01 X-10.51664 Y-15.35834
G01 X-10.55644 Y-15.39811
G01 X-10.60018 Y-15.43355
G01 X-10.68118 Y-15.48877
G01 X-10.73132 Y-15.51432
G01 X-10.82205 Y-15.55148
G01 X-10.91730 Y-15.57475
G01 X-10.97232 Y-15.58348
G01 X-11.01237 Y-15.58564
G01 X-11.03112 Y-15.56941
G01 X-11.01237 Y-15.58564
G01 X-11.01237 Y-16.26535
G01 X-11.03064 Y-16.28087
G01 X-11.01237 Y-16.26535
G01 X-10.90409 Y-16.27881
G01 X-10.83549 Y-16.29433
G01 X-10.76952 Y-16.31866
G01 X-10.68118 Y-16.36121
G01 X-10.60574 Y-16.41239
G01 X-10.60679 Y-16.41577
G01 X-10.60574 Y-16.41239
G01 X-10.34186 Y-16.41239
G01 X-10.26444 Y-16.48917
G01 X-10.63221 Y-16.48917
G01 X-10.63333 Y-16.49275
G01 X-10.63221 Y-16.48917
G01 X-10.64532 Y-16.47855
G01 X-10.71959 Y-16.42773
G01 X-10.80077 Y-16.38882
G01 X-10.85731 Y-16.36796
G01 X-10.97791 Y-16.34487
G01 X-11.04999 Y-16.33919
G01 X-11.08916 Y-16.33919
G01 X-11.10841 Y-16.35620
G01 X-11.08916 Y-16.33919
G01 X-11.08916 Y-15.50982
G01 X-11.11100 Y-15.48854
G01 X-11.08916 Y-15.50982
G01 X-10.98045 Y-15.50711
G01 X-10.89238 Y-15.49093
G01 X-10.80077 Y-15.46116
G01 X-10.71959 Y-15.42225
G01 X-10.67915 Y-15.39598
G01 X-10.60783 Y-15.34104
G01 X-10.51540 Y-15.23840
G01 X-10.44631 Y-15.11877
G01 X-10.40364 Y-14.98737
G01 X-10.38918 Y-14.84998
G01 X-10.38918 Y-14.44998
G01 X-10.40364 Y-14.31260
G01 X-10.42904 Y-14.22624
G01 X-10.46823 Y-14.13825
G01 X-10.51540 Y-14.06159
G01 X-10.57372 Y-13.99304
G01 X-10.60783 Y-13.95893
G01 X-10.67915 Y-13.90399
G01 X-10.76256 Y-13.85583
G01 X-10.84580 Y-13.82154
G01 X-10.98075 Y-13.79283
G01 X-12.54966 Y-13.78920
G01 X-12.62207 Y-13.79487
G01 X-12.74267 Y-13.81796
G01 X-12.79919 Y-13.83881
G01 X-12.88039 Y-13.87772
G01 X-12.99215 Y-13.95893
G01 X-13.08456 Y-14.06159
G01 X-13.11085 Y-14.10203
G01 X-13.15364 Y-14.18123
G01 X-13.19634 Y-14.31260
G01 X-13.20825 Y-14.40183
G01 X-13.20825 Y-14.89814
G01 X-13.19634 Y-14.98737
G01 X-13.15364 Y-15.11877
G01 X-13.08456 Y-15.23840
G01 X-13.02626 Y-15.30695
G01 X-12.99215 Y-15.34104
G01 X-12.88039 Y-15.42225
G01 X-12.75418 Y-15.47843
G01 X-12.66670 Y-15.49961
G01 X-12.57186 Y-15.50970
G01 X-12.51077 Y-15.50982
G01 X-12.48893 Y-15.48851
G01 X-12.51077 Y-15.50982
G01 X-12.51077 Y-16.34015
G01 X-12.48893 Y-16.36146
G01 X-12.51077 Y-16.34015
G01 X-12.61953 Y-16.34287
G01 X-12.70759 Y-16.35905
G01 X-12.79919 Y-16.38882
G01 X-12.88039 Y-16.42773
G01 X-12.95466 Y-16.47855
G01 X-13.02626 Y-16.54302
G01 X-13.08456 Y-16.61157
G01 X-13.15364 Y-16.73121
G01 X-13.19634 Y-16.86260
G01 X-13.21077 Y-16.99999
G01 X-13.21077 Y-17.38422
G01 X-13.28755 Y-17.30804
G01 X-13.28755 Y-16.99999
G01 X-13.28026 Y-16.90220
G01 X-13.27147 Y-16.84663
G01 X-13.25689 Y-16.79227
G01 X-13.22380 Y-16.69999
G01 X-13.17737 Y-16.61363
G01 X-13.14671 Y-16.56644
G01 X-13.11130 Y-16.52270
G01 X-13.04354 Y-16.45186
G01 X-12.99980 Y-16.41643
G01 X-12.91880 Y-16.36121
G01 X-12.83045 Y-16.31866
G01 X-12.77790 Y-16.29849
G01 X-12.72357 Y-16.28394
G01 X-12.62766 Y-16.26649
G01 X-12.58755 Y-16.26433
G01 X-12.56881 Y-16.28056
G01 X-12.58755 Y-16.26433
G01 X-12.58755 Y-15.58564
G01 X-12.56967 Y-15.57068
G01 X-12.58755 Y-15.58564
G01 X-12.62766 Y-15.58348
G01 X-12.68268 Y-15.57475
G01 X-12.77790 Y-15.55148
G01 X-12.86866 Y-15.51432
G01 X-12.91880 Y-15.48877
G01 X-12.99980 Y-15.43355
G01 X-13.04354 Y-15.39811
G01 X-13.11130 Y-15.32727
G01 X-13.14671 Y-15.28354
G01 X-13.17737 Y-15.23634
G01 X-13.22380 Y-15.14998
G01 X-13.25689 Y-15.05770
G01 X-13.27147 Y-15.00335
G01 X-13.28461 Y-14.90619
G01 X-13.28755 Y-14.84998
G01 X-13.28755 Y-14.44998
G01 X-13.28461 Y-14.39380
G01 X-13.27147 Y-14.29664
G01 X-13.24397 Y-14.20251
G01 X-13.22380 Y-14.14998
G01 X-13.17737 Y-14.06362
G01 X-13.14671 Y-14.01643
G01 X-13.11130 Y-13.97272
G01 X-13.04354 Y-13.90185
G01 X-12.96599 Y-13.84186
G01 X-12.91880 Y-13.81122
G01 X-12.83045 Y-13.76865
G01 X-12.76447 Y-13.74432
G01 X-12.73818 Y-13.73838
G01 X-12.94475 Y-13.73838
G01 X-13.01110 Y-13.77973
G01 X-13.09492 Y-13.84478
G01 X-13.16375 Y-13.91623
G01 X-13.36439 Y-14.46113
G01 X-13.36439 Y-14.84998
G01 X-13.36101 Y-14.91422
G01 X-13.34658 Y-15.01930
G01 X-13.32995 Y-15.08143
G01 X-13.29398 Y-15.18122
G01 X-13.24386 Y-15.27475
G01 X-13.20881 Y-15.32867
G01 X-13.16838 Y-15.37866
G01 X-13.09492 Y-15.45519
G01 X-13.04493 Y-15.49568
G01 X-12.95718 Y-15.55526
G01 X-12.86170 Y-15.60147
G01 X-12.80163 Y-15.62453
G01 X-12.69863 Y-15.64985
G01 X-12.66436 Y-15.65532
G01 X-12.64920 Y-15.64404
G01 X-12.66436 Y-15.65532
G01 X-12.66436 Y-16.19466
G01 X-12.64750 Y-16.20815
G01 X-12.66436 Y-16.19466
G01 X-12.73952 Y-16.20881
G01 X-12.80163 Y-16.22544
G01 X-12.89987 Y-16.26550
G01 X-12.95718 Y-16.29471
G01 X-13.04493 Y-16.35430
G01 X-13.09492 Y-16.39479
G01 X-13.16378 Y-16.46626
G01 X-13.08857 Y-16.29110
G01 X-13.05187 Y-16.26479
G01 X-12.79713 Y-17.74637
G01 X-12.85585 Y-17.72453
G01 X-12.95001 Y-17.67921
G01 X-13.08476 Y-17.59278
G01 X-13.69090 Y-17.59278
G01 X-13.69210 Y-17.59649
G01 X-13.69090 Y-17.59278
G01 X-13.73558 Y-17.55282
G01 X-13.79639 Y-17.51073
G01 X-13.82504 Y-17.49615
G01 X-13.89327 Y-17.46761
G01 X-13.92431 Y-17.45930
G01 X-13.99687 Y-17.44558
G01 X-14.02885 Y-17.44388
G01 X-15.54978 Y-17.44279
G01 X-15.65984 Y-17.45635
G01 X-15.69903 Y-17.46522
G01 X-15.73675 Y-17.47914
G01 X-15.80358 Y-17.51073
G01 X-15.83055 Y-17.52826
G01 X-15.88938 Y-17.57307
G01 X-15.90906 Y-17.59278
G01 X-15.90746 Y-17.59727
G01 X-15.90906 Y-17.59278
G01 X-16.58145 Y-17.59278
G01 X-16.61577 Y-17.62089
G01 X-16.58145 Y-17.59278
G01 X-16.57513 Y-17.57627
G01 X-16.55387 Y-17.50545
G01 X-16.54279 Y-17.39999
G01 X-16.54447 Y-16.96789
G01 X-16.55387 Y-16.89453
G01 X-16.58663 Y-16.79369
G01 X-16.62214 Y-16.72882
G01 X-16.65989 Y-16.67688
G01 X-16.71061 Y-16.62306
G01 X-16.76941 Y-16.57825
G01 X-16.82504 Y-16.54614
G01 X-16.90093 Y-16.51523
G01 X-17.00192 Y-16.49656
G01 X-17.05021 Y-16.49278
G01 X-18.57111 Y-16.49390
G01 X-18.60311 Y-16.49557
G01 X-18.67565 Y-16.50929
G01 X-18.73674 Y-16.52913
G01 X-18.80359 Y-16.56075
G01 X-18.88937 Y-16.62306
G01 X-18.96031 Y-16.70187
G01 X-19.01332 Y-16.79369
G01 X-19.04609 Y-16.89453
G01 X-19.05551 Y-16.96789
G01 X-19.05719 Y-17.39999
G01 X-19.05396 Y-17.44665
G01 X-19.13397 Y-17.36131
G01 X-19.13189 Y-16.95986
G01 X-19.12122 Y-16.87858
G01 X-19.09790 Y-16.79997
G01 X-19.08350 Y-16.76245
G01 X-19.04434 Y-16.69044
G01 X-19.02244 Y-16.65671
G01 X-18.96918 Y-16.59440
G01 X-18.94075 Y-16.56598
G01 X-18.87571 Y-16.51612
G01 X-18.80616 Y-16.47599
G01 X-18.73044 Y-16.44457
G01 X-18.69163 Y-16.43418
G01 X-18.61116 Y-16.41919
G01 X-18.57116 Y-16.41709
G01 X-17.05026 Y-16.41599
G01 X-16.98991 Y-16.42072
G01 X-16.87911 Y-16.44160
G01 X-16.83200 Y-16.45897
G01 X-16.75798 Y-16.49423
G01 X-16.69044 Y-16.54071
G01 X-16.63080 Y-16.59440
G01 X-16.57751 Y-16.65671
G01 X-16.51648 Y-16.76245
G01 X-16.47876 Y-16.87858
G01 X-16.46598 Y-16.99999
G01 X-16.46809 Y-17.44012
G01 X-16.47789 Y-17.51597
G01 X-16.50157 Y-17.53908
G01 X-16.47789 Y-17.51597
G01 X-15.94074 Y-17.51597
G01 X-15.93990 Y-17.51889
G01 X-15.94074 Y-17.51597
G01 X-15.90952 Y-17.49069
G01 X-15.84198 Y-17.44424
G01 X-15.76796 Y-17.40898
G01 X-15.72085 Y-17.39158
G01 X-15.67185 Y-17.38051
G01 X-15.54970 Y-17.36598
G01 X-14.02880 Y-17.36710
G01 X-13.98880 Y-17.36921
G01 X-13.90835 Y-17.38417
G01 X-13.83200 Y-17.40898
G01 X-13.75799 Y-17.44424
G01 X-13.69045 Y-17.49069
G01 X-13.65926 Y-17.51597
G01 X-13.66025 Y-17.51927
G01 X-13.65926 Y-17.51597
G01 X-13.18105 Y-17.51597
G01 X-13.08476 Y-17.59278
G01 X-13.22662 Y-17.47512
G01 X-13.41867 Y-17.28556
G01 X-13.58082 Y-17.28556
G01 X-13.58171 Y-17.28861
G01 X-13.58082 Y-17.28556
G01 X-13.58885 Y-17.27972
G01 X-13.65522 Y-17.23837
G01 X-13.85981 Y-17.23837
G01 X-13.82207 Y-17.24850
G01 X-13.73132 Y-17.28567
G01 X-13.68120 Y-17.31122
G01 X-13.60632 Y-17.36461
G01 X-13.34186 Y-17.36237
G01 X-13.26441 Y-17.43916
G01 X-13.63223 Y-17.43916
G01 X-13.63297 Y-17.44193
G01 X-13.64531 Y-17.42857
G01 X-13.71958 Y-17.37771
G01 X-13.80076 Y-17.33883
G01 X-13.89238 Y-17.30906
G01 X-13.98074 Y-17.29283
G01 X-15.54965 Y-17.28920
G01 X-15.62207 Y-17.29486
G01 X-15.74267 Y-17.31795
G01 X-15.79921 Y-17.33883
G01 X-15.88038 Y-17.37771
G01 X-15.95465 Y-17.42857
G01 X-15.96776 Y-17.43916
G01 X-15.96662 Y-17.44274
G01 X-15.96776 Y-17.43916
G01 X-16.39126 Y-17.43916
G01 X-16.41368 Y-17.46164
G01 X-16.39126 Y-17.43916
G01 X-16.38920 Y-17.39999
G01 X-16.39171 Y-16.95183
G01 X-16.40362 Y-16.86260
G01 X-16.41612 Y-16.81602
G01 X-16.44632 Y-16.73121
G01 X-16.46822 Y-16.68823
G01 X-16.51538 Y-16.61157
G01 X-16.57373 Y-16.54302
G01 X-16.64531 Y-16.47855
G01 X-16.71960 Y-16.42773
G01 X-16.80075 Y-16.38882
G01 X-16.85732 Y-16.36796
G01 X-16.97789 Y-16.34487
G01 X-17.05031 Y-16.33919
G01 X-18.57124 Y-16.34028
G01 X-18.61922 Y-16.34282
G01 X-18.70761 Y-16.35905
G01 X-18.75419 Y-16.37154
G01 X-18.83740 Y-16.40583
G01 X-18.92084 Y-16.45399
G01 X-18.99214 Y-16.50893
G01 X-19.05422 Y-16.57411
G01 X-19.08457 Y-16.61157
G01 X-19.11497 Y-16.65920
G01 X-19.14207 Y-16.78056
G01 X-19.15823 Y-16.91404
G01 X-19.16156 Y-17.00047
G01 X-19.16156 Y-17.33403
G01 X-19.08459 Y-17.41251
G01 X-18.94172 Y-17.57792
G01 X-18.97098 Y-17.48947
G01 X-18.98038 Y-17.39999
G01 X-18.98038 Y-16.99999
G01 X-18.97098 Y-16.91051
G01 X-18.94317 Y-16.82493
G01 X-18.91132 Y-16.76723
G01 X-18.88302 Y-16.72826
G01 X-18.83799 Y-16.68013
G01 X-18.78541 Y-16.64038
G01 X-18.74370 Y-16.61630
G01 X-18.68300 Y-16.59064
G01 X-18.61878 Y-16.57571
G01 X-18.57106 Y-16.57068
G01 X-17.05016 Y-16.56959
G01 X-17.01394 Y-16.57243
G01 X-16.92275 Y-16.58887
G01 X-16.85628 Y-16.61630
G01 X-16.81457 Y-16.64038
G01 X-16.76199 Y-16.68013
G01 X-16.70180 Y-16.74701
G01 X-16.66776 Y-16.80345
G01 X-16.64815 Y-16.84744
G01 X-16.62900 Y-16.91051
G01 X-16.61960 Y-16.99999
G01 X-16.62085 Y-17.42407
G01 X-16.62900 Y-17.48947
G01 X-16.65679 Y-17.57505
G01 X-16.68833 Y-17.63220
G01 X-16.70444 Y-17.63519
G01 X-16.68833 Y-17.63220
G01 X-16.65097 Y-17.66956
G01 X-16.65341 Y-17.67540
G01 X-16.65097 Y-17.66956
G01 X-15.87518 Y-17.66956
G01 X-15.87373 Y-17.67378
G01 X-15.87518 Y-17.66956
G01 X-15.83799 Y-17.63014
G01 X-15.78541 Y-17.59039
G01 X-15.74371 Y-17.56631
G01 X-15.67724 Y-17.53888
G01 X-15.58602 Y-17.52242
G01 X-15.54983 Y-17.51960
G01 X-14.02893 Y-17.52069
G01 X-13.94028 Y-17.53441
G01 X-13.85628 Y-17.56631
G01 X-13.81455 Y-17.59039
G01 X-13.76200 Y-17.63014
G01 X-13.72479 Y-17.66956
G01 X-13.72649 Y-17.67421
G01 X-13.72479 Y-17.66956
G01 X-12.96683 Y-17.66956
G01 X-12.85585 Y-17.72453
G01 X-12.76614 Y-17.75640
G01 X-12.68319 Y-17.77606
G01 X-12.55138 Y-17.78861
G01 X-11.02893 Y-17.78813
G01 X-10.91433 Y-17.77563
G01 X-10.80280 Y-17.74637
G01 X-9.83879 Y-17.74637
G01 X-9.83605 Y-17.75269
G01 X-9.83879 Y-17.74637
G01 X-9.82594 Y-17.72966
G01 X-9.77341 Y-17.67662
G01 X-9.86724 Y-17.71406
G01 X-10.71900 Y-17.71335
G01 X-10.80280 Y-17.74637
G01 X-10.71900 Y-17.71335
G01 X-9.86742 Y-17.71299
G01 X-9.78520 Y-17.68043
G01 X-9.71039 Y-17.65808
G01 X-9.63930 Y-17.64467
G01 X-9.56998 Y-17.63893
G01 X-8.02861 Y-17.63923
G01 X-7.96803 Y-17.64401
G01 X-7.88952 Y-17.65808
G01 X-7.81479 Y-17.68041
G01 X-7.72307 Y-17.72072
G01 X-7.70161 Y-17.80962
G01 X-7.69099 Y-17.89021
G01 X-7.68838 Y-18.34947
G01 X-7.77319 Y-18.34998
G01 X-7.77923 Y-18.40753
G01 X-7.79711 Y-18.46257
G01 X-7.82604 Y-18.51269
G01 X-7.87103 Y-18.56075
G01 X-7.91159 Y-18.58970
G01 X-7.95696 Y-18.61035
G01 X-8.03798 Y-18.62585
G01 X-9.57895 Y-18.62526
G01 X-9.63552 Y-18.61325
G01 X-9.69513 Y-18.58533
G01 X-9.74087 Y-18.55000
G01 X-9.77392 Y-18.51269
G01 X-9.79515 Y-18.47677
G01 X-13.80482 Y-18.47677
G01 X-13.82606 Y-18.51269
G01 X-13.86477 Y-18.55569
G01 X-13.91158 Y-18.58970
G01 X-13.97617 Y-18.61604
G01 X-14.04998 Y-18.62679
G01 X-14.47317 Y-18.62679
G01 X-14.47317 Y-19.12366
G01 X-14.31559 Y-19.12501
G01 X-14.24899 Y-19.13918
G01 X-14.18659 Y-19.16697
G01 X-14.13132 Y-19.20712
G01 X-14.08560 Y-19.25790
G01 X-14.05143 Y-19.31706
G01 X-14.03032 Y-19.38205
G01 X-14.02319 Y-19.45000
G01 X-14.02319 Y-20.15000
G01 X-14.03032 Y-20.21794
G01 X-14.05143 Y-20.28292
G01 X-14.09065 Y-20.34832
G01 X-14.13132 Y-20.39285
G01 X-14.17985 Y-20.42864
G01 X-14.24899 Y-20.46079
G01 X-14.31582 Y-20.47499
G01 X-15.28415 Y-20.47499
G01 X-15.35849 Y-20.45792
G01 X-15.41338 Y-20.43300
G01 X-15.46865 Y-20.39285
G01 X-15.51874 Y-20.33534
G01 X-15.54853 Y-20.28292
G01 X-15.56756 Y-20.22569
G01 X-15.57678 Y-20.15000
G01 X-15.57637 Y-19.44195
G01 X-15.56964 Y-19.38205
G01 X-15.54488 Y-19.30989
G01 X-15.50932 Y-19.25165
G01 X-15.46865 Y-19.20712
G01 X-15.42014 Y-19.17134
G01 X-15.35097 Y-19.13918
G01 X-15.29210 Y-19.12623
G01 X-15.12679 Y-19.12366
G01 X-15.12679 Y-18.62679
G01 X-15.54998 Y-18.62679
G01 X-15.62379 Y-18.61604
G01 X-15.68839 Y-18.58970
G01 X-15.73520 Y-18.55569
G01 X-15.77393 Y-18.51269
G01 X-15.79514 Y-18.47677
G01 X-16.84998 Y-18.47677
G01 X-16.92102 Y-18.46864
G01 X-16.96794 Y-18.45442
G01 X-17.02506 Y-18.42557
G01 X-17.08104 Y-18.38104
G01 X-17.78536 Y-17.67675
G01 X-18.57101 Y-17.67568
G01 X-18.63552 Y-17.66324
G01 X-18.68838 Y-17.63972
G01 X-18.73519 Y-17.60568
G01 X-18.77830 Y-17.55595
G01 X-18.80573 Y-17.50507
G01 X-18.82074 Y-17.45755
G01 X-18.82638 Y-17.40802
G01 X-18.82678 Y-16.99999
G01 X-18.82198 Y-16.95039
G01 X-18.79920 Y-16.88023
G01 X-18.77393 Y-16.83728
G01 X-18.73519 Y-16.79428
G01 X-18.68838 Y-16.76027
G01 X-18.64302 Y-16.73962
G01 X-18.57096 Y-16.72427
G01 X-17.05005 Y-16.72318
G01 X-16.96636 Y-16.73614
G01 X-16.91160 Y-16.76027
G01 X-16.85910 Y-16.79997
G01 X-16.82605 Y-16.83728
G01 X-16.80078 Y-16.88023
G01 X-16.77924 Y-16.94243
G01 X-16.77319 Y-16.99999
G01 X-16.77319 Y-17.39999
G01 X-16.77924 Y-17.45755
G01 X-16.79712 Y-17.51256
G01 X-16.82605 Y-17.56268
G01 X-16.86476 Y-17.60568
G01 X-16.90345 Y-17.63431
G01 X-16.71460 Y-17.82315
G01 X-15.79512 Y-17.82315
G01 X-15.77393 Y-17.78729
G01 X-15.74089 Y-17.74998
G01 X-15.68839 Y-17.71028
G01 X-15.63360 Y-17.68615
G01 X-15.54993 Y-17.67319
G01 X-14.02103 Y-17.67472
G01 X-13.96446 Y-17.68673
G01 X-13.90485 Y-17.71465
G01 X-13.85908 Y-17.74998
G01 X-13.82606 Y-17.78729
G01 X-13.80485 Y-17.82315
G01 X-9.79513 Y-17.82315
G01 X-9.77392 Y-17.78729
G01 X-9.74087 Y-17.74998
G01 X-9.69513 Y-17.71465
G01 X-9.63552 Y-17.68673
G01 X-9.57895 Y-17.67472
G01 X-8.05005 Y-17.67319
G01 X-7.97616 Y-17.68391
G01 X-7.91159 Y-17.71028
G01 X-7.86478 Y-17.74429
G01 X-7.82604 Y-17.78729
G01 X-7.79711 Y-17.83740
G01 X-7.77923 Y-17.89245
G01 X-7.77319 Y-17.94998
G01 X-7.77319 Y-18.34998
G01 X-7.68838 Y-18.34947
G01 X-7.69099 Y-18.40972
G01 X-7.70161 Y-18.49034
G01 X-7.72160 Y-18.57400
G01 X-7.75157 Y-18.65940
G01 X-7.78073 Y-18.68500
G01 X-7.83478 Y-18.72272
G01 X-7.89447 Y-18.75069
G01 X-7.95213 Y-18.76776
G01 X-8.05015 Y-18.78038
G01 X-9.59505 Y-18.77802
G01 X-9.68299 Y-18.75932
G01 X-9.76518 Y-18.72272
G01 X-9.83798 Y-18.66984
G01 X-9.87522 Y-18.63037
G01 X-9.87354 Y-18.62572
G01 X-9.87522 Y-18.63037
G01 X-12.86253 Y-18.63037
G01 X-12.77150 Y-18.65109
G01 X-12.69738 Y-18.67817
G01 X-12.64341 Y-18.70715
G01 X-9.90912 Y-18.70715
G01 X-9.90793 Y-18.70344
G01 X-9.90912 Y-18.70715
G01 X-9.86437 Y-18.74716
G01 X-9.80359 Y-18.78924
G01 X-9.77494 Y-18.80382
G01 X-9.70671 Y-18.83237
G01 X-9.67567 Y-18.84068
G01 X-9.60310 Y-18.85439
G01 X-9.57113 Y-18.85610
G01 X-8.05020 Y-18.85719
G01 X-8.00194 Y-18.85340
G01 X-7.90092 Y-18.83473
G01 X-7.82391 Y-18.80329
G01 X-7.88490 Y-18.89821
G01 X-7.99671 Y-18.95805
G01 X-8.11629 Y-19.01073
G01 X-9.61923 Y-19.00715
G01 X-9.70760 Y-18.99092
G01 X-9.79922 Y-18.96115
G01 X-9.88040 Y-18.92226
G01 X-9.95467 Y-18.87141
G01 X-9.96706 Y-18.85800
G01 X-9.96782 Y-18.86077
G01 X-10.83899 Y-18.86077
G01 X-10.94433 Y-18.82358
G01 X-11.03777 Y-18.79846
G01 X-11.11009 Y-18.78399
G01 X-9.94075 Y-18.78399
G01 X-9.93978 Y-18.78066
G01 X-9.94075 Y-18.78399
G01 X-9.90953 Y-18.80928
G01 X-9.84199 Y-18.85574
G01 X-9.76798 Y-18.89100
G01 X-9.69162 Y-18.91581
G01 X-9.61116 Y-18.93077
G01 X-9.57118 Y-18.93288
G01 X-8.05028 Y-18.93397
G01 X-7.92810 Y-18.91947
G01 X-7.88490 Y-18.89821
G01 X-7.79861 Y-18.75958
G01 X-7.73758 Y-18.62300
G01 X-7.79861 Y-18.75958
G01 X-7.88490 Y-18.89821
G01 X-7.99671 Y-18.95805
G01 X-8.11825 Y-19.01154
G01 X-9.57024 Y-19.01101
G01 X-9.71283 Y-19.00141
G01 X-9.81923 Y-18.98454
G01 X-10.00638 Y-18.93616
G01 X-10.66668 Y-18.93656
G01 X-10.78235 Y-18.88261
G01 X-10.94242 Y-18.82414
G01 X-11.09200 Y-18.78688
G01 X-11.23706 Y-18.76676
G01 X-11.35009 Y-18.76156
G01 X-12.27673 Y-18.76224
G01 X-12.36442 Y-18.76689
G01 X-12.49990 Y-18.78556
G01 X-12.50282 Y-18.78396
G01 X-12.41867 Y-18.77266
G01 X-12.50282 Y-18.78396
G01 X-12.69205 Y-18.68058
G01 X-12.76721 Y-18.65285
G01 X-12.90439 Y-18.62064
G01 X-13.01303 Y-18.61188
G01 X-13.57201 Y-18.61182
G01 X-13.64564 Y-18.61685
G01 X-13.72639 Y-18.62714
G01 X-13.90343 Y-18.75399
G01 X-13.95214 Y-18.76776
G01 X-14.04998 Y-18.78038
G01 X-14.31958 Y-18.78038
G01 X-14.34114 Y-18.75955
G01 X-14.31958 Y-18.78038
G01 X-14.31958 Y-18.97113
G01 X-14.33657 Y-18.98482
G01 X-14.31958 Y-18.97113
G01 X-14.29908 Y-18.97230
G01 X-14.22484 Y-18.98686
G01 X-14.17902 Y-19.00174
G01 X-14.13126 Y-19.02300
G01 X-14.08956 Y-19.04708
G01 X-14.02855 Y-19.09298
G01 X-13.99725 Y-19.12584
G01 X-14.06860 Y-18.96925
G01 X-14.17780 Y-18.92005
G01 X-14.24280 Y-18.90453
G01 X-14.25654 Y-18.91408
G01 X-14.24280 Y-18.90453
G01 X-14.24280 Y-18.85719
G01 X-14.26520 Y-18.83484
G01 X-14.24280 Y-18.85719
G01 X-14.04292 Y-18.85666
G01 X-14.08097 Y-18.88940
G01 X-14.08935 Y-18.90865
G01 X-14.10541 Y-18.90591
G01 X-14.08935 Y-18.90865
G01 X-14.08638 Y-18.92943
G01 X-14.06860 Y-18.96925
G01 X-14.08864 Y-18.92272
G01 X-14.08778 Y-18.90174
G01 X-14.08097 Y-18.88940
G01 X-14.02250 Y-18.83954
G01 X-13.90343 Y-18.75399
G01 X-13.96594 Y-18.79666
G01 X-14.07599 Y-18.88437
G01 X-14.08778 Y-18.90174
G01 X-14.08966 Y-18.91571
G01 X-14.01280 Y-19.09580
G01 X-13.93005 Y-19.25406
G01 X-13.90338 Y-19.33181
G01 X-13.89339 Y-19.37609
G01 X-13.88814 Y-19.45048
G01 X-13.88880 Y-20.17471
G01 X-13.89565 Y-20.24184
G01 X-13.93002 Y-20.34581
G01 X-13.98659 Y-20.43720
G01 X-14.12136 Y-20.57194
G01 X-14.20155 Y-20.60687
G01 X-14.29977 Y-20.62775
G01 X-15.27612 Y-20.62902
G01 X-15.32402 Y-20.62399
G01 X-15.39845 Y-20.60687
G01 X-15.47531 Y-20.57359
G01 X-15.41823 Y-20.62853
G01 X-15.29631 Y-20.76155
G01 X-14.30464 Y-20.76153
G01 X-14.23195 Y-20.68030
G01 X-14.12136 Y-20.57194
G01 X-14.24671 Y-20.69628
G01 X-14.29174 Y-20.70412
G01 X-15.30822 Y-20.70412
G01 X-15.35544 Y-20.69584
G01 X-15.41945 Y-20.62729
G01 X-15.57619 Y-20.47641
G01 X-15.61335 Y-20.43720
G01 X-15.63677 Y-20.40181
G01 X-15.66992 Y-20.34581
G01 X-15.68066 Y-20.31660
G01 X-15.70431 Y-20.24184
G01 X-15.71066 Y-20.18419
G01 X-15.71183 Y-19.45048
G01 X-15.70431 Y-19.35810
G01 X-15.66987 Y-19.25401
G01 X-15.60599 Y-19.12950
G01 X-15.57144 Y-19.09298
G01 X-15.49019 Y-19.03395
G01 X-15.39845 Y-18.99310
G01 X-15.32402 Y-18.97598
G01 X-15.28039 Y-18.97113
