( pcb2gcode 2.5.0 )
( Software-independent Gcode )

( This file uses 2 drill bit sizes. )
( Bit sizes: [1mm] [1.2mm] )

G94       (Millimeters per minute feed rate.)
G21       (Units == Millimeters.)
G91.1     (Incremental arc distance mode.)
G90       (Absolute coordinates.)
G00 S12000     (RPM spindle speed.)

G00 Z15.00000 (Retract)
T1
M5      (Spindle stop.)
G04 P1.00000
(MSG, Change tool bit to drill size 1mm)
M6      (Tool change.)
M0      (Temporary machine stop.)
M3      (Spindle on clockwise.)
G0 Z2.00000
G04 P1.00000

G1 F120.00000
G0 X-8.78078 Y-8.81888
G1 Z-2.50000
G1 Z2.00000
G0 X-8.78078 Y-11.35888
G1 Z-2.50000
G1 Z2.00000
G0 X-8.80110 Y-24.74976
G1 Z-2.50000
G1 Z2.00000
G0 X-8.80110 Y-27.28976
G1 Z-2.50000
G1 Z2.00000
G0 X-18.69948 Y-14.45006
G1 Z-2.50000
G1 Z2.00000
G0 X-44.79036 Y-27.28976
G1 Z-2.50000
G1 Z2.00000
G0 X-44.79036 Y-24.74976
G1 Z-2.50000
G1 Z2.00000
G0 X-44.80052 Y-11.36396
G1 Z-2.50000
G1 Z2.00000
G0 X-44.80052 Y-8.82396
G1 Z-2.50000
G1 Z2.00000

G00 Z15.00000 (Retract)
T2
M5      (Spindle stop.)
G04 P1.00000
(MSG, Change tool bit to drill size 1.2mm)
M6      (Tool change.)
M0      (Temporary machine stop.)
M3      (Spindle on clockwise.)
G0 Z2.00000
G04 P1.00000

G1 F120.00000
G0 X-27.70124 Y-21.99894
G1 Z-2.50000
G1 Z2.00000
G0 X-27.70124 Y-27.00020
G1 Z-2.50000
G1 Z2.00000

G00 Z15.000 ( All done -- retract )

M5      (Spindle off.)
G04 P1.000000
M9      (Coolant off.)
M2      (Program end.)

