( pcb2gcode 2.5.0 )
( Software-independent Gcode )

G94 ( Millimeters per minute feed rate. )
G21 ( Units == Millimeters. )

G90 ( Absolute coordinates. )
G00 S13000 ( RPM spindle speed. )
G01 F120.00000 ( Feedrate. )


G00 Z15.00000 (Retract to tool change height)
T0
M5      (Spindle stop.)
G04 P1.00000 (Wait for spindle to stop)
(MSG, Change tool bit to cutter diameter 1.00000mm)
M6      (Tool change.)
M0      (Temporary machine stop.)
M3 ( Spindle on clockwise. )
G04 P1.00000 (Wait for spindle to get up to speed)
G04 P0 ( dwell for no time -- G64 should not smooth over this point )
G00 Z2.00000 ( retract )

G00 X-0.49997 Y-31.59999 ( rapid move to begin. )
G01 Z-0.50000 F60.00000 ( plunge. )
G04 P0 ( dwell for no time -- G64 should not smooth over this point )
G01 F120.00000
G01 X-0.50239 Y-4.45099
G01 X-0.56962 Y-3.76817
G01 X-0.58875 Y-3.67200
G01 X-0.78793 Y-3.01544
G01 X-0.82545 Y-2.92489
G01 X-1.14887 Y-2.31978
G01 X-1.20332 Y-2.23827
G01 X-1.63860 Y-1.70790
G01 X-1.70790 Y-1.63860
G01 X-2.23827 Y-1.20332
G01 X-2.31978 Y-1.14887
G01 X-2.92489 Y-0.82545
G01 X-3.01544 Y-0.78793
G01 X-3.67200 Y-0.58875
G01 X-3.76817 Y-0.56962
G01 X-4.49999 Y-0.49997
G01 X-49.09998 Y-0.49997
G01 X-49.83178 Y-0.56962
G01 X-49.92794 Y-0.58875
G01 X-50.58451 Y-0.78793
G01 X-50.67506 Y-0.82545
G01 X-51.28016 Y-1.14887
G01 X-51.36167 Y-1.20332
G01 X-51.89205 Y-1.63860
G01 X-51.96134 Y-1.70790
G01 X-52.39662 Y-2.23827
G01 X-52.45108 Y-2.31978
G01 X-52.79550 Y-2.96923
G01 X-53.01117 Y-3.67200
G01 X-53.03032 Y-3.76814
G01 X-53.10000 Y-4.49999
G01 X-53.10000 Y-31.59999
G01 X-53.03032 Y-32.33181
G01 X-53.01117 Y-32.42795
G01 X-52.79550 Y-33.13072
G01 X-52.45108 Y-33.78017
G01 X-52.39662 Y-33.86168
G01 X-51.96134 Y-34.39206
G01 X-51.89205 Y-34.46135
G01 X-51.36167 Y-34.89663
G01 X-51.28016 Y-34.95109
G01 X-50.67506 Y-35.27450
G01 X-50.58451 Y-35.31202
G01 X-49.92794 Y-35.51121
G01 X-49.83178 Y-35.53033
G01 X-49.09998 Y-35.59998
G01 X-4.45099 Y-35.59757
G01 X-3.71960 Y-35.52312
G01 X-3.01544 Y-35.31202
G01 X-2.92489 Y-35.27450
G01 X-2.27769 Y-34.92586
G01 X-1.70790 Y-34.46135
G01 X-1.63860 Y-34.39206
G01 X-1.17409 Y-33.82226
G01 X-0.82545 Y-33.17507
G01 X-0.78793 Y-33.08452
G01 X-0.57683 Y-32.38035
G01 X-0.49997 Y-31.59999
G01 Z-1.00000 F60.00000 ( plunge. )
G04 P0 ( dwell for no time -- G64 should not smooth over this point )
G01 F120.00000
G01 X-0.50239 Y-4.45099
G01 X-0.56962 Y-3.76817
G01 X-0.58875 Y-3.67200
G01 X-0.78793 Y-3.01544
G01 X-0.82545 Y-2.92489
G01 X-1.14887 Y-2.31978
G01 X-1.20332 Y-2.23827
G01 X-1.63860 Y-1.70790
G01 X-1.70790 Y-1.63860
G01 X-2.23827 Y-1.20332
G01 X-2.31978 Y-1.14887
G01 X-2.92489 Y-0.82545
G01 X-3.01544 Y-0.78793
G01 X-3.67200 Y-0.58875
G01 X-3.76817 Y-0.56962
G01 X-4.49999 Y-0.49997
G01 X-49.09998 Y-0.49997
G01 X-49.83178 Y-0.56962
G01 X-49.92794 Y-0.58875
G01 X-50.58451 Y-0.78793
G01 X-50.67506 Y-0.82545
G01 X-51.28016 Y-1.14887
G01 X-51.36167 Y-1.20332
G01 X-51.89205 Y-1.63860
G01 X-51.96134 Y-1.70790
G01 X-52.39662 Y-2.23827
G01 X-52.45108 Y-2.31978
G01 X-52.79550 Y-2.96923
G01 X-53.01117 Y-3.67200
G01 X-53.03032 Y-3.76814
G01 X-53.10000 Y-4.49999
G01 X-53.10000 Y-31.59999
G01 X-53.03032 Y-32.33181
G01 X-53.01117 Y-32.42795
G01 X-52.79550 Y-33.13072
G01 X-52.45108 Y-33.78017
G01 X-52.39662 Y-33.86168
G01 X-51.96134 Y-34.39206
G01 X-51.89205 Y-34.46135
G01 X-51.36167 Y-34.89663
G01 X-51.28016 Y-34.95109
G01 X-50.67506 Y-35.27450
G01 X-50.58451 Y-35.31202
G01 X-49.92794 Y-35.51121
G01 X-49.83178 Y-35.53033
G01 X-49.09998 Y-35.59998
G01 X-4.45099 Y-35.59757
G01 X-3.71960 Y-35.52312
G01 X-3.01544 Y-35.31202
G01 X-2.92489 Y-35.27450
G01 X-2.27769 Y-34.92586
G01 X-1.70790 Y-34.46135
G01 X-1.63860 Y-34.39206
G01 X-1.17409 Y-33.82226
G01 X-0.82545 Y-33.17507
G01 X-0.78793 Y-33.08452
G01 X-0.57683 Y-32.38035
G01 X-0.49997 Y-31.59999
G01 Z-1.50000 F60.00000 ( plunge. )
G04 P0 ( dwell for no time -- G64 should not smooth over this point )
G01 F120.00000
G01 X-0.50239 Y-4.45099
G01 X-0.56962 Y-3.76817
G01 X-0.58875 Y-3.67200
G01 X-0.78793 Y-3.01544
G01 X-0.82545 Y-2.92489
G01 X-1.14887 Y-2.31978
G01 X-1.20332 Y-2.23827
G01 X-1.63860 Y-1.70790
G01 X-1.70790 Y-1.63860
G01 X-2.23827 Y-1.20332
G01 X-2.31978 Y-1.14887
G01 X-2.92489 Y-0.82545
G01 X-3.01544 Y-0.78793
G01 X-3.67200 Y-0.58875
G01 X-3.76817 Y-0.56962
G01 X-4.49999 Y-0.49997
G01 X-49.09998 Y-0.49997
G01 X-49.83178 Y-0.56962
G01 X-49.92794 Y-0.58875
G01 X-50.58451 Y-0.78793
G01 X-50.67506 Y-0.82545
G01 X-51.28016 Y-1.14887
G01 X-51.36167 Y-1.20332
G01 X-51.89205 Y-1.63860
G01 X-51.96134 Y-1.70790
G01 X-52.39662 Y-2.23827
G01 X-52.45108 Y-2.31978
G01 X-52.79550 Y-2.96923
G01 X-53.01117 Y-3.67200
G01 X-53.03032 Y-3.76814
G01 X-53.10000 Y-4.49999
G01 X-53.10000 Y-31.59999
G01 X-53.03032 Y-32.33181
G01 X-53.01117 Y-32.42795
G01 X-52.79550 Y-33.13072
G01 X-52.45108 Y-33.78017
G01 X-52.39662 Y-33.86168
G01 X-51.96134 Y-34.39206
G01 X-51.89205 Y-34.46135
G01 X-51.36167 Y-34.89663
G01 X-51.28016 Y-34.95109
G01 X-50.67506 Y-35.27450
G01 X-50.58451 Y-35.31202
G01 X-49.92794 Y-35.51121
G01 X-49.83178 Y-35.53033
G01 X-49.09998 Y-35.59998
G01 X-4.45099 Y-35.59757
G01 X-3.71960 Y-35.52312
G01 X-3.01544 Y-35.31202
G01 X-2.92489 Y-35.27450
G01 X-2.27769 Y-34.92586
G01 X-1.70790 Y-34.46135
G01 X-1.63860 Y-34.39206
G01 X-1.17409 Y-33.82226
G01 X-0.82545 Y-33.17507
G01 X-0.78793 Y-33.08452
G01 X-0.57683 Y-32.38035
G01 X-0.49997 Y-31.59999
G01 Z-2.00000 F60.00000 ( plunge. )
G04 P0 ( dwell for no time -- G64 should not smooth over this point )
G01 F120.00000
G01 X-0.50239 Y-4.45099
G01 X-0.56962 Y-3.76817
G01 X-0.58875 Y-3.67200
G01 X-0.78793 Y-3.01544
G01 X-0.82545 Y-2.92489
G01 X-1.14887 Y-2.31978
G01 X-1.20332 Y-2.23827
G01 X-1.63860 Y-1.70790
G01 X-1.70790 Y-1.63860
G01 X-2.23827 Y-1.20332
G01 X-2.31978 Y-1.14887
G01 X-2.92489 Y-0.82545
G01 X-3.01544 Y-0.78793
G01 X-3.67200 Y-0.58875
G01 X-3.76817 Y-0.56962
G01 X-4.49999 Y-0.49997
G01 X-49.09998 Y-0.49997
G01 X-49.83178 Y-0.56962
G01 X-49.92794 Y-0.58875
G01 X-50.58451 Y-0.78793
G01 X-50.67506 Y-0.82545
G01 X-51.28016 Y-1.14887
G01 X-51.36167 Y-1.20332
G01 X-51.89205 Y-1.63860
G01 X-51.96134 Y-1.70790
G01 X-52.39662 Y-2.23827
G01 X-52.45108 Y-2.31978
G01 X-52.79550 Y-2.96923
G01 X-53.01117 Y-3.67200
G01 X-53.03032 Y-3.76814
G01 X-53.10000 Y-4.49999
G01 X-53.10000 Y-31.59999
G01 X-53.03032 Y-32.33181
G01 X-53.01117 Y-32.42795
G01 X-52.79550 Y-33.13072
G01 X-52.45108 Y-33.78017
G01 X-52.39662 Y-33.86168
G01 X-51.96134 Y-34.39206
G01 X-51.89205 Y-34.46135
G01 X-51.36167 Y-34.89663
G01 X-51.28016 Y-34.95109
G01 X-50.67506 Y-35.27450
G01 X-50.58451 Y-35.31202
G01 X-49.92794 Y-35.51121
G01 X-49.83178 Y-35.53033
G01 X-49.09998 Y-35.59998
G01 X-4.45099 Y-35.59757
G01 X-3.71960 Y-35.52312
G01 X-3.01544 Y-35.31202
G01 X-2.92489 Y-35.27450
G01 X-2.27769 Y-34.92586
G01 X-1.70790 Y-34.46135
G01 X-1.63860 Y-34.39206
G01 X-1.17409 Y-33.82226
G01 X-0.82545 Y-33.17507
G01 X-0.78793 Y-33.08452
G01 X-0.57683 Y-32.38035
G01 X-0.49997 Y-31.59999
G01 Z-2.50000 F60.00000 ( plunge. )
G04 P0 ( dwell for no time -- G64 should not smooth over this point )
G01 F120.00000
G01 X-0.50239 Y-4.45099
G01 X-0.56962 Y-3.76817
G01 X-0.58875 Y-3.67200
G01 X-0.78793 Y-3.01544
G01 X-0.82545 Y-2.92489
G01 X-1.14887 Y-2.31978
G01 X-1.20332 Y-2.23827
G01 X-1.63860 Y-1.70790
G01 X-1.70790 Y-1.63860
G01 X-2.23827 Y-1.20332
G01 X-2.31978 Y-1.14887
G01 X-2.92489 Y-0.82545
G01 X-3.01544 Y-0.78793
G01 X-3.67200 Y-0.58875
G01 X-3.76817 Y-0.56962
G01 X-4.49999 Y-0.49997
G01 X-49.09998 Y-0.49997
G01 X-49.83178 Y-0.56962
G01 X-49.92794 Y-0.58875
G01 X-50.58451 Y-0.78793
G01 X-50.67506 Y-0.82545
G01 X-51.28016 Y-1.14887
G01 X-51.36167 Y-1.20332
G01 X-51.89205 Y-1.63860
G01 X-51.96134 Y-1.70790
G01 X-52.39662 Y-2.23827
G01 X-52.45108 Y-2.31978
G01 X-52.79550 Y-2.96923
G01 X-53.01117 Y-3.67200
G01 X-53.03032 Y-3.76814
G01 X-53.10000 Y-4.49999
G01 X-53.10000 Y-31.59999
G01 X-53.03032 Y-32.33181
G01 X-53.01117 Y-32.42795
G01 X-52.79550 Y-33.13072
G01 X-52.45108 Y-33.78017
G01 X-52.39662 Y-33.86168
G01 X-51.96134 Y-34.39206
G01 X-51.89205 Y-34.46135
G01 X-51.36167 Y-34.89663
G01 X-51.28016 Y-34.95109
G01 X-50.67506 Y-35.27450
G01 X-50.58451 Y-35.31202
G01 X-49.92794 Y-35.51121
G01 X-49.83178 Y-35.53033
G01 X-49.09998 Y-35.59998
G01 X-4.45099 Y-35.59757
G01 X-3.71960 Y-35.52312
G01 X-3.01544 Y-35.31202
G01 X-2.92489 Y-35.27450
G01 X-2.27769 Y-34.92586
G01 X-1.70790 Y-34.46135
G01 X-1.63860 Y-34.39206
G01 X-1.17409 Y-33.82226
G01 X-0.82545 Y-33.17507
G01 X-0.78793 Y-33.08452
G01 X-0.57683 Y-32.38035
G01 X-0.49997 Y-31.59999

G04 P0 ( dwell for no time -- G64 should not smooth over this point )
G00 Z15.000000 ( retract )

M5 ( Spindle off. )
G04 P1.000000
M9 ( Coolant off. )
M2 ( Program end. )

