( pcb2gcode 2.5.0 )
( Software-independent Gcode )

G94 ( Millimeters per minute feed rate. )
G21 ( Units == Millimeters. )

G90 ( Absolute coordinates. )
G00 S13000 ( RPM spindle speed. )
G01 F120.00000 ( Feedrate. )


G00 Z15.00000 (Retract to tool change height)
T0
M5      (Spindle stop.)
G04 P1.00000 (Wait for spindle to stop)
(MSG, Change tool bit to mill diameter 0.15360mm)
M6      (Tool change.)
M0      (Temporary machine stop.)
M3 ( Spindle on clockwise. )
G04 P1.00000 (Wait for spindle to get up to speed)
G04 P0 ( dwell for no time -- G64 should not smooth over this point )
G00 Z2.00000 ( retract )

G00 X-12.21499 Y-3.87472 ( rapid move to begin. )
G01 F60.00000
( Mill infeed pass 1/2 )
G01 Z-0.05000
G04 P0 ( dwell for no time -- G64 should not smooth over this point )
G01 F120.00000
G01 X-12.21499 Y-3.87472
G01 X-12.21499 Y-1.00000
G01 X-12.21499 Y-4.87982
G01 X-12.09543 Y-5.11475
G01 X-11.95509 Y-5.35691
G01 X-11.81659 Y-5.57014
G01 X-11.59157 Y-5.87858
G01 X-11.41893 Y-6.09181
G01 X-11.05159 Y-6.49773
G01 X-10.83833 Y-6.71101
G01 X-10.54641 Y-6.98673
G01 X-10.22210 Y-7.26244
G01 X-9.95876 Y-7.47568
G01 X-9.44837 Y-7.86496
G01 X-8.77181 Y-8.32361
G01 X-8.76036 Y-8.89218
G01 X-8.74918 Y-9.10542
G01 X-8.69808 Y-9.69998
G01 X-8.74918 Y-10.29452
G01 X-8.76036 Y-10.50775
G01 X-8.77247 Y-10.96996
G01 X-8.76036 Y-11.43218
G01 X-8.74918 Y-11.64542
G01 X-8.68139 Y-12.37140
G01 X-10.01497 Y-13.70498
G01 X-10.24654 Y-13.94567
G01 X-10.65337 Y-14.41714
G01 X-10.95896 Y-14.83289
G01 X-11.19221 Y-15.20848
G01 X-11.39022 Y-15.59603
G01 X-11.58075 Y-15.82999
G01 X-11.80744 Y-16.14073
G01 X-11.91605 Y-16.30797
G01 X-12.06073 Y-16.55762
G01 X-12.14595 Y-16.72486
G01 X-12.23856 Y-16.93217
G01 X-12.30277 Y-17.09941
G01 X-12.36088 Y-17.27777
G01 X-12.40569 Y-17.44502
G01 X-12.43962 Y-17.60423
G01 X-12.46612 Y-17.77149
G01 X-12.48179 Y-17.92018
G01 X-12.49055 Y-18.08742
G01 X-12.49055 Y-18.23253
G01 X-12.48179 Y-18.39979
G01 X-12.46612 Y-18.54848
G01 X-12.43962 Y-18.71574
G01 X-12.40566 Y-18.87499
G01 X-12.36086 Y-19.04223
G01 X-12.30277 Y-19.22054
G01 X-12.24247 Y-19.37761
G01 X-12.24247 Y-22.19998
G01 X-12.23729 Y-22.35142
G01 X-12.21877 Y-22.53899
G01 X-12.17115 Y-22.79284
G01 X-12.12657 Y-22.95888
G01 X-12.02248 Y-23.07714
G01 X-11.26663 Y-23.83660
G01 X-11.17295 Y-23.92538
G01 X-11.04628 Y-24.03356
G01 X-10.95245 Y-24.10602
G01 X-10.89744 Y-24.24577
G01 X-10.70140 Y-24.78997
G01 X-10.73508 Y-25.18461
G01 X-10.73747 Y-25.57496
G01 X-10.73346 Y-25.69670
G01 X-10.71408 Y-25.88024
G01 X-10.67925 Y-26.05997
( Mill infeed pass 2/2 )
G00 Z2.00000 ( retract )
G00 X-12.21499 Y-3.87472 ( rapid move to begin. )
G01 Z-0.10000
G04 P0 ( dwell for no time -- G64 should not smooth over this point )
G01 F120.00000
G01 X-12.21499 Y-3.87472
G01 X-12.21499 Y-1.00000
G01 X-12.21499 Y-4.87982
G01 X-12.09543 Y-5.11475
G01 X-11.95509 Y-5.35691
G01 X-11.81659 Y-5.57014
G01 X-11.59157 Y-5.87858
G01 X-11.41893 Y-6.09181
G01 X-11.05159 Y-6.49773
G01 X-10.83833 Y-6.71101
G01 X-10.54641 Y-6.98673
G01 X-10.22210 Y-7.26244
G01 X-9.95876 Y-7.47568
G01 X-9.44837 Y-7.86496
G01 X-8.77181 Y-8.32361
G01 X-8.76036 Y-8.89218
G01 X-8.74918 Y-9.10542
G01 X-8.69808 Y-9.69998
G01 X-8.74918 Y-10.29452
G01 X-8.76036 Y-10.50775
G01 X-8.77247 Y-10.96996
G01 X-8.76036 Y-11.43218
G01 X-8.74918 Y-11.64542
G01 X-8.68139 Y-12.37140
G01 X-10.01497 Y-13.70498
G01 X-10.24654 Y-13.94567
G01 X-10.65337 Y-14.41714
G01 X-10.95896 Y-14.83289
G01 X-11.19221 Y-15.20848
G01 X-11.39022 Y-15.59603
G01 X-11.58075 Y-15.82999
G01 X-11.80744 Y-16.14073
G01 X-11.91605 Y-16.30797
G01 X-12.06073 Y-16.55762
G01 X-12.14595 Y-16.72486
G01 X-12.23856 Y-16.93217
G01 X-12.30277 Y-17.09941
G01 X-12.36088 Y-17.27777
G01 X-12.40569 Y-17.44502
G01 X-12.43962 Y-17.60423
G01 X-12.46612 Y-17.77149
G01 X-12.48179 Y-17.92018
G01 X-12.49055 Y-18.08742
G01 X-12.49055 Y-18.23253
G01 X-12.48179 Y-18.39979
G01 X-12.46612 Y-18.54848
G01 X-12.43962 Y-18.71574
G01 X-12.40566 Y-18.87499
G01 X-12.36086 Y-19.04223
G01 X-12.30277 Y-19.22054
G01 X-12.24247 Y-19.37761
G01 X-12.24247 Y-22.19998
G01 X-12.23729 Y-22.35142
G01 X-12.21877 Y-22.53899
G01 X-12.17115 Y-22.79284
G01 X-12.12657 Y-22.95888
G01 X-12.02248 Y-23.07714
G01 X-11.26663 Y-23.83660
G01 X-11.17295 Y-23.92538
G01 X-11.04628 Y-24.03356
G01 X-10.95245 Y-24.10602
G01 X-10.89744 Y-24.24577
G01 X-10.70140 Y-24.78997
G01 X-10.73508 Y-25.18461
G01 X-10.73747 Y-25.57496
G01 X-10.73346 Y-25.69670
G01 X-10.71408 Y-25.88024
G01 X-10.67925 Y-26.05997
G04 P0 ( dwell for no time -- G64 should not smooth over this point )
G00 Z2.00000 ( retract )

G00 X-1.00000 Y-23.52497 ( rapid move to begin. )
G01 F60.00000
( Mill infeed pass 1/2 )
G01 Z-0.05000
G04 P0 ( dwell for no time -- G64 should not smooth over this point )
G01 F120.00000
G01 X-1.00000 Y-23.52497
G01 X-1.00000 Y-41.39999
G01 X-1.01920 Y-41.59507
G01 X-1.07610 Y-41.78267
G01 X-1.16853 Y-41.95557
G01 X-1.29289 Y-42.10710
G01 X-1.44442 Y-42.23146
G01 X-1.61727 Y-42.32387
G01 X-1.80490 Y-42.38076
G01 X-2.00000 Y-42.39999
G01 X-24.99998 Y-42.39999
G01 X-25.19507 Y-42.38076
G01 X-25.38268 Y-42.32387
G01 X-25.55555 Y-42.23146
G01 X-25.70706 Y-42.10710
G01 X-25.83144 Y-41.95557
G01 X-25.92385 Y-41.78267
G01 X-25.98075 Y-41.59507
G01 X-26.00000 Y-41.39999
G01 X-26.00000 Y-38.76497
G01 X-23.96416 Y-38.76497
G01 X-23.90176 Y-38.75613
G01 X-23.74148 Y-38.74361
G01 X-23.50486 Y-38.73762
G01 X-23.29162 Y-38.71521
G01 X-23.16450 Y-38.69111
G01 X-23.00486 Y-38.57805
G01 X-22.80740 Y-38.40612
G01 X-22.62835 Y-38.21366
G01 X-22.49741 Y-38.04303
G01 X-22.46211 Y-37.99114
G01 X-22.42378 Y-37.73213
G01 X-22.41260 Y-37.51890
G01 X-22.42378 Y-37.25781
G01 X-22.44065 Y-37.08466
G01 X-22.37732 Y-36.98260
G01 X-22.32541 Y-36.91428
G01 X-22.25731 Y-36.83902
G01 X-19.35991 Y-33.94161
G01 X-19.30004 Y-33.88662
G01 X-19.20047 Y-33.80928
G01 X-19.11360 Y-33.75528
G01 X-19.02498 Y-33.71230
G01 X-18.94693 Y-33.67997
G01 X-16.42737 Y-33.67997
G01 X-16.38831 Y-33.49991
G01 X-16.36621 Y-33.30621
G01 X-16.36248 Y-33.19498
G01 X-16.36248 Y-32.89498
G01 X-16.36621 Y-32.78373
G01 X-16.38333 Y-32.62140
G01 X-16.42737 Y-32.40997
G01 X-19.20997 Y-32.40982
G01 X-19.30171 Y-32.41352
G01 X-19.42772 Y-32.42892
G01 X-19.55711 Y-32.45775
G01 X-19.63450 Y-32.48129
G01 X-19.73608 Y-32.51886
G01 X-20.10794 Y-32.67293
G01 X-22.07344 Y-34.63846
G01 X-22.16704 Y-34.90526
G01 X-22.20638 Y-35.00059
G01 X-22.30379 Y-35.20476
G01 X-22.34009 Y-35.27174
G01 X-22.48858 Y-35.50813
G01 X-22.65312 Y-35.71811
G01 X-22.83628 Y-35.90729
G01 X-23.04252 Y-36.07966
G01 X-23.25642 Y-36.22500
G01 X-26.00000 Y-36.22497
G01 X-26.00000 Y-38.76497
G01 X-26.00000 Y-28.60497
G01 X-23.16561 Y-28.60497
G01 X-23.15390 Y-28.60101
G01 X-23.01999 Y-28.59997
G01 X-17.27500 Y-28.59997
G01 X-17.17533 Y-28.59420
G01 X-17.05336 Y-28.57434
G01 X-16.94434 Y-28.54328
G01 X-16.85902 Y-28.51041
G01 X-16.73103 Y-28.44703
G01 X-16.58676 Y-28.35532
G01 X-16.41798 Y-28.22077
G01 X-16.10662 Y-27.92727
G01 X-15.83695 Y-27.70165
G01 X-15.83967 Y-27.64841
G01 X-15.87561 Y-27.32997
G01 X-21.75998 Y-27.33004
G01 X-21.85170 Y-27.32634
G01 X-21.97771 Y-27.31094
G01 X-22.10707 Y-27.28214
G01 X-22.22597 Y-27.24374
G01 X-22.34006 Y-27.01821
G01 X-22.45464 Y-26.83124
G01 X-22.48860 Y-26.78179
G01 X-22.65309 Y-26.57185
G01 X-22.83625 Y-26.38262
G01 X-22.99891 Y-26.24371
G01 X-23.04252 Y-26.21026
G01 X-23.25639 Y-26.06500
G01 X-26.00000 Y-26.06497
G01 X-26.00000 Y-28.60497
G01 X-26.00000 Y-2.00000
G01 X-25.98075 Y-1.80490
G01 X-25.92385 Y-1.61727
G01 X-25.83144 Y-1.44442
G01 X-25.70706 Y-1.29289
G01 X-25.55555 Y-1.16853
G01 X-25.38268 Y-1.07610
G01 X-25.19507 Y-1.01920
G01 X-24.99998 Y-1.00000
G01 X-2.00000 Y-1.00000
G01 X-1.80490 Y-1.01920
G01 X-1.61727 Y-1.07610
G01 X-1.44442 Y-1.16853
G01 X-1.29289 Y-1.29289
G01 X-1.16853 Y-1.44442
G01 X-1.07610 Y-1.61727
G01 X-1.01920 Y-1.80490
G01 X-1.00000 Y-2.00000
G01 X-1.00000 Y-18.85523
G01 X-1.56190 Y-18.81154
G01 X-1.90528 Y-18.76359
G01 X-2.08239 Y-18.72610
G01 X-2.31821 Y-18.65150
G01 X-2.40985 Y-18.61619
G01 X-2.62311 Y-18.54690
G01 X-2.69466 Y-18.52767
G01 X-2.96695 Y-18.47299
G01 X-3.23337 Y-18.44777
G01 X-3.49974 Y-18.45056
G01 X-3.77205 Y-18.48236
G01 X-3.98529 Y-18.52767
G01 X-4.05684 Y-18.54690
G01 X-4.27010 Y-18.61619
G01 X-4.36174 Y-18.65150
G01 X-4.59755 Y-18.72610
G01 X-4.77467 Y-18.76359
G01 X-5.11805 Y-18.81154
G01 X-5.56740 Y-18.84741
G01 X-5.81091 Y-19.02407
G01 X-6.16377 Y-19.31111
G01 X-6.33987 Y-19.46966
G01 X-7.70926 Y-20.03689
G01 X-7.58330 Y-20.41164
G01 X-7.44685 Y-20.87463
G01 X-7.35180 Y-21.29620
G01 X-7.28624 Y-21.76056
G01 X-7.27448 Y-22.08294
G01 X-7.29569 Y-22.36099
G01 X-7.32231 Y-22.50618
G01 X-7.36420 Y-22.65502
G01 X-7.39389 Y-22.73496
G01 X-7.54616 Y-23.09579
G01 X-7.57481 Y-23.14862
G01 X-7.62216 Y-23.22053
G01 X-7.69605 Y-23.30709
G01 X-7.75655 Y-23.36223
G01 X-7.82429 Y-23.41209
G01 X-7.92970 Y-23.47095
G01 X-8.04299 Y-23.51997
G01 X-9.72500 Y-23.51999
G01 X-9.82464 Y-23.52576
G01 X-9.94659 Y-23.54560
G01 X-10.05561 Y-23.57666
G01 X-10.14072 Y-23.60943
G01 X-10.26892 Y-23.67290
G01 X-10.51651 Y-23.82477
G01 X-10.95245 Y-24.10602
G01 X-10.89744 Y-24.24577
G01 X-10.70140 Y-24.78997
G01 X-7.81957 Y-24.78997
G01 X-7.66831 Y-24.72065
G01 X-7.59013 Y-24.67501
G01 X-7.51909 Y-24.62576
G01 X-7.40661 Y-24.52832
G01 X-4.75991 Y-21.88162
G01 X-4.64744 Y-21.78418
G01 X-4.57639 Y-21.73493
G01 X-4.50441 Y-21.69274
G01 X-4.34685 Y-21.49185
G01 X-4.20002 Y-21.33712
G01 X-4.00103 Y-21.16374
G01 X-3.95740 Y-21.13029
G01 X-3.74353 Y-20.98500
G01 X-1.00000 Y-20.98497
G01 X-1.00000 Y-18.85523
G01 X-1.00000 Y-23.52497
G01 X-4.36324 Y-23.52497
G01 X-4.47518 Y-23.62934
G01 X-4.62201 Y-23.78408
G01 X-4.69773 Y-23.87176
G01 X-5.50304 Y-24.20803
G01 X-5.62298 Y-24.27493
G01 X-5.73123 Y-24.35352
G01 X-5.80649 Y-24.42162
G01 X-7.19943 Y-25.81374
G01 X-7.24306 Y-25.85331
G01 X-7.32645 Y-25.91796
G01 X-7.41977 Y-25.97671
G01 X-7.47001 Y-26.00350
G01 X-7.59623 Y-26.05999
G01 X-10.67925 Y-26.05997
G01 X-10.71408 Y-26.23967
G01 X-10.73346 Y-26.42321
G01 X-10.73747 Y-26.54498
G01 X-10.73744 Y-26.71844
G01 X-10.67798 Y-26.86177
G01 X-10.58197 Y-26.95077
G01 X-10.44453 Y-27.06256
G01 X-10.30026 Y-27.15892
G01 X-10.14092 Y-27.24041
G01 X-10.05561 Y-27.27328
G01 X-9.94659 Y-27.30434
G01 X-9.82464 Y-27.32420
G01 X-9.72500 Y-27.32997
G01 X-7.33316 Y-27.32997
G01 X-7.24141 Y-27.32626
G01 X-7.11540 Y-27.31089
G01 X-7.04487 Y-27.29682
G01 X-6.90865 Y-27.25857
G01 X-6.84985 Y-27.23751
G01 X-5.29224 Y-26.59355
G01 X-5.16336 Y-26.40538
G01 X-5.03245 Y-26.23475
G01 X-4.90080 Y-26.08016
G01 X-4.86677 Y-26.06497
G01 X-1.00000 Y-26.06497
G01 X-1.00000 Y-28.60497
G01 X-3.83532 Y-28.60497
G01 X-3.84607 Y-28.60134
G01 X-3.97998 Y-28.59997
G01 X-9.72500 Y-28.59999
G01 X-9.82464 Y-28.60576
G01 X-9.94659 Y-28.62560
G01 X-10.05561 Y-28.65666
G01 X-10.14072 Y-28.68943
G01 X-10.30026 Y-28.77101
G01 X-10.44453 Y-28.86738
G01 X-10.61334 Y-29.00741
G01 X-10.99497 Y-29.38498
G01 X-11.27511 Y-29.68749
G01 X-11.43612 Y-29.86997
G01 X-11.90536 Y-30.17241
G01 X-11.90948 Y-30.35496
G01 X-11.90948 Y-30.65496
G01 X-11.90224 Y-30.89946
G01 X-11.88253 Y-31.13997
G01 X-11.90389 Y-31.41182
G01 X-11.90948 Y-31.62498
G01 X-11.90948 Y-31.92498
G01 X-11.90224 Y-32.16946
G01 X-11.88253 Y-32.40997
G01 X-11.90389 Y-32.68182
G01 X-11.90948 Y-32.92399
G01 X-11.79721 Y-33.19496
G01 X-11.71138 Y-33.38789
G01 X-11.55929 Y-33.67997
G01 X-11.45926 Y-33.99853
G01 X-11.39543 Y-34.16496
G01 X-11.27117 Y-34.46498
G01 X-11.19452 Y-34.63511
G01 X-11.04336 Y-34.91037
G01 X-10.89708 Y-35.12340
G01 X-10.78357 Y-35.26373
G01 X-10.41230 Y-35.43747
G01 X-10.11161 Y-35.55736
G01 X-9.93330 Y-35.61941
G01 X-9.53132 Y-35.74882
G01 X-9.28456 Y-35.84385
G01 X-9.09640 Y-35.92761
G01 X-8.80676 Y-36.07570
G01 X-8.75505 Y-36.10557
G01 X-8.67128 Y-36.21474
G01 X-8.48624 Y-36.48428
G01 X-8.38515 Y-36.64925
G01 X-8.21228 Y-36.96823
G01 X-8.12635 Y-37.14839
G01 X-7.96529 Y-37.53848
G01 X-7.89572 Y-37.73500
G01 X-7.75264 Y-38.21930
G01 X-7.71025 Y-38.28796
G01 X-7.60341 Y-38.97498
G01 X-7.56176 Y-39.21752
G01 X-7.46206 Y-39.64041
G01 X-7.32005 Y-40.08295
G01 X-7.22183 Y-40.33647
G01 X-7.10669 Y-40.61440
G01 X-7.04324 Y-41.35064
G01 X-7.00415 Y-42.02704
G01 X-6.99107 Y-42.39999
G01 X-7.00415 Y-42.02704
G01 X-7.04324 Y-41.35064
G01 X-7.10669 Y-40.61440
G01 X-7.22183 Y-40.33647
G01 X-7.32005 Y-40.08295
G01 X-7.46206 Y-39.64041
G01 X-7.56176 Y-39.21752
G01 X-7.60341 Y-38.97498
G01 X-7.71025 Y-38.28796
G01 X-7.75264 Y-38.21930
G01 X-8.32147 Y-38.23919
G01 X-8.97621 Y-38.27920
G01 X-9.29475 Y-38.31255
G01 X-9.53280 Y-38.34938
G01 X-9.75766 Y-38.40010
G01 X-10.07036 Y-38.49926
G01 X-10.16706 Y-38.52525
G01 X-10.35520 Y-38.56523
G01 X-10.43948 Y-38.57861
G01 X-10.62761 Y-38.59840
G01 X-10.70592 Y-38.60251
G01 X-10.89406 Y-38.60251
G01 X-10.97234 Y-38.59840
G01 X-11.16048 Y-38.57861
G01 X-11.24476 Y-38.56523
G01 X-11.43290 Y-38.52525
G01 X-11.52959 Y-38.49926
G01 X-11.84237 Y-38.40008
G01 X-12.06724 Y-38.34935
G01 X-12.30500 Y-38.31257
G01 X-12.62355 Y-38.27922
G01 X-12.79888 Y-38.26850
G01 X-12.98364 Y-38.14338
G01 X-13.22370 Y-37.96833
G01 X-13.24834 Y-37.68682
G01 X-13.25710 Y-37.51938
G01 X-13.33243 Y-37.33747
G01 X-13.42169 Y-37.14031
G01 X-13.56444 Y-36.87686
G01 X-13.72674 Y-36.63305
G01 X-14.68138 Y-34.32838
G01 X-14.72291 Y-34.21205
G01 X-14.74594 Y-34.12432
G01 X-14.76690 Y-33.99234
G01 X-14.77195 Y-33.89099
G01 X-14.77195 Y-30.19999
G01 X-14.78262 Y-30.05150
G01 X-14.80774 Y-29.92595
G01 X-14.83558 Y-29.83420
G01 X-14.86256 Y-29.76255
G01 X-15.46718 Y-28.30919
G01 X-15.60045 Y-28.05372
G01 X-15.63571 Y-27.99491
G01 X-15.78841 Y-27.76715
G01 X-15.83695 Y-27.70165
G01 X-15.83967 Y-27.64841
G01 X-15.87561 Y-27.32997
G01 X-15.83967 Y-27.01153
G01 X-15.83449 Y-26.84498
G01 X-15.83802 Y-26.40978
G01 X-15.87561 Y-26.05997
G01 X-15.83967 Y-25.74153
G01 X-15.83449 Y-25.57496
G01 X-15.83802 Y-25.13978
G01 X-15.85595 Y-24.92365
G01 X-15.93629 Y-24.78997
G01 X-15.95321 Y-24.71849
G01 X-16.03190 Y-24.45134
G01 X-16.08706 Y-24.30498
G01 X-16.15948 Y-24.13010
G01 X-16.41798 Y-23.89916
G01 X-16.55542 Y-23.78738
G01 X-16.69969 Y-23.69101
G01 X-16.82788 Y-23.62340
G01 X-16.94434 Y-23.57666
G01 X-17.05336 Y-23.54560
G01 X-17.17533 Y-23.52576
G01 X-17.22227 Y-23.52205
G01 X-18.95693 Y-23.51997
G01 X-19.11421 Y-23.44854
G01 X-19.20194 Y-23.39401
G01 X-19.24340 Y-23.36223
G01 X-19.30390 Y-23.30709
G01 X-19.37779 Y-23.22053
G01 X-19.42513 Y-23.14862
G01 X-19.46808 Y-23.06577
G01 X-19.60606 Y-22.73498
G01 X-19.63575 Y-22.65502
G01 X-19.67763 Y-22.50618
G01 X-19.70425 Y-22.36099
G01 X-19.72546 Y-22.08296
G01 X-19.71370 Y-21.76056
G01 X-19.64814 Y-21.29622
G01 X-19.55310 Y-20.87466
G01 X-19.41665 Y-20.41167
G01 X-19.29067 Y-20.03689
G01 X-20.66008 Y-19.46966
G01 X-20.83641 Y-19.31091
G01 X-21.18888 Y-19.02419
G01 X-21.43255 Y-18.84741
G01 X-21.88190 Y-18.81154
G01 X-22.22528 Y-18.76359
G01 X-22.40239 Y-18.72610
G01 X-22.63821 Y-18.65150
G01 X-22.72985 Y-18.61619
G01 X-22.94311 Y-18.54690
G01 X-23.01466 Y-18.52767
G01 X-23.22789 Y-18.48236
G01 X-23.28695 Y-18.47299
G01 X-23.55337 Y-18.44777
G01 X-23.81974 Y-18.45056
G01 X-24.03300 Y-18.47299
G01 X-24.30529 Y-18.52767
G01 X-24.37684 Y-18.54690
G01 X-24.59010 Y-18.61619
G01 X-24.68174 Y-18.65150
G01 X-24.91755 Y-18.72610
G01 X-25.09467 Y-18.76359
G01 X-25.43805 Y-18.81154
G01 X-26.00000 Y-18.85521
G01 X-26.00000 Y-20.98497
G01 X-23.25639 Y-20.98500
G01 X-23.04255 Y-21.13029
G01 X-22.83628 Y-21.30265
G01 X-22.65309 Y-21.49185
G01 X-22.48860 Y-21.70181
G01 X-22.34009 Y-21.93821
G01 X-22.30379 Y-22.00519
G01 X-22.20638 Y-22.20940
G01 X-22.16701 Y-22.30473
G01 X-22.07344 Y-22.57148
G01 X-20.11792 Y-24.52700
G01 X-19.74606 Y-24.68108
G01 X-19.64449 Y-24.71864
G01 X-19.50829 Y-24.75692
G01 X-19.43771 Y-24.77102
G01 X-19.31170 Y-24.78641
G01 X-19.21995 Y-24.79012
G01 X-15.93629 Y-24.78997
G01 X-15.85595 Y-24.92365
G01 X-15.83802 Y-25.13978
G01 X-15.83449 Y-25.27496
G01 X-15.83802 Y-25.71016
G01 X-15.87561 Y-26.05997
G01 X-20.48998 Y-26.06007
G01 X-20.64890 Y-26.04971
G01 X-20.77827 Y-26.02690
G01 X-20.91449 Y-25.98862
G01 X-20.97329 Y-25.96756
G01 X-21.38792 Y-25.79695
G01 X-22.07344 Y-25.11148
G01 X-22.16701 Y-24.84473
G01 X-22.20638 Y-24.74940
G01 X-22.30377 Y-24.54519
G01 X-22.34009 Y-24.47821
G01 X-22.48860 Y-24.24181
G01 X-22.65309 Y-24.03185
G01 X-22.83625 Y-23.84265
G01 X-23.04255 Y-23.67029
G01 X-23.25639 Y-23.52497
G01 X-26.00000 Y-23.52497
( Mill infeed pass 2/2 )
G00 Z2.00000 ( retract )
G00 X-1.00000 Y-23.52497 ( rapid move to begin. )
G01 Z-0.10000
G04 P0 ( dwell for no time -- G64 should not smooth over this point )
G01 F120.00000
G01 X-1.00000 Y-23.52497
G01 X-1.00000 Y-41.39999
G01 X-1.01920 Y-41.59507
G01 X-1.07610 Y-41.78267
G01 X-1.16853 Y-41.95557
G01 X-1.29289 Y-42.10710
G01 X-1.44442 Y-42.23146
G01 X-1.61727 Y-42.32387
G01 X-1.80490 Y-42.38076
G01 X-2.00000 Y-42.39999
G01 X-24.99998 Y-42.39999
G01 X-25.19507 Y-42.38076
G01 X-25.38268 Y-42.32387
G01 X-25.55555 Y-42.23146
G01 X-25.70706 Y-42.10710
G01 X-25.83144 Y-41.95557
G01 X-25.92385 Y-41.78267
G01 X-25.98075 Y-41.59507
G01 X-26.00000 Y-41.39999
G01 X-26.00000 Y-38.76497
G01 X-23.96416 Y-38.76497
G01 X-23.90176 Y-38.75613
G01 X-23.74148 Y-38.74361
G01 X-23.50486 Y-38.73762
G01 X-23.29162 Y-38.71521
G01 X-23.16450 Y-38.69111
G01 X-23.00486 Y-38.57805
G01 X-22.80740 Y-38.40612
G01 X-22.62835 Y-38.21366
G01 X-22.49741 Y-38.04303
G01 X-22.46211 Y-37.99114
G01 X-22.42378 Y-37.73213
G01 X-22.41260 Y-37.51890
G01 X-22.42378 Y-37.25781
G01 X-22.44065 Y-37.08466
G01 X-22.37732 Y-36.98260
G01 X-22.32541 Y-36.91428
G01 X-22.25731 Y-36.83902
G01 X-19.35991 Y-33.94161
G01 X-19.30004 Y-33.88662
G01 X-19.20047 Y-33.80928
G01 X-19.11360 Y-33.75528
G01 X-19.02498 Y-33.71230
G01 X-18.94693 Y-33.67997
G01 X-16.42737 Y-33.67997
G01 X-16.38831 Y-33.49991
G01 X-16.36621 Y-33.30621
G01 X-16.36248 Y-33.19498
G01 X-16.36248 Y-32.89498
G01 X-16.36621 Y-32.78373
G01 X-16.38333 Y-32.62140
G01 X-16.42737 Y-32.40997
G01 X-19.20997 Y-32.40982
G01 X-19.30171 Y-32.41352
G01 X-19.42772 Y-32.42892
G01 X-19.55711 Y-32.45775
G01 X-19.63450 Y-32.48129
G01 X-19.73608 Y-32.51886
G01 X-20.10794 Y-32.67293
G01 X-22.07344 Y-34.63846
G01 X-22.16704 Y-34.90526
G01 X-22.20638 Y-35.00059
G01 X-22.30379 Y-35.20476
G01 X-22.34009 Y-35.27174
G01 X-22.48858 Y-35.50813
G01 X-22.65312 Y-35.71811
G01 X-22.83628 Y-35.90729
G01 X-23.04252 Y-36.07966
G01 X-23.25642 Y-36.22500
G01 X-26.00000 Y-36.22497
G01 X-26.00000 Y-38.76497
G01 X-26.00000 Y-28.60497
G01 X-23.16561 Y-28.60497
G01 X-23.15390 Y-28.60101
G01 X-23.01999 Y-28.59997
G01 X-17.27500 Y-28.59997
G01 X-17.17533 Y-28.59420
G01 X-17.05336 Y-28.57434
G01 X-16.94434 Y-28.54328
G01 X-16.85902 Y-28.51041
G01 X-16.73103 Y-28.44703
G01 X-16.58676 Y-28.35532
G01 X-16.41798 Y-28.22077
G01 X-16.10662 Y-27.92727
G01 X-15.83695 Y-27.70165
G01 X-15.83967 Y-27.64841
G01 X-15.87561 Y-27.32997
G01 X-21.75998 Y-27.33004
G01 X-21.85170 Y-27.32634
G01 X-21.97771 Y-27.31094
G01 X-22.10707 Y-27.28214
G01 X-22.22597 Y-27.24374
G01 X-22.34006 Y-27.01821
G01 X-22.45464 Y-26.83124
G01 X-22.48860 Y-26.78179
G01 X-22.65309 Y-26.57185
G01 X-22.83625 Y-26.38262
G01 X-22.99891 Y-26.24371
G01 X-23.04252 Y-26.21026
G01 X-23.25639 Y-26.06500
G01 X-26.00000 Y-26.06497
G01 X-26.00000 Y-28.60497
G01 X-26.00000 Y-2.00000
G01 X-25.98075 Y-1.80490
G01 X-25.92385 Y-1.61727
G01 X-25.83144 Y-1.44442
G01 X-25.70706 Y-1.29289
G01 X-25.55555 Y-1.16853
G01 X-25.38268 Y-1.07610
G01 X-25.19507 Y-1.01920
G01 X-24.99998 Y-1.00000
G01 X-2.00000 Y-1.00000
G01 X-1.80490 Y-1.01920
G01 X-1.61727 Y-1.07610
G01 X-1.44442 Y-1.16853
G01 X-1.29289 Y-1.29289
G01 X-1.16853 Y-1.44442
G01 X-1.07610 Y-1.61727
G01 X-1.01920 Y-1.80490
G01 X-1.00000 Y-2.00000
G01 X-1.00000 Y-18.85523
G01 X-1.56190 Y-18.81154
G01 X-1.90528 Y-18.76359
G01 X-2.08239 Y-18.72610
G01 X-2.31821 Y-18.65150
G01 X-2.40985 Y-18.61619
G01 X-2.62311 Y-18.54690
G01 X-2.69466 Y-18.52767
G01 X-2.96695 Y-18.47299
G01 X-3.23337 Y-18.44777
G01 X-3.49974 Y-18.45056
G01 X-3.77205 Y-18.48236
G01 X-3.98529 Y-18.52767
G01 X-4.05684 Y-18.54690
G01 X-4.27010 Y-18.61619
G01 X-4.36174 Y-18.65150
G01 X-4.59755 Y-18.72610
G01 X-4.77467 Y-18.76359
G01 X-5.11805 Y-18.81154
G01 X-5.56740 Y-18.84741
G01 X-5.81091 Y-19.02407
G01 X-6.16377 Y-19.31111
G01 X-6.33987 Y-19.46966
G01 X-7.70926 Y-20.03689
G01 X-7.58330 Y-20.41164
G01 X-7.44685 Y-20.87463
G01 X-7.35180 Y-21.29620
G01 X-7.28624 Y-21.76056
G01 X-7.27448 Y-22.08294
G01 X-7.29569 Y-22.36099
G01 X-7.32231 Y-22.50618
G01 X-7.36420 Y-22.65502
G01 X-7.39389 Y-22.73496
G01 X-7.54616 Y-23.09579
G01 X-7.57481 Y-23.14862
G01 X-7.62216 Y-23.22053
G01 X-7.69605 Y-23.30709
G01 X-7.75655 Y-23.36223
G01 X-7.82429 Y-23.41209
G01 X-7.92970 Y-23.47095
G01 X-8.04299 Y-23.51997
G01 X-9.72500 Y-23.51999
G01 X-9.82464 Y-23.52576
G01 X-9.94659 Y-23.54560
G01 X-10.05561 Y-23.57666
G01 X-10.14072 Y-23.60943
G01 X-10.26892 Y-23.67290
G01 X-10.51651 Y-23.82477
G01 X-10.95245 Y-24.10602
G01 X-10.89744 Y-24.24577
G01 X-10.70140 Y-24.78997
G01 X-7.81957 Y-24.78997
G01 X-7.66831 Y-24.72065
G01 X-7.59013 Y-24.67501
G01 X-7.51909 Y-24.62576
G01 X-7.40661 Y-24.52832
G01 X-4.75991 Y-21.88162
G01 X-4.64744 Y-21.78418
G01 X-4.57639 Y-21.73493
G01 X-4.50441 Y-21.69274
G01 X-4.34685 Y-21.49185
G01 X-4.20002 Y-21.33712
G01 X-4.00103 Y-21.16374
G01 X-3.95740 Y-21.13029
G01 X-3.74353 Y-20.98500
G01 X-1.00000 Y-20.98497
G01 X-1.00000 Y-18.85523
G01 X-1.00000 Y-23.52497
G01 X-4.36324 Y-23.52497
G01 X-4.47518 Y-23.62934
G01 X-4.62201 Y-23.78408
G01 X-4.69773 Y-23.87176
G01 X-5.50304 Y-24.20803
G01 X-5.62298 Y-24.27493
G01 X-5.73123 Y-24.35352
G01 X-5.80649 Y-24.42162
G01 X-7.19943 Y-25.81374
G01 X-7.24306 Y-25.85331
G01 X-7.32645 Y-25.91796
G01 X-7.41977 Y-25.97671
G01 X-7.47001 Y-26.00350
G01 X-7.59623 Y-26.05999
G01 X-10.67925 Y-26.05997
G01 X-10.71408 Y-26.23967
G01 X-10.73346 Y-26.42321
G01 X-10.73747 Y-26.54498
G01 X-10.73744 Y-26.71844
G01 X-10.67798 Y-26.86177
G01 X-10.58197 Y-26.95077
G01 X-10.44453 Y-27.06256
G01 X-10.30026 Y-27.15892
G01 X-10.14092 Y-27.24041
G01 X-10.05561 Y-27.27328
G01 X-9.94659 Y-27.30434
G01 X-9.82464 Y-27.32420
G01 X-9.72500 Y-27.32997
G01 X-7.33316 Y-27.32997
G01 X-7.24141 Y-27.32626
G01 X-7.11540 Y-27.31089
G01 X-7.04487 Y-27.29682
G01 X-6.90865 Y-27.25857
G01 X-6.84985 Y-27.23751
G01 X-5.29224 Y-26.59355
G01 X-5.16336 Y-26.40538
G01 X-5.03245 Y-26.23475
G01 X-4.90080 Y-26.08016
G01 X-4.86677 Y-26.06497
G01 X-1.00000 Y-26.06497
G01 X-1.00000 Y-28.60497
G01 X-3.83532 Y-28.60497
G01 X-3.84607 Y-28.60134
G01 X-3.97998 Y-28.59997
G01 X-9.72500 Y-28.59999
G01 X-9.82464 Y-28.60576
G01 X-9.94659 Y-28.62560
G01 X-10.05561 Y-28.65666
G01 X-10.14072 Y-28.68943
G01 X-10.30026 Y-28.77101
G01 X-10.44453 Y-28.86738
G01 X-10.61334 Y-29.00741
G01 X-10.99497 Y-29.38498
G01 X-11.27511 Y-29.68749
G01 X-11.43612 Y-29.86997
G01 X-11.90536 Y-30.17241
G01 X-11.90948 Y-30.35496
G01 X-11.90948 Y-30.65496
G01 X-11.90224 Y-30.89946
G01 X-11.88253 Y-31.13997
G01 X-11.90389 Y-31.41182
G01 X-11.90948 Y-31.62498
G01 X-11.90948 Y-31.92498
G01 X-11.90224 Y-32.16946
G01 X-11.88253 Y-32.40997
G01 X-11.90389 Y-32.68182
G01 X-11.90948 Y-32.92399
G01 X-11.79721 Y-33.19496
G01 X-11.71138 Y-33.38789
G01 X-11.55929 Y-33.67997
G01 X-11.45926 Y-33.99853
G01 X-11.39543 Y-34.16496
G01 X-11.27117 Y-34.46498
G01 X-11.19452 Y-34.63511
G01 X-11.04336 Y-34.91037
G01 X-10.89708 Y-35.12340
G01 X-10.78357 Y-35.26373
G01 X-10.41230 Y-35.43747
G01 X-10.11161 Y-35.55736
G01 X-9.93330 Y-35.61941
G01 X-9.53132 Y-35.74882
G01 X-9.28456 Y-35.84385
G01 X-9.09640 Y-35.92761
G01 X-8.80676 Y-36.07570
G01 X-8.75505 Y-36.10557
G01 X-8.67128 Y-36.21474
G01 X-8.48624 Y-36.48428
G01 X-8.38515 Y-36.64925
G01 X-8.21228 Y-36.96823
G01 X-8.12635 Y-37.14839
G01 X-7.96529 Y-37.53848
G01 X-7.89572 Y-37.73500
G01 X-7.75264 Y-38.21930
G01 X-7.71025 Y-38.28796
G01 X-7.60341 Y-38.97498
G01 X-7.56176 Y-39.21752
G01 X-7.46206 Y-39.64041
G01 X-7.32005 Y-40.08295
G01 X-7.22183 Y-40.33647
G01 X-7.10669 Y-40.61440
G01 X-7.04324 Y-41.35064
G01 X-7.00415 Y-42.02704
G01 X-6.99107 Y-42.39999
G01 X-7.00415 Y-42.02704
G01 X-7.04324 Y-41.35064
G01 X-7.10669 Y-40.61440
G01 X-7.22183 Y-40.33647
G01 X-7.32005 Y-40.08295
G01 X-7.46206 Y-39.64041
G01 X-7.56176 Y-39.21752
G01 X-7.60341 Y-38.97498
G01 X-7.71025 Y-38.28796
G01 X-7.75264 Y-38.21930
G01 X-8.32147 Y-38.23919
G01 X-8.97621 Y-38.27920
G01 X-9.29475 Y-38.31255
G01 X-9.53280 Y-38.34938
G01 X-9.75766 Y-38.40010
G01 X-10.07036 Y-38.49926
G01 X-10.16706 Y-38.52525
G01 X-10.35520 Y-38.56523
G01 X-10.43948 Y-38.57861
G01 X-10.62761 Y-38.59840
G01 X-10.70592 Y-38.60251
G01 X-10.89406 Y-38.60251
G01 X-10.97234 Y-38.59840
G01 X-11.16048 Y-38.57861
G01 X-11.24476 Y-38.56523
G01 X-11.43290 Y-38.52525
G01 X-11.52959 Y-38.49926
G01 X-11.84237 Y-38.40008
G01 X-12.06724 Y-38.34935
G01 X-12.30500 Y-38.31257
G01 X-12.62355 Y-38.27922
G01 X-12.79888 Y-38.26850
G01 X-12.98364 Y-38.14338
G01 X-13.22370 Y-37.96833
G01 X-13.24834 Y-37.68682
G01 X-13.25710 Y-37.51938
G01 X-13.33243 Y-37.33747
G01 X-13.42169 Y-37.14031
G01 X-13.56444 Y-36.87686
G01 X-13.72674 Y-36.63305
G01 X-14.68138 Y-34.32838
G01 X-14.72291 Y-34.21205
G01 X-14.74594 Y-34.12432
G01 X-14.76690 Y-33.99234
G01 X-14.77195 Y-33.89099
G01 X-14.77195 Y-30.19999
G01 X-14.78262 Y-30.05150
G01 X-14.80774 Y-29.92595
G01 X-14.83558 Y-29.83420
G01 X-14.86256 Y-29.76255
G01 X-15.46718 Y-28.30919
G01 X-15.60045 Y-28.05372
G01 X-15.63571 Y-27.99491
G01 X-15.78841 Y-27.76715
G01 X-15.83695 Y-27.70165
G01 X-15.83967 Y-27.64841
G01 X-15.87561 Y-27.32997
G01 X-15.83967 Y-27.01153
G01 X-15.83449 Y-26.84498
G01 X-15.83802 Y-26.40978
G01 X-15.87561 Y-26.05997
G01 X-15.83967 Y-25.74153
G01 X-15.83449 Y-25.57496
G01 X-15.83802 Y-25.13978
G01 X-15.85595 Y-24.92365
G01 X-15.93629 Y-24.78997
G01 X-15.95321 Y-24.71849
G01 X-16.03190 Y-24.45134
G01 X-16.08706 Y-24.30498
G01 X-16.15948 Y-24.13010
G01 X-16.41798 Y-23.89916
G01 X-16.55542 Y-23.78738
G01 X-16.69969 Y-23.69101
G01 X-16.82788 Y-23.62340
G01 X-16.94434 Y-23.57666
G01 X-17.05336 Y-23.54560
G01 X-17.17533 Y-23.52576
G01 X-17.22227 Y-23.52205
G01 X-18.95693 Y-23.51997
G01 X-19.11421 Y-23.44854
G01 X-19.20194 Y-23.39401
G01 X-19.24340 Y-23.36223
G01 X-19.30390 Y-23.30709
G01 X-19.37779 Y-23.22053
G01 X-19.42513 Y-23.14862
G01 X-19.46808 Y-23.06577
G01 X-19.60606 Y-22.73498
G01 X-19.63575 Y-22.65502
G01 X-19.67763 Y-22.50618
G01 X-19.70425 Y-22.36099
G01 X-19.72546 Y-22.08296
G01 X-19.71370 Y-21.76056
G01 X-19.64814 Y-21.29622
G01 X-19.55310 Y-20.87466
G01 X-19.41665 Y-20.41167
G01 X-19.29067 Y-20.03689
G01 X-20.66008 Y-19.46966
G01 X-20.83641 Y-19.31091
G01 X-21.18888 Y-19.02419
G01 X-21.43255 Y-18.84741
G01 X-21.88190 Y-18.81154
G01 X-22.22528 Y-18.76359
G01 X-22.40239 Y-18.72610
G01 X-22.63821 Y-18.65150
G01 X-22.72985 Y-18.61619
G01 X-22.94311 Y-18.54690
G01 X-23.01466 Y-18.52767
G01 X-23.22789 Y-18.48236
G01 X-23.28695 Y-18.47299
G01 X-23.55337 Y-18.44777
G01 X-23.81974 Y-18.45056
G01 X-24.03300 Y-18.47299
G01 X-24.30529 Y-18.52767
G01 X-24.37684 Y-18.54690
G01 X-24.59010 Y-18.61619
G01 X-24.68174 Y-18.65150
G01 X-24.91755 Y-18.72610
G01 X-25.09467 Y-18.76359
G01 X-25.43805 Y-18.81154
G01 X-26.00000 Y-18.85521
G01 X-26.00000 Y-20.98497
G01 X-23.25639 Y-20.98500
G01 X-23.04255 Y-21.13029
G01 X-22.83628 Y-21.30265
G01 X-22.65309 Y-21.49185
G01 X-22.48860 Y-21.70181
G01 X-22.34009 Y-21.93821
G01 X-22.30379 Y-22.00519
G01 X-22.20638 Y-22.20940
G01 X-22.16701 Y-22.30473
G01 X-22.07344 Y-22.57148
G01 X-20.11792 Y-24.52700
G01 X-19.74606 Y-24.68108
G01 X-19.64449 Y-24.71864
G01 X-19.50829 Y-24.75692
G01 X-19.43771 Y-24.77102
G01 X-19.31170 Y-24.78641
G01 X-19.21995 Y-24.79012
G01 X-15.93629 Y-24.78997
G01 X-15.85595 Y-24.92365
G01 X-15.83802 Y-25.13978
G01 X-15.83449 Y-25.27496
G01 X-15.83802 Y-25.71016
G01 X-15.87561 Y-26.05997
G01 X-20.48998 Y-26.06007
G01 X-20.64890 Y-26.04971
G01 X-20.77827 Y-26.02690
G01 X-20.91449 Y-25.98862
G01 X-20.97329 Y-25.96756
G01 X-21.38792 Y-25.79695
G01 X-22.07344 Y-25.11148
G01 X-22.16701 Y-24.84473
G01 X-22.20638 Y-24.74940
G01 X-22.30377 Y-24.54519
G01 X-22.34009 Y-24.47821
G01 X-22.48860 Y-24.24181
G01 X-22.65309 Y-24.03185
G01 X-22.83625 Y-23.84265
G01 X-23.04255 Y-23.67029
G01 X-23.25639 Y-23.52497
G01 X-26.00000 Y-23.52497
G04 P0 ( dwell for no time -- G64 should not smooth over this point )
G00 Z2.00000 ( retract )

G00 X-16.42737 Y-31.13997 ( rapid move to begin. )
G01 F60.00000
( Mill infeed pass 1/2 )
G01 Z-0.05000
G04 P0 ( dwell for no time -- G64 should not smooth over this point )
G01 F120.00000
G01 X-16.42737 Y-31.13997
G01 X-20.47997 Y-31.13987
G01 X-20.63892 Y-31.15020
G01 X-20.76828 Y-31.17304
G01 X-20.82709 Y-31.18777
G01 X-20.90450 Y-31.21132
G01 X-21.00605 Y-31.24888
G01 X-21.37794 Y-31.40296
G01 X-22.07344 Y-32.09846
G01 X-22.16704 Y-32.36526
G01 X-22.20638 Y-32.46059
G01 X-22.30379 Y-32.66476
G01 X-22.34009 Y-32.73174
G01 X-22.48858 Y-32.96813
G01 X-22.65312 Y-33.17811
G01 X-22.83628 Y-33.36729
G01 X-23.04252 Y-33.53966
G01 X-23.25642 Y-33.68497
G01 X-26.00000 Y-33.68497
G01 X-26.00000 Y-31.14497
G01 X-23.25642 Y-31.14500
G01 X-23.04252 Y-30.99966
G01 X-22.99891 Y-30.96623
G01 X-22.79995 Y-30.79285
G01 X-22.65312 Y-30.63812
G01 X-22.48858 Y-30.42813
G01 X-22.45467 Y-30.37870
G01 X-22.34009 Y-30.19174
G01 X-22.22276 Y-29.95866
G01 X-22.09706 Y-29.91785
G01 X-22.03823 Y-29.90312
G01 X-21.90890 Y-29.88031
G01 X-21.74997 Y-29.86997
G01 X-17.27497 Y-29.86999
G01 X-17.17533 Y-29.87576
G01 X-17.08473 Y-29.88894
G01 X-16.94434 Y-29.92666
G01 X-16.82788 Y-29.97340
G01 X-16.73103 Y-30.02290
G01 X-16.61970 Y-30.09141
G01 X-16.58503 Y-30.14703
G01 X-16.50934 Y-30.29029
G01 X-16.36248 Y-30.64007
G01 X-16.36621 Y-30.76621
G01 X-16.38333 Y-30.92854
G01 X-16.42737 Y-31.13997
G01 X-16.38333 Y-31.35140
G01 X-16.36621 Y-31.51373
G01 X-16.36248 Y-31.62498
G01 X-16.36248 Y-31.92498
G01 X-16.36621 Y-32.03621
G01 X-16.38831 Y-32.22991
G01 X-16.42737 Y-32.40997
G01 X-16.38333 Y-32.62140
G01 X-16.36621 Y-32.78373
G01 X-16.36248 Y-32.89498
G01 X-16.36248 Y-33.19498
G01 X-16.36621 Y-33.30621
G01 X-16.38831 Y-33.49991
G01 X-16.42737 Y-33.67997
G01 X-16.38333 Y-33.89140
G01 X-16.36456 Y-34.08510
G01 X-16.36456 Y-34.54484
G01 X-16.38831 Y-34.76991
G01 X-16.43256 Y-34.96932
G01 X-16.49115 Y-35.14921
G01 X-16.59164 Y-35.37864
G01 X-16.75785 Y-35.66549
G01 X-17.00835 Y-35.99868
G01 X-17.27497 Y-36.29000
G01 X-17.47970 Y-36.49469
G01 X-17.71195 Y-36.65708
G01 X-17.94281 Y-36.83478
G01 X-18.07413 Y-37.09622
G01 X-18.18147 Y-37.33747
G01 X-18.38858 Y-37.83749
G01 X-18.51655 Y-38.17511
G01 X-18.62178 Y-38.49997
G01 X-18.66125 Y-38.57363
G01 X-18.74726 Y-39.16248
G01 X-18.80184 Y-39.48087
G01 X-19.13735 Y-41.00812
G01 X-19.09000 Y-41.63187
G01 X-19.01840 Y-42.39999
G01 X-19.09000 Y-41.63187
G01 X-19.13735 Y-41.00812
G01 X-18.80184 Y-39.48087
G01 X-18.74726 Y-39.16248
G01 X-18.66125 Y-38.57363
G01 X-18.62178 Y-38.49997
G01 X-13.93096 Y-38.49997
G01 X-13.65334 Y-38.32141
G01 X-13.60368 Y-38.28534
G01 X-13.30996 Y-38.04638
G01 X-13.22370 Y-37.96833
( Mill infeed pass 2/2 )
G00 Z2.00000 ( retract )
G00 X-16.42737 Y-31.13997 ( rapid move to begin. )
G01 Z-0.10000
G04 P0 ( dwell for no time -- G64 should not smooth over this point )
G01 F120.00000
G01 X-16.42737 Y-31.13997
G01 X-20.47997 Y-31.13987
G01 X-20.63892 Y-31.15020
G01 X-20.76828 Y-31.17304
G01 X-20.82709 Y-31.18777
G01 X-20.90450 Y-31.21132
G01 X-21.00605 Y-31.24888
G01 X-21.37794 Y-31.40296
G01 X-22.07344 Y-32.09846
G01 X-22.16704 Y-32.36526
G01 X-22.20638 Y-32.46059
G01 X-22.30379 Y-32.66476
G01 X-22.34009 Y-32.73174
G01 X-22.48858 Y-32.96813
G01 X-22.65312 Y-33.17811
G01 X-22.83628 Y-33.36729
G01 X-23.04252 Y-33.53966
G01 X-23.25642 Y-33.68497
G01 X-26.00000 Y-33.68497
G01 X-26.00000 Y-31.14497
G01 X-23.25642 Y-31.14500
G01 X-23.04252 Y-30.99966
G01 X-22.99891 Y-30.96623
G01 X-22.79995 Y-30.79285
G01 X-22.65312 Y-30.63812
G01 X-22.48858 Y-30.42813
G01 X-22.45467 Y-30.37870
G01 X-22.34009 Y-30.19174
G01 X-22.22276 Y-29.95866
G01 X-22.09706 Y-29.91785
G01 X-22.03823 Y-29.90312
G01 X-21.90890 Y-29.88031
G01 X-21.74997 Y-29.86997
G01 X-17.27497 Y-29.86999
G01 X-17.17533 Y-29.87576
G01 X-17.08473 Y-29.88894
G01 X-16.94434 Y-29.92666
G01 X-16.82788 Y-29.97340
G01 X-16.73103 Y-30.02290
G01 X-16.61970 Y-30.09141
G01 X-16.58503 Y-30.14703
G01 X-16.50934 Y-30.29029
G01 X-16.36248 Y-30.64007
G01 X-16.36621 Y-30.76621
G01 X-16.38333 Y-30.92854
G01 X-16.42737 Y-31.13997
G01 X-16.38333 Y-31.35140
G01 X-16.36621 Y-31.51373
G01 X-16.36248 Y-31.62498
G01 X-16.36248 Y-31.92498
G01 X-16.36621 Y-32.03621
G01 X-16.38831 Y-32.22991
G01 X-16.42737 Y-32.40997
G01 X-16.38333 Y-32.62140
G01 X-16.36621 Y-32.78373
G01 X-16.36248 Y-32.89498
G01 X-16.36248 Y-33.19498
G01 X-16.36621 Y-33.30621
G01 X-16.38831 Y-33.49991
G01 X-16.42737 Y-33.67997
G01 X-16.38333 Y-33.89140
G01 X-16.36456 Y-34.08510
G01 X-16.36456 Y-34.54484
G01 X-16.38831 Y-34.76991
G01 X-16.43256 Y-34.96932
G01 X-16.49115 Y-35.14921
G01 X-16.59164 Y-35.37864
G01 X-16.75785 Y-35.66549
G01 X-17.00835 Y-35.99868
G01 X-17.27497 Y-36.29000
G01 X-17.47970 Y-36.49469
G01 X-17.71195 Y-36.65708
G01 X-17.94281 Y-36.83478
G01 X-18.07413 Y-37.09622
G01 X-18.18147 Y-37.33747
G01 X-18.38858 Y-37.83749
G01 X-18.51655 Y-38.17511
G01 X-18.62178 Y-38.49997
G01 X-18.66125 Y-38.57363
G01 X-18.74726 Y-39.16248
G01 X-18.80184 Y-39.48087
G01 X-19.13735 Y-41.00812
G01 X-19.09000 Y-41.63187
G01 X-19.01840 Y-42.39999
G01 X-19.09000 Y-41.63187
G01 X-19.13735 Y-41.00812
G01 X-18.80184 Y-39.48087
G01 X-18.74726 Y-39.16248
G01 X-18.66125 Y-38.57363
G01 X-18.62178 Y-38.49997
G01 X-13.93096 Y-38.49997
G01 X-13.65334 Y-38.32141
G01 X-13.60368 Y-38.28534
G01 X-13.30996 Y-38.04638
G01 X-13.22370 Y-37.96833
G04 P0 ( dwell for no time -- G64 should not smooth over this point )
G00 Z2.00000 ( retract )

G00 X-11.55929 Y-33.67997 ( rapid move to begin. )
G01 F60.00000
( Mill infeed pass 1/2 )
G01 Z-0.05000
G04 P0 ( dwell for no time -- G64 should not smooth over this point )
G01 F120.00000
G01 X-11.55929 Y-33.67997
G01 X-8.05299 Y-33.67997
G01 X-7.93031 Y-33.73285
G01 X-7.88634 Y-33.75525
G01 X-7.79948 Y-33.80925
G01 X-7.73006 Y-33.86150
G01 X-7.64002 Y-33.94161
G01 X-4.74261 Y-36.83902
G01 X-4.67454 Y-36.91428
G01 X-4.62262 Y-36.98260
G01 X-4.55930 Y-37.08463
G01 X-4.57617 Y-37.25784
G01 X-4.58734 Y-37.51887
G01 X-4.57617 Y-37.73211
G01 X-4.53781 Y-37.99114
G01 X-4.50251 Y-38.04303
G01 X-4.33936 Y-38.25141
G01 X-4.15775 Y-38.43912
G01 X-3.95321 Y-38.61016
G01 X-3.83543 Y-38.69111
G01 X-3.76273 Y-38.70658
G01 X-3.49509 Y-38.73762
G01 X-3.25849 Y-38.74361
G01 X-3.09819 Y-38.75613
G01 X-3.03578 Y-38.76497
G01 X-1.00000 Y-38.76497
G01 X-1.00000 Y-36.22497
G01 X-3.74353 Y-36.22500
G01 X-3.95742 Y-36.07966
G01 X-4.16367 Y-35.90729
G01 X-4.34683 Y-35.71811
G01 X-4.51134 Y-35.50813
G01 X-4.65986 Y-35.27176
G01 X-4.69621 Y-35.20470
G01 X-4.79356 Y-35.00054
G01 X-4.83288 Y-34.90532
G01 X-4.92536 Y-34.64204
G01 X-6.89625 Y-32.67118
G01 X-7.26384 Y-32.51886
G01 X-7.40847 Y-32.46745
G01 X-7.56112 Y-32.43072
G01 X-7.71644 Y-32.41220
G01 X-11.88253 Y-32.40997
G01 X-11.90224 Y-32.16946
G01 X-11.90948 Y-31.92498
G01 X-11.90948 Y-31.62498
G01 X-11.90389 Y-31.41182
G01 X-11.88253 Y-31.13997
G01 X-6.52496 Y-31.13987
G01 X-6.39816 Y-31.14645
G01 X-6.24901 Y-31.17012
G01 X-6.08012 Y-31.21810
G01 X-5.62270 Y-31.40471
G01 X-4.92841 Y-32.09900
G01 X-4.83504 Y-32.36509
G01 X-4.79555 Y-32.46074
G01 X-4.69816 Y-32.66491
G01 X-4.66164 Y-32.73234
G01 X-4.54703 Y-32.91931
G01 X-4.38198 Y-33.13966
G01 X-4.34815 Y-33.17931
G01 X-4.16471 Y-33.36874
G01 X-3.95818 Y-33.54131
G01 X-3.74706 Y-33.68497
G01 X-1.00000 Y-33.68497
G01 X-1.00000 Y-31.14497
G01 X-3.74350 Y-31.14500
G01 X-3.95742 Y-30.99963
G01 X-4.00103 Y-30.96621
G01 X-4.16367 Y-30.82729
G01 X-4.34683 Y-30.63812
G01 X-4.51134 Y-30.42813
G01 X-4.54525 Y-30.37873
G01 X-4.65986 Y-30.19176
G01 X-4.77710 Y-29.95849
G01 X-4.86852 Y-29.92750
G01 X-4.97406 Y-29.90017
G01 X-5.12321 Y-29.87650
G01 X-5.24998 Y-29.86989
G01 X-11.43612 Y-29.86997
G01 X-11.90536 Y-30.17241
G01 X-12.14796 Y-29.79849
G01 X-12.32723 Y-29.46415
G01 X-12.42273 Y-29.25275
G01 X-12.87087 Y-28.17089
G01 X-12.92062 Y-28.04109
G01 X-12.97168 Y-27.88422
G01 X-13.02050 Y-27.68933
G01 X-13.05227 Y-27.50101
G01 X-13.06873 Y-27.31587
G01 X-13.07196 Y-27.19997
G01 X-13.07196 Y-25.59200
G01 X-13.62535 Y-24.25596
G01 X-13.66538 Y-24.16942
G01 X-13.72337 Y-24.06719
G01 X-13.78638 Y-23.97808
G01 X-13.91331 Y-23.83503
G01 X-13.97795 Y-23.75164
G01 X-14.03673 Y-23.65832
G01 X-14.09024 Y-23.55164
G01 X-14.74246 Y-21.97908
G01 X-14.74246 Y-19.38332
G01 X-14.68440 Y-19.23204
G01 X-14.62514 Y-19.05028
G01 X-14.58034 Y-18.88305
G01 X-14.54569 Y-18.72049
G01 X-14.51920 Y-18.55323
G01 X-14.50317 Y-18.40136
G01 X-14.49441 Y-18.23410
G01 X-14.49441 Y-18.08584
G01 X-14.50317 Y-17.91861
G01 X-14.51920 Y-17.76674
G01 X-14.54569 Y-17.59948
G01 X-14.58031 Y-17.43697
G01 X-14.62514 Y-17.26971
G01 X-14.68440 Y-17.08790
G01 X-14.74859 Y-16.92064
G01 X-14.84287 Y-16.70957
G01 X-14.92811 Y-16.54233
G01 X-15.07520 Y-16.28846
G01 X-15.18382 Y-16.12123
G01 X-15.41407 Y-15.80563
G01 X-15.60053 Y-15.57650
G01 X-15.64091 Y-15.49088
G01 X-15.84673 Y-15.10706
G01 X-15.88199 Y-15.04826
G01 X-16.17528 Y-14.61077
G01 X-16.21887 Y-14.55196
G01 X-16.64602 Y-14.03345
G01 X-16.69933 Y-13.97462
G01 X-16.98498 Y-13.67498
G01 X-18.30156 Y-12.35837
G01 X-18.23583 Y-11.64753
G01 X-18.22465 Y-11.43429
G01 X-18.21249 Y-10.96996
G01 X-18.22465 Y-10.50564
G01 X-18.23583 Y-10.29241
G01 X-18.28665 Y-9.69998
G01 X-18.23583 Y-9.10753
G01 X-18.21503 Y-8.64273
G01 X-17.59067 Y-8.13636
G01 X-17.04495 Y-7.62996
G01 X-15.00500 Y-5.59001
G01 X-14.80744 Y-5.37317
G01 X-14.64841 Y-5.15635
G01 X-14.52791 Y-4.93951
G01 X-14.44597 Y-4.72270
G01 X-14.48887 Y-4.55026
G01 X-14.52618 Y-4.43093
G01 X-14.60640 Y-4.21620
G01 X-14.63264 Y-4.13570
G01 X-14.68976 Y-3.92247
G01 X-14.70353 Y-3.85801
G01 X-14.73728 Y-3.64475
G01 X-14.74313 Y-3.58940
G01 X-14.75428 Y-3.32377
G01 X-14.73728 Y-3.05519
G01 X-14.70353 Y-2.84196
G01 X-14.68979 Y-2.77749
G01 X-14.63264 Y-2.56426
G01 X-14.60640 Y-2.48374
G01 X-14.52621 Y-2.26901
G01 X-14.48885 Y-2.14960
G01 X-14.42850 Y-1.86987
G01 X-14.38938 Y-1.58082
G01 X-14.35224 Y-1.13993
G01 X-14.34645 Y-1.00000
( Mill infeed pass 2/2 )
G00 Z2.00000 ( retract )
G00 X-11.55929 Y-33.67997 ( rapid move to begin. )
G01 Z-0.10000
G04 P0 ( dwell for no time -- G64 should not smooth over this point )
G01 F120.00000
G01 X-11.55929 Y-33.67997
G01 X-8.05299 Y-33.67997
G01 X-7.93031 Y-33.73285
G01 X-7.88634 Y-33.75525
G01 X-7.79948 Y-33.80925
G01 X-7.73006 Y-33.86150
G01 X-7.64002 Y-33.94161
G01 X-4.74261 Y-36.83902
G01 X-4.67454 Y-36.91428
G01 X-4.62262 Y-36.98260
G01 X-4.55930 Y-37.08463
G01 X-4.57617 Y-37.25784
G01 X-4.58734 Y-37.51887
G01 X-4.57617 Y-37.73211
G01 X-4.53781 Y-37.99114
G01 X-4.50251 Y-38.04303
G01 X-4.33936 Y-38.25141
G01 X-4.15775 Y-38.43912
G01 X-3.95321 Y-38.61016
G01 X-3.83543 Y-38.69111
G01 X-3.76273 Y-38.70658
G01 X-3.49509 Y-38.73762
G01 X-3.25849 Y-38.74361
G01 X-3.09819 Y-38.75613
G01 X-3.03578 Y-38.76497
G01 X-1.00000 Y-38.76497
G01 X-1.00000 Y-36.22497
G01 X-3.74353 Y-36.22500
G01 X-3.95742 Y-36.07966
G01 X-4.16367 Y-35.90729
G01 X-4.34683 Y-35.71811
G01 X-4.51134 Y-35.50813
G01 X-4.65986 Y-35.27176
G01 X-4.69621 Y-35.20470
G01 X-4.79356 Y-35.00054
G01 X-4.83288 Y-34.90532
G01 X-4.92536 Y-34.64204
G01 X-6.89625 Y-32.67118
G01 X-7.26384 Y-32.51886
G01 X-7.40847 Y-32.46745
G01 X-7.56112 Y-32.43072
G01 X-7.71644 Y-32.41220
G01 X-11.88253 Y-32.40997
G01 X-11.90224 Y-32.16946
G01 X-11.90948 Y-31.92498
G01 X-11.90948 Y-31.62498
G01 X-11.90389 Y-31.41182
G01 X-11.88253 Y-31.13997
G01 X-6.52496 Y-31.13987
G01 X-6.39816 Y-31.14645
G01 X-6.24901 Y-31.17012
G01 X-6.08012 Y-31.21810
G01 X-5.62270 Y-31.40471
G01 X-4.92841 Y-32.09900
G01 X-4.83504 Y-32.36509
G01 X-4.79555 Y-32.46074
G01 X-4.69816 Y-32.66491
G01 X-4.66164 Y-32.73234
G01 X-4.54703 Y-32.91931
G01 X-4.38198 Y-33.13966
G01 X-4.34815 Y-33.17931
G01 X-4.16471 Y-33.36874
G01 X-3.95818 Y-33.54131
G01 X-3.74706 Y-33.68497
G01 X-1.00000 Y-33.68497
G01 X-1.00000 Y-31.14497
G01 X-3.74350 Y-31.14500
G01 X-3.95742 Y-30.99963
G01 X-4.00103 Y-30.96621
G01 X-4.16367 Y-30.82729
G01 X-4.34683 Y-30.63812
G01 X-4.51134 Y-30.42813
G01 X-4.54525 Y-30.37873
G01 X-4.65986 Y-30.19176
G01 X-4.77710 Y-29.95849
G01 X-4.86852 Y-29.92750
G01 X-4.97406 Y-29.90017
G01 X-5.12321 Y-29.87650
G01 X-5.24998 Y-29.86989
G01 X-11.43612 Y-29.86997
G01 X-11.90536 Y-30.17241
G01 X-12.14796 Y-29.79849
G01 X-12.32723 Y-29.46415
G01 X-12.42273 Y-29.25275
G01 X-12.87087 Y-28.17089
G01 X-12.92062 Y-28.04109
G01 X-12.97168 Y-27.88422
G01 X-13.02050 Y-27.68933
G01 X-13.05227 Y-27.50101
G01 X-13.06873 Y-27.31587
G01 X-13.07196 Y-27.19997
G01 X-13.07196 Y-25.59200
G01 X-13.62535 Y-24.25596
G01 X-13.66538 Y-24.16942
G01 X-13.72337 Y-24.06719
G01 X-13.78638 Y-23.97808
G01 X-13.91331 Y-23.83503
G01 X-13.97795 Y-23.75164
G01 X-14.03673 Y-23.65832
G01 X-14.09024 Y-23.55164
G01 X-14.74246 Y-21.97908
G01 X-14.74246 Y-19.38332
G01 X-14.68440 Y-19.23204
G01 X-14.62514 Y-19.05028
G01 X-14.58034 Y-18.88305
G01 X-14.54569 Y-18.72049
G01 X-14.51920 Y-18.55323
G01 X-14.50317 Y-18.40136
G01 X-14.49441 Y-18.23410
G01 X-14.49441 Y-18.08584
G01 X-14.50317 Y-17.91861
G01 X-14.51920 Y-17.76674
G01 X-14.54569 Y-17.59948
G01 X-14.58031 Y-17.43697
G01 X-14.62514 Y-17.26971
G01 X-14.68440 Y-17.08790
G01 X-14.74859 Y-16.92064
G01 X-14.84287 Y-16.70957
G01 X-14.92811 Y-16.54233
G01 X-15.07520 Y-16.28846
G01 X-15.18382 Y-16.12123
G01 X-15.41407 Y-15.80563
G01 X-15.60053 Y-15.57650
G01 X-15.64091 Y-15.49088
G01 X-15.84673 Y-15.10706
G01 X-15.88199 Y-15.04826
G01 X-16.17528 Y-14.61077
G01 X-16.21887 Y-14.55196
G01 X-16.64602 Y-14.03345
G01 X-16.69933 Y-13.97462
G01 X-16.98498 Y-13.67498
G01 X-18.30156 Y-12.35837
G01 X-18.23583 Y-11.64753
G01 X-18.22465 Y-11.43429
G01 X-18.21249 Y-10.96996
G01 X-18.22465 Y-10.50564
G01 X-18.23583 Y-10.29241
G01 X-18.28665 Y-9.69998
G01 X-18.23583 Y-9.10753
G01 X-18.21503 Y-8.64273
G01 X-17.59067 Y-8.13636
G01 X-17.04495 Y-7.62996
G01 X-15.00500 Y-5.59001
G01 X-14.80744 Y-5.37317
G01 X-14.64841 Y-5.15635
G01 X-14.52791 Y-4.93951
G01 X-14.44597 Y-4.72270
G01 X-14.48887 Y-4.55026
G01 X-14.52618 Y-4.43093
G01 X-14.60640 Y-4.21620
G01 X-14.63264 Y-4.13570
G01 X-14.68976 Y-3.92247
G01 X-14.70353 Y-3.85801
G01 X-14.73728 Y-3.64475
G01 X-14.74313 Y-3.58940
G01 X-14.75428 Y-3.32377
G01 X-14.73728 Y-3.05519
G01 X-14.70353 Y-2.84196
G01 X-14.68979 Y-2.77749
G01 X-14.63264 Y-2.56426
G01 X-14.60640 Y-2.48374
G01 X-14.52621 Y-2.26901
G01 X-14.48885 Y-2.14960
G01 X-14.42850 Y-1.86987
G01 X-14.38938 Y-1.58082
G01 X-14.35224 Y-1.13993
G01 X-14.34645 Y-1.00000

G04 P0 ( dwell for no time -- G64 should not smooth over this point )
G00 Z15.000000 ( retract )

M5 ( Spindle off. )
G04 P1.000000
M9 ( Coolant off. )
M2 ( Program end. )

