( pcb2gcode 2.5.0 )
( Software-independent Gcode )

( This file uses 3 drill bit sizes. )
( Bit sizes: [0.8mm] [0.9mm] [1mm] )

G94       (Millimeters per minute feed rate.)
G21       (Units == Millimeters.)
G91.1     (Incremental arc distance mode.)
G90       (Absolute coordinates.)
G00 S13000     (RPM spindle speed.)

G00 Z15.00000 (Retract)
T1
M5      (Spindle stop.)
G04 P1.00000
(MSG, Change tool bit to drill size 0.8mm)
M6      (Tool change.)
M0      (Temporary machine stop.)
M3      (Spindle on clockwise.)
G0 Z2.00000
G04 P1.00000

G1 F120.00000
G0 X-11.00074 Y-18.16100
G1 Z-2.50000
G1 Z2.00000
G0 X-15.99946 Y-18.16100
G1 Z-2.50000
G1 Z2.00000

G00 Z15.00000 (Retract)
T2
M5      (Spindle stop.)
G04 P1.00000
(MSG, Change tool bit to drill size 0.9mm)
M6      (Tool change.)
M0      (Temporary machine stop.)
M3      (Spindle on clockwise.)
G0 Z2.00000
G04 P1.00000

G1 F120.00000
G0 X-10.80008 Y-37.33546
G1 Z-2.50000
G1 Z2.00000
G0 X-10.80008 Y-39.87546
G1 Z-2.50000
G1 Z2.00000

G00 Z15.00000 (Retract)
T3
M5      (Spindle stop.)
G04 P1.00000
(MSG, Change tool bit to drill size 1mm)
M6      (Tool change.)
M0      (Temporary machine stop.)
M3      (Spindle on clockwise.)
G0 Z2.00000
G04 P1.00000

G1 F120.00000
G0 X-3.34010 Y-3.35026
G1 Z-2.50000
G1 Z2.00000
G0 X-3.34010 Y-5.89026
G1 Z-2.50000
G1 Z2.00000
G0 X-3.34010 Y-8.43026
G1 Z-2.50000
G1 Z2.00000
G0 X-3.34010 Y-40.03548
G1 Z-2.50000
G1 Z2.00000
G0 X-3.34010 Y-37.49548
G1 Z-2.50000
G1 Z2.00000
G0 X-3.34010 Y-34.95548
G1 Z-2.50000
G1 Z2.00000
G0 X-3.34010 Y-32.41548
G1 Z-2.50000
G1 Z2.00000
G0 X-3.34010 Y-29.87548
G1 Z-2.50000
G1 Z2.00000
G0 X-3.34010 Y-27.33548
G1 Z-2.50000
G1 Z2.00000
G0 X-3.34010 Y-24.79548
G1 Z-2.50000
G1 Z2.00000
G0 X-3.34010 Y-22.25548
G1 Z-2.50000
G1 Z2.00000
G0 X-3.34010 Y-19.71548
G1 Z-2.50000
G1 Z2.00000
G0 X-3.34010 Y-17.17548
G1 Z-2.50000
G1 Z2.00000
G0 X-3.34010 Y-10.97026
G1 Z-2.50000
G1 Z2.00000
G0 X-10.94486 Y-3.35026
G1 Z-2.50000
G1 Z2.00000
G0 X-13.48486 Y-3.35026
G1 Z-2.50000
G1 Z2.00000
G0 X-16.02486 Y-3.35026
G1 Z-2.50000
G1 Z2.00000
G0 X-23.66010 Y-3.35026
G1 Z-2.50000
G1 Z2.00000
G0 X-23.66010 Y-5.89026
G1 Z-2.50000
G1 Z2.00000
G0 X-23.66010 Y-8.43026
G1 Z-2.50000
G1 Z2.00000
G0 X-23.66010 Y-10.97026
G1 Z-2.50000
G1 Z2.00000
G0 X-23.66010 Y-17.17548
G1 Z-2.50000
G1 Z2.00000
G0 X-23.66010 Y-19.71548
G1 Z-2.50000
G1 Z2.00000
G0 X-23.66010 Y-22.25548
G1 Z-2.50000
G1 Z2.00000
G0 X-23.66010 Y-24.79548
G1 Z-2.50000
G1 Z2.00000
G0 X-23.66010 Y-27.33548
G1 Z-2.50000
G1 Z2.00000
G0 X-23.66010 Y-29.87548
G1 Z-2.50000
G1 Z2.00000
G0 X-23.66010 Y-32.41548
G1 Z-2.50000
G1 Z2.00000
G0 X-23.66010 Y-34.95548
G1 Z-2.50000
G1 Z2.00000
G0 X-23.66010 Y-37.49548
G1 Z-2.50000
G1 Z2.00000
G0 X-23.66010 Y-40.03548
G1 Z-2.50000
G1 Z2.00000

G00 Z15.000 ( All done -- retract )

M5      (Spindle off.)
G04 P1.000000
M9      (Coolant off.)
M2      (Program end.)

