( pcb2gcode 2.5.0 )
( Software-independent Gcode )

G94 ( Millimeters per minute feed rate. )
G21 ( Units == Millimeters. )

G90 ( Absolute coordinates. )
G00 S13000 ( RPM spindle speed. )
G01 F120.00000 ( Feedrate. )


G00 Z15.00000 (Retract to tool change height)
T0
M5      (Spindle stop.)
G04 P1.00000 (Wait for spindle to stop)
(MSG, Change tool bit to cutter diameter 1.00000mm)
M6      (Tool change.)
M0      (Temporary machine stop.)
M3 ( Spindle on clockwise. )
G04 P1.00000 (Wait for spindle to get up to speed)
G04 P0 ( dwell for no time -- G64 should not smooth over this point )
G00 Z2.00000 ( retract )

G00 X-0.49997 Y-41.39999 ( rapid move to begin. )
G01 Z-0.50000 F60.00000 ( plunge. )
G04 P0 ( dwell for no time -- G64 should not smooth over this point )
G01 F120.00000
G01 X-0.49997 Y-2.00000
G01 X-0.52159 Y-1.75590
G01 X-0.54072 Y-1.65976
G01 X-0.61415 Y-1.42593
G01 X-0.72758 Y-1.20866
G01 X-0.78202 Y-1.12723
G01 X-0.93932 Y-0.93932
G01 X-1.12723 Y-0.78202
G01 X-1.20866 Y-0.72758
G01 X-1.42593 Y-0.61415
G01 X-1.65976 Y-0.54072
G01 X-1.75590 Y-0.52159
G01 X-2.00000 Y-0.49997
G01 X-24.99998 Y-0.49997
G01 X-25.24404 Y-0.52159
G01 X-25.34018 Y-0.54072
G01 X-25.57399 Y-0.61415
G01 X-25.79126 Y-0.72758
G01 X-25.87269 Y-0.78202
G01 X-26.06063 Y-0.93932
G01 X-26.21793 Y-1.12723
G01 X-26.27236 Y-1.20866
G01 X-26.38577 Y-1.42593
G01 X-26.45921 Y-1.65976
G01 X-26.47833 Y-1.75585
G01 X-26.50000 Y-2.00000
G01 X-26.50000 Y-41.39999
G01 X-26.47833 Y-41.64409
G01 X-26.45921 Y-41.74018
G01 X-26.38577 Y-41.97401
G01 X-26.27239 Y-42.19128
G01 X-26.21793 Y-42.27274
G01 X-26.06063 Y-42.46065
G01 X-25.87269 Y-42.61795
G01 X-25.79124 Y-42.67241
G01 X-25.57399 Y-42.78579
G01 X-25.34018 Y-42.85922
G01 X-25.24409 Y-42.87835
G01 X-24.99998 Y-42.89999
G01 X-2.00000 Y-42.89999
G01 X-1.75585 Y-42.87835
G01 X-1.65976 Y-42.85922
G01 X-1.42596 Y-42.78579
G01 X-1.20871 Y-42.67241
G01 X-1.12723 Y-42.61795
G01 X-0.93932 Y-42.46065
G01 X-0.78202 Y-42.27274
G01 X-0.72756 Y-42.19128
G01 X-0.61415 Y-41.97401
G01 X-0.54072 Y-41.74018
G01 X-0.52159 Y-41.64404
G01 X-0.49997 Y-41.39999
G01 Z-1.00000 F60.00000 ( plunge. )
G04 P0 ( dwell for no time -- G64 should not smooth over this point )
G01 F120.00000
G01 X-0.49997 Y-2.00000
G01 X-0.52159 Y-1.75590
G01 X-0.54072 Y-1.65976
G01 X-0.61415 Y-1.42593
G01 X-0.72758 Y-1.20866
G01 X-0.78202 Y-1.12723
G01 X-0.93932 Y-0.93932
G01 X-1.12723 Y-0.78202
G01 X-1.20866 Y-0.72758
G01 X-1.42593 Y-0.61415
G01 X-1.65976 Y-0.54072
G01 X-1.75590 Y-0.52159
G01 X-2.00000 Y-0.49997
G01 X-24.99998 Y-0.49997
G01 X-25.24404 Y-0.52159
G01 X-25.34018 Y-0.54072
G01 X-25.57399 Y-0.61415
G01 X-25.79126 Y-0.72758
G01 X-25.87269 Y-0.78202
G01 X-26.06063 Y-0.93932
G01 X-26.21793 Y-1.12723
G01 X-26.27236 Y-1.20866
G01 X-26.38577 Y-1.42593
G01 X-26.45921 Y-1.65976
G01 X-26.47833 Y-1.75585
G01 X-26.50000 Y-2.00000
G01 X-26.50000 Y-41.39999
G01 X-26.47833 Y-41.64409
G01 X-26.45921 Y-41.74018
G01 X-26.38577 Y-41.97401
G01 X-26.27239 Y-42.19128
G01 X-26.21793 Y-42.27274
G01 X-26.06063 Y-42.46065
G01 X-25.87269 Y-42.61795
G01 X-25.79124 Y-42.67241
G01 X-25.57399 Y-42.78579
G01 X-25.34018 Y-42.85922
G01 X-25.24409 Y-42.87835
G01 X-24.99998 Y-42.89999
G01 X-2.00000 Y-42.89999
G01 X-1.75585 Y-42.87835
G01 X-1.65976 Y-42.85922
G01 X-1.42596 Y-42.78579
G01 X-1.20871 Y-42.67241
G01 X-1.12723 Y-42.61795
G01 X-0.93932 Y-42.46065
G01 X-0.78202 Y-42.27274
G01 X-0.72756 Y-42.19128
G01 X-0.61415 Y-41.97401
G01 X-0.54072 Y-41.74018
G01 X-0.52159 Y-41.64404
G01 X-0.49997 Y-41.39999
G01 Z-1.50000 F60.00000 ( plunge. )
G04 P0 ( dwell for no time -- G64 should not smooth over this point )
G01 F120.00000
G01 X-0.49997 Y-2.00000
G01 X-0.52159 Y-1.75590
G01 X-0.54072 Y-1.65976
G01 X-0.61415 Y-1.42593
G01 X-0.72758 Y-1.20866
G01 X-0.78202 Y-1.12723
G01 X-0.93932 Y-0.93932
G01 X-1.12723 Y-0.78202
G01 X-1.20866 Y-0.72758
G01 X-1.42593 Y-0.61415
G01 X-1.65976 Y-0.54072
G01 X-1.75590 Y-0.52159
G01 X-2.00000 Y-0.49997
G01 X-24.99998 Y-0.49997
G01 X-25.24404 Y-0.52159
G01 X-25.34018 Y-0.54072
G01 X-25.57399 Y-0.61415
G01 X-25.79126 Y-0.72758
G01 X-25.87269 Y-0.78202
G01 X-26.06063 Y-0.93932
G01 X-26.21793 Y-1.12723
G01 X-26.27236 Y-1.20866
G01 X-26.38577 Y-1.42593
G01 X-26.45921 Y-1.65976
G01 X-26.47833 Y-1.75585
G01 X-26.50000 Y-2.00000
G01 X-26.50000 Y-41.39999
G01 X-26.47833 Y-41.64409
G01 X-26.45921 Y-41.74018
G01 X-26.38577 Y-41.97401
G01 X-26.27239 Y-42.19128
G01 X-26.21793 Y-42.27274
G01 X-26.06063 Y-42.46065
G01 X-25.87269 Y-42.61795
G01 X-25.79124 Y-42.67241
G01 X-25.57399 Y-42.78579
G01 X-25.34018 Y-42.85922
G01 X-25.24409 Y-42.87835
G01 X-24.99998 Y-42.89999
G01 X-2.00000 Y-42.89999
G01 X-1.75585 Y-42.87835
G01 X-1.65976 Y-42.85922
G01 X-1.42596 Y-42.78579
G01 X-1.20871 Y-42.67241
G01 X-1.12723 Y-42.61795
G01 X-0.93932 Y-42.46065
G01 X-0.78202 Y-42.27274
G01 X-0.72756 Y-42.19128
G01 X-0.61415 Y-41.97401
G01 X-0.54072 Y-41.74018
G01 X-0.52159 Y-41.64404
G01 X-0.49997 Y-41.39999
G01 Z-2.00000 F60.00000 ( plunge. )
G04 P0 ( dwell for no time -- G64 should not smooth over this point )
G01 F120.00000
G01 X-0.49997 Y-2.00000
G01 X-0.52159 Y-1.75590
G01 X-0.54072 Y-1.65976
G01 X-0.61415 Y-1.42593
G01 X-0.72758 Y-1.20866
G01 X-0.78202 Y-1.12723
G01 X-0.93932 Y-0.93932
G01 X-1.12723 Y-0.78202
G01 X-1.20866 Y-0.72758
G01 X-1.42593 Y-0.61415
G01 X-1.65976 Y-0.54072
G01 X-1.75590 Y-0.52159
G01 X-2.00000 Y-0.49997
G01 X-24.99998 Y-0.49997
G01 X-25.24404 Y-0.52159
G01 X-25.34018 Y-0.54072
G01 X-25.57399 Y-0.61415
G01 X-25.79126 Y-0.72758
G01 X-25.87269 Y-0.78202
G01 X-26.06063 Y-0.93932
G01 X-26.21793 Y-1.12723
G01 X-26.27236 Y-1.20866
G01 X-26.38577 Y-1.42593
G01 X-26.45921 Y-1.65976
G01 X-26.47833 Y-1.75585
G01 X-26.50000 Y-2.00000
G01 X-26.50000 Y-41.39999
G01 X-26.47833 Y-41.64409
G01 X-26.45921 Y-41.74018
G01 X-26.38577 Y-41.97401
G01 X-26.27239 Y-42.19128
G01 X-26.21793 Y-42.27274
G01 X-26.06063 Y-42.46065
G01 X-25.87269 Y-42.61795
G01 X-25.79124 Y-42.67241
G01 X-25.57399 Y-42.78579
G01 X-25.34018 Y-42.85922
G01 X-25.24409 Y-42.87835
G01 X-24.99998 Y-42.89999
G01 X-2.00000 Y-42.89999
G01 X-1.75585 Y-42.87835
G01 X-1.65976 Y-42.85922
G01 X-1.42596 Y-42.78579
G01 X-1.20871 Y-42.67241
G01 X-1.12723 Y-42.61795
G01 X-0.93932 Y-42.46065
G01 X-0.78202 Y-42.27274
G01 X-0.72756 Y-42.19128
G01 X-0.61415 Y-41.97401
G01 X-0.54072 Y-41.74018
G01 X-0.52159 Y-41.64404
G01 X-0.49997 Y-41.39999
G01 Z-2.50000 F60.00000 ( plunge. )
G04 P0 ( dwell for no time -- G64 should not smooth over this point )
G01 F120.00000
G01 X-0.49997 Y-2.00000
G01 X-0.52159 Y-1.75590
G01 X-0.54072 Y-1.65976
G01 X-0.61415 Y-1.42593
G01 X-0.72758 Y-1.20866
G01 X-0.78202 Y-1.12723
G01 X-0.93932 Y-0.93932
G01 X-1.12723 Y-0.78202
G01 X-1.20866 Y-0.72758
G01 X-1.42593 Y-0.61415
G01 X-1.65976 Y-0.54072
G01 X-1.75590 Y-0.52159
G01 X-2.00000 Y-0.49997
G01 X-24.99998 Y-0.49997
G01 X-25.24404 Y-0.52159
G01 X-25.34018 Y-0.54072
G01 X-25.57399 Y-0.61415
G01 X-25.79126 Y-0.72758
G01 X-25.87269 Y-0.78202
G01 X-26.06063 Y-0.93932
G01 X-26.21793 Y-1.12723
G01 X-26.27236 Y-1.20866
G01 X-26.38577 Y-1.42593
G01 X-26.45921 Y-1.65976
G01 X-26.47833 Y-1.75585
G01 X-26.50000 Y-2.00000
G01 X-26.50000 Y-41.39999
G01 X-26.47833 Y-41.64409
G01 X-26.45921 Y-41.74018
G01 X-26.38577 Y-41.97401
G01 X-26.27239 Y-42.19128
G01 X-26.21793 Y-42.27274
G01 X-26.06063 Y-42.46065
G01 X-25.87269 Y-42.61795
G01 X-25.79124 Y-42.67241
G01 X-25.57399 Y-42.78579
G01 X-25.34018 Y-42.85922
G01 X-25.24409 Y-42.87835
G01 X-24.99998 Y-42.89999
G01 X-2.00000 Y-42.89999
G01 X-1.75585 Y-42.87835
G01 X-1.65976 Y-42.85922
G01 X-1.42596 Y-42.78579
G01 X-1.20871 Y-42.67241
G01 X-1.12723 Y-42.61795
G01 X-0.93932 Y-42.46065
G01 X-0.78202 Y-42.27274
G01 X-0.72756 Y-42.19128
G01 X-0.61415 Y-41.97401
G01 X-0.54072 Y-41.74018
G01 X-0.52159 Y-41.64404
G01 X-0.49997 Y-41.39999

G04 P0 ( dwell for no time -- G64 should not smooth over this point )
G00 Z15.000000 ( retract )

M5 ( Spindle off. )
G04 P1.000000
M9 ( Coolant off. )
M2 ( Program end. )

