( pcb2gcode 2.5.0 )
( Software-independent Gcode )

G94 ( Millimeters per minute feed rate. )
G21 ( Units == Millimeters. )

G90 ( Absolute coordinates. )
G00 S13000 ( RPM spindle speed. )
G01 F120.00000 ( Feedrate. )


G00 Z15.00000 (Retract to tool change height)
T0
M5      (Spindle stop.)
G04 P1.00000 (Wait for spindle to stop)
(MSG, Change tool bit to mill diameter 0.15360mm)
M6      (Tool change.)
M0      (Temporary machine stop.)
M3 ( Spindle on clockwise. )
G04 P1.00000 (Wait for spindle to get up to speed)
G04 P0 ( dwell for no time -- G64 should not smooth over this point )
G00 Z2.00000 ( retract )

G00 X-4.49268 Y-4.50050 ( rapid move to begin. )
G01 F60.00000
( Mill infeed pass 1/2 )
G01 Z-0.05000
G04 P0 ( dwell for no time -- G64 should not smooth over this point )
G01 F120.00000
G01 X-4.49268 Y-4.50050
G01 X-4.50052 Y-4.50728
G01 X-4.50728 Y-4.49943
G01 X-4.49943 Y-4.49268
G01 X-4.49268 Y-4.50050
G01 X-4.41587 Y-4.50553
G01 X-4.42432 Y-4.53720
G01 X-4.41866 Y-4.54000
G01 X-4.42432 Y-4.53720
G01 X-4.44436 Y-4.56334
G01 X-4.47291 Y-4.57982
G01 X-4.47088 Y-4.58582
G01 X-4.47291 Y-4.57982
G01 X-4.50555 Y-4.58409
G01 X-4.53725 Y-4.57558
G01 X-4.54005 Y-4.58127
G01 X-4.53725 Y-4.57558
G01 X-4.56334 Y-4.55557
G01 X-4.57982 Y-4.52702
G01 X-4.58582 Y-4.52907
G01 X-4.57982 Y-4.52702
G01 X-4.58409 Y-4.49440
G01 X-4.57558 Y-4.46270
G01 X-4.58125 Y-4.45991
G01 X-4.57558 Y-4.46270
G01 X-4.55562 Y-4.43664
G01 X-4.52712 Y-4.42016
G01 X-4.52915 Y-4.41416
G01 X-4.52712 Y-4.42016
G01 X-4.49440 Y-4.41587
G01 X-4.46270 Y-4.42438
G01 X-4.45991 Y-4.41869
G01 X-4.46270 Y-4.42438
G01 X-4.43659 Y-4.44439
G01 X-4.42016 Y-4.47284
G01 X-4.41416 Y-4.47081
G01 X-4.42016 Y-4.47284
G01 X-4.41587 Y-4.50553
G01 X-4.33906 Y-4.51056
G01 X-4.34035 Y-4.53177
G01 X-4.36466 Y-4.59041
G01 X-4.40952 Y-4.63530
G01 X-4.46824 Y-4.65963
G01 X-4.53177 Y-4.65963
G01 X-4.59039 Y-4.63532
G01 X-4.63532 Y-4.59039
G01 X-4.65963 Y-4.53177
G01 X-4.65960 Y-4.46816
G01 X-4.63530 Y-4.40952
G01 X-4.59041 Y-4.36466
G01 X-4.53177 Y-4.34035
G01 X-4.46816 Y-4.34035
G01 X-4.40952 Y-4.36466
G01 X-4.36461 Y-4.40957
G01 X-4.34035 Y-4.46816
G01 X-4.33906 Y-4.51056
G01 X-4.26227 Y-4.51559
G01 X-4.27297 Y-4.57708
G01 X-4.28628 Y-4.60530
G01 X-4.31978 Y-4.65808
G01 X-4.34289 Y-4.67909
G01 X-4.39395 Y-4.71498
G01 X-4.45351 Y-4.73365
G01 X-4.48419 Y-4.73918
G01 X-4.51561 Y-4.73768
G01 X-4.57700 Y-4.72702
G01 X-4.63230 Y-4.69806
G01 X-4.65803 Y-4.68020
G01 X-4.67909 Y-4.65704
G01 X-4.71500 Y-4.60599
G01 X-4.73362 Y-4.54647
G01 X-4.73918 Y-4.51571
G01 X-4.73768 Y-4.48434
G01 X-4.72702 Y-4.42295
G01 X-4.71363 Y-4.39461
G01 X-4.68020 Y-4.34188
G01 X-4.63232 Y-4.30190
G01 X-4.60596 Y-4.28493
G01 X-4.54647 Y-4.26634
G01 X-4.51569 Y-4.26077
G01 X-4.48434 Y-4.26227
G01 X-4.42295 Y-4.27294
G01 X-4.39461 Y-4.28633
G01 X-4.34190 Y-4.31975
G01 X-4.30187 Y-4.36763
G01 X-4.28495 Y-4.39395
G01 X-4.26634 Y-4.45346
G01 X-4.26077 Y-4.48424
G01 X-4.26227 Y-4.51559
G01 X-4.18546 Y-4.52064
G01 X-4.18937 Y-4.56179
G01 X-4.20152 Y-4.60134
G01 X-4.23667 Y-4.67594
G01 X-4.26303 Y-4.70784
G01 X-4.32399 Y-4.76329
G01 X-4.39870 Y-4.79847
G01 X-4.43819 Y-4.81061
G01 X-4.52064 Y-4.81449
G01 X-4.56179 Y-4.81058
G01 X-4.60126 Y-4.79847
G01 X-4.67589 Y-4.76331
G01 X-4.70779 Y-4.73695
G01 X-4.76331 Y-4.67589
G01 X-4.79847 Y-4.60126
G01 X-4.81058 Y-4.56179
G01 X-4.81449 Y-4.52064
G01 X-4.81058 Y-4.43814
G01 X-4.79847 Y-4.39870
G01 X-4.76329 Y-4.32399
G01 X-4.70784 Y-4.26303
G01 X-4.67594 Y-4.23667
G01 X-4.60134 Y-4.20152
G01 X-4.56179 Y-4.18937
G01 X-4.52064 Y-4.18546
G01 X-4.43814 Y-4.18937
G01 X-4.39870 Y-4.20149
G01 X-4.32399 Y-4.23667
G01 X-4.26301 Y-4.29214
G01 X-4.23664 Y-4.32405
G01 X-4.20152 Y-4.39862
G01 X-4.18937 Y-4.43814
G01 X-4.18546 Y-4.52064
G01 X-4.10868 Y-4.52567
G01 X-4.11536 Y-4.57652
G01 X-4.12864 Y-4.62608
G01 X-4.14688 Y-4.67403
G01 X-4.17391 Y-4.71785
G01 X-4.20517 Y-4.75859
G01 X-4.24040 Y-4.79595
G01 X-4.28208 Y-4.82603
G01 X-4.32653 Y-4.85170
G01 X-4.37347 Y-4.87276
G01 X-4.42349 Y-4.88460
G01 X-4.47421 Y-4.89128
G01 X-4.52577 Y-4.89278
G01 X-4.57650 Y-4.88460
G01 X-4.62600 Y-4.87134
G01 X-4.67408 Y-4.85305
G01 X-4.71782 Y-4.82605
G01 X-4.75854 Y-4.79481
G01 X-4.79595 Y-4.75953
G01 X-4.82605 Y-4.71782
G01 X-4.85170 Y-4.67342
G01 X-4.87276 Y-4.62648
G01 X-4.88460 Y-4.57650
G01 X-4.89128 Y-4.52567
G01 X-4.89278 Y-4.47418
G01 X-4.88460 Y-4.42344
G01 X-4.87134 Y-4.37396
G01 X-4.85305 Y-4.32587
G01 X-4.82603 Y-4.28208
G01 X-4.79481 Y-4.24139
G01 X-4.75958 Y-4.20403
G01 X-4.71785 Y-4.17391
G01 X-4.67337 Y-4.14823
G01 X-4.62656 Y-4.12722
G01 X-4.57652 Y-4.11536
G01 X-4.52567 Y-4.10868
G01 X-4.47418 Y-4.10718
G01 X-4.42344 Y-4.11536
G01 X-4.37396 Y-4.12862
G01 X-4.32587 Y-4.14691
G01 X-4.28208 Y-4.17393
G01 X-4.24139 Y-4.20515
G01 X-4.20400 Y-4.24040
G01 X-4.17391 Y-4.28211
G01 X-4.14825 Y-4.32653
G01 X-4.12722 Y-4.37340
G01 X-4.11536 Y-4.42344
G01 X-4.10868 Y-4.47429
G01 X-4.10868 Y-4.52567
G01 X-4.03187 Y-4.53070
G01 X-4.03840 Y-4.59181
G01 X-4.05577 Y-4.65082
G01 X-4.07921 Y-4.70741
G01 X-4.10868 Y-4.76143
G01 X-4.14729 Y-4.80934
G01 X-4.19064 Y-4.85267
G01 X-4.23850 Y-4.89128
G01 X-4.29250 Y-4.92072
G01 X-4.34922 Y-4.94421
G01 X-4.40817 Y-4.96156
G01 X-4.46918 Y-4.96809
G01 X-4.53070 Y-4.96809
G01 X-4.59181 Y-4.96156
G01 X-4.65074 Y-4.94421
G01 X-4.70746 Y-4.92072
G01 X-4.76141 Y-4.89130
G01 X-4.80929 Y-4.85267
G01 X-4.85267 Y-4.80929
G01 X-4.89130 Y-4.76141
G01 X-4.92072 Y-4.70746
G01 X-4.94421 Y-4.65074
G01 X-4.96156 Y-4.59181
G01 X-4.96809 Y-4.53070
G01 X-4.96809 Y-4.46926
G01 X-4.96156 Y-4.40812
G01 X-4.94421 Y-4.34922
G01 X-4.92072 Y-4.29250
G01 X-4.89128 Y-4.23850
G01 X-4.85267 Y-4.19064
G01 X-4.80934 Y-4.14729
G01 X-4.76143 Y-4.10868
G01 X-4.70741 Y-4.07921
G01 X-4.65082 Y-4.05577
G01 X-4.59181 Y-4.03840
G01 X-4.53070 Y-4.03187
G01 X-4.46926 Y-4.03187
G01 X-4.40812 Y-4.03840
G01 X-4.34922 Y-4.05574
G01 X-4.29250 Y-4.07924
G01 X-4.23850 Y-4.10868
G01 X-4.19064 Y-4.14729
G01 X-4.14726 Y-4.19067
G01 X-4.10865 Y-4.23852
G01 X-4.07921 Y-4.29250
G01 X-4.05577 Y-4.34914
G01 X-4.03840 Y-4.40812
G01 X-4.03187 Y-4.46926
G01 X-4.03187 Y-4.53070
G01 X-3.95506 Y-4.53573
G01 X-3.96291 Y-4.60682
G01 X-3.98287 Y-4.67553
G01 X-4.01018 Y-4.74144
G01 X-4.04467 Y-4.80421
G01 X-4.08943 Y-4.86006
G01 X-4.13990 Y-4.91053
G01 X-4.19572 Y-4.95526
G01 X-4.25846 Y-4.98975
G01 X-4.32448 Y-5.01708
G01 X-4.39316 Y-5.03705
G01 X-4.46415 Y-5.04490
G01 X-4.53573 Y-5.04490
G01 X-4.60682 Y-5.03705
G01 X-4.67548 Y-5.01708
G01 X-4.74149 Y-4.98975
G01 X-4.80418 Y-4.95529
G01 X-4.86004 Y-4.91053
G01 X-4.91053 Y-4.86004
G01 X-4.95529 Y-4.80418
G01 X-4.98975 Y-4.74149
G01 X-5.01708 Y-4.67548
G01 X-5.03705 Y-4.60682
G01 X-5.04490 Y-4.53573
G01 X-5.04490 Y-4.46423
G01 X-5.03705 Y-4.39311
G01 X-5.01708 Y-4.32448
G01 X-4.98975 Y-4.25846
G01 X-4.95526 Y-4.19572
G01 X-4.91053 Y-4.13990
G01 X-4.86006 Y-4.08943
G01 X-4.80421 Y-4.04467
G01 X-4.74144 Y-4.01018
G01 X-4.67553 Y-3.98287
G01 X-4.60682 Y-3.96291
G01 X-4.53573 Y-3.95506
G01 X-4.46423 Y-3.95506
G01 X-4.39311 Y-3.96291
G01 X-4.32448 Y-3.98287
G01 X-4.25846 Y-4.01020
G01 X-4.19572 Y-4.04470
G01 X-4.13990 Y-4.08943
G01 X-4.08940 Y-4.13992
G01 X-4.04467 Y-4.19578
G01 X-4.01020 Y-4.25846
G01 X-3.98287 Y-4.32440
G01 X-3.96291 Y-4.39311
G01 X-3.95506 Y-4.46423
G01 X-3.95506 Y-4.53573
G01 X-3.87828 Y-4.54076
G01 X-3.88826 Y-4.62168
G01 X-3.91000 Y-4.70027
G01 X-3.94081 Y-4.77566
G01 X-3.98181 Y-4.84622
G01 X-4.03128 Y-4.91106
G01 X-4.08915 Y-4.96839
G01 X-4.15343 Y-5.01856
G01 X-4.22440 Y-5.05877
G01 X-4.29958 Y-5.09031
G01 X-4.37838 Y-5.11142
G01 X-4.45912 Y-5.12168
G01 X-4.54078 Y-5.12206
G01 X-4.62163 Y-5.11142
G01 X-4.70022 Y-5.08998
G01 X-4.77568 Y-5.05912
G01 X-4.84609 Y-5.01802
G01 X-4.91104 Y-4.96867
G01 X-4.96839 Y-4.91079
G01 X-5.01833 Y-4.84632
G01 X-5.05912 Y-4.77568
G01 X-5.08998 Y-4.70022
G01 X-5.11170 Y-4.62168
G01 X-5.12168 Y-4.54076
G01 X-5.12206 Y-4.45917
G01 X-5.11142 Y-4.37830
G01 X-5.08998 Y-4.29974
G01 X-5.05912 Y-4.22425
G01 X-5.01830 Y-4.15359
G01 X-4.96839 Y-4.08915
G01 X-4.91106 Y-4.03128
G01 X-4.84612 Y-3.98193
G01 X-4.77566 Y-3.94081
G01 X-4.70027 Y-3.91000
G01 X-4.62168 Y-3.88826
G01 X-4.54076 Y-3.87828
G01 X-4.45917 Y-3.87789
G01 X-4.37830 Y-3.88854
G01 X-4.29974 Y-3.90997
G01 X-4.22425 Y-3.94084
G01 X-4.15359 Y-3.98165
G01 X-4.08915 Y-4.03156
G01 X-4.03126 Y-4.08892
G01 X-3.98178 Y-4.15374
G01 X-3.94084 Y-4.22425
G01 X-3.91000 Y-4.29966
G01 X-3.88854 Y-4.37830
G01 X-3.87789 Y-4.45917
G01 X-3.87828 Y-4.54076
G01 X-3.80147 Y-4.54579
G01 X-3.81305 Y-4.63664
G01 X-3.83713 Y-4.72501
G01 X-3.87154 Y-4.80982
G01 X-3.91795 Y-4.88889
G01 X-3.97342 Y-4.96179
G01 X-4.03830 Y-5.02638
G01 X-4.11086 Y-5.08231
G01 X-4.19036 Y-5.12780
G01 X-4.27477 Y-5.16349
G01 X-4.36342 Y-5.18655
G01 X-4.45404 Y-5.19885
G01 X-4.54579 Y-5.19849
G01 X-4.63664 Y-5.18691
G01 X-4.72496 Y-5.16285
G01 X-4.80987 Y-5.12839
G01 X-4.88887 Y-5.08203
G01 X-4.96176 Y-5.02656
G01 X-5.02656 Y-4.96176
G01 X-5.08203 Y-4.88887
G01 X-5.12813 Y-4.80974
G01 X-5.16321 Y-4.72506
G01 X-5.18653 Y-4.63657
G01 X-5.19885 Y-4.54584
G01 X-5.19849 Y-4.45417
G01 X-5.18691 Y-4.36329
G01 X-5.16285 Y-4.27497
G01 X-5.12813 Y-4.19021
G01 X-5.08231 Y-4.11084
G01 X-5.02628 Y-4.03840
G01 X-4.96199 Y-3.97320
G01 X-4.88889 Y-3.91795
G01 X-4.80972 Y-3.87180
G01 X-4.72501 Y-3.83713
G01 X-4.63662 Y-3.81305
G01 X-4.54579 Y-3.80147
G01 X-4.45414 Y-3.80111
G01 X-4.36329 Y-3.81305
G01 X-4.27497 Y-3.83710
G01 X-4.19021 Y-3.87182
G01 X-4.11084 Y-3.91765
G01 X-4.03840 Y-3.97368
G01 X-3.97317 Y-4.03799
G01 X-3.91792 Y-4.11109
G01 X-3.87182 Y-4.19019
G01 X-3.83697 Y-4.27487
G01 X-3.81305 Y-4.36331
G01 X-3.80147 Y-4.45417
G01 X-3.80147 Y-4.54579
G01 X-3.72468 Y-4.55084
G01 X-3.73756 Y-4.65165
G01 X-3.76423 Y-4.74975
G01 X-3.80251 Y-4.84388
G01 X-3.85394 Y-4.93164
G01 X-3.91554 Y-5.01254
G01 X-3.98755 Y-5.08427
G01 X-4.06809 Y-5.14632
G01 X-4.15633 Y-5.19681
G01 X-4.25003 Y-5.23636
G01 X-4.34840 Y-5.26204
G01 X-4.44901 Y-5.27566
G01 X-4.55082 Y-5.27528
G01 X-4.65165 Y-5.26240
G01 X-4.74970 Y-5.23573
G01 X-4.84391 Y-5.19742
G01 X-4.93161 Y-5.14601
G01 X-5.01251 Y-5.08442
G01 X-5.08442 Y-5.01251
G01 X-5.14601 Y-4.93161
G01 X-5.19714 Y-4.84381
G01 X-5.23573 Y-4.74970
G01 X-5.26240 Y-4.65163
G01 X-5.27528 Y-4.55082
G01 X-5.27566 Y-4.44911
G01 X-5.26240 Y-4.34828
G01 X-5.23573 Y-4.25023
G01 X-5.19717 Y-4.15618
G01 X-5.14629 Y-4.06806
G01 X-5.08414 Y-3.98767
G01 X-5.01274 Y-3.91533
G01 X-4.93164 Y-3.85394
G01 X-4.84375 Y-3.80279
G01 X-4.74975 Y-3.76423
G01 X-4.65163 Y-3.73756
G01 X-4.55082 Y-3.72468
G01 X-4.44911 Y-3.72430
G01 X-4.34828 Y-3.73756
G01 X-4.25023 Y-3.76423
G01 X-4.15618 Y-3.80279
G01 X-4.06806 Y-3.85366
G01 X-3.98767 Y-3.91582
G01 X-3.91531 Y-3.98724
G01 X-3.85394 Y-4.06832
G01 X-3.80279 Y-4.15615
G01 X-3.76408 Y-4.25013
G01 X-3.73756 Y-4.34830
G01 X-3.72468 Y-4.44914
G01 X-3.72468 Y-4.55084
G01 X-3.64787 Y-4.55587
G01 X-3.66210 Y-4.66667
G01 X-3.69136 Y-4.77449
G01 X-3.73347 Y-4.87792
G01 X-3.78996 Y-4.97439
G01 X-3.85768 Y-5.06329
G01 X-3.93680 Y-5.14213
G01 X-4.02534 Y-5.21030
G01 X-4.12229 Y-5.26585
G01 X-4.22529 Y-5.30923
G01 X-4.33339 Y-5.33751
G01 X-4.44398 Y-5.35244
G01 X-4.55585 Y-5.35208
G01 X-4.66667 Y-5.33786
G01 X-4.77444 Y-5.30860
G01 X-4.87794 Y-5.26644
G01 X-4.97439 Y-5.21000
G01 X-5.06326 Y-5.14228
G01 X-5.14228 Y-5.06326
G01 X-5.21000 Y-4.97439
G01 X-5.26618 Y-4.87784
G01 X-5.30860 Y-4.77444
G01 X-5.33789 Y-4.66664
G01 X-5.35208 Y-4.55585
G01 X-5.35244 Y-4.44409
G01 X-5.33786 Y-4.33327
G01 X-5.30860 Y-4.22549
G01 X-5.26618 Y-4.12214
G01 X-5.21030 Y-4.02532
G01 X-5.14200 Y-3.93692
G01 X-5.06349 Y-3.85747
G01 X-4.97439 Y-3.78996
G01 X-4.87779 Y-3.73375
G01 X-4.77449 Y-3.69136
G01 X-4.66664 Y-3.66207
G01 X-4.55585 Y-3.64787
G01 X-4.44409 Y-3.64752
G01 X-4.33327 Y-3.66210
G01 X-4.22549 Y-3.69136
G01 X-4.12214 Y-3.73377
G01 X-4.02532 Y-3.78965
G01 X-3.93692 Y-3.85796
G01 X-3.85745 Y-3.93649
G01 X-3.78993 Y-4.02557
G01 X-3.73375 Y-4.12212
G01 X-3.69120 Y-4.22539
G01 X-3.66207 Y-4.33329
G01 X-3.64787 Y-4.44411
G01 X-3.64787 Y-4.55587
G01 X-3.57109 Y-4.56087
G01 X-3.58661 Y-4.68165
G01 X-3.61833 Y-4.79928
G01 X-3.66471 Y-4.91185
G01 X-3.72598 Y-5.01716
G01 X-3.79961 Y-5.11421
G01 X-3.88617 Y-5.19986
G01 X-3.98257 Y-5.27428
G01 X-4.08818 Y-5.33502
G01 X-4.20065 Y-5.38185
G01 X-4.31836 Y-5.41299
G01 X-4.43893 Y-5.42925
G01 X-4.56093 Y-5.42925
G01 X-4.68160 Y-5.41299
G01 X-4.79928 Y-5.38185
G01 X-4.91188 Y-5.33519
G01 X-5.01713 Y-5.27401
G01 X-5.11399 Y-5.20014
G01 X-5.20014 Y-5.11399
G01 X-5.27401 Y-5.01713
G01 X-5.33547 Y-4.91200
G01 X-5.38150 Y-4.79918
G01 X-5.41335 Y-4.68168
G01 X-5.42925 Y-4.56090
G01 X-5.42887 Y-4.43906
G01 X-5.41335 Y-4.31828
G01 X-5.38183 Y-4.20063
G01 X-5.33489 Y-4.08826
G01 X-5.27431 Y-3.98257
G01 X-5.19986 Y-3.88617
G01 X-5.11401 Y-3.79981
G01 X-5.01716 Y-3.72598
G01 X-4.91195 Y-3.66446
G01 X-4.79923 Y-3.61848
G01 X-4.68168 Y-3.58661
G01 X-4.56090 Y-3.57071
G01 X-4.43906 Y-3.57109
G01 X-4.31828 Y-3.58661
G01 X-4.20063 Y-3.61813
G01 X-4.08826 Y-3.66507
G01 X-3.98257 Y-3.72565
G01 X-3.88607 Y-3.79997
G01 X-3.79979 Y-3.88595
G01 X-3.72595 Y-3.98280
G01 X-3.66446 Y-4.08795
G01 X-3.61848 Y-4.20073
G01 X-3.58661 Y-4.31825
G01 X-3.57071 Y-4.43906
G01 X-3.57109 Y-4.56087
G01 X-3.49428 Y-4.56590
G01 X-3.51112 Y-4.69666
G01 X-3.54543 Y-4.82402
G01 X-3.59570 Y-4.94589
G01 X-3.66197 Y-5.05991
G01 X-3.74172 Y-5.16496
G01 X-3.83543 Y-5.25772
G01 X-3.93979 Y-5.33829
G01 X-4.05414 Y-5.40405
G01 X-4.17591 Y-5.45473
G01 X-4.30334 Y-5.48848
G01 X-4.43393 Y-5.50606
G01 X-4.56595 Y-5.50606
G01 X-4.69661 Y-5.48848
G01 X-4.82402 Y-5.45473
G01 X-4.94591 Y-5.40423
G01 X-5.05991 Y-5.33799
G01 X-5.16473 Y-5.25800
G01 X-5.25800 Y-5.16473
G01 X-5.33799 Y-5.05991
G01 X-5.40451 Y-4.94604
G01 X-5.45437 Y-4.82392
G01 X-5.48884 Y-4.69671
G01 X-5.50606 Y-4.56593
G01 X-5.50568 Y-4.43403
G01 X-5.48884 Y-4.30327
G01 X-5.45473 Y-4.17589
G01 X-5.40390 Y-4.05422
G01 X-5.33829 Y-3.93982
G01 X-5.25772 Y-3.83543
G01 X-5.16476 Y-3.74195
G01 X-5.05991 Y-3.66197
G01 X-4.94599 Y-3.59542
G01 X-4.82397 Y-3.54561
G01 X-4.69669 Y-3.51112
G01 X-4.56593 Y-3.49390
G01 X-4.43403 Y-3.49428
G01 X-4.30327 Y-3.51112
G01 X-4.17589 Y-3.54523
G01 X-4.05422 Y-3.59606
G01 X-3.93982 Y-3.66166
G01 X-3.83532 Y-3.74211
G01 X-3.74193 Y-3.83520
G01 X-3.66197 Y-3.94005
G01 X-3.59545 Y-4.05392
G01 X-3.54561 Y-4.17599
G01 X-3.51112 Y-4.30324
G01 X-3.49390 Y-4.43403
G01 X-3.49428 Y-4.56590
G01 X-3.41747 Y-4.57096
G01 X-3.43563 Y-4.71167
G01 X-3.47256 Y-4.84876
G01 X-3.52666 Y-4.97992
G01 X-3.59799 Y-5.10268
G01 X-3.68386 Y-5.21571
G01 X-3.78468 Y-5.31558
G01 X-3.89705 Y-5.40228
G01 X-4.02008 Y-5.47309
G01 X-4.15117 Y-5.52760
G01 X-4.28833 Y-5.56397
G01 X-4.42890 Y-5.58315
G01 X-4.57096 Y-5.58249
G01 X-4.71170 Y-5.56433
G01 X-4.84866 Y-5.52724
G01 X-4.97995 Y-5.47327
G01 X-5.10266 Y-5.40200
G01 X-5.21548 Y-5.31586
G01 X-5.31586 Y-5.21548
G01 X-5.40200 Y-5.10266
G01 X-5.47352 Y-4.98008
G01 X-5.52724 Y-4.84866
G01 X-5.56433 Y-4.71173
G01 X-5.58284 Y-4.57096
G01 X-5.58249 Y-4.42900
G01 X-5.56433 Y-4.28826
G01 X-5.52760 Y-4.15115
G01 X-5.47294 Y-4.02016
G01 X-5.40230 Y-3.89707
G01 X-5.31558 Y-3.78468
G01 X-5.21551 Y-3.68407
G01 X-5.10268 Y-3.59799
G01 X-4.98005 Y-3.52641
G01 X-4.84871 Y-3.47271
G01 X-4.71170 Y-3.43563
G01 X-4.57096 Y-3.41711
G01 X-4.42900 Y-3.41747
G01 X-4.28826 Y-3.43563
G01 X-4.15115 Y-3.47236
G01 X-4.02016 Y-3.52702
G01 X-3.89707 Y-3.59766
G01 X-3.78457 Y-3.68424
G01 X-3.68407 Y-3.78447
G01 X-3.59796 Y-3.89727
G01 X-3.52641 Y-4.01988
G01 X-3.47271 Y-4.15125
G01 X-3.43563 Y-4.28823
G01 X-3.41711 Y-4.42900
G01 X-3.41747 Y-4.57096
G01 X-3.34068 Y-4.57599
G01 X-3.36014 Y-4.72669
G01 X-3.39969 Y-4.87350
G01 X-3.45765 Y-5.01396
G01 X-3.53398 Y-5.14543
G01 X-3.62600 Y-5.26646
G01 X-3.73393 Y-5.37345
G01 X-3.85427 Y-5.46626
G01 X-3.98605 Y-5.54210
G01 X-4.12643 Y-5.60047
G01 X-4.27332 Y-5.63946
G01 X-4.42387 Y-5.65993
G01 X-4.57599 Y-5.65927
G01 X-4.72671 Y-5.63982
G01 X-4.87340 Y-5.60012
G01 X-5.01401 Y-5.54228
G01 X-5.14541 Y-5.46598
G01 X-5.26623 Y-5.37375
G01 X-5.37375 Y-5.26623
G01 X-5.46598 Y-5.14541
G01 X-5.54256 Y-5.01411
G01 X-5.60012 Y-4.87340
G01 X-5.63982 Y-4.72674
G01 X-5.65965 Y-4.57599
G01 X-5.65927 Y-4.42397
G01 X-5.63982 Y-4.27325
G01 X-5.60047 Y-4.12641
G01 X-5.54195 Y-3.98612
G01 X-5.46628 Y-3.85430
G01 X-5.37345 Y-3.73393
G01 X-5.26626 Y-3.62621
G01 X-5.14543 Y-3.53398
G01 X-5.01409 Y-3.45737
G01 X-4.87345 Y-3.39984
G01 X-4.72671 Y-3.36014
G01 X-4.57599 Y-3.34030
G01 X-4.42397 Y-3.34068
G01 X-4.27325 Y-3.36014
G01 X-4.12641 Y-3.39949
G01 X-3.98612 Y-3.45801
G01 X-3.85430 Y-3.53367
G01 X-3.73383 Y-3.62638
G01 X-3.62621 Y-3.73372
G01 X-3.53398 Y-3.85453
G01 X-3.45737 Y-3.98584
G01 X-3.39984 Y-4.12651
G01 X-3.36014 Y-4.27322
G01 X-3.34030 Y-4.42397
G01 X-3.34068 Y-4.57599
G01 X-3.26372 Y-4.58102
G01 X-3.28485 Y-4.74167
G01 X-3.32682 Y-4.89824
G01 X-3.38879 Y-5.04789
G01 X-3.46984 Y-5.18828
G01 X-3.56850 Y-5.31688
G01 X-3.68308 Y-5.43143
G01 X-3.81165 Y-5.53009
G01 X-3.95201 Y-5.61114
G01 X-4.10174 Y-5.67317
G01 X-4.25828 Y-5.71510
G01 X-4.41886 Y-5.73623
G01 X-4.58102 Y-5.73608
G01 X-4.74167 Y-5.71495
G01 X-4.89814 Y-5.67301
G01 X-5.04787 Y-5.61099
G01 X-5.18818 Y-5.52996
G01 X-5.31675 Y-5.43131
G01 X-5.43131 Y-5.31675
G01 X-5.52996 Y-5.18818
G01 X-5.61099 Y-5.04787
G01 X-5.67301 Y-4.89814
G01 X-5.71495 Y-4.74167
G01 X-5.73608 Y-4.58102
G01 X-5.73608 Y-4.41894
G01 X-5.71492 Y-4.25828
G01 X-5.67301 Y-4.10180
G01 X-5.61099 Y-3.95209
G01 X-5.52996 Y-3.81175
G01 X-5.43131 Y-3.68318
G01 X-5.31675 Y-3.56862
G01 X-5.18818 Y-3.47000
G01 X-5.04784 Y-3.38894
G01 X-4.89819 Y-3.32692
G01 X-4.74165 Y-3.28503
G01 X-4.58102 Y-3.26387
G01 X-4.41894 Y-3.26372
G01 X-4.25826 Y-3.28485
G01 X-4.10174 Y-3.32679
G01 X-3.95201 Y-3.38882
G01 X-3.81165 Y-3.46987
G01 X-3.68308 Y-3.56852
G01 X-3.56850 Y-3.68310
G01 X-3.46984 Y-3.81168
G01 X-3.38879 Y-3.95201
G01 X-3.32682 Y-4.10172
G01 X-3.28485 Y-4.25826
G01 X-3.26372 Y-4.41894
G01 X-3.26372 Y-4.58102
G01 X-3.18691 Y-4.58605
G01 X-3.20937 Y-4.75668
G01 X-3.25392 Y-4.92298
G01 X-3.31978 Y-5.08196
G01 X-3.40586 Y-5.23103
G01 X-3.51064 Y-5.36760
G01 X-3.63233 Y-5.48930
G01 X-3.76890 Y-5.59410
G01 X-3.91798 Y-5.68015
G01 X-4.07700 Y-5.74604
G01 X-4.24325 Y-5.79059
G01 X-4.41386 Y-5.81304
G01 X-4.58605 Y-5.81287
G01 X-4.75668 Y-5.79041
G01 X-4.92288 Y-5.74589
G01 X-5.08190 Y-5.68000
G01 X-5.23093 Y-5.59397
G01 X-5.36748 Y-5.48919
G01 X-5.48919 Y-5.36748
G01 X-5.59397 Y-5.23093
G01 X-5.68000 Y-5.08190
G01 X-5.74589 Y-4.92288
G01 X-5.79041 Y-4.75668
G01 X-5.81287 Y-4.58605
G01 X-5.81287 Y-4.41391
G01 X-5.79041 Y-4.24327
G01 X-5.74589 Y-4.07706
G01 X-5.68000 Y-3.91805
G01 X-5.59394 Y-3.76898
G01 X-5.48919 Y-3.63245
G01 X-5.36750 Y-3.51076
G01 X-5.23095 Y-3.40599
G01 X-5.08188 Y-3.31986
G01 X-4.92293 Y-3.25407
G01 X-4.75666 Y-3.20954
G01 X-4.58605 Y-3.18709
G01 X-4.41391 Y-3.18691
G01 X-4.24325 Y-3.20937
G01 X-4.07700 Y-3.25392
G01 X-3.91798 Y-3.31981
G01 X-3.76890 Y-3.40586
G01 X-3.63233 Y-3.51066
G01 X-3.51064 Y-3.63235
G01 X-3.40586 Y-3.76890
G01 X-3.31978 Y-3.91798
G01 X-3.25392 Y-4.07698
G01 X-3.20937 Y-4.24325
G01 X-3.18691 Y-4.41391
G01 X-3.18691 Y-4.58605
G01 X-3.11013 Y-4.59108
G01 X-3.13388 Y-4.77169
G01 X-3.18099 Y-4.94772
G01 X-3.25074 Y-5.11599
G01 X-3.34188 Y-5.27380
G01 X-3.45277 Y-5.41835
G01 X-3.58158 Y-5.54718
G01 X-3.72613 Y-5.65808
G01 X-3.88394 Y-5.74919
G01 X-4.05227 Y-5.81891
G01 X-4.22824 Y-5.86608
G01 X-4.40883 Y-5.88983
G01 X-4.59108 Y-5.88968
G01 X-4.77169 Y-5.86590
G01 X-4.94762 Y-5.81876
G01 X-5.11594 Y-5.74904
G01 X-5.27370 Y-5.65795
G01 X-5.41823 Y-5.54706
G01 X-5.54706 Y-5.41823
G01 X-5.65795 Y-5.27370
G01 X-5.74904 Y-5.11594
G01 X-5.81876 Y-4.94762
G01 X-5.86590 Y-4.77169
G01 X-5.88968 Y-4.59108
G01 X-5.88968 Y-4.40888
G01 X-5.86590 Y-4.22826
G01 X-5.81876 Y-4.05232
G01 X-5.74904 Y-3.88402
G01 X-5.65795 Y-3.72623
G01 X-5.54706 Y-3.58170
G01 X-5.41825 Y-3.45290
G01 X-5.27370 Y-3.34200
G01 X-5.11592 Y-3.25084
G01 X-4.94767 Y-3.18120
G01 X-4.77167 Y-3.13406
G01 X-4.59108 Y-3.11028
G01 X-4.40888 Y-3.11013
G01 X-4.22824 Y-3.13388
G01 X-4.05227 Y-3.18099
G01 X-3.88394 Y-3.25077
G01 X-3.72613 Y-3.34188
G01 X-3.58158 Y-3.45277
G01 X-3.45277 Y-3.58160
G01 X-3.34185 Y-3.72615
G01 X-3.25074 Y-3.88394
G01 X-3.18099 Y-4.05224
G01 X-3.13388 Y-4.22824
G01 X-3.11013 Y-4.40888
G01 X-3.11013 Y-4.59108
G01 X-3.03332 Y-4.59610
G01 X-3.05841 Y-4.78673
G01 X-3.10817 Y-4.97246
G01 X-3.18168 Y-5.15003
G01 X-3.27787 Y-5.31655
G01 X-3.39491 Y-5.46910
G01 X-3.53085 Y-5.60504
G01 X-3.68338 Y-5.72209
G01 X-3.84990 Y-5.81820
G01 X-4.02753 Y-5.89178
G01 X-4.21322 Y-5.94157
G01 X-4.40380 Y-5.96664
G01 X-4.59610 Y-5.96649
G01 X-4.78671 Y-5.94139
G01 X-4.97235 Y-5.89163
G01 X-5.14998 Y-5.81807
G01 X-5.31645 Y-5.72196
G01 X-5.46898 Y-5.60492
G01 X-5.60492 Y-5.46898
G01 X-5.72196 Y-5.31645
G01 X-5.81807 Y-5.14998
G01 X-5.89163 Y-4.97235
G01 X-5.94139 Y-4.78671
G01 X-5.96649 Y-4.59610
G01 X-5.96649 Y-4.40385
G01 X-5.94139 Y-4.21325
G01 X-5.89163 Y-4.02758
G01 X-5.81807 Y-3.84995
G01 X-5.72193 Y-3.68346
G01 X-5.60492 Y-3.53096
G01 X-5.46900 Y-3.39504
G01 X-5.31647 Y-3.27802
G01 X-5.14995 Y-3.18181
G01 X-4.97241 Y-3.10832
G01 X-4.78668 Y-3.05857
G01 X-4.59610 Y-3.03347
G01 X-4.40383 Y-3.03332
G01 X-4.21322 Y-3.05841
G01 X-4.02753 Y-3.10817
G01 X-3.84990 Y-3.18171
G01 X-3.68338 Y-3.27787
G01 X-3.53085 Y-3.39491
G01 X-3.39489 Y-3.53085
G01 X-3.27787 Y-3.68338
G01 X-3.18168 Y-3.84990
G01 X-3.10817 Y-4.02750
G01 X-3.05841 Y-4.21322
G01 X-3.03332 Y-4.40383
G01 X-3.03332 Y-4.59610
G01 X-2.95651 Y-4.60116
G01 X-2.98293 Y-4.80174
G01 X-3.03530 Y-4.99720
G01 X-3.11269 Y-5.18406
G01 X-3.21389 Y-5.35932
G01 X-3.33705 Y-5.51985
G01 X-3.48010 Y-5.66290
G01 X-3.64061 Y-5.78607
G01 X-3.81584 Y-5.88724
G01 X-4.00279 Y-5.96468
G01 X-4.19821 Y-6.01703
G01 X-4.39877 Y-6.04345
G01 X-4.60113 Y-6.04327
G01 X-4.80172 Y-6.01688
G01 X-4.99709 Y-5.96453
G01 X-5.18404 Y-5.88708
G01 X-5.35922 Y-5.78594
G01 X-5.51972 Y-5.66278
G01 X-5.66278 Y-5.51972
G01 X-5.78594 Y-5.35922
G01 X-5.88708 Y-5.18404
G01 X-5.96453 Y-4.99709
G01 X-6.01688 Y-4.80172
G01 X-6.04327 Y-4.60113
G01 X-6.04327 Y-4.39882
G01 X-6.01688 Y-4.19824
G01 X-5.96453 Y-4.00284
G01 X-5.88708 Y-3.81592
G01 X-5.78594 Y-3.64071
G01 X-5.66278 Y-3.48021
G01 X-5.51972 Y-3.33715
G01 X-5.35922 Y-3.21401
G01 X-5.18401 Y-3.11285
G01 X-4.99715 Y-3.03545
G01 X-4.80169 Y-2.98308
G01 X-4.60113 Y-2.95669
G01 X-4.39880 Y-2.95651
G01 X-4.19821 Y-2.98293
G01 X-4.00279 Y-3.03527
G01 X-3.81584 Y-3.11272
G01 X-3.64061 Y-3.21389
G01 X-3.48010 Y-3.33705
G01 X-3.33703 Y-3.48013
G01 X-3.21389 Y-3.64063
G01 X-3.11269 Y-3.81584
G01 X-3.03530 Y-4.00276
G01 X-2.98293 Y-4.19821
G01 X-2.95651 Y-4.39880
G01 X-2.95651 Y-4.60116
G01 X-2.87973 Y-4.60619
G01 X-2.90744 Y-4.81675
G01 X-2.96240 Y-5.02194
G01 X-3.04366 Y-5.21813
G01 X-3.14988 Y-5.40207
G01 X-3.27917 Y-5.57058
G01 X-3.42936 Y-5.72077
G01 X-3.59786 Y-5.85008
G01 X-3.78181 Y-5.95627
G01 X-3.97805 Y-6.03755
G01 X-4.18320 Y-6.09252
G01 X-4.39374 Y-6.12023
G01 X-4.60616 Y-6.12008
G01 X-4.81673 Y-6.09237
G01 X-5.02183 Y-6.03740
G01 X-5.21807 Y-5.95612
G01 X-5.40197 Y-5.84992
G01 X-5.57047 Y-5.72064
G01 X-5.72064 Y-5.57047
G01 X-5.84992 Y-5.40197
G01 X-5.95612 Y-5.21807
G01 X-6.03740 Y-5.02183
G01 X-6.09237 Y-4.81673
G01 X-6.12008 Y-4.60616
G01 X-6.12008 Y-4.39379
G01 X-6.09237 Y-4.18323
G01 X-6.03740 Y-3.97810
G01 X-5.95612 Y-3.78188
G01 X-5.84992 Y-3.59796
G01 X-5.72064 Y-3.42946
G01 X-5.57047 Y-3.27929
G01 X-5.40197 Y-3.15003
G01 X-5.21805 Y-3.04381
G01 X-5.02188 Y-2.96255
G01 X-4.81670 Y-2.90759
G01 X-4.60616 Y-2.87988
G01 X-4.39377 Y-2.87973
G01 X-4.18318 Y-2.90744
G01 X-3.97805 Y-2.96240
G01 X-3.78181 Y-3.04368
G01 X-3.59786 Y-3.14988
G01 X-3.42936 Y-3.27919
G01 X-3.27917 Y-3.42938
G01 X-3.14988 Y-3.59786
G01 X-3.04366 Y-3.78181
G01 X-2.96240 Y-3.97802
G01 X-2.90744 Y-4.18318
G01 X-2.87973 Y-4.39377
G01 X-2.87973 Y-4.60619
G01 X-2.80292 Y-4.61122
G01 X-2.83195 Y-4.83177
G01 X-2.88953 Y-5.04668
G01 X-2.97464 Y-5.25216
G01 X-3.08590 Y-5.44482
G01 X-3.22125 Y-5.62132
G01 X-3.37861 Y-5.77863
G01 X-3.55511 Y-5.91406
G01 X-3.74777 Y-6.02529
G01 X-3.95331 Y-6.11043
G01 X-4.16819 Y-6.16801
G01 X-4.38874 Y-6.19704
G01 X-4.61119 Y-6.19686
G01 X-4.83174 Y-6.16786
G01 X-5.04657 Y-6.11027
G01 X-5.25211 Y-6.02513
G01 X-5.44474 Y-5.91393
G01 X-5.62122 Y-5.77850
G01 X-5.77850 Y-5.62122
G01 X-5.91393 Y-5.44474
G01 X-6.02513 Y-5.25211
G01 X-6.11027 Y-5.04657
G01 X-6.16786 Y-4.83174
G01 X-6.19686 Y-4.61119
G01 X-6.19686 Y-4.38876
G01 X-6.16786 Y-4.16822
G01 X-6.11027 Y-3.95336
G01 X-6.02513 Y-3.74785
G01 X-5.91393 Y-3.55519
G01 X-5.77850 Y-3.37871
G01 X-5.62122 Y-3.22143
G01 X-5.44474 Y-3.08602
G01 X-5.25208 Y-2.97480
G01 X-5.04662 Y-2.88968
G01 X-4.83171 Y-2.83210
G01 X-4.61119 Y-2.80309
G01 X-4.38874 Y-2.80292
G01 X-4.16817 Y-2.83195
G01 X-3.95331 Y-2.88953
G01 X-3.74777 Y-2.97467
G01 X-3.55511 Y-3.08590
G01 X-3.37861 Y-3.22128
G01 X-3.22125 Y-3.37863
G01 X-3.08590 Y-3.55511
G01 X-2.97464 Y-3.74777
G01 X-2.88953 Y-3.95328
G01 X-2.83195 Y-4.16817
G01 X-2.80292 Y-4.38874
G01 X-2.80292 Y-4.61122
G01 X-2.72628 Y-4.61622
G01 X-2.75661 Y-4.84673
G01 X-2.81681 Y-5.07136
G01 X-2.90576 Y-5.28612
G01 X-3.02204 Y-5.48749
G01 X-3.16357 Y-5.67197
G01 X-3.32796 Y-5.83636
G01 X-3.51244 Y-5.97792
G01 X-3.71381 Y-6.09417
G01 X-3.92862 Y-6.18315
G01 X-4.15320 Y-6.24335
G01 X-4.38371 Y-6.27367
G01 X-4.61622 Y-6.27367
G01 X-4.84675 Y-6.24335
G01 X-5.07131 Y-6.18315
G01 X-5.28615 Y-6.09417
G01 X-5.48749 Y-5.97792
G01 X-5.67197 Y-5.83636
G01 X-5.83636 Y-5.67197
G01 X-5.97792 Y-5.48749
G01 X-6.09417 Y-5.28615
G01 X-6.18315 Y-5.07131
G01 X-6.24335 Y-4.84675
G01 X-6.27367 Y-4.61622
G01 X-6.27367 Y-4.38374
G01 X-6.24335 Y-4.15320
G01 X-6.18315 Y-3.92862
G01 X-6.09417 Y-3.71381
G01 X-5.97792 Y-3.51244
G01 X-5.83636 Y-3.32796
G01 X-5.67197 Y-3.16357
G01 X-5.48749 Y-3.02204
G01 X-5.28612 Y-2.90576
G01 X-5.07136 Y-2.81681
G01 X-4.84673 Y-2.75661
G01 X-4.61622 Y-2.72628
G01 X-4.38374 Y-2.72628
G01 X-4.15320 Y-2.75661
G01 X-3.92862 Y-2.81681
G01 X-3.71381 Y-2.90579
G01 X-3.51244 Y-3.02204
G01 X-3.32796 Y-3.16360
G01 X-3.16357 Y-3.32798
G01 X-3.02204 Y-3.51244
G01 X-2.90576 Y-3.71381
G01 X-2.81681 Y-3.92859
G01 X-2.75661 Y-4.15320
G01 X-2.72628 Y-4.38374
G01 X-2.72628 Y-4.61622
( Mill infeed pass 2/2 )
G00 Z2.00000 ( retract )
G00 X-4.49268 Y-4.50050 ( rapid move to begin. )
G01 Z-0.10000
G04 P0 ( dwell for no time -- G64 should not smooth over this point )
G01 F120.00000
G01 X-4.49268 Y-4.50050
G01 X-4.50052 Y-4.50728
G01 X-4.50728 Y-4.49943
G01 X-4.49943 Y-4.49268
G01 X-4.49268 Y-4.50050
G01 X-4.41587 Y-4.50553
G01 X-4.42432 Y-4.53720
G01 X-4.41866 Y-4.54000
G01 X-4.42432 Y-4.53720
G01 X-4.44436 Y-4.56334
G01 X-4.47291 Y-4.57982
G01 X-4.47088 Y-4.58582
G01 X-4.47291 Y-4.57982
G01 X-4.50555 Y-4.58409
G01 X-4.53725 Y-4.57558
G01 X-4.54005 Y-4.58127
G01 X-4.53725 Y-4.57558
G01 X-4.56334 Y-4.55557
G01 X-4.57982 Y-4.52702
G01 X-4.58582 Y-4.52907
G01 X-4.57982 Y-4.52702
G01 X-4.58409 Y-4.49440
G01 X-4.57558 Y-4.46270
G01 X-4.58125 Y-4.45991
G01 X-4.57558 Y-4.46270
G01 X-4.55562 Y-4.43664
G01 X-4.52712 Y-4.42016
G01 X-4.52915 Y-4.41416
G01 X-4.52712 Y-4.42016
G01 X-4.49440 Y-4.41587
G01 X-4.46270 Y-4.42438
G01 X-4.45991 Y-4.41869
G01 X-4.46270 Y-4.42438
G01 X-4.43659 Y-4.44439
G01 X-4.42016 Y-4.47284
G01 X-4.41416 Y-4.47081
G01 X-4.42016 Y-4.47284
G01 X-4.41587 Y-4.50553
G01 X-4.33906 Y-4.51056
G01 X-4.34035 Y-4.53177
G01 X-4.36466 Y-4.59041
G01 X-4.40952 Y-4.63530
G01 X-4.46824 Y-4.65963
G01 X-4.53177 Y-4.65963
G01 X-4.59039 Y-4.63532
G01 X-4.63532 Y-4.59039
G01 X-4.65963 Y-4.53177
G01 X-4.65960 Y-4.46816
G01 X-4.63530 Y-4.40952
G01 X-4.59041 Y-4.36466
G01 X-4.53177 Y-4.34035
G01 X-4.46816 Y-4.34035
G01 X-4.40952 Y-4.36466
G01 X-4.36461 Y-4.40957
G01 X-4.34035 Y-4.46816
G01 X-4.33906 Y-4.51056
G01 X-4.26227 Y-4.51559
G01 X-4.27297 Y-4.57708
G01 X-4.28628 Y-4.60530
G01 X-4.31978 Y-4.65808
G01 X-4.34289 Y-4.67909
G01 X-4.39395 Y-4.71498
G01 X-4.45351 Y-4.73365
G01 X-4.48419 Y-4.73918
G01 X-4.51561 Y-4.73768
G01 X-4.57700 Y-4.72702
G01 X-4.63230 Y-4.69806
G01 X-4.65803 Y-4.68020
G01 X-4.67909 Y-4.65704
G01 X-4.71500 Y-4.60599
G01 X-4.73362 Y-4.54647
G01 X-4.73918 Y-4.51571
G01 X-4.73768 Y-4.48434
G01 X-4.72702 Y-4.42295
G01 X-4.71363 Y-4.39461
G01 X-4.68020 Y-4.34188
G01 X-4.63232 Y-4.30190
G01 X-4.60596 Y-4.28493
G01 X-4.54647 Y-4.26634
G01 X-4.51569 Y-4.26077
G01 X-4.48434 Y-4.26227
G01 X-4.42295 Y-4.27294
G01 X-4.39461 Y-4.28633
G01 X-4.34190 Y-4.31975
G01 X-4.30187 Y-4.36763
G01 X-4.28495 Y-4.39395
G01 X-4.26634 Y-4.45346
G01 X-4.26077 Y-4.48424
G01 X-4.26227 Y-4.51559
G01 X-4.18546 Y-4.52064
G01 X-4.18937 Y-4.56179
G01 X-4.20152 Y-4.60134
G01 X-4.23667 Y-4.67594
G01 X-4.26303 Y-4.70784
G01 X-4.32399 Y-4.76329
G01 X-4.39870 Y-4.79847
G01 X-4.43819 Y-4.81061
G01 X-4.52064 Y-4.81449
G01 X-4.56179 Y-4.81058
G01 X-4.60126 Y-4.79847
G01 X-4.67589 Y-4.76331
G01 X-4.70779 Y-4.73695
G01 X-4.76331 Y-4.67589
G01 X-4.79847 Y-4.60126
G01 X-4.81058 Y-4.56179
G01 X-4.81449 Y-4.52064
G01 X-4.81058 Y-4.43814
G01 X-4.79847 Y-4.39870
G01 X-4.76329 Y-4.32399
G01 X-4.70784 Y-4.26303
G01 X-4.67594 Y-4.23667
G01 X-4.60134 Y-4.20152
G01 X-4.56179 Y-4.18937
G01 X-4.52064 Y-4.18546
G01 X-4.43814 Y-4.18937
G01 X-4.39870 Y-4.20149
G01 X-4.32399 Y-4.23667
G01 X-4.26301 Y-4.29214
G01 X-4.23664 Y-4.32405
G01 X-4.20152 Y-4.39862
G01 X-4.18937 Y-4.43814
G01 X-4.18546 Y-4.52064
G01 X-4.10868 Y-4.52567
G01 X-4.11536 Y-4.57652
G01 X-4.12864 Y-4.62608
G01 X-4.14688 Y-4.67403
G01 X-4.17391 Y-4.71785
G01 X-4.20517 Y-4.75859
G01 X-4.24040 Y-4.79595
G01 X-4.28208 Y-4.82603
G01 X-4.32653 Y-4.85170
G01 X-4.37347 Y-4.87276
G01 X-4.42349 Y-4.88460
G01 X-4.47421 Y-4.89128
G01 X-4.52577 Y-4.89278
G01 X-4.57650 Y-4.88460
G01 X-4.62600 Y-4.87134
G01 X-4.67408 Y-4.85305
G01 X-4.71782 Y-4.82605
G01 X-4.75854 Y-4.79481
G01 X-4.79595 Y-4.75953
G01 X-4.82605 Y-4.71782
G01 X-4.85170 Y-4.67342
G01 X-4.87276 Y-4.62648
G01 X-4.88460 Y-4.57650
G01 X-4.89128 Y-4.52567
G01 X-4.89278 Y-4.47418
G01 X-4.88460 Y-4.42344
G01 X-4.87134 Y-4.37396
G01 X-4.85305 Y-4.32587
G01 X-4.82603 Y-4.28208
G01 X-4.79481 Y-4.24139
G01 X-4.75958 Y-4.20403
G01 X-4.71785 Y-4.17391
G01 X-4.67337 Y-4.14823
G01 X-4.62656 Y-4.12722
G01 X-4.57652 Y-4.11536
G01 X-4.52567 Y-4.10868
G01 X-4.47418 Y-4.10718
G01 X-4.42344 Y-4.11536
G01 X-4.37396 Y-4.12862
G01 X-4.32587 Y-4.14691
G01 X-4.28208 Y-4.17393
G01 X-4.24139 Y-4.20515
G01 X-4.20400 Y-4.24040
G01 X-4.17391 Y-4.28211
G01 X-4.14825 Y-4.32653
G01 X-4.12722 Y-4.37340
G01 X-4.11536 Y-4.42344
G01 X-4.10868 Y-4.47429
G01 X-4.10868 Y-4.52567
G01 X-4.03187 Y-4.53070
G01 X-4.03840 Y-4.59181
G01 X-4.05577 Y-4.65082
G01 X-4.07921 Y-4.70741
G01 X-4.10868 Y-4.76143
G01 X-4.14729 Y-4.80934
G01 X-4.19064 Y-4.85267
G01 X-4.23850 Y-4.89128
G01 X-4.29250 Y-4.92072
G01 X-4.34922 Y-4.94421
G01 X-4.40817 Y-4.96156
G01 X-4.46918 Y-4.96809
G01 X-4.53070 Y-4.96809
G01 X-4.59181 Y-4.96156
G01 X-4.65074 Y-4.94421
G01 X-4.70746 Y-4.92072
G01 X-4.76141 Y-4.89130
G01 X-4.80929 Y-4.85267
G01 X-4.85267 Y-4.80929
G01 X-4.89130 Y-4.76141
G01 X-4.92072 Y-4.70746
G01 X-4.94421 Y-4.65074
G01 X-4.96156 Y-4.59181
G01 X-4.96809 Y-4.53070
G01 X-4.96809 Y-4.46926
G01 X-4.96156 Y-4.40812
G01 X-4.94421 Y-4.34922
G01 X-4.92072 Y-4.29250
G01 X-4.89128 Y-4.23850
G01 X-4.85267 Y-4.19064
G01 X-4.80934 Y-4.14729
G01 X-4.76143 Y-4.10868
G01 X-4.70741 Y-4.07921
G01 X-4.65082 Y-4.05577
G01 X-4.59181 Y-4.03840
G01 X-4.53070 Y-4.03187
G01 X-4.46926 Y-4.03187
G01 X-4.40812 Y-4.03840
G01 X-4.34922 Y-4.05574
G01 X-4.29250 Y-4.07924
G01 X-4.23850 Y-4.10868
G01 X-4.19064 Y-4.14729
G01 X-4.14726 Y-4.19067
G01 X-4.10865 Y-4.23852
G01 X-4.07921 Y-4.29250
G01 X-4.05577 Y-4.34914
G01 X-4.03840 Y-4.40812
G01 X-4.03187 Y-4.46926
G01 X-4.03187 Y-4.53070
G01 X-3.95506 Y-4.53573
G01 X-3.96291 Y-4.60682
G01 X-3.98287 Y-4.67553
G01 X-4.01018 Y-4.74144
G01 X-4.04467 Y-4.80421
G01 X-4.08943 Y-4.86006
G01 X-4.13990 Y-4.91053
G01 X-4.19572 Y-4.95526
G01 X-4.25846 Y-4.98975
G01 X-4.32448 Y-5.01708
G01 X-4.39316 Y-5.03705
G01 X-4.46415 Y-5.04490
G01 X-4.53573 Y-5.04490
G01 X-4.60682 Y-5.03705
G01 X-4.67548 Y-5.01708
G01 X-4.74149 Y-4.98975
G01 X-4.80418 Y-4.95529
G01 X-4.86004 Y-4.91053
G01 X-4.91053 Y-4.86004
G01 X-4.95529 Y-4.80418
G01 X-4.98975 Y-4.74149
G01 X-5.01708 Y-4.67548
G01 X-5.03705 Y-4.60682
G01 X-5.04490 Y-4.53573
G01 X-5.04490 Y-4.46423
G01 X-5.03705 Y-4.39311
G01 X-5.01708 Y-4.32448
G01 X-4.98975 Y-4.25846
G01 X-4.95526 Y-4.19572
G01 X-4.91053 Y-4.13990
G01 X-4.86006 Y-4.08943
G01 X-4.80421 Y-4.04467
G01 X-4.74144 Y-4.01018
G01 X-4.67553 Y-3.98287
G01 X-4.60682 Y-3.96291
G01 X-4.53573 Y-3.95506
G01 X-4.46423 Y-3.95506
G01 X-4.39311 Y-3.96291
G01 X-4.32448 Y-3.98287
G01 X-4.25846 Y-4.01020
G01 X-4.19572 Y-4.04470
G01 X-4.13990 Y-4.08943
G01 X-4.08940 Y-4.13992
G01 X-4.04467 Y-4.19578
G01 X-4.01020 Y-4.25846
G01 X-3.98287 Y-4.32440
G01 X-3.96291 Y-4.39311
G01 X-3.95506 Y-4.46423
G01 X-3.95506 Y-4.53573
G01 X-3.87828 Y-4.54076
G01 X-3.88826 Y-4.62168
G01 X-3.91000 Y-4.70027
G01 X-3.94081 Y-4.77566
G01 X-3.98181 Y-4.84622
G01 X-4.03128 Y-4.91106
G01 X-4.08915 Y-4.96839
G01 X-4.15343 Y-5.01856
G01 X-4.22440 Y-5.05877
G01 X-4.29958 Y-5.09031
G01 X-4.37838 Y-5.11142
G01 X-4.45912 Y-5.12168
G01 X-4.54078 Y-5.12206
G01 X-4.62163 Y-5.11142
G01 X-4.70022 Y-5.08998
G01 X-4.77568 Y-5.05912
G01 X-4.84609 Y-5.01802
G01 X-4.91104 Y-4.96867
G01 X-4.96839 Y-4.91079
G01 X-5.01833 Y-4.84632
G01 X-5.05912 Y-4.77568
G01 X-5.08998 Y-4.70022
G01 X-5.11170 Y-4.62168
G01 X-5.12168 Y-4.54076
G01 X-5.12206 Y-4.45917
G01 X-5.11142 Y-4.37830
G01 X-5.08998 Y-4.29974
G01 X-5.05912 Y-4.22425
G01 X-5.01830 Y-4.15359
G01 X-4.96839 Y-4.08915
G01 X-4.91106 Y-4.03128
G01 X-4.84612 Y-3.98193
G01 X-4.77566 Y-3.94081
G01 X-4.70027 Y-3.91000
G01 X-4.62168 Y-3.88826
G01 X-4.54076 Y-3.87828
G01 X-4.45917 Y-3.87789
G01 X-4.37830 Y-3.88854
G01 X-4.29974 Y-3.90997
G01 X-4.22425 Y-3.94084
G01 X-4.15359 Y-3.98165
G01 X-4.08915 Y-4.03156
G01 X-4.03126 Y-4.08892
G01 X-3.98178 Y-4.15374
G01 X-3.94084 Y-4.22425
G01 X-3.91000 Y-4.29966
G01 X-3.88854 Y-4.37830
G01 X-3.87789 Y-4.45917
G01 X-3.87828 Y-4.54076
G01 X-3.80147 Y-4.54579
G01 X-3.81305 Y-4.63664
G01 X-3.83713 Y-4.72501
G01 X-3.87154 Y-4.80982
G01 X-3.91795 Y-4.88889
G01 X-3.97342 Y-4.96179
G01 X-4.03830 Y-5.02638
G01 X-4.11086 Y-5.08231
G01 X-4.19036 Y-5.12780
G01 X-4.27477 Y-5.16349
G01 X-4.36342 Y-5.18655
G01 X-4.45404 Y-5.19885
G01 X-4.54579 Y-5.19849
G01 X-4.63664 Y-5.18691
G01 X-4.72496 Y-5.16285
G01 X-4.80987 Y-5.12839
G01 X-4.88887 Y-5.08203
G01 X-4.96176 Y-5.02656
G01 X-5.02656 Y-4.96176
G01 X-5.08203 Y-4.88887
G01 X-5.12813 Y-4.80974
G01 X-5.16321 Y-4.72506
G01 X-5.18653 Y-4.63657
G01 X-5.19885 Y-4.54584
G01 X-5.19849 Y-4.45417
G01 X-5.18691 Y-4.36329
G01 X-5.16285 Y-4.27497
G01 X-5.12813 Y-4.19021
G01 X-5.08231 Y-4.11084
G01 X-5.02628 Y-4.03840
G01 X-4.96199 Y-3.97320
G01 X-4.88889 Y-3.91795
G01 X-4.80972 Y-3.87180
G01 X-4.72501 Y-3.83713
G01 X-4.63662 Y-3.81305
G01 X-4.54579 Y-3.80147
G01 X-4.45414 Y-3.80111
G01 X-4.36329 Y-3.81305
G01 X-4.27497 Y-3.83710
G01 X-4.19021 Y-3.87182
G01 X-4.11084 Y-3.91765
G01 X-4.03840 Y-3.97368
G01 X-3.97317 Y-4.03799
G01 X-3.91792 Y-4.11109
G01 X-3.87182 Y-4.19019
G01 X-3.83697 Y-4.27487
G01 X-3.81305 Y-4.36331
G01 X-3.80147 Y-4.45417
G01 X-3.80147 Y-4.54579
G01 X-3.72468 Y-4.55084
G01 X-3.73756 Y-4.65165
G01 X-3.76423 Y-4.74975
G01 X-3.80251 Y-4.84388
G01 X-3.85394 Y-4.93164
G01 X-3.91554 Y-5.01254
G01 X-3.98755 Y-5.08427
G01 X-4.06809 Y-5.14632
G01 X-4.15633 Y-5.19681
G01 X-4.25003 Y-5.23636
G01 X-4.34840 Y-5.26204
G01 X-4.44901 Y-5.27566
G01 X-4.55082 Y-5.27528
G01 X-4.65165 Y-5.26240
G01 X-4.74970 Y-5.23573
G01 X-4.84391 Y-5.19742
G01 X-4.93161 Y-5.14601
G01 X-5.01251 Y-5.08442
G01 X-5.08442 Y-5.01251
G01 X-5.14601 Y-4.93161
G01 X-5.19714 Y-4.84381
G01 X-5.23573 Y-4.74970
G01 X-5.26240 Y-4.65163
G01 X-5.27528 Y-4.55082
G01 X-5.27566 Y-4.44911
G01 X-5.26240 Y-4.34828
G01 X-5.23573 Y-4.25023
G01 X-5.19717 Y-4.15618
G01 X-5.14629 Y-4.06806
G01 X-5.08414 Y-3.98767
G01 X-5.01274 Y-3.91533
G01 X-4.93164 Y-3.85394
G01 X-4.84375 Y-3.80279
G01 X-4.74975 Y-3.76423
G01 X-4.65163 Y-3.73756
G01 X-4.55082 Y-3.72468
G01 X-4.44911 Y-3.72430
G01 X-4.34828 Y-3.73756
G01 X-4.25023 Y-3.76423
G01 X-4.15618 Y-3.80279
G01 X-4.06806 Y-3.85366
G01 X-3.98767 Y-3.91582
G01 X-3.91531 Y-3.98724
G01 X-3.85394 Y-4.06832
G01 X-3.80279 Y-4.15615
G01 X-3.76408 Y-4.25013
G01 X-3.73756 Y-4.34830
G01 X-3.72468 Y-4.44914
G01 X-3.72468 Y-4.55084
G01 X-3.64787 Y-4.55587
G01 X-3.66210 Y-4.66667
G01 X-3.69136 Y-4.77449
G01 X-3.73347 Y-4.87792
G01 X-3.78996 Y-4.97439
G01 X-3.85768 Y-5.06329
G01 X-3.93680 Y-5.14213
G01 X-4.02534 Y-5.21030
G01 X-4.12229 Y-5.26585
G01 X-4.22529 Y-5.30923
G01 X-4.33339 Y-5.33751
G01 X-4.44398 Y-5.35244
G01 X-4.55585 Y-5.35208
G01 X-4.66667 Y-5.33786
G01 X-4.77444 Y-5.30860
G01 X-4.87794 Y-5.26644
G01 X-4.97439 Y-5.21000
G01 X-5.06326 Y-5.14228
G01 X-5.14228 Y-5.06326
G01 X-5.21000 Y-4.97439
G01 X-5.26618 Y-4.87784
G01 X-5.30860 Y-4.77444
G01 X-5.33789 Y-4.66664
G01 X-5.35208 Y-4.55585
G01 X-5.35244 Y-4.44409
G01 X-5.33786 Y-4.33327
G01 X-5.30860 Y-4.22549
G01 X-5.26618 Y-4.12214
G01 X-5.21030 Y-4.02532
G01 X-5.14200 Y-3.93692
G01 X-5.06349 Y-3.85747
G01 X-4.97439 Y-3.78996
G01 X-4.87779 Y-3.73375
G01 X-4.77449 Y-3.69136
G01 X-4.66664 Y-3.66207
G01 X-4.55585 Y-3.64787
G01 X-4.44409 Y-3.64752
G01 X-4.33327 Y-3.66210
G01 X-4.22549 Y-3.69136
G01 X-4.12214 Y-3.73377
G01 X-4.02532 Y-3.78965
G01 X-3.93692 Y-3.85796
G01 X-3.85745 Y-3.93649
G01 X-3.78993 Y-4.02557
G01 X-3.73375 Y-4.12212
G01 X-3.69120 Y-4.22539
G01 X-3.66207 Y-4.33329
G01 X-3.64787 Y-4.44411
G01 X-3.64787 Y-4.55587
G01 X-3.57109 Y-4.56087
G01 X-3.58661 Y-4.68165
G01 X-3.61833 Y-4.79928
G01 X-3.66471 Y-4.91185
G01 X-3.72598 Y-5.01716
G01 X-3.79961 Y-5.11421
G01 X-3.88617 Y-5.19986
G01 X-3.98257 Y-5.27428
G01 X-4.08818 Y-5.33502
G01 X-4.20065 Y-5.38185
G01 X-4.31836 Y-5.41299
G01 X-4.43893 Y-5.42925
G01 X-4.56093 Y-5.42925
G01 X-4.68160 Y-5.41299
G01 X-4.79928 Y-5.38185
G01 X-4.91188 Y-5.33519
G01 X-5.01713 Y-5.27401
G01 X-5.11399 Y-5.20014
G01 X-5.20014 Y-5.11399
G01 X-5.27401 Y-5.01713
G01 X-5.33547 Y-4.91200
G01 X-5.38150 Y-4.79918
G01 X-5.41335 Y-4.68168
G01 X-5.42925 Y-4.56090
G01 X-5.42887 Y-4.43906
G01 X-5.41335 Y-4.31828
G01 X-5.38183 Y-4.20063
G01 X-5.33489 Y-4.08826
G01 X-5.27431 Y-3.98257
G01 X-5.19986 Y-3.88617
G01 X-5.11401 Y-3.79981
G01 X-5.01716 Y-3.72598
G01 X-4.91195 Y-3.66446
G01 X-4.79923 Y-3.61848
G01 X-4.68168 Y-3.58661
G01 X-4.56090 Y-3.57071
G01 X-4.43906 Y-3.57109
G01 X-4.31828 Y-3.58661
G01 X-4.20063 Y-3.61813
G01 X-4.08826 Y-3.66507
G01 X-3.98257 Y-3.72565
G01 X-3.88607 Y-3.79997
G01 X-3.79979 Y-3.88595
G01 X-3.72595 Y-3.98280
G01 X-3.66446 Y-4.08795
G01 X-3.61848 Y-4.20073
G01 X-3.58661 Y-4.31825
G01 X-3.57071 Y-4.43906
G01 X-3.57109 Y-4.56087
G01 X-3.49428 Y-4.56590
G01 X-3.51112 Y-4.69666
G01 X-3.54543 Y-4.82402
G01 X-3.59570 Y-4.94589
G01 X-3.66197 Y-5.05991
G01 X-3.74172 Y-5.16496
G01 X-3.83543 Y-5.25772
G01 X-3.93979 Y-5.33829
G01 X-4.05414 Y-5.40405
G01 X-4.17591 Y-5.45473
G01 X-4.30334 Y-5.48848
G01 X-4.43393 Y-5.50606
G01 X-4.56595 Y-5.50606
G01 X-4.69661 Y-5.48848
G01 X-4.82402 Y-5.45473
G01 X-4.94591 Y-5.40423
G01 X-5.05991 Y-5.33799
G01 X-5.16473 Y-5.25800
G01 X-5.25800 Y-5.16473
G01 X-5.33799 Y-5.05991
G01 X-5.40451 Y-4.94604
G01 X-5.45437 Y-4.82392
G01 X-5.48884 Y-4.69671
G01 X-5.50606 Y-4.56593
G01 X-5.50568 Y-4.43403
G01 X-5.48884 Y-4.30327
G01 X-5.45473 Y-4.17589
G01 X-5.40390 Y-4.05422
G01 X-5.33829 Y-3.93982
G01 X-5.25772 Y-3.83543
G01 X-5.16476 Y-3.74195
G01 X-5.05991 Y-3.66197
G01 X-4.94599 Y-3.59542
G01 X-4.82397 Y-3.54561
G01 X-4.69669 Y-3.51112
G01 X-4.56593 Y-3.49390
G01 X-4.43403 Y-3.49428
G01 X-4.30327 Y-3.51112
G01 X-4.17589 Y-3.54523
G01 X-4.05422 Y-3.59606
G01 X-3.93982 Y-3.66166
G01 X-3.83532 Y-3.74211
G01 X-3.74193 Y-3.83520
G01 X-3.66197 Y-3.94005
G01 X-3.59545 Y-4.05392
G01 X-3.54561 Y-4.17599
G01 X-3.51112 Y-4.30324
G01 X-3.49390 Y-4.43403
G01 X-3.49428 Y-4.56590
G01 X-3.41747 Y-4.57096
G01 X-3.43563 Y-4.71167
G01 X-3.47256 Y-4.84876
G01 X-3.52666 Y-4.97992
G01 X-3.59799 Y-5.10268
G01 X-3.68386 Y-5.21571
G01 X-3.78468 Y-5.31558
G01 X-3.89705 Y-5.40228
G01 X-4.02008 Y-5.47309
G01 X-4.15117 Y-5.52760
G01 X-4.28833 Y-5.56397
G01 X-4.42890 Y-5.58315
G01 X-4.57096 Y-5.58249
G01 X-4.71170 Y-5.56433
G01 X-4.84866 Y-5.52724
G01 X-4.97995 Y-5.47327
G01 X-5.10266 Y-5.40200
G01 X-5.21548 Y-5.31586
G01 X-5.31586 Y-5.21548
G01 X-5.40200 Y-5.10266
G01 X-5.47352 Y-4.98008
G01 X-5.52724 Y-4.84866
G01 X-5.56433 Y-4.71173
G01 X-5.58284 Y-4.57096
G01 X-5.58249 Y-4.42900
G01 X-5.56433 Y-4.28826
G01 X-5.52760 Y-4.15115
G01 X-5.47294 Y-4.02016
G01 X-5.40230 Y-3.89707
G01 X-5.31558 Y-3.78468
G01 X-5.21551 Y-3.68407
G01 X-5.10268 Y-3.59799
G01 X-4.98005 Y-3.52641
G01 X-4.84871 Y-3.47271
G01 X-4.71170 Y-3.43563
G01 X-4.57096 Y-3.41711
G01 X-4.42900 Y-3.41747
G01 X-4.28826 Y-3.43563
G01 X-4.15115 Y-3.47236
G01 X-4.02016 Y-3.52702
G01 X-3.89707 Y-3.59766
G01 X-3.78457 Y-3.68424
G01 X-3.68407 Y-3.78447
G01 X-3.59796 Y-3.89727
G01 X-3.52641 Y-4.01988
G01 X-3.47271 Y-4.15125
G01 X-3.43563 Y-4.28823
G01 X-3.41711 Y-4.42900
G01 X-3.41747 Y-4.57096
G01 X-3.34068 Y-4.57599
G01 X-3.36014 Y-4.72669
G01 X-3.39969 Y-4.87350
G01 X-3.45765 Y-5.01396
G01 X-3.53398 Y-5.14543
G01 X-3.62600 Y-5.26646
G01 X-3.73393 Y-5.37345
G01 X-3.85427 Y-5.46626
G01 X-3.98605 Y-5.54210
G01 X-4.12643 Y-5.60047
G01 X-4.27332 Y-5.63946
G01 X-4.42387 Y-5.65993
G01 X-4.57599 Y-5.65927
G01 X-4.72671 Y-5.63982
G01 X-4.87340 Y-5.60012
G01 X-5.01401 Y-5.54228
G01 X-5.14541 Y-5.46598
G01 X-5.26623 Y-5.37375
G01 X-5.37375 Y-5.26623
G01 X-5.46598 Y-5.14541
G01 X-5.54256 Y-5.01411
G01 X-5.60012 Y-4.87340
G01 X-5.63982 Y-4.72674
G01 X-5.65965 Y-4.57599
G01 X-5.65927 Y-4.42397
G01 X-5.63982 Y-4.27325
G01 X-5.60047 Y-4.12641
G01 X-5.54195 Y-3.98612
G01 X-5.46628 Y-3.85430
G01 X-5.37345 Y-3.73393
G01 X-5.26626 Y-3.62621
G01 X-5.14543 Y-3.53398
G01 X-5.01409 Y-3.45737
G01 X-4.87345 Y-3.39984
G01 X-4.72671 Y-3.36014
G01 X-4.57599 Y-3.34030
G01 X-4.42397 Y-3.34068
G01 X-4.27325 Y-3.36014
G01 X-4.12641 Y-3.39949
G01 X-3.98612 Y-3.45801
G01 X-3.85430 Y-3.53367
G01 X-3.73383 Y-3.62638
G01 X-3.62621 Y-3.73372
G01 X-3.53398 Y-3.85453
G01 X-3.45737 Y-3.98584
G01 X-3.39984 Y-4.12651
G01 X-3.36014 Y-4.27322
G01 X-3.34030 Y-4.42397
G01 X-3.34068 Y-4.57599
G01 X-3.26372 Y-4.58102
G01 X-3.28485 Y-4.74167
G01 X-3.32682 Y-4.89824
G01 X-3.38879 Y-5.04789
G01 X-3.46984 Y-5.18828
G01 X-3.56850 Y-5.31688
G01 X-3.68308 Y-5.43143
G01 X-3.81165 Y-5.53009
G01 X-3.95201 Y-5.61114
G01 X-4.10174 Y-5.67317
G01 X-4.25828 Y-5.71510
G01 X-4.41886 Y-5.73623
G01 X-4.58102 Y-5.73608
G01 X-4.74167 Y-5.71495
G01 X-4.89814 Y-5.67301
G01 X-5.04787 Y-5.61099
G01 X-5.18818 Y-5.52996
G01 X-5.31675 Y-5.43131
G01 X-5.43131 Y-5.31675
G01 X-5.52996 Y-5.18818
G01 X-5.61099 Y-5.04787
G01 X-5.67301 Y-4.89814
G01 X-5.71495 Y-4.74167
G01 X-5.73608 Y-4.58102
G01 X-5.73608 Y-4.41894
G01 X-5.71492 Y-4.25828
G01 X-5.67301 Y-4.10180
G01 X-5.61099 Y-3.95209
G01 X-5.52996 Y-3.81175
G01 X-5.43131 Y-3.68318
G01 X-5.31675 Y-3.56862
G01 X-5.18818 Y-3.47000
G01 X-5.04784 Y-3.38894
G01 X-4.89819 Y-3.32692
G01 X-4.74165 Y-3.28503
G01 X-4.58102 Y-3.26387
G01 X-4.41894 Y-3.26372
G01 X-4.25826 Y-3.28485
G01 X-4.10174 Y-3.32679
G01 X-3.95201 Y-3.38882
G01 X-3.81165 Y-3.46987
G01 X-3.68308 Y-3.56852
G01 X-3.56850 Y-3.68310
G01 X-3.46984 Y-3.81168
G01 X-3.38879 Y-3.95201
G01 X-3.32682 Y-4.10172
G01 X-3.28485 Y-4.25826
G01 X-3.26372 Y-4.41894
G01 X-3.26372 Y-4.58102
G01 X-3.18691 Y-4.58605
G01 X-3.20937 Y-4.75668
G01 X-3.25392 Y-4.92298
G01 X-3.31978 Y-5.08196
G01 X-3.40586 Y-5.23103
G01 X-3.51064 Y-5.36760
G01 X-3.63233 Y-5.48930
G01 X-3.76890 Y-5.59410
G01 X-3.91798 Y-5.68015
G01 X-4.07700 Y-5.74604
G01 X-4.24325 Y-5.79059
G01 X-4.41386 Y-5.81304
G01 X-4.58605 Y-5.81287
G01 X-4.75668 Y-5.79041
G01 X-4.92288 Y-5.74589
G01 X-5.08190 Y-5.68000
G01 X-5.23093 Y-5.59397
G01 X-5.36748 Y-5.48919
G01 X-5.48919 Y-5.36748
G01 X-5.59397 Y-5.23093
G01 X-5.68000 Y-5.08190
G01 X-5.74589 Y-4.92288
G01 X-5.79041 Y-4.75668
G01 X-5.81287 Y-4.58605
G01 X-5.81287 Y-4.41391
G01 X-5.79041 Y-4.24327
G01 X-5.74589 Y-4.07706
G01 X-5.68000 Y-3.91805
G01 X-5.59394 Y-3.76898
G01 X-5.48919 Y-3.63245
G01 X-5.36750 Y-3.51076
G01 X-5.23095 Y-3.40599
G01 X-5.08188 Y-3.31986
G01 X-4.92293 Y-3.25407
G01 X-4.75666 Y-3.20954
G01 X-4.58605 Y-3.18709
G01 X-4.41391 Y-3.18691
G01 X-4.24325 Y-3.20937
G01 X-4.07700 Y-3.25392
G01 X-3.91798 Y-3.31981
G01 X-3.76890 Y-3.40586
G01 X-3.63233 Y-3.51066
G01 X-3.51064 Y-3.63235
G01 X-3.40586 Y-3.76890
G01 X-3.31978 Y-3.91798
G01 X-3.25392 Y-4.07698
G01 X-3.20937 Y-4.24325
G01 X-3.18691 Y-4.41391
G01 X-3.18691 Y-4.58605
G01 X-3.11013 Y-4.59108
G01 X-3.13388 Y-4.77169
G01 X-3.18099 Y-4.94772
G01 X-3.25074 Y-5.11599
G01 X-3.34188 Y-5.27380
G01 X-3.45277 Y-5.41835
G01 X-3.58158 Y-5.54718
G01 X-3.72613 Y-5.65808
G01 X-3.88394 Y-5.74919
G01 X-4.05227 Y-5.81891
G01 X-4.22824 Y-5.86608
G01 X-4.40883 Y-5.88983
G01 X-4.59108 Y-5.88968
G01 X-4.77169 Y-5.86590
G01 X-4.94762 Y-5.81876
G01 X-5.11594 Y-5.74904
G01 X-5.27370 Y-5.65795
G01 X-5.41823 Y-5.54706
G01 X-5.54706 Y-5.41823
G01 X-5.65795 Y-5.27370
G01 X-5.74904 Y-5.11594
G01 X-5.81876 Y-4.94762
G01 X-5.86590 Y-4.77169
G01 X-5.88968 Y-4.59108
G01 X-5.88968 Y-4.40888
G01 X-5.86590 Y-4.22826
G01 X-5.81876 Y-4.05232
G01 X-5.74904 Y-3.88402
G01 X-5.65795 Y-3.72623
G01 X-5.54706 Y-3.58170
G01 X-5.41825 Y-3.45290
G01 X-5.27370 Y-3.34200
G01 X-5.11592 Y-3.25084
G01 X-4.94767 Y-3.18120
G01 X-4.77167 Y-3.13406
G01 X-4.59108 Y-3.11028
G01 X-4.40888 Y-3.11013
G01 X-4.22824 Y-3.13388
G01 X-4.05227 Y-3.18099
G01 X-3.88394 Y-3.25077
G01 X-3.72613 Y-3.34188
G01 X-3.58158 Y-3.45277
G01 X-3.45277 Y-3.58160
G01 X-3.34185 Y-3.72615
G01 X-3.25074 Y-3.88394
G01 X-3.18099 Y-4.05224
G01 X-3.13388 Y-4.22824
G01 X-3.11013 Y-4.40888
G01 X-3.11013 Y-4.59108
G01 X-3.03332 Y-4.59610
G01 X-3.05841 Y-4.78673
G01 X-3.10817 Y-4.97246
G01 X-3.18168 Y-5.15003
G01 X-3.27787 Y-5.31655
G01 X-3.39491 Y-5.46910
G01 X-3.53085 Y-5.60504
G01 X-3.68338 Y-5.72209
G01 X-3.84990 Y-5.81820
G01 X-4.02753 Y-5.89178
G01 X-4.21322 Y-5.94157
G01 X-4.40380 Y-5.96664
G01 X-4.59610 Y-5.96649
G01 X-4.78671 Y-5.94139
G01 X-4.97235 Y-5.89163
G01 X-5.14998 Y-5.81807
G01 X-5.31645 Y-5.72196
G01 X-5.46898 Y-5.60492
G01 X-5.60492 Y-5.46898
G01 X-5.72196 Y-5.31645
G01 X-5.81807 Y-5.14998
G01 X-5.89163 Y-4.97235
G01 X-5.94139 Y-4.78671
G01 X-5.96649 Y-4.59610
G01 X-5.96649 Y-4.40385
G01 X-5.94139 Y-4.21325
G01 X-5.89163 Y-4.02758
G01 X-5.81807 Y-3.84995
G01 X-5.72193 Y-3.68346
G01 X-5.60492 Y-3.53096
G01 X-5.46900 Y-3.39504
G01 X-5.31647 Y-3.27802
G01 X-5.14995 Y-3.18181
G01 X-4.97241 Y-3.10832
G01 X-4.78668 Y-3.05857
G01 X-4.59610 Y-3.03347
G01 X-4.40383 Y-3.03332
G01 X-4.21322 Y-3.05841
G01 X-4.02753 Y-3.10817
G01 X-3.84990 Y-3.18171
G01 X-3.68338 Y-3.27787
G01 X-3.53085 Y-3.39491
G01 X-3.39489 Y-3.53085
G01 X-3.27787 Y-3.68338
G01 X-3.18168 Y-3.84990
G01 X-3.10817 Y-4.02750
G01 X-3.05841 Y-4.21322
G01 X-3.03332 Y-4.40383
G01 X-3.03332 Y-4.59610
G01 X-2.95651 Y-4.60116
G01 X-2.98293 Y-4.80174
G01 X-3.03530 Y-4.99720
G01 X-3.11269 Y-5.18406
G01 X-3.21389 Y-5.35932
G01 X-3.33705 Y-5.51985
G01 X-3.48010 Y-5.66290
G01 X-3.64061 Y-5.78607
G01 X-3.81584 Y-5.88724
G01 X-4.00279 Y-5.96468
G01 X-4.19821 Y-6.01703
G01 X-4.39877 Y-6.04345
G01 X-4.60113 Y-6.04327
G01 X-4.80172 Y-6.01688
G01 X-4.99709 Y-5.96453
G01 X-5.18404 Y-5.88708
G01 X-5.35922 Y-5.78594
G01 X-5.51972 Y-5.66278
G01 X-5.66278 Y-5.51972
G01 X-5.78594 Y-5.35922
G01 X-5.88708 Y-5.18404
G01 X-5.96453 Y-4.99709
G01 X-6.01688 Y-4.80172
G01 X-6.04327 Y-4.60113
G01 X-6.04327 Y-4.39882
G01 X-6.01688 Y-4.19824
G01 X-5.96453 Y-4.00284
G01 X-5.88708 Y-3.81592
G01 X-5.78594 Y-3.64071
G01 X-5.66278 Y-3.48021
G01 X-5.51972 Y-3.33715
G01 X-5.35922 Y-3.21401
G01 X-5.18401 Y-3.11285
G01 X-4.99715 Y-3.03545
G01 X-4.80169 Y-2.98308
G01 X-4.60113 Y-2.95669
G01 X-4.39880 Y-2.95651
G01 X-4.19821 Y-2.98293
G01 X-4.00279 Y-3.03527
G01 X-3.81584 Y-3.11272
G01 X-3.64061 Y-3.21389
G01 X-3.48010 Y-3.33705
G01 X-3.33703 Y-3.48013
G01 X-3.21389 Y-3.64063
G01 X-3.11269 Y-3.81584
G01 X-3.03530 Y-4.00276
G01 X-2.98293 Y-4.19821
G01 X-2.95651 Y-4.39880
G01 X-2.95651 Y-4.60116
G01 X-2.87973 Y-4.60619
G01 X-2.90744 Y-4.81675
G01 X-2.96240 Y-5.02194
G01 X-3.04366 Y-5.21813
G01 X-3.14988 Y-5.40207
G01 X-3.27917 Y-5.57058
G01 X-3.42936 Y-5.72077
G01 X-3.59786 Y-5.85008
G01 X-3.78181 Y-5.95627
G01 X-3.97805 Y-6.03755
G01 X-4.18320 Y-6.09252
G01 X-4.39374 Y-6.12023
G01 X-4.60616 Y-6.12008
G01 X-4.81673 Y-6.09237
G01 X-5.02183 Y-6.03740
G01 X-5.21807 Y-5.95612
G01 X-5.40197 Y-5.84992
G01 X-5.57047 Y-5.72064
G01 X-5.72064 Y-5.57047
G01 X-5.84992 Y-5.40197
G01 X-5.95612 Y-5.21807
G01 X-6.03740 Y-5.02183
G01 X-6.09237 Y-4.81673
G01 X-6.12008 Y-4.60616
G01 X-6.12008 Y-4.39379
G01 X-6.09237 Y-4.18323
G01 X-6.03740 Y-3.97810
G01 X-5.95612 Y-3.78188
G01 X-5.84992 Y-3.59796
G01 X-5.72064 Y-3.42946
G01 X-5.57047 Y-3.27929
G01 X-5.40197 Y-3.15003
G01 X-5.21805 Y-3.04381
G01 X-5.02188 Y-2.96255
G01 X-4.81670 Y-2.90759
G01 X-4.60616 Y-2.87988
G01 X-4.39377 Y-2.87973
G01 X-4.18318 Y-2.90744
G01 X-3.97805 Y-2.96240
G01 X-3.78181 Y-3.04368
G01 X-3.59786 Y-3.14988
G01 X-3.42936 Y-3.27919
G01 X-3.27917 Y-3.42938
G01 X-3.14988 Y-3.59786
G01 X-3.04366 Y-3.78181
G01 X-2.96240 Y-3.97802
G01 X-2.90744 Y-4.18318
G01 X-2.87973 Y-4.39377
G01 X-2.87973 Y-4.60619
G01 X-2.80292 Y-4.61122
G01 X-2.83195 Y-4.83177
G01 X-2.88953 Y-5.04668
G01 X-2.97464 Y-5.25216
G01 X-3.08590 Y-5.44482
G01 X-3.22125 Y-5.62132
G01 X-3.37861 Y-5.77863
G01 X-3.55511 Y-5.91406
G01 X-3.74777 Y-6.02529
G01 X-3.95331 Y-6.11043
G01 X-4.16819 Y-6.16801
G01 X-4.38874 Y-6.19704
G01 X-4.61119 Y-6.19686
G01 X-4.83174 Y-6.16786
G01 X-5.04657 Y-6.11027
G01 X-5.25211 Y-6.02513
G01 X-5.44474 Y-5.91393
G01 X-5.62122 Y-5.77850
G01 X-5.77850 Y-5.62122
G01 X-5.91393 Y-5.44474
G01 X-6.02513 Y-5.25211
G01 X-6.11027 Y-5.04657
G01 X-6.16786 Y-4.83174
G01 X-6.19686 Y-4.61119
G01 X-6.19686 Y-4.38876
G01 X-6.16786 Y-4.16822
G01 X-6.11027 Y-3.95336
G01 X-6.02513 Y-3.74785
G01 X-5.91393 Y-3.55519
G01 X-5.77850 Y-3.37871
G01 X-5.62122 Y-3.22143
G01 X-5.44474 Y-3.08602
G01 X-5.25208 Y-2.97480
G01 X-5.04662 Y-2.88968
G01 X-4.83171 Y-2.83210
G01 X-4.61119 Y-2.80309
G01 X-4.38874 Y-2.80292
G01 X-4.16817 Y-2.83195
G01 X-3.95331 Y-2.88953
G01 X-3.74777 Y-2.97467
G01 X-3.55511 Y-3.08590
G01 X-3.37861 Y-3.22128
G01 X-3.22125 Y-3.37863
G01 X-3.08590 Y-3.55511
G01 X-2.97464 Y-3.74777
G01 X-2.88953 Y-3.95328
G01 X-2.83195 Y-4.16817
G01 X-2.80292 Y-4.38874
G01 X-2.80292 Y-4.61122
G01 X-2.72628 Y-4.61622
G01 X-2.75661 Y-4.84673
G01 X-2.81681 Y-5.07136
G01 X-2.90576 Y-5.28612
G01 X-3.02204 Y-5.48749
G01 X-3.16357 Y-5.67197
G01 X-3.32796 Y-5.83636
G01 X-3.51244 Y-5.97792
G01 X-3.71381 Y-6.09417
G01 X-3.92862 Y-6.18315
G01 X-4.15320 Y-6.24335
G01 X-4.38371 Y-6.27367
G01 X-4.61622 Y-6.27367
G01 X-4.84675 Y-6.24335
G01 X-5.07131 Y-6.18315
G01 X-5.28615 Y-6.09417
G01 X-5.48749 Y-5.97792
G01 X-5.67197 Y-5.83636
G01 X-5.83636 Y-5.67197
G01 X-5.97792 Y-5.48749
G01 X-6.09417 Y-5.28615
G01 X-6.18315 Y-5.07131
G01 X-6.24335 Y-4.84675
G01 X-6.27367 Y-4.61622
G01 X-6.27367 Y-4.38374
G01 X-6.24335 Y-4.15320
G01 X-6.18315 Y-3.92862
G01 X-6.09417 Y-3.71381
G01 X-5.97792 Y-3.51244
G01 X-5.83636 Y-3.32796
G01 X-5.67197 Y-3.16357
G01 X-5.48749 Y-3.02204
G01 X-5.28612 Y-2.90576
G01 X-5.07136 Y-2.81681
G01 X-4.84673 Y-2.75661
G01 X-4.61622 Y-2.72628
G01 X-4.38374 Y-2.72628
G01 X-4.15320 Y-2.75661
G01 X-3.92862 Y-2.81681
G01 X-3.71381 Y-2.90579
G01 X-3.51244 Y-3.02204
G01 X-3.32796 Y-3.16360
G01 X-3.16357 Y-3.32798
G01 X-3.02204 Y-3.51244
G01 X-2.90576 Y-3.71381
G01 X-2.81681 Y-3.92859
G01 X-2.75661 Y-4.15320
G01 X-2.72628 Y-4.38374
G01 X-2.72628 Y-4.61622
G04 P0 ( dwell for no time -- G64 should not smooth over this point )
G00 Z2.00000 ( retract )

G00 X-5.90855 Y-8.42119 ( rapid move to begin. )
G01 F60.00000
( Mill infeed pass 1/2 )
G01 Z-0.05000
G04 P0 ( dwell for no time -- G64 should not smooth over this point )
G01 F120.00000
G01 X-5.90855 Y-8.42119
G01 X-5.87035 Y-8.43036
G01 X-5.42023 Y-8.43036
G01 X-5.34594 Y-8.41964
G01 X-5.27050 Y-8.41433
G01 X-1.47805 Y-8.41261
G01 X-1.36147 Y-8.41596
G01 X-1.32530 Y-8.38149
G01 X-1.27953 Y-8.32869
G01 X-1.24938 Y-8.28738
G01 X-1.22646 Y-8.24164
G01 X-1.20028 Y-8.14123
G01 X-1.19327 Y-8.07598
G01 X-1.11648 Y-8.07598
G01 X-1.34686 Y-8.07598
G01 X-1.34706 Y-4.49527
G01 X-1.36487 Y-4.16890
G01 X-1.41600 Y-3.84607
G01 X-1.50208 Y-3.52463
G01 X-1.62060 Y-3.21625
G01 X-1.77724 Y-2.91084
G01 X-1.95824 Y-2.63497
G01 X-2.16687 Y-2.37970
G01 X-2.37970 Y-2.16687
G01 X-2.63497 Y-1.95824
G01 X-2.91084 Y-1.77724
G01 X-3.21625 Y-1.62060
G01 X-3.52463 Y-1.50208
G01 X-3.83032 Y-1.41933
G01 X-4.15564 Y-1.36627
G01 X-4.50324 Y-1.34686
G01 X-25.69675 Y-1.34686
G01 X-26.02819 Y-1.36454
G01 X-26.35423 Y-1.41605
G01 X-26.66037 Y-1.49723
G01 X-26.99550 Y-1.62588
G01 X-27.27731 Y-1.77038
G01 X-27.54097 Y-1.94079
G01 X-27.82026 Y-2.16690
G01 X-28.04361 Y-2.39141
G01 X-28.24170 Y-2.63495
G01 X-28.43075 Y-2.92473
G01 X-28.58061 Y-3.21909
G01 X-28.69773 Y-3.52433
G01 X-28.78666 Y-3.85874
G01 X-28.83540 Y-4.17172
G01 X-28.85308 Y-4.50324
G01 X-28.85308 Y-8.07598
G01 X-28.84686 Y-8.11924
G01 X-28.82717 Y-8.18629
G01 X-28.81630 Y-8.21342
G01 X-28.80053 Y-8.23798
G01 X-28.78036 Y-8.25911
G01 X-28.70690 Y-8.31992
G01 X-28.65961 Y-8.33887
G01 X-28.60810 Y-8.35007
G01 X-28.57548 Y-8.35358
G01 X-1.62448 Y-8.35358
G01 X-1.58120 Y-8.34735
G01 X-1.48707 Y-8.31682
G01 X-1.46251 Y-8.30102
G01 X-1.44137 Y-8.28088
G01 X-1.39560 Y-8.22808
G01 X-1.36906 Y-8.18457
G01 X-1.35037 Y-8.10859
G01 X-1.34686 Y-8.07598
G01 X-1.42367 Y-8.07598
G01 X-1.44036 Y-8.15602
G01 X-1.45364 Y-8.17778
G01 X-1.49941 Y-8.23059
G01 X-1.52225 Y-8.24855
G01 X-1.53581 Y-8.25398
G01 X-1.62448 Y-8.27677
G01 X-28.57548 Y-8.27677
G01 X-28.65552 Y-8.26008
G01 X-28.67726 Y-8.24682
G01 X-28.73007 Y-8.20108
G01 X-28.74805 Y-8.17822
G01 X-28.77317 Y-8.09760
G01 X-28.77627 Y-8.07598
G01 X-28.77627 Y-4.50324
G01 X-28.75872 Y-4.17586
G01 X-28.70919 Y-3.86304
G01 X-28.62857 Y-3.55963
G01 X-28.50556 Y-3.23916
G01 X-28.35839 Y-2.95280
G01 X-28.18686 Y-2.68989
G01 X-27.98402 Y-2.43987
G01 X-27.75996 Y-2.21582
G01 X-27.49928 Y-2.00528
G01 X-27.23563 Y-1.83487
G01 X-26.96063 Y-1.69431
G01 X-26.64049 Y-1.57142
G01 X-26.34204 Y-1.49187
G01 X-26.03210 Y-1.44208
G01 X-25.69675 Y-1.42367
G01 X-4.50324 Y-1.42367
G01 X-4.16784 Y-1.44208
G01 X-3.85790 Y-1.49187
G01 X-3.55948 Y-1.57142
G01 X-3.25862 Y-1.68570
G01 X-2.95991 Y-1.83744
G01 X-2.68991 Y-2.01308
G01 X-2.43401 Y-2.22118
G01 X-2.22118 Y-2.43401
G01 X-2.01783 Y-2.68343
G01 X-1.84155 Y-2.95280
G01 X-1.68570 Y-3.25862
G01 X-1.57383 Y-3.55199
G01 X-1.49184 Y-3.85808
G01 X-1.44071 Y-4.18092
G01 X-1.42377 Y-4.49925
G01 X-1.42367 Y-8.07598
G01 X-1.19327 Y-8.07598
G01 X-1.19367 Y-4.48732
G01 X-1.21315 Y-4.14487
G01 X-1.26428 Y-3.82204
G01 X-1.35857 Y-3.46989
G01 X-1.48374 Y-3.14658
G01 X-1.64859 Y-2.82692
G01 X-1.83909 Y-2.53804
G01 X-2.05826 Y-2.27109
G01 X-2.29448 Y-2.03718
G01 X-2.53804 Y-1.83909
G01 X-2.82692 Y-1.64859
G01 X-3.14658 Y-1.48374
G01 X-3.46989 Y-1.35857
G01 X-3.79057 Y-1.27097
G01 X-4.13128 Y-1.21460
G01 X-4.50324 Y-1.19327
G01 X-25.69675 Y-1.19327
G01 X-26.03650 Y-1.21117
G01 X-26.37859 Y-1.26439
G01 X-26.70012 Y-1.34887
G01 X-27.06522 Y-1.48902
G01 X-27.36070 Y-1.64137
G01 X-27.62435 Y-1.81178
G01 X-27.92887 Y-2.05829
G01 X-28.16276 Y-2.29448
G01 X-28.36085 Y-2.53802
G01 X-28.56746 Y-2.85471
G01 X-28.72402 Y-3.16410
G01 X-28.84114 Y-3.46928
G01 X-28.93837 Y-3.83471
G01 X-28.98877 Y-4.16344
G01 X-29.00667 Y-4.50324
G01 X-29.00667 Y-8.07598
G01 X-29.00355 Y-8.11967
G01 X-28.99423 Y-8.16249
G01 X-28.97454 Y-8.22955
G01 X-28.95282 Y-8.28378
G01 X-28.92125 Y-8.33293
G01 X-28.88092 Y-8.37522
G01 X-28.84107 Y-8.40976
G01 X-28.67901 Y-8.41296
G01 X-28.71259 Y-8.40268
G01 X-28.74688 Y-8.38551
G01 X-28.83065 Y-8.31718
G01 X-28.86088 Y-8.28545
G01 X-28.88458 Y-8.24860
G01 X-28.90086 Y-8.20793
G01 X-28.92054 Y-8.14088
G01 X-28.92986 Y-8.07598
G01 X-28.92953 Y-4.49080
G01 X-28.90959 Y-4.14398
G01 X-28.85763 Y-3.82359
G01 X-28.77701 Y-3.52019
G01 X-28.65232 Y-3.19159
G01 X-28.49910 Y-2.88971
G01 X-28.31551 Y-2.60596
G01 X-28.08737 Y-2.32542
G01 X-27.85664 Y-2.09644
G01 X-27.60259 Y-1.89073
G01 X-27.31900 Y-1.70586
G01 X-27.00833 Y-1.54765
G01 X-26.68024 Y-1.42306
G01 X-26.36642 Y-1.34021
G01 X-26.05644 Y-1.29042
G01 X-25.69675 Y-1.27008
G01 X-4.50324 Y-1.27008
G01 X-4.16758 Y-1.28786
G01 X-3.83355 Y-1.34023
G01 X-3.49725 Y-1.43032
G01 X-3.18143 Y-1.55217
G01 X-2.86888 Y-1.71293
G01 X-2.58651 Y-1.89865
G01 X-2.34295 Y-2.09674
G01 X-2.09674 Y-2.34295
G01 X-1.88445 Y-2.60599
G01 X-1.70058 Y-2.89016
G01 X-1.54219 Y-3.20393
G01 X-1.43032 Y-3.49725
G01 X-1.34516 Y-3.81046
G01 X-1.28648 Y-4.18097
G01 X-1.27008 Y-4.50324
G01 X-1.27008 Y-8.07598
G01 X-1.27533 Y-8.12493
G01 X-1.29776 Y-8.21312
G01 X-1.31493 Y-8.24741
G01 X-1.33756 Y-8.27839
G01 X-1.38333 Y-8.33120
G01 X-1.41503 Y-8.36140
G01 X-1.45186 Y-8.38507
G01 X-1.53340 Y-8.41334
G01 X-1.55138 Y-8.41400
G01 X-1.34592 Y-8.41642
G01 X-1.05656 Y-8.41268
G01 X-1.01257 Y-8.32729
G01 X-1.00000 Y-8.28619
G01 X-1.03967 Y-8.07598
G01 X-1.04028 Y-4.47934
G01 X-1.06144 Y-4.12085
G01 X-1.11257 Y-3.79801
G01 X-1.21506 Y-3.41516
G01 X-1.34689 Y-3.07683
G01 X-1.51996 Y-2.74297
G01 X-1.71991 Y-2.44114
G01 X-1.94965 Y-2.16248
G01 X-2.19758 Y-1.91800
G01 X-2.44114 Y-1.71991
G01 X-2.74297 Y-1.51996
G01 X-3.07683 Y-1.34689
G01 X-3.41516 Y-1.21506
G01 X-3.79700 Y-1.11275
G01 X-4.15516 Y-1.05778
G01 X-4.50324 Y-1.03967
G01 X-25.69675 Y-1.03967
G01 X-26.04478 Y-1.05778
G01 X-26.40292 Y-1.11275
G01 X-26.73988 Y-1.20051
G01 X-27.13495 Y-1.35217
G01 X-27.44407 Y-1.51237
G01 X-27.70772 Y-1.68278
G01 X-27.74757 Y-1.71168
G01 X-28.03749 Y-1.94968
G01 X-28.28191 Y-2.19756
G01 X-28.48000 Y-2.44109
G01 X-28.70416 Y-2.78465
G01 X-28.86743 Y-3.10909
G01 X-28.98455 Y-3.41427
G01 X-28.99969 Y-3.46103
G01 X-29.09009 Y-3.81069
G01 X-29.14216 Y-4.15516
G01 X-29.16027 Y-4.50324
G01 X-29.16027 Y-8.07598
G01 X-29.15557 Y-8.14154
G01 X-29.12191 Y-8.27283
G01 X-29.08935 Y-8.35416
G01 X-29.05082 Y-8.41416
G01 X-28.84107 Y-8.40976
G01 X-28.95183 Y-8.41164
G01 X-28.98160 Y-8.38043
G01 X-29.02110 Y-8.31898
G01 X-29.04823 Y-8.25119
G01 X-29.07957 Y-8.13062
G01 X-29.08346 Y-8.07598
G01 X-29.08290 Y-4.48252
G01 X-29.06128 Y-4.11996
G01 X-29.00606 Y-3.78414
G01 X-28.92544 Y-3.48074
G01 X-28.79573 Y-3.13660
G01 X-28.63581 Y-2.81968
G01 X-28.42044 Y-2.48956
G01 X-28.19598 Y-2.21681
G01 X-27.95328 Y-1.97706
G01 X-27.69923 Y-1.77135
G01 X-27.40238 Y-1.57688
G01 X-27.06340 Y-1.40426
G01 X-26.71999 Y-1.27470
G01 X-26.39078 Y-1.18857
G01 X-26.08082 Y-1.13878
G01 X-25.69675 Y-1.11648
G01 X-4.50324 Y-1.11648
G01 X-4.15930 Y-1.13449
G01 X-3.80919 Y-1.18857
G01 X-3.44251 Y-1.28681
G01 X-3.11170 Y-1.41531
G01 X-2.78493 Y-1.58427
G01 X-2.52204 Y-1.75580
G01 X-2.24602 Y-1.97759
G01 X-1.97759 Y-2.24602
G01 X-1.75580 Y-2.52204
G01 X-1.56373 Y-2.82044
G01 X-1.39868 Y-3.14919
G01 X-1.27470 Y-3.47998
G01 X-1.18844 Y-3.81003
G01 X-1.13731 Y-4.13286
G01 X-1.11699 Y-4.48333
G01 X-1.11648 Y-8.07598
G01 X-1.12525 Y-8.15757
G01 X-1.15517 Y-8.27019
G01 X-1.18379 Y-8.32736
G01 X-1.25227 Y-8.41454
G01 X-1.18379 Y-8.32736
G01 X-1.15517 Y-8.27019
G01 X-1.12525 Y-8.15757
G01 X-1.11648 Y-8.07598
G01 X-1.03967 Y-8.07598
G01 X-1.04231 Y-8.12521
G01 X-1.06139 Y-8.22538
G01 X-1.08387 Y-8.29874
G01 X-1.11821 Y-8.36734
G01 X-1.15070 Y-8.41184
G01 X-1.00000 Y-8.41345
G01 X-1.00000 Y-4.49999
G01 X-1.06723 Y-3.81716
G01 X-1.26642 Y-3.16060
G01 X-1.58979 Y-2.55549
G01 X-2.02512 Y-2.02512
G01 X-2.55549 Y-1.58979
G01 X-3.16060 Y-1.26642
G01 X-3.81716 Y-1.06723
G01 X-4.49999 Y-1.00000
G01 X-25.70000 Y-1.00000
G01 X-26.38280 Y-1.06723
G01 X-27.03937 Y-1.26642
G01 X-27.64447 Y-1.58979
G01 X-28.17485 Y-2.02512
G01 X-28.61013 Y-2.55549
G01 X-28.93357 Y-3.16060
G01 X-29.13273 Y-3.81716
G01 X-29.19999 Y-4.49999
G01 X-29.19999 Y-8.27959
G01 X-29.15763 Y-8.38937
G01 X-29.14233 Y-8.41317
G01 X-29.05082 Y-8.41416
G01 X-29.14233 Y-8.41317
G01 X-29.15763 Y-8.38937
G01 X-29.19999 Y-8.27959
G01 X-29.19999 Y-8.41238
G01 X-29.05757 Y-8.41431
G01 X-28.85219 Y-8.40948
G01 X-28.72069 Y-8.41327
G01 X-11.12396 Y-8.41157
G01 X-11.01341 Y-8.42035
G01 X-10.87267 Y-8.45340
G01 X-10.74824 Y-8.50280
G01 X-10.69144 Y-8.47725
G01 X-10.52876 Y-8.42841
G01 X-10.97034 Y-8.43036
G01 X-11.00854 Y-8.42119
G01 X-10.97034 Y-8.43036
G01 X-10.53531 Y-8.43036
G01 X-10.45329 Y-8.41713
G01 X-10.37598 Y-8.41157
G01 X-6.02397 Y-8.41144
G01 X-5.91342 Y-8.42035
G01 X-5.77266 Y-8.45340
G01 X-5.64322 Y-8.50522
G01 X-5.58846 Y-8.48058
G01 X-5.41851 Y-8.42998
( Mill infeed pass 2/2 )
G00 Z2.00000 ( retract )
G00 X-5.90855 Y-8.42119 ( rapid move to begin. )
G01 Z-0.10000
G04 P0 ( dwell for no time -- G64 should not smooth over this point )
G01 F120.00000
G01 X-5.90855 Y-8.42119
G01 X-5.87035 Y-8.43036
G01 X-5.42023 Y-8.43036
G01 X-5.34594 Y-8.41964
G01 X-5.27050 Y-8.41433
G01 X-1.47805 Y-8.41261
G01 X-1.36147 Y-8.41596
G01 X-1.32530 Y-8.38149
G01 X-1.27953 Y-8.32869
G01 X-1.24938 Y-8.28738
G01 X-1.22646 Y-8.24164
G01 X-1.20028 Y-8.14123
G01 X-1.19327 Y-8.07598
G01 X-1.11648 Y-8.07598
G01 X-1.34686 Y-8.07598
G01 X-1.34706 Y-4.49527
G01 X-1.36487 Y-4.16890
G01 X-1.41600 Y-3.84607
G01 X-1.50208 Y-3.52463
G01 X-1.62060 Y-3.21625
G01 X-1.77724 Y-2.91084
G01 X-1.95824 Y-2.63497
G01 X-2.16687 Y-2.37970
G01 X-2.37970 Y-2.16687
G01 X-2.63497 Y-1.95824
G01 X-2.91084 Y-1.77724
G01 X-3.21625 Y-1.62060
G01 X-3.52463 Y-1.50208
G01 X-3.83032 Y-1.41933
G01 X-4.15564 Y-1.36627
G01 X-4.50324 Y-1.34686
G01 X-25.69675 Y-1.34686
G01 X-26.02819 Y-1.36454
G01 X-26.35423 Y-1.41605
G01 X-26.66037 Y-1.49723
G01 X-26.99550 Y-1.62588
G01 X-27.27731 Y-1.77038
G01 X-27.54097 Y-1.94079
G01 X-27.82026 Y-2.16690
G01 X-28.04361 Y-2.39141
G01 X-28.24170 Y-2.63495
G01 X-28.43075 Y-2.92473
G01 X-28.58061 Y-3.21909
G01 X-28.69773 Y-3.52433
G01 X-28.78666 Y-3.85874
G01 X-28.83540 Y-4.17172
G01 X-28.85308 Y-4.50324
G01 X-28.85308 Y-8.07598
G01 X-28.84686 Y-8.11924
G01 X-28.82717 Y-8.18629
G01 X-28.81630 Y-8.21342
G01 X-28.80053 Y-8.23798
G01 X-28.78036 Y-8.25911
G01 X-28.70690 Y-8.31992
G01 X-28.65961 Y-8.33887
G01 X-28.60810 Y-8.35007
G01 X-28.57548 Y-8.35358
G01 X-1.62448 Y-8.35358
G01 X-1.58120 Y-8.34735
G01 X-1.48707 Y-8.31682
G01 X-1.46251 Y-8.30102
G01 X-1.44137 Y-8.28088
G01 X-1.39560 Y-8.22808
G01 X-1.36906 Y-8.18457
G01 X-1.35037 Y-8.10859
G01 X-1.34686 Y-8.07598
G01 X-1.42367 Y-8.07598
G01 X-1.44036 Y-8.15602
G01 X-1.45364 Y-8.17778
G01 X-1.49941 Y-8.23059
G01 X-1.52225 Y-8.24855
G01 X-1.53581 Y-8.25398
G01 X-1.62448 Y-8.27677
G01 X-28.57548 Y-8.27677
G01 X-28.65552 Y-8.26008
G01 X-28.67726 Y-8.24682
G01 X-28.73007 Y-8.20108
G01 X-28.74805 Y-8.17822
G01 X-28.77317 Y-8.09760
G01 X-28.77627 Y-8.07598
G01 X-28.77627 Y-4.50324
G01 X-28.75872 Y-4.17586
G01 X-28.70919 Y-3.86304
G01 X-28.62857 Y-3.55963
G01 X-28.50556 Y-3.23916
G01 X-28.35839 Y-2.95280
G01 X-28.18686 Y-2.68989
G01 X-27.98402 Y-2.43987
G01 X-27.75996 Y-2.21582
G01 X-27.49928 Y-2.00528
G01 X-27.23563 Y-1.83487
G01 X-26.96063 Y-1.69431
G01 X-26.64049 Y-1.57142
G01 X-26.34204 Y-1.49187
G01 X-26.03210 Y-1.44208
G01 X-25.69675 Y-1.42367
G01 X-4.50324 Y-1.42367
G01 X-4.16784 Y-1.44208
G01 X-3.85790 Y-1.49187
G01 X-3.55948 Y-1.57142
G01 X-3.25862 Y-1.68570
G01 X-2.95991 Y-1.83744
G01 X-2.68991 Y-2.01308
G01 X-2.43401 Y-2.22118
G01 X-2.22118 Y-2.43401
G01 X-2.01783 Y-2.68343
G01 X-1.84155 Y-2.95280
G01 X-1.68570 Y-3.25862
G01 X-1.57383 Y-3.55199
G01 X-1.49184 Y-3.85808
G01 X-1.44071 Y-4.18092
G01 X-1.42377 Y-4.49925
G01 X-1.42367 Y-8.07598
G01 X-1.19327 Y-8.07598
G01 X-1.19367 Y-4.48732
G01 X-1.21315 Y-4.14487
G01 X-1.26428 Y-3.82204
G01 X-1.35857 Y-3.46989
G01 X-1.48374 Y-3.14658
G01 X-1.64859 Y-2.82692
G01 X-1.83909 Y-2.53804
G01 X-2.05826 Y-2.27109
G01 X-2.29448 Y-2.03718
G01 X-2.53804 Y-1.83909
G01 X-2.82692 Y-1.64859
G01 X-3.14658 Y-1.48374
G01 X-3.46989 Y-1.35857
G01 X-3.79057 Y-1.27097
G01 X-4.13128 Y-1.21460
G01 X-4.50324 Y-1.19327
G01 X-25.69675 Y-1.19327
G01 X-26.03650 Y-1.21117
G01 X-26.37859 Y-1.26439
G01 X-26.70012 Y-1.34887
G01 X-27.06522 Y-1.48902
G01 X-27.36070 Y-1.64137
G01 X-27.62435 Y-1.81178
G01 X-27.92887 Y-2.05829
G01 X-28.16276 Y-2.29448
G01 X-28.36085 Y-2.53802
G01 X-28.56746 Y-2.85471
G01 X-28.72402 Y-3.16410
G01 X-28.84114 Y-3.46928
G01 X-28.93837 Y-3.83471
G01 X-28.98877 Y-4.16344
G01 X-29.00667 Y-4.50324
G01 X-29.00667 Y-8.07598
G01 X-29.00355 Y-8.11967
G01 X-28.99423 Y-8.16249
G01 X-28.97454 Y-8.22955
G01 X-28.95282 Y-8.28378
G01 X-28.92125 Y-8.33293
G01 X-28.88092 Y-8.37522
G01 X-28.84107 Y-8.40976
G01 X-28.67901 Y-8.41296
G01 X-28.71259 Y-8.40268
G01 X-28.74688 Y-8.38551
G01 X-28.83065 Y-8.31718
G01 X-28.86088 Y-8.28545
G01 X-28.88458 Y-8.24860
G01 X-28.90086 Y-8.20793
G01 X-28.92054 Y-8.14088
G01 X-28.92986 Y-8.07598
G01 X-28.92953 Y-4.49080
G01 X-28.90959 Y-4.14398
G01 X-28.85763 Y-3.82359
G01 X-28.77701 Y-3.52019
G01 X-28.65232 Y-3.19159
G01 X-28.49910 Y-2.88971
G01 X-28.31551 Y-2.60596
G01 X-28.08737 Y-2.32542
G01 X-27.85664 Y-2.09644
G01 X-27.60259 Y-1.89073
G01 X-27.31900 Y-1.70586
G01 X-27.00833 Y-1.54765
G01 X-26.68024 Y-1.42306
G01 X-26.36642 Y-1.34021
G01 X-26.05644 Y-1.29042
G01 X-25.69675 Y-1.27008
G01 X-4.50324 Y-1.27008
G01 X-4.16758 Y-1.28786
G01 X-3.83355 Y-1.34023
G01 X-3.49725 Y-1.43032
G01 X-3.18143 Y-1.55217
G01 X-2.86888 Y-1.71293
G01 X-2.58651 Y-1.89865
G01 X-2.34295 Y-2.09674
G01 X-2.09674 Y-2.34295
G01 X-1.88445 Y-2.60599
G01 X-1.70058 Y-2.89016
G01 X-1.54219 Y-3.20393
G01 X-1.43032 Y-3.49725
G01 X-1.34516 Y-3.81046
G01 X-1.28648 Y-4.18097
G01 X-1.27008 Y-4.50324
G01 X-1.27008 Y-8.07598
G01 X-1.27533 Y-8.12493
G01 X-1.29776 Y-8.21312
G01 X-1.31493 Y-8.24741
G01 X-1.33756 Y-8.27839
G01 X-1.38333 Y-8.33120
G01 X-1.41503 Y-8.36140
G01 X-1.45186 Y-8.38507
G01 X-1.53340 Y-8.41334
G01 X-1.55138 Y-8.41400
G01 X-1.34592 Y-8.41642
G01 X-1.05656 Y-8.41268
G01 X-1.01257 Y-8.32729
G01 X-1.00000 Y-8.28619
G01 X-1.03967 Y-8.07598
G01 X-1.04028 Y-4.47934
G01 X-1.06144 Y-4.12085
G01 X-1.11257 Y-3.79801
G01 X-1.21506 Y-3.41516
G01 X-1.34689 Y-3.07683
G01 X-1.51996 Y-2.74297
G01 X-1.71991 Y-2.44114
G01 X-1.94965 Y-2.16248
G01 X-2.19758 Y-1.91800
G01 X-2.44114 Y-1.71991
G01 X-2.74297 Y-1.51996
G01 X-3.07683 Y-1.34689
G01 X-3.41516 Y-1.21506
G01 X-3.79700 Y-1.11275
G01 X-4.15516 Y-1.05778
G01 X-4.50324 Y-1.03967
G01 X-25.69675 Y-1.03967
G01 X-26.04478 Y-1.05778
G01 X-26.40292 Y-1.11275
G01 X-26.73988 Y-1.20051
G01 X-27.13495 Y-1.35217
G01 X-27.44407 Y-1.51237
G01 X-27.70772 Y-1.68278
G01 X-27.74757 Y-1.71168
G01 X-28.03749 Y-1.94968
G01 X-28.28191 Y-2.19756
G01 X-28.48000 Y-2.44109
G01 X-28.70416 Y-2.78465
G01 X-28.86743 Y-3.10909
G01 X-28.98455 Y-3.41427
G01 X-28.99969 Y-3.46103
G01 X-29.09009 Y-3.81069
G01 X-29.14216 Y-4.15516
G01 X-29.16027 Y-4.50324
G01 X-29.16027 Y-8.07598
G01 X-29.15557 Y-8.14154
G01 X-29.12191 Y-8.27283
G01 X-29.08935 Y-8.35416
G01 X-29.05082 Y-8.41416
G01 X-28.84107 Y-8.40976
G01 X-28.95183 Y-8.41164
G01 X-28.98160 Y-8.38043
G01 X-29.02110 Y-8.31898
G01 X-29.04823 Y-8.25119
G01 X-29.07957 Y-8.13062
G01 X-29.08346 Y-8.07598
G01 X-29.08290 Y-4.48252
G01 X-29.06128 Y-4.11996
G01 X-29.00606 Y-3.78414
G01 X-28.92544 Y-3.48074
G01 X-28.79573 Y-3.13660
G01 X-28.63581 Y-2.81968
G01 X-28.42044 Y-2.48956
G01 X-28.19598 Y-2.21681
G01 X-27.95328 Y-1.97706
G01 X-27.69923 Y-1.77135
G01 X-27.40238 Y-1.57688
G01 X-27.06340 Y-1.40426
G01 X-26.71999 Y-1.27470
G01 X-26.39078 Y-1.18857
G01 X-26.08082 Y-1.13878
G01 X-25.69675 Y-1.11648
G01 X-4.50324 Y-1.11648
G01 X-4.15930 Y-1.13449
G01 X-3.80919 Y-1.18857
G01 X-3.44251 Y-1.28681
G01 X-3.11170 Y-1.41531
G01 X-2.78493 Y-1.58427
G01 X-2.52204 Y-1.75580
G01 X-2.24602 Y-1.97759
G01 X-1.97759 Y-2.24602
G01 X-1.75580 Y-2.52204
G01 X-1.56373 Y-2.82044
G01 X-1.39868 Y-3.14919
G01 X-1.27470 Y-3.47998
G01 X-1.18844 Y-3.81003
G01 X-1.13731 Y-4.13286
G01 X-1.11699 Y-4.48333
G01 X-1.11648 Y-8.07598
G01 X-1.12525 Y-8.15757
G01 X-1.15517 Y-8.27019
G01 X-1.18379 Y-8.32736
G01 X-1.25227 Y-8.41454
G01 X-1.18379 Y-8.32736
G01 X-1.15517 Y-8.27019
G01 X-1.12525 Y-8.15757
G01 X-1.11648 Y-8.07598
G01 X-1.03967 Y-8.07598
G01 X-1.04231 Y-8.12521
G01 X-1.06139 Y-8.22538
G01 X-1.08387 Y-8.29874
G01 X-1.11821 Y-8.36734
G01 X-1.15070 Y-8.41184
G01 X-1.00000 Y-8.41345
G01 X-1.00000 Y-4.49999
G01 X-1.06723 Y-3.81716
G01 X-1.26642 Y-3.16060
G01 X-1.58979 Y-2.55549
G01 X-2.02512 Y-2.02512
G01 X-2.55549 Y-1.58979
G01 X-3.16060 Y-1.26642
G01 X-3.81716 Y-1.06723
G01 X-4.49999 Y-1.00000
G01 X-25.70000 Y-1.00000
G01 X-26.38280 Y-1.06723
G01 X-27.03937 Y-1.26642
G01 X-27.64447 Y-1.58979
G01 X-28.17485 Y-2.02512
G01 X-28.61013 Y-2.55549
G01 X-28.93357 Y-3.16060
G01 X-29.13273 Y-3.81716
G01 X-29.19999 Y-4.49999
G01 X-29.19999 Y-8.27959
G01 X-29.15763 Y-8.38937
G01 X-29.14233 Y-8.41317
G01 X-29.05082 Y-8.41416
G01 X-29.14233 Y-8.41317
G01 X-29.15763 Y-8.38937
G01 X-29.19999 Y-8.27959
G01 X-29.19999 Y-8.41238
G01 X-29.05757 Y-8.41431
G01 X-28.85219 Y-8.40948
G01 X-28.72069 Y-8.41327
G01 X-11.12396 Y-8.41157
G01 X-11.01341 Y-8.42035
G01 X-10.87267 Y-8.45340
G01 X-10.74824 Y-8.50280
G01 X-10.69144 Y-8.47725
G01 X-10.52876 Y-8.42841
G01 X-10.97034 Y-8.43036
G01 X-11.00854 Y-8.42119
G01 X-10.97034 Y-8.43036
G01 X-10.53531 Y-8.43036
G01 X-10.45329 Y-8.41713
G01 X-10.37598 Y-8.41157
G01 X-6.02397 Y-8.41144
G01 X-5.91342 Y-8.42035
G01 X-5.77266 Y-8.45340
G01 X-5.64322 Y-8.50522
G01 X-5.58846 Y-8.48058
G01 X-5.41851 Y-8.42998
G04 P0 ( dwell for no time -- G64 should not smooth over this point )
G00 Z2.00000 ( retract )

G00 X-3.28036 Y-9.53958 ( rapid move to begin. )
G01 F60.00000
( Mill infeed pass 1/2 )
G01 Z-0.05000
G04 P0 ( dwell for no time -- G64 should not smooth over this point )
G01 F120.00000
G01 X-3.28036 Y-9.53958
G01 X-3.28036 Y-9.50036
G01 X-3.25783 Y-9.47788
G01 X-3.28036 Y-9.50036
G01 X-3.85562 Y-9.49945
G01 X-3.87393 Y-9.50234
G01 X-3.95100 Y-9.52995
G01 X-4.01312 Y-9.57682
G01 X-4.05973 Y-9.63905
G01 X-4.08879 Y-9.71578
G01 X-4.08958 Y-10.30958
G01 X-4.11223 Y-10.33216
G01 X-4.08958 Y-10.30958
G01 X-4.05039 Y-10.30958
G01 X-4.02826 Y-10.33186
G01 X-4.05039 Y-10.30958
G01 X-4.05039 Y-9.76998
G01 X-4.04597 Y-9.72505
G01 X-4.03286 Y-9.68182
G01 X-4.01155 Y-9.64199
G01 X-3.98290 Y-9.60707
G01 X-3.94800 Y-9.57842
G01 X-3.90815 Y-9.55713
G01 X-3.86494 Y-9.54402
G01 X-3.81998 Y-9.53958
G01 X-3.28036 Y-9.53958
G01 X-3.20355 Y-9.61639
G01 X-3.81998 Y-9.61639
G01 X-3.84995 Y-9.61934
G01 X-3.87876 Y-9.62807
G01 X-3.90533 Y-9.64227
G01 X-3.92859 Y-9.66137
G01 X-3.94769 Y-9.68466
G01 X-3.96189 Y-9.71121
G01 X-3.97063 Y-9.74001
G01 X-3.97358 Y-9.76998
G01 X-3.97358 Y-10.38636
G01 X-3.95110 Y-10.40887
G01 X-3.97358 Y-10.38636
G01 X-4.16636 Y-10.38636
G01 X-4.18912 Y-10.40900
G01 X-4.16636 Y-10.38636
G01 X-4.16410 Y-9.69797
G01 X-4.12783 Y-9.60186
G01 X-4.06799 Y-9.52195
G01 X-3.98805 Y-9.46211
G01 X-3.89194 Y-9.42584
G01 X-3.20355 Y-9.42358
G01 X-3.18094 Y-9.40082
G01 X-3.20355 Y-9.42358
G01 X-3.20355 Y-9.61639
G01 X-3.12677 Y-9.69320
G01 X-3.81998 Y-9.69320
G01 X-3.83497 Y-9.69467
G01 X-3.86265 Y-9.70613
G01 X-3.88384 Y-9.72731
G01 X-3.89095 Y-9.74060
G01 X-3.89679 Y-9.76998
G01 X-3.89679 Y-10.46317
G01 X-4.24317 Y-10.46317
G01 X-4.24317 Y-9.72627
G01 X-4.23824 Y-9.68040
G01 X-4.19522 Y-9.56506
G01 X-4.12229 Y-9.46765
G01 X-4.02488 Y-9.39472
G01 X-3.90954 Y-9.35170
G01 X-3.86370 Y-9.34677
G01 X-3.12677 Y-9.34677
G01 X-3.12677 Y-9.69320
( Mill infeed pass 2/2 )
G00 Z2.00000 ( retract )
G00 X-3.28036 Y-9.53958 ( rapid move to begin. )
G01 Z-0.10000
G04 P0 ( dwell for no time -- G64 should not smooth over this point )
G01 F120.00000
G01 X-3.28036 Y-9.53958
G01 X-3.28036 Y-9.50036
G01 X-3.25783 Y-9.47788
G01 X-3.28036 Y-9.50036
G01 X-3.85562 Y-9.49945
G01 X-3.87393 Y-9.50234
G01 X-3.95100 Y-9.52995
G01 X-4.01312 Y-9.57682
G01 X-4.05973 Y-9.63905
G01 X-4.08879 Y-9.71578
G01 X-4.08958 Y-10.30958
G01 X-4.11223 Y-10.33216
G01 X-4.08958 Y-10.30958
G01 X-4.05039 Y-10.30958
G01 X-4.02826 Y-10.33186
G01 X-4.05039 Y-10.30958
G01 X-4.05039 Y-9.76998
G01 X-4.04597 Y-9.72505
G01 X-4.03286 Y-9.68182
G01 X-4.01155 Y-9.64199
G01 X-3.98290 Y-9.60707
G01 X-3.94800 Y-9.57842
G01 X-3.90815 Y-9.55713
G01 X-3.86494 Y-9.54402
G01 X-3.81998 Y-9.53958
G01 X-3.28036 Y-9.53958
G01 X-3.20355 Y-9.61639
G01 X-3.81998 Y-9.61639
G01 X-3.84995 Y-9.61934
G01 X-3.87876 Y-9.62807
G01 X-3.90533 Y-9.64227
G01 X-3.92859 Y-9.66137
G01 X-3.94769 Y-9.68466
G01 X-3.96189 Y-9.71121
G01 X-3.97063 Y-9.74001
G01 X-3.97358 Y-9.76998
G01 X-3.97358 Y-10.38636
G01 X-3.95110 Y-10.40887
G01 X-3.97358 Y-10.38636
G01 X-4.16636 Y-10.38636
G01 X-4.18912 Y-10.40900
G01 X-4.16636 Y-10.38636
G01 X-4.16410 Y-9.69797
G01 X-4.12783 Y-9.60186
G01 X-4.06799 Y-9.52195
G01 X-3.98805 Y-9.46211
G01 X-3.89194 Y-9.42584
G01 X-3.20355 Y-9.42358
G01 X-3.18094 Y-9.40082
G01 X-3.20355 Y-9.42358
G01 X-3.20355 Y-9.61639
G01 X-3.12677 Y-9.69320
G01 X-3.81998 Y-9.69320
G01 X-3.83497 Y-9.69467
G01 X-3.86265 Y-9.70613
G01 X-3.88384 Y-9.72731
G01 X-3.89095 Y-9.74060
G01 X-3.89679 Y-9.76998
G01 X-3.89679 Y-10.46317
G01 X-4.24317 Y-10.46317
G01 X-4.24317 Y-9.72627
G01 X-4.23824 Y-9.68040
G01 X-4.19522 Y-9.56506
G01 X-4.12229 Y-9.46765
G01 X-4.02488 Y-9.39472
G01 X-3.90954 Y-9.35170
G01 X-3.86370 Y-9.34677
G01 X-3.12677 Y-9.34677
G01 X-3.12677 Y-9.69320
G04 P0 ( dwell for no time -- G64 should not smooth over this point )
G00 Z2.00000 ( retract )

G00 X-3.28036 Y-12.18126 ( rapid move to begin. )
G01 F60.00000
( Mill infeed pass 1/2 )
G01 Z-0.05000
G04 P0 ( dwell for no time -- G64 should not smooth over this point )
G01 F120.00000
G01 X-3.28036 Y-12.18126
G01 X-3.42519 Y-12.24712
G01 X-3.63667 Y-12.40076
G01 X-3.81157 Y-12.59502
G01 X-3.94228 Y-12.82141
G01 X-3.95277 Y-12.84958
G01 X-3.94650 Y-12.86017
G01 X-3.95277 Y-12.84958
G01 X-3.99684 Y-12.84958
G01 X-4.04792 Y-12.88369
G01 X-3.99684 Y-12.84958
G01 X-3.95265 Y-12.74288
G01 X-3.83436 Y-12.55052
G01 X-3.79435 Y-12.46012
G01 X-3.78247 Y-12.42106
G01 X-3.77767 Y-12.38052
G01 X-3.79039 Y-12.27066
G01 X-3.79999 Y-12.23094
G01 X-3.81645 Y-12.19352
G01 X-3.83926 Y-12.15961
G01 X-3.89672 Y-12.09149
G01 X-4.01310 Y-12.00310
G01 X-4.05973 Y-11.94090
G01 X-4.08879 Y-11.86419
G01 X-4.08958 Y-11.27036
G01 X-4.11223 Y-11.24778
G01 X-4.08958 Y-11.27036
G01 X-4.05039 Y-11.27036
G01 X-4.02826 Y-11.24809
G01 X-4.05039 Y-11.27036
G01 X-4.05039 Y-11.80998
G01 X-4.04597 Y-11.85494
G01 X-4.03286 Y-11.89815
G01 X-4.01155 Y-11.93800
G01 X-3.98290 Y-11.97290
G01 X-3.94800 Y-12.00155
G01 X-3.90815 Y-12.02284
G01 X-3.86494 Y-12.03597
G01 X-3.81998 Y-12.04039
G01 X-3.28036 Y-12.04039
G01 X-3.25783 Y-12.01788
G01 X-3.28036 Y-12.04039
G01 X-3.28036 Y-12.18126
G01 X-3.20355 Y-12.23112
G01 X-3.38679 Y-12.31362
G01 X-3.57279 Y-12.44773
G01 X-3.59664 Y-12.46919
G01 X-3.73934 Y-12.62766
G01 X-3.75821 Y-12.65364
G01 X-3.87213 Y-12.85263
G01 X-3.89697 Y-12.92636
G01 X-3.88727 Y-12.94021
G01 X-3.89697 Y-12.92636
G01 X-4.10830 Y-12.92636
G01 X-4.15798 Y-12.96007
G01 X-4.10830 Y-12.92636
G01 X-4.10352 Y-12.90643
G01 X-4.02151 Y-12.70772
G01 X-3.88821 Y-12.48740
G01 X-3.86555 Y-12.43134
G01 X-3.85442 Y-12.37828
G01 X-3.86636 Y-12.28199
G01 X-3.88371 Y-12.23056
G01 X-3.94995 Y-12.14684
G01 X-4.06796 Y-12.05796
G01 X-4.12783 Y-11.97808
G01 X-4.16410 Y-11.88197
G01 X-4.16636 Y-11.19358
G01 X-4.18912 Y-11.17095
G01 X-4.16636 Y-11.19358
G01 X-3.97358 Y-11.19358
G01 X-3.95110 Y-11.17107
G01 X-3.97358 Y-11.19358
G01 X-3.97358 Y-11.80998
G01 X-3.97063 Y-11.83996
G01 X-3.96189 Y-11.86876
G01 X-3.94769 Y-11.89533
G01 X-3.92859 Y-11.91859
G01 X-3.90533 Y-11.93770
G01 X-3.87876 Y-11.95189
G01 X-3.84995 Y-11.96063
G01 X-3.81998 Y-11.96358
G01 X-3.20355 Y-11.96358
G01 X-3.18102 Y-11.94110
G01 X-3.20355 Y-11.96358
G01 X-3.20355 Y-12.23112
G01 X-3.12677 Y-12.28385
G01 X-3.34838 Y-12.38014
G01 X-3.53957 Y-12.52060
G01 X-3.69169 Y-12.69205
G01 X-3.80197 Y-12.88387
G01 X-3.84117 Y-13.00315
G01 X-4.20573 Y-13.00315
G01 X-4.17678 Y-12.88263
G01 X-4.08988 Y-12.67282
G01 X-3.96519 Y-12.47005
G01 X-3.93675 Y-12.40257
G01 X-3.93118 Y-12.37602
G01 X-3.94231 Y-12.29332
G01 X-3.95100 Y-12.26762
G01 X-4.00322 Y-12.20219
G01 X-4.12229 Y-12.11232
G01 X-4.19522 Y-12.01489
G01 X-4.23824 Y-11.89957
G01 X-4.24317 Y-11.85370
G01 X-4.24317 Y-11.11677
G01 X-3.89679 Y-11.11677
G01 X-3.89679 Y-11.80998
G01 X-3.89095 Y-11.83937
G01 X-3.88384 Y-11.85266
G01 X-3.86265 Y-11.87384
G01 X-3.84937 Y-11.88095
G01 X-3.81998 Y-11.88679
G01 X-3.12677 Y-11.88679
G01 X-3.12677 Y-12.28385
G01 X-3.35717 Y-12.13137
G01 X-3.35717 Y-12.11720
G01 X-3.33466 Y-12.09469
G01 X-3.35717 Y-12.11720
G01 X-3.77561 Y-12.11720
G01 X-3.83865 Y-12.07966
G01 X-3.77561 Y-12.11720
G01 X-3.74917 Y-12.15647
G01 X-3.72722 Y-12.20635
G01 X-3.71445 Y-12.25934
G01 X-3.70235 Y-12.35799
G01 X-3.72902 Y-12.42459
G01 X-3.70235 Y-12.35799
G01 X-3.66306 Y-12.32344
G01 X-3.46359 Y-12.18060
G01 X-3.35717 Y-12.13137
G01 X-3.34571 Y-12.13846
G01 X-3.45222 Y-12.14092
G01 X-3.61554 Y-12.19398
G01 X-3.64614 Y-12.21623
G01 X-3.66733 Y-12.27376
G01 X-3.64614 Y-12.21623
G01 X-3.65153 Y-12.19398
G01 X-3.68871 Y-12.16469
G01 X-3.65153 Y-12.19398
G01 X-3.61554 Y-12.19398
( Mill infeed pass 2/2 )
G00 Z2.00000 ( retract )
G00 X-3.28036 Y-12.18126 ( rapid move to begin. )
G01 Z-0.10000
G04 P0 ( dwell for no time -- G64 should not smooth over this point )
G01 F120.00000
G01 X-3.28036 Y-12.18126
G01 X-3.42519 Y-12.24712
G01 X-3.63667 Y-12.40076
G01 X-3.81157 Y-12.59502
G01 X-3.94228 Y-12.82141
G01 X-3.95277 Y-12.84958
G01 X-3.94650 Y-12.86017
G01 X-3.95277 Y-12.84958
G01 X-3.99684 Y-12.84958
G01 X-4.04792 Y-12.88369
G01 X-3.99684 Y-12.84958
G01 X-3.95265 Y-12.74288
G01 X-3.83436 Y-12.55052
G01 X-3.79435 Y-12.46012
G01 X-3.78247 Y-12.42106
G01 X-3.77767 Y-12.38052
G01 X-3.79039 Y-12.27066
G01 X-3.79999 Y-12.23094
G01 X-3.81645 Y-12.19352
G01 X-3.83926 Y-12.15961
G01 X-3.89672 Y-12.09149
G01 X-4.01310 Y-12.00310
G01 X-4.05973 Y-11.94090
G01 X-4.08879 Y-11.86419
G01 X-4.08958 Y-11.27036
G01 X-4.11223 Y-11.24778
G01 X-4.08958 Y-11.27036
G01 X-4.05039 Y-11.27036
G01 X-4.02826 Y-11.24809
G01 X-4.05039 Y-11.27036
G01 X-4.05039 Y-11.80998
G01 X-4.04597 Y-11.85494
G01 X-4.03286 Y-11.89815
G01 X-4.01155 Y-11.93800
G01 X-3.98290 Y-11.97290
G01 X-3.94800 Y-12.00155
G01 X-3.90815 Y-12.02284
G01 X-3.86494 Y-12.03597
G01 X-3.81998 Y-12.04039
G01 X-3.28036 Y-12.04039
G01 X-3.25783 Y-12.01788
G01 X-3.28036 Y-12.04039
G01 X-3.28036 Y-12.18126
G01 X-3.20355 Y-12.23112
G01 X-3.38679 Y-12.31362
G01 X-3.57279 Y-12.44773
G01 X-3.59664 Y-12.46919
G01 X-3.73934 Y-12.62766
G01 X-3.75821 Y-12.65364
G01 X-3.87213 Y-12.85263
G01 X-3.89697 Y-12.92636
G01 X-3.88727 Y-12.94021
G01 X-3.89697 Y-12.92636
G01 X-4.10830 Y-12.92636
G01 X-4.15798 Y-12.96007
G01 X-4.10830 Y-12.92636
G01 X-4.10352 Y-12.90643
G01 X-4.02151 Y-12.70772
G01 X-3.88821 Y-12.48740
G01 X-3.86555 Y-12.43134
G01 X-3.85442 Y-12.37828
G01 X-3.86636 Y-12.28199
G01 X-3.88371 Y-12.23056
G01 X-3.94995 Y-12.14684
G01 X-4.06796 Y-12.05796
G01 X-4.12783 Y-11.97808
G01 X-4.16410 Y-11.88197
G01 X-4.16636 Y-11.19358
G01 X-4.18912 Y-11.17095
G01 X-4.16636 Y-11.19358
G01 X-3.97358 Y-11.19358
G01 X-3.95110 Y-11.17107
G01 X-3.97358 Y-11.19358
G01 X-3.97358 Y-11.80998
G01 X-3.97063 Y-11.83996
G01 X-3.96189 Y-11.86876
G01 X-3.94769 Y-11.89533
G01 X-3.92859 Y-11.91859
G01 X-3.90533 Y-11.93770
G01 X-3.87876 Y-11.95189
G01 X-3.84995 Y-11.96063
G01 X-3.81998 Y-11.96358
G01 X-3.20355 Y-11.96358
G01 X-3.18102 Y-11.94110
G01 X-3.20355 Y-11.96358
G01 X-3.20355 Y-12.23112
G01 X-3.12677 Y-12.28385
G01 X-3.34838 Y-12.38014
G01 X-3.53957 Y-12.52060
G01 X-3.69169 Y-12.69205
G01 X-3.80197 Y-12.88387
G01 X-3.84117 Y-13.00315
G01 X-4.20573 Y-13.00315
G01 X-4.17678 Y-12.88263
G01 X-4.08988 Y-12.67282
G01 X-3.96519 Y-12.47005
G01 X-3.93675 Y-12.40257
G01 X-3.93118 Y-12.37602
G01 X-3.94231 Y-12.29332
G01 X-3.95100 Y-12.26762
G01 X-4.00322 Y-12.20219
G01 X-4.12229 Y-12.11232
G01 X-4.19522 Y-12.01489
G01 X-4.23824 Y-11.89957
G01 X-4.24317 Y-11.85370
G01 X-4.24317 Y-11.11677
G01 X-3.89679 Y-11.11677
G01 X-3.89679 Y-11.80998
G01 X-3.89095 Y-11.83937
G01 X-3.88384 Y-11.85266
G01 X-3.86265 Y-11.87384
G01 X-3.84937 Y-11.88095
G01 X-3.81998 Y-11.88679
G01 X-3.12677 Y-11.88679
G01 X-3.12677 Y-12.28385
G01 X-3.35717 Y-12.13137
G01 X-3.35717 Y-12.11720
G01 X-3.33466 Y-12.09469
G01 X-3.35717 Y-12.11720
G01 X-3.77561 Y-12.11720
G01 X-3.83865 Y-12.07966
G01 X-3.77561 Y-12.11720
G01 X-3.74917 Y-12.15647
G01 X-3.72722 Y-12.20635
G01 X-3.71445 Y-12.25934
G01 X-3.70235 Y-12.35799
G01 X-3.72902 Y-12.42459
G01 X-3.70235 Y-12.35799
G01 X-3.66306 Y-12.32344
G01 X-3.46359 Y-12.18060
G01 X-3.35717 Y-12.13137
G01 X-3.34571 Y-12.13846
G01 X-3.45222 Y-12.14092
G01 X-3.61554 Y-12.19398
G01 X-3.64614 Y-12.21623
G01 X-3.66733 Y-12.27376
G01 X-3.64614 Y-12.21623
G01 X-3.65153 Y-12.19398
G01 X-3.68871 Y-12.16469
G01 X-3.65153 Y-12.19398
G01 X-3.61554 Y-12.19398
G04 P0 ( dwell for no time -- G64 should not smooth over this point )
G00 Z2.00000 ( retract )

G00 X-6.44926 Y-12.07318 ( rapid move to begin. )
G01 F60.00000
( Mill infeed pass 1/2 )
G01 Z-0.05000
G04 P0 ( dwell for no time -- G64 should not smooth over this point )
G01 F120.00000
G01 X-6.44926 Y-12.07318
G01 X-6.44926 Y-10.64176
G01 X-6.45419 Y-10.59589
G01 X-6.49722 Y-10.48057
G01 X-6.57012 Y-10.38316
G01 X-6.66755 Y-10.31024
G01 X-6.78292 Y-10.26721
G01 X-6.82876 Y-10.26226
G01 X-7.75218 Y-10.26226
G01 X-7.75218 Y-10.60869
G01 X-6.87248 Y-10.60869
G01 X-6.85749 Y-10.61016
G01 X-6.82983 Y-10.62162
G01 X-6.81817 Y-10.63117
G01 X-6.80154 Y-10.65609
G01 X-6.79569 Y-10.68548
G01 X-6.79569 Y-12.07318
G01 X-6.44926 Y-12.07318
G01 X-6.52607 Y-11.99637
G01 X-6.52521 Y-10.64575
G01 X-6.52953 Y-10.61369
G01 X-6.56427 Y-10.51723
G01 X-6.62445 Y-10.43747
G01 X-6.70436 Y-10.37763
G01 X-6.80052 Y-10.34133
G01 X-7.67537 Y-10.33907
G01 X-7.69798 Y-10.31636
G01 X-7.67537 Y-10.33907
G01 X-7.67537 Y-10.53188
G01 X-7.69788 Y-10.55439
G01 X-7.67537 Y-10.53188
G01 X-6.87248 Y-10.53188
G01 X-6.84253 Y-10.53483
G01 X-6.81370 Y-10.54359
G01 X-6.78716 Y-10.55776
G01 X-6.76387 Y-10.57686
G01 X-6.74477 Y-10.60016
G01 X-6.73057 Y-10.62670
G01 X-6.72183 Y-10.65553
G01 X-6.71888 Y-10.68548
G01 X-6.71888 Y-11.99637
G01 X-6.74139 Y-12.01887
G01 X-6.71888 Y-11.99637
G01 X-6.52607 Y-11.99637
G01 X-6.60286 Y-11.91958
G01 X-6.60194 Y-10.64984
G01 X-6.60486 Y-10.63150
G01 X-6.63245 Y-10.55446
G01 X-6.67931 Y-10.49233
G01 X-6.74154 Y-10.44572
G01 X-6.81833 Y-10.41667
G01 X-7.59859 Y-10.41585
G01 X-7.62114 Y-10.39325
G01 X-7.59859 Y-10.41585
G01 X-7.59859 Y-10.45510
G01 X-7.62091 Y-10.47730
G01 X-7.59859 Y-10.45510
G01 X-6.87248 Y-10.45510
G01 X-6.82755 Y-10.45952
G01 X-6.78431 Y-10.47262
G01 X-6.74449 Y-10.49391
G01 X-6.70956 Y-10.52256
G01 X-6.68091 Y-10.55748
G01 X-6.65963 Y-10.59731
G01 X-6.64652 Y-10.64054
G01 X-6.64210 Y-10.68548
G01 X-6.64210 Y-11.91958
G01 X-6.66458 Y-11.94206
G01 X-6.64210 Y-11.91958
G01 X-6.60286 Y-11.91958
( Mill infeed pass 2/2 )
G00 Z2.00000 ( retract )
G00 X-6.44926 Y-12.07318 ( rapid move to begin. )
G01 Z-0.10000
G04 P0 ( dwell for no time -- G64 should not smooth over this point )
G01 F120.00000
G01 X-6.44926 Y-12.07318
G01 X-6.44926 Y-10.64176
G01 X-6.45419 Y-10.59589
G01 X-6.49722 Y-10.48057
G01 X-6.57012 Y-10.38316
G01 X-6.66755 Y-10.31024
G01 X-6.78292 Y-10.26721
G01 X-6.82876 Y-10.26226
G01 X-7.75218 Y-10.26226
G01 X-7.75218 Y-10.60869
G01 X-6.87248 Y-10.60869
G01 X-6.85749 Y-10.61016
G01 X-6.82983 Y-10.62162
G01 X-6.81817 Y-10.63117
G01 X-6.80154 Y-10.65609
G01 X-6.79569 Y-10.68548
G01 X-6.79569 Y-12.07318
G01 X-6.44926 Y-12.07318
G01 X-6.52607 Y-11.99637
G01 X-6.52521 Y-10.64575
G01 X-6.52953 Y-10.61369
G01 X-6.56427 Y-10.51723
G01 X-6.62445 Y-10.43747
G01 X-6.70436 Y-10.37763
G01 X-6.80052 Y-10.34133
G01 X-7.67537 Y-10.33907
G01 X-7.69798 Y-10.31636
G01 X-7.67537 Y-10.33907
G01 X-7.67537 Y-10.53188
G01 X-7.69788 Y-10.55439
G01 X-7.67537 Y-10.53188
G01 X-6.87248 Y-10.53188
G01 X-6.84253 Y-10.53483
G01 X-6.81370 Y-10.54359
G01 X-6.78716 Y-10.55776
G01 X-6.76387 Y-10.57686
G01 X-6.74477 Y-10.60016
G01 X-6.73057 Y-10.62670
G01 X-6.72183 Y-10.65553
G01 X-6.71888 Y-10.68548
G01 X-6.71888 Y-11.99637
G01 X-6.74139 Y-12.01887
G01 X-6.71888 Y-11.99637
G01 X-6.52607 Y-11.99637
G01 X-6.60286 Y-11.91958
G01 X-6.60194 Y-10.64984
G01 X-6.60486 Y-10.63150
G01 X-6.63245 Y-10.55446
G01 X-6.67931 Y-10.49233
G01 X-6.74154 Y-10.44572
G01 X-6.81833 Y-10.41667
G01 X-7.59859 Y-10.41585
G01 X-7.62114 Y-10.39325
G01 X-7.59859 Y-10.41585
G01 X-7.59859 Y-10.45510
G01 X-7.62091 Y-10.47730
G01 X-7.59859 Y-10.45510
G01 X-6.87248 Y-10.45510
G01 X-6.82755 Y-10.45952
G01 X-6.78431 Y-10.47262
G01 X-6.74449 Y-10.49391
G01 X-6.70956 Y-10.52256
G01 X-6.68091 Y-10.55748
G01 X-6.65963 Y-10.59731
G01 X-6.64652 Y-10.64054
G01 X-6.64210 Y-10.68548
G01 X-6.64210 Y-11.91958
G01 X-6.66458 Y-11.94206
G01 X-6.64210 Y-11.91958
G01 X-6.60286 Y-11.91958
G04 P0 ( dwell for no time -- G64 should not smooth over this point )
G00 Z2.00000 ( retract )

G00 X-8.55937 Y-10.45510 ( rapid move to begin. )
G01 F60.00000
( Mill infeed pass 1/2 )
G01 Z-0.05000
G04 P0 ( dwell for no time -- G64 should not smooth over this point )
G01 F120.00000
G01 X-8.55937 Y-10.45510
G01 X-8.55937 Y-10.41585
G01 X-8.53681 Y-10.39325
G01 X-8.55937 Y-10.41585
G01 X-9.33966 Y-10.41664
G01 X-9.41636 Y-10.44572
G01 X-9.47864 Y-10.49233
G01 X-9.52548 Y-10.55444
G01 X-9.55307 Y-10.63150
G01 X-9.55599 Y-10.64984
G01 X-9.55507 Y-11.91958
G01 X-9.57755 Y-11.94206
G01 X-9.55507 Y-11.91958
G01 X-9.51588 Y-11.91958
G01 X-9.49340 Y-11.94206
G01 X-9.51588 Y-11.91958
G01 X-9.51588 Y-10.68548
G01 X-9.51146 Y-10.64054
G01 X-9.49836 Y-10.59731
G01 X-9.47704 Y-10.55748
G01 X-9.44839 Y-10.52256
G01 X-9.41349 Y-10.49391
G01 X-9.37367 Y-10.47262
G01 X-9.33044 Y-10.45952
G01 X-9.28548 Y-10.45510
G01 X-8.55937 Y-10.45510
G01 X-8.48258 Y-10.53188
G01 X-9.28548 Y-10.53188
G01 X-9.31545 Y-10.53483
G01 X-9.34428 Y-10.54359
G01 X-9.37082 Y-10.55776
G01 X-9.39409 Y-10.57686
G01 X-9.41319 Y-10.60016
G01 X-9.42739 Y-10.62670
G01 X-9.43613 Y-10.65553
G01 X-9.43910 Y-10.68548
G01 X-9.43910 Y-11.99637
G01 X-9.41659 Y-12.01887
G01 X-9.43910 Y-11.99637
G01 X-9.63186 Y-11.99637
G01 X-9.65436 Y-12.01887
G01 X-9.63186 Y-11.99637
G01 X-9.63272 Y-10.64575
G01 X-9.62840 Y-10.61369
G01 X-9.59366 Y-10.51723
G01 X-9.53351 Y-10.43747
G01 X-9.45355 Y-10.37763
G01 X-9.35746 Y-10.34133
G01 X-8.48258 Y-10.33907
G01 X-8.45998 Y-10.31636
G01 X-8.48258 Y-10.33907
G01 X-8.48258 Y-10.53188
G01 X-8.40577 Y-10.60869
G01 X-9.28548 Y-10.60869
G01 X-9.31487 Y-10.61453
G01 X-9.33978 Y-10.63117
G01 X-9.35645 Y-10.65609
G01 X-9.36229 Y-10.68548
G01 X-9.36229 Y-12.07318
G01 X-9.70867 Y-12.07318
G01 X-9.70867 Y-10.64176
G01 X-9.70374 Y-10.59589
G01 X-9.66071 Y-10.48055
G01 X-9.58781 Y-10.38316
G01 X-9.49035 Y-10.31022
G01 X-9.37504 Y-10.26719
G01 X-9.32919 Y-10.26226
G01 X-8.40577 Y-10.26226
G01 X-8.40577 Y-10.60869
( Mill infeed pass 2/2 )
G00 Z2.00000 ( retract )
G00 X-8.55937 Y-10.45510 ( rapid move to begin. )
G01 Z-0.10000
G04 P0 ( dwell for no time -- G64 should not smooth over this point )
G01 F120.00000
G01 X-8.55937 Y-10.45510
G01 X-8.55937 Y-10.41585
G01 X-8.53681 Y-10.39325
G01 X-8.55937 Y-10.41585
G01 X-9.33966 Y-10.41664
G01 X-9.41636 Y-10.44572
G01 X-9.47864 Y-10.49233
G01 X-9.52548 Y-10.55444
G01 X-9.55307 Y-10.63150
G01 X-9.55599 Y-10.64984
G01 X-9.55507 Y-11.91958
G01 X-9.57755 Y-11.94206
G01 X-9.55507 Y-11.91958
G01 X-9.51588 Y-11.91958
G01 X-9.49340 Y-11.94206
G01 X-9.51588 Y-11.91958
G01 X-9.51588 Y-10.68548
G01 X-9.51146 Y-10.64054
G01 X-9.49836 Y-10.59731
G01 X-9.47704 Y-10.55748
G01 X-9.44839 Y-10.52256
G01 X-9.41349 Y-10.49391
G01 X-9.37367 Y-10.47262
G01 X-9.33044 Y-10.45952
G01 X-9.28548 Y-10.45510
G01 X-8.55937 Y-10.45510
G01 X-8.48258 Y-10.53188
G01 X-9.28548 Y-10.53188
G01 X-9.31545 Y-10.53483
G01 X-9.34428 Y-10.54359
G01 X-9.37082 Y-10.55776
G01 X-9.39409 Y-10.57686
G01 X-9.41319 Y-10.60016
G01 X-9.42739 Y-10.62670
G01 X-9.43613 Y-10.65553
G01 X-9.43910 Y-10.68548
G01 X-9.43910 Y-11.99637
G01 X-9.41659 Y-12.01887
G01 X-9.43910 Y-11.99637
G01 X-9.63186 Y-11.99637
G01 X-9.65436 Y-12.01887
G01 X-9.63186 Y-11.99637
G01 X-9.63272 Y-10.64575
G01 X-9.62840 Y-10.61369
G01 X-9.59366 Y-10.51723
G01 X-9.53351 Y-10.43747
G01 X-9.45355 Y-10.37763
G01 X-9.35746 Y-10.34133
G01 X-8.48258 Y-10.33907
G01 X-8.45998 Y-10.31636
G01 X-8.48258 Y-10.33907
G01 X-8.48258 Y-10.53188
G01 X-8.40577 Y-10.60869
G01 X-9.28548 Y-10.60869
G01 X-9.31487 Y-10.61453
G01 X-9.33978 Y-10.63117
G01 X-9.35645 Y-10.65609
G01 X-9.36229 Y-10.68548
G01 X-9.36229 Y-12.07318
G01 X-9.70867 Y-12.07318
G01 X-9.70867 Y-10.64176
G01 X-9.70374 Y-10.59589
G01 X-9.66071 Y-10.48055
G01 X-9.58781 Y-10.38316
G01 X-9.49035 Y-10.31022
G01 X-9.37504 Y-10.26719
G01 X-9.32919 Y-10.26226
G01 X-8.40577 Y-10.26226
G01 X-8.40577 Y-10.60869
G04 P0 ( dwell for no time -- G64 should not smooth over this point )
G00 Z2.00000 ( retract )

G00 X-6.44926 Y-14.15819 ( rapid move to begin. )
G01 F60.00000
( Mill infeed pass 1/2 )
G01 Z-0.05000
G04 P0 ( dwell for no time -- G64 should not smooth over this point )
G01 F120.00000
G01 X-6.44926 Y-14.15819
G01 X-6.44926 Y-12.72677
G01 X-6.79569 Y-12.72677
G01 X-6.79569 Y-14.11448
G01 X-6.80154 Y-14.14389
G01 X-6.81817 Y-14.16881
G01 X-6.82983 Y-14.17836
G01 X-6.85749 Y-14.18981
G01 X-6.87248 Y-14.19128
G01 X-7.75218 Y-14.19128
G01 X-7.75218 Y-14.53769
G01 X-6.82876 Y-14.53766
G01 X-6.78289 Y-14.53274
G01 X-6.66755 Y-14.48971
G01 X-6.57012 Y-14.41679
G01 X-6.49722 Y-14.31935
G01 X-6.45419 Y-14.20406
G01 X-6.44926 Y-14.15819
G01 X-6.52607 Y-14.15407
G01 X-6.52607 Y-12.80358
G01 X-6.50344 Y-12.78100
G01 X-6.52607 Y-12.80358
G01 X-6.71888 Y-12.80358
G01 X-6.74139 Y-12.78108
G01 X-6.71888 Y-12.80358
G01 X-6.71888 Y-14.11448
G01 X-6.72183 Y-14.14445
G01 X-6.73057 Y-14.17328
G01 X-6.74477 Y-14.19982
G01 X-6.76387 Y-14.22309
G01 X-6.78716 Y-14.24221
G01 X-6.81370 Y-14.25638
G01 X-6.84253 Y-14.26512
G01 X-6.87248 Y-14.26809
G01 X-7.67537 Y-14.26809
G01 X-7.69788 Y-14.24559
G01 X-7.67537 Y-14.26809
G01 X-7.67537 Y-14.46088
G01 X-7.69788 Y-14.48338
G01 X-7.67537 Y-14.46088
G01 X-6.83275 Y-14.46172
G01 X-6.80070 Y-14.45740
G01 X-6.70423 Y-14.42265
G01 X-6.62445 Y-14.36248
G01 X-6.56458 Y-14.28255
G01 X-6.52833 Y-14.18646
G01 X-6.52607 Y-14.15407
G01 X-6.60286 Y-14.14996
G01 X-6.60364 Y-14.16868
G01 X-6.63268 Y-14.24536
G01 X-6.67931 Y-14.30762
G01 X-6.74144 Y-14.35448
G01 X-6.81850 Y-14.38206
G01 X-6.83684 Y-14.38499
G01 X-7.59859 Y-14.38407
G01 X-7.62107 Y-14.40658
G01 X-7.59859 Y-14.38407
G01 X-7.59859 Y-14.34488
G01 X-7.62091 Y-14.32268
G01 X-7.59859 Y-14.34488
G01 X-6.87248 Y-14.34488
G01 X-6.82755 Y-14.34046
G01 X-6.78431 Y-14.32735
G01 X-6.74449 Y-14.30607
G01 X-6.70956 Y-14.27739
G01 X-6.68091 Y-14.24249
G01 X-6.65963 Y-14.20266
G01 X-6.64652 Y-14.15943
G01 X-6.64210 Y-14.11448
G01 X-6.64210 Y-12.88037
G01 X-6.66458 Y-12.85789
G01 X-6.64210 Y-12.88037
G01 X-6.60286 Y-12.88037
G01 X-6.58030 Y-12.85784
G01 X-6.60286 Y-12.88037
G01 X-6.60286 Y-14.14996
( Mill infeed pass 2/2 )
G00 Z2.00000 ( retract )
G00 X-6.44926 Y-14.15819 ( rapid move to begin. )
G01 Z-0.10000
G04 P0 ( dwell for no time -- G64 should not smooth over this point )
G01 F120.00000
G01 X-6.44926 Y-14.15819
G01 X-6.44926 Y-12.72677
G01 X-6.79569 Y-12.72677
G01 X-6.79569 Y-14.11448
G01 X-6.80154 Y-14.14389
G01 X-6.81817 Y-14.16881
G01 X-6.82983 Y-14.17836
G01 X-6.85749 Y-14.18981
G01 X-6.87248 Y-14.19128
G01 X-7.75218 Y-14.19128
G01 X-7.75218 Y-14.53769
G01 X-6.82876 Y-14.53766
G01 X-6.78289 Y-14.53274
G01 X-6.66755 Y-14.48971
G01 X-6.57012 Y-14.41679
G01 X-6.49722 Y-14.31935
G01 X-6.45419 Y-14.20406
G01 X-6.44926 Y-14.15819
G01 X-6.52607 Y-14.15407
G01 X-6.52607 Y-12.80358
G01 X-6.50344 Y-12.78100
G01 X-6.52607 Y-12.80358
G01 X-6.71888 Y-12.80358
G01 X-6.74139 Y-12.78108
G01 X-6.71888 Y-12.80358
G01 X-6.71888 Y-14.11448
G01 X-6.72183 Y-14.14445
G01 X-6.73057 Y-14.17328
G01 X-6.74477 Y-14.19982
G01 X-6.76387 Y-14.22309
G01 X-6.78716 Y-14.24221
G01 X-6.81370 Y-14.25638
G01 X-6.84253 Y-14.26512
G01 X-6.87248 Y-14.26809
G01 X-7.67537 Y-14.26809
G01 X-7.69788 Y-14.24559
G01 X-7.67537 Y-14.26809
G01 X-7.67537 Y-14.46088
G01 X-7.69788 Y-14.48338
G01 X-7.67537 Y-14.46088
G01 X-6.83275 Y-14.46172
G01 X-6.80070 Y-14.45740
G01 X-6.70423 Y-14.42265
G01 X-6.62445 Y-14.36248
G01 X-6.56458 Y-14.28255
G01 X-6.52833 Y-14.18646
G01 X-6.52607 Y-14.15407
G01 X-6.60286 Y-14.14996
G01 X-6.60364 Y-14.16868
G01 X-6.63268 Y-14.24536
G01 X-6.67931 Y-14.30762
G01 X-6.74144 Y-14.35448
G01 X-6.81850 Y-14.38206
G01 X-6.83684 Y-14.38499
G01 X-7.59859 Y-14.38407
G01 X-7.62107 Y-14.40658
G01 X-7.59859 Y-14.38407
G01 X-7.59859 Y-14.34488
G01 X-7.62091 Y-14.32268
G01 X-7.59859 Y-14.34488
G01 X-6.87248 Y-14.34488
G01 X-6.82755 Y-14.34046
G01 X-6.78431 Y-14.32735
G01 X-6.74449 Y-14.30607
G01 X-6.70956 Y-14.27739
G01 X-6.68091 Y-14.24249
G01 X-6.65963 Y-14.20266
G01 X-6.64652 Y-14.15943
G01 X-6.64210 Y-14.11448
G01 X-6.64210 Y-12.88037
G01 X-6.66458 Y-12.85789
G01 X-6.64210 Y-12.88037
G01 X-6.60286 Y-12.88037
G01 X-6.58030 Y-12.85784
G01 X-6.60286 Y-12.88037
G01 X-6.60286 Y-14.14996
G04 P0 ( dwell for no time -- G64 should not smooth over this point )
G00 Z2.00000 ( retract )

G00 X-8.40577 Y-14.53769 ( rapid move to begin. )
G01 F60.00000
( Mill infeed pass 1/2 )
G01 Z-0.05000
G04 P0 ( dwell for no time -- G64 should not smooth over this point )
G01 F120.00000
G01 X-8.40577 Y-14.53769
G01 X-8.40577 Y-14.19128
G01 X-9.28548 Y-14.19128
G01 X-9.30046 Y-14.18981
G01 X-9.32815 Y-14.17836
G01 X-9.34933 Y-14.15715
G01 X-9.35645 Y-14.14389
G01 X-9.36229 Y-14.11448
G01 X-9.36229 Y-12.72677
G01 X-9.70867 Y-12.72677
G01 X-9.70867 Y-14.15819
G01 X-9.70374 Y-14.20406
G01 X-9.66071 Y-14.31940
G01 X-9.58781 Y-14.41679
G01 X-9.49038 Y-14.48971
G01 X-9.37504 Y-14.53274
G01 X-9.32917 Y-14.53769
G01 X-8.40577 Y-14.53769
G01 X-8.48258 Y-14.46088
G01 X-8.48258 Y-14.26809
G01 X-8.46008 Y-14.24559
G01 X-8.48258 Y-14.26809
G01 X-9.28548 Y-14.26809
G01 X-9.31545 Y-14.26512
G01 X-9.34428 Y-14.25638
G01 X-9.37082 Y-14.24221
G01 X-9.39409 Y-14.22309
G01 X-9.41319 Y-14.19982
G01 X-9.42739 Y-14.17328
G01 X-9.43613 Y-14.14445
G01 X-9.43910 Y-14.11448
G01 X-9.43910 Y-12.80358
G01 X-9.41659 Y-12.78108
G01 X-9.43910 Y-12.80358
G01 X-9.63186 Y-12.80358
G01 X-9.65436 Y-12.78108
G01 X-9.63186 Y-12.80358
G01 X-9.63272 Y-14.15420
G01 X-9.62840 Y-14.18626
G01 X-9.59366 Y-14.28272
G01 X-9.53351 Y-14.36248
G01 X-9.45370 Y-14.42265
G01 X-9.35723 Y-14.45743
G01 X-9.32515 Y-14.46174
G01 X-8.48258 Y-14.46088
G01 X-8.55937 Y-14.38410
G01 X-8.55937 Y-14.34488
G01 X-8.53704 Y-14.32268
G01 X-8.55937 Y-14.34488
G01 X-9.28548 Y-14.34488
G01 X-9.33044 Y-14.34046
G01 X-9.37367 Y-14.32735
G01 X-9.41349 Y-14.30607
G01 X-9.44839 Y-14.27739
G01 X-9.47704 Y-14.24249
G01 X-9.49836 Y-14.20266
G01 X-9.51146 Y-14.15943
G01 X-9.51588 Y-14.11448
G01 X-9.51588 Y-12.88037
G01 X-9.49340 Y-12.85789
G01 X-9.51588 Y-12.88037
G01 X-9.55507 Y-12.88037
G01 X-9.57755 Y-12.85789
G01 X-9.55507 Y-12.88037
G01 X-9.55599 Y-14.15011
G01 X-9.55307 Y-14.16845
G01 X-9.52548 Y-14.24551
G01 X-9.47864 Y-14.30762
G01 X-9.41649 Y-14.35448
G01 X-9.33940 Y-14.38209
G01 X-9.32104 Y-14.38501
G01 X-8.55937 Y-14.38410
( Mill infeed pass 2/2 )
G00 Z2.00000 ( retract )
G00 X-8.40577 Y-14.53769 ( rapid move to begin. )
G01 Z-0.10000
G04 P0 ( dwell for no time -- G64 should not smooth over this point )
G01 F120.00000
G01 X-8.40577 Y-14.53769
G01 X-8.40577 Y-14.19128
G01 X-9.28548 Y-14.19128
G01 X-9.30046 Y-14.18981
G01 X-9.32815 Y-14.17836
G01 X-9.34933 Y-14.15715
G01 X-9.35645 Y-14.14389
G01 X-9.36229 Y-14.11448
G01 X-9.36229 Y-12.72677
G01 X-9.70867 Y-12.72677
G01 X-9.70867 Y-14.15819
G01 X-9.70374 Y-14.20406
G01 X-9.66071 Y-14.31940
G01 X-9.58781 Y-14.41679
G01 X-9.49038 Y-14.48971
G01 X-9.37504 Y-14.53274
G01 X-9.32917 Y-14.53769
G01 X-8.40577 Y-14.53769
G01 X-8.48258 Y-14.46088
G01 X-8.48258 Y-14.26809
G01 X-8.46008 Y-14.24559
G01 X-8.48258 Y-14.26809
G01 X-9.28548 Y-14.26809
G01 X-9.31545 Y-14.26512
G01 X-9.34428 Y-14.25638
G01 X-9.37082 Y-14.24221
G01 X-9.39409 Y-14.22309
G01 X-9.41319 Y-14.19982
G01 X-9.42739 Y-14.17328
G01 X-9.43613 Y-14.14445
G01 X-9.43910 Y-14.11448
G01 X-9.43910 Y-12.80358
G01 X-9.41659 Y-12.78108
G01 X-9.43910 Y-12.80358
G01 X-9.63186 Y-12.80358
G01 X-9.65436 Y-12.78108
G01 X-9.63186 Y-12.80358
G01 X-9.63272 Y-14.15420
G01 X-9.62840 Y-14.18626
G01 X-9.59366 Y-14.28272
G01 X-9.53351 Y-14.36248
G01 X-9.45370 Y-14.42265
G01 X-9.35723 Y-14.45743
G01 X-9.32515 Y-14.46174
G01 X-8.48258 Y-14.46088
G01 X-8.55937 Y-14.38410
G01 X-8.55937 Y-14.34488
G01 X-8.53704 Y-14.32268
G01 X-8.55937 Y-14.34488
G01 X-9.28548 Y-14.34488
G01 X-9.33044 Y-14.34046
G01 X-9.37367 Y-14.32735
G01 X-9.41349 Y-14.30607
G01 X-9.44839 Y-14.27739
G01 X-9.47704 Y-14.24249
G01 X-9.49836 Y-14.20266
G01 X-9.51146 Y-14.15943
G01 X-9.51588 Y-14.11448
G01 X-9.51588 Y-12.88037
G01 X-9.49340 Y-12.85789
G01 X-9.51588 Y-12.88037
G01 X-9.55507 Y-12.88037
G01 X-9.57755 Y-12.85789
G01 X-9.55507 Y-12.88037
G01 X-9.55599 Y-14.15011
G01 X-9.55307 Y-14.16845
G01 X-9.52548 Y-14.24551
G01 X-9.47864 Y-14.30762
G01 X-9.41649 Y-14.35448
G01 X-9.33940 Y-14.38209
G01 X-9.32104 Y-14.38501
G01 X-8.55937 Y-14.38410
G04 P0 ( dwell for no time -- G64 should not smooth over this point )
G00 Z2.00000 ( retract )

G00 X-12.29126 Y-12.07318 ( rapid move to begin. )
G01 F60.00000
( Mill infeed pass 1/2 )
G01 Z-0.05000
G04 P0 ( dwell for no time -- G64 should not smooth over this point )
G01 F120.00000
G01 X-12.29126 Y-12.07318
G01 X-12.29126 Y-10.64176
G01 X-12.29619 Y-10.59589
G01 X-12.33922 Y-10.48057
G01 X-12.41214 Y-10.38316
G01 X-12.50955 Y-10.31024
G01 X-12.62492 Y-10.26721
G01 X-12.67076 Y-10.26226
G01 X-13.59418 Y-10.26226
G01 X-13.59418 Y-10.60869
G01 X-12.71445 Y-10.60869
G01 X-12.69949 Y-10.61016
G01 X-12.67183 Y-10.62162
G01 X-12.66017 Y-10.63117
G01 X-12.64354 Y-10.65609
G01 X-12.63769 Y-10.68548
G01 X-12.63769 Y-12.07318
G01 X-12.29126 Y-12.07318
G01 X-12.36807 Y-11.99637
G01 X-12.36807 Y-10.64588
G01 X-12.37033 Y-10.61347
G01 X-12.40660 Y-10.51738
G01 X-12.46645 Y-10.43747
G01 X-12.54623 Y-10.37730
G01 X-12.64272 Y-10.34252
G01 X-12.67478 Y-10.33821
G01 X-13.51737 Y-10.33907
G01 X-13.53988 Y-10.31657
G01 X-13.51737 Y-10.33907
G01 X-13.51737 Y-10.53188
G01 X-13.53988 Y-10.55439
G01 X-13.51737 Y-10.53188
G01 X-12.71445 Y-10.53188
G01 X-12.68453 Y-10.53483
G01 X-12.65570 Y-10.54359
G01 X-12.62916 Y-10.55776
G01 X-12.60587 Y-10.57686
G01 X-12.58677 Y-10.60016
G01 X-12.57257 Y-10.62670
G01 X-12.56383 Y-10.65553
G01 X-12.56088 Y-10.68548
G01 X-12.56088 Y-11.99637
G01 X-12.58339 Y-12.01887
G01 X-12.56088 Y-11.99637
G01 X-12.36807 Y-11.99637
G01 X-12.44486 Y-11.91958
G01 X-12.48410 Y-11.91958
G01 X-12.50658 Y-11.94206
G01 X-12.48410 Y-11.91958
G01 X-12.48410 Y-10.68548
G01 X-12.48852 Y-10.64054
G01 X-12.50163 Y-10.59731
G01 X-12.52291 Y-10.55748
G01 X-12.55156 Y-10.52256
G01 X-12.58649 Y-10.49391
G01 X-12.62631 Y-10.47262
G01 X-12.66955 Y-10.45952
G01 X-12.71445 Y-10.45510
G01 X-13.44059 Y-10.45510
G01 X-13.46291 Y-10.47730
G01 X-13.44059 Y-10.45510
G01 X-13.44059 Y-10.41585
G01 X-13.46307 Y-10.39338
G01 X-13.44059 Y-10.41585
G01 X-12.67889 Y-10.41494
G01 X-12.66055 Y-10.41786
G01 X-12.58344 Y-10.44547
G01 X-12.52131 Y-10.49233
G01 X-12.47470 Y-10.55456
G01 X-12.44564 Y-10.63127
G01 X-12.44486 Y-10.64999
G01 X-12.44486 Y-11.91958
( Mill infeed pass 2/2 )
G00 Z2.00000 ( retract )
G00 X-12.29126 Y-12.07318 ( rapid move to begin. )
G01 Z-0.10000
G04 P0 ( dwell for no time -- G64 should not smooth over this point )
G01 F120.00000
G01 X-12.29126 Y-12.07318
G01 X-12.29126 Y-10.64176
G01 X-12.29619 Y-10.59589
G01 X-12.33922 Y-10.48057
G01 X-12.41214 Y-10.38316
G01 X-12.50955 Y-10.31024
G01 X-12.62492 Y-10.26721
G01 X-12.67076 Y-10.26226
G01 X-13.59418 Y-10.26226
G01 X-13.59418 Y-10.60869
G01 X-12.71445 Y-10.60869
G01 X-12.69949 Y-10.61016
G01 X-12.67183 Y-10.62162
G01 X-12.66017 Y-10.63117
G01 X-12.64354 Y-10.65609
G01 X-12.63769 Y-10.68548
G01 X-12.63769 Y-12.07318
G01 X-12.29126 Y-12.07318
G01 X-12.36807 Y-11.99637
G01 X-12.36807 Y-10.64588
G01 X-12.37033 Y-10.61347
G01 X-12.40660 Y-10.51738
G01 X-12.46645 Y-10.43747
G01 X-12.54623 Y-10.37730
G01 X-12.64272 Y-10.34252
G01 X-12.67478 Y-10.33821
G01 X-13.51737 Y-10.33907
G01 X-13.53988 Y-10.31657
G01 X-13.51737 Y-10.33907
G01 X-13.51737 Y-10.53188
