( pcb2gcode 2.5.0 )
( Software-independent Gcode )

G94 ( Millimeters per minute feed rate. )
G21 ( Units == Millimeters. )

G90 ( Absolute coordinates. )
G00 S13000 ( RPM spindle speed. )
G01 F120.00000 ( Feedrate. )


G00 Z15.00000 (Retract to tool change height)
T0
M5      (Spindle stop.)
G04 P1.00000 (Wait for spindle to stop)
(MSG, Change tool bit to cutter diameter 1.00000mm)
M6      (Tool change.)
M0      (Temporary machine stop.)
M3 ( Spindle on clockwise. )
G04 P1.00000 (Wait for spindle to get up to speed)
G04 P0 ( dwell for no time -- G64 should not smooth over this point )
G00 Z2.00000 ( retract )

G00 X-0.49997 Y-38.90000 ( rapid move to begin. )
G01 Z-0.50000 F60.00000 ( plunge. )
G04 P0 ( dwell for no time -- G64 should not smooth over this point )
G01 F120.00000
G01 X-0.49997 Y-4.49999
G01 X-0.56962 Y-3.76817
G01 X-0.58875 Y-3.67200
G01 X-0.78793 Y-3.01544
G01 X-0.82545 Y-2.92489
G01 X-1.17409 Y-2.27769
G01 X-1.63860 Y-1.70790
G01 X-1.70790 Y-1.63860
G01 X-2.23827 Y-1.20332
G01 X-2.31978 Y-1.14887
G01 X-2.92489 Y-0.82545
G01 X-3.01544 Y-0.78793
G01 X-3.67200 Y-0.58875
G01 X-3.76817 Y-0.56962
G01 X-4.49999 Y-0.49997
G01 X-25.70000 Y-0.49997
G01 X-26.43177 Y-0.56962
G01 X-26.52794 Y-0.58875
G01 X-27.18450 Y-0.78793
G01 X-27.27505 Y-0.82545
G01 X-27.92225 Y-1.17409
G01 X-28.49204 Y-1.63860
G01 X-28.56133 Y-1.70790
G01 X-29.02585 Y-2.27769
G01 X-29.37452 Y-2.92489
G01 X-29.41203 Y-3.01544
G01 X-29.61119 Y-3.67200
G01 X-29.63032 Y-3.76814
G01 X-29.69999 Y-4.49999
G01 X-29.69999 Y-38.90000
G01 X-29.63032 Y-39.63180
G01 X-29.61119 Y-39.72791
G01 X-29.41203 Y-40.38450
G01 X-29.37452 Y-40.47508
G01 X-29.02585 Y-41.12227
G01 X-28.52839 Y-41.72842
G01 X-27.96164 Y-42.19661
G01 X-27.88016 Y-42.25107
G01 X-27.27505 Y-42.57451
G01 X-27.18450 Y-42.61203
G01 X-26.52794 Y-42.81119
G01 X-26.43177 Y-42.83032
G01 X-25.74900 Y-42.89758
G01 X-4.45097 Y-42.89758
G01 X-3.76814 Y-42.83032
G01 X-3.67200 Y-42.81119
G01 X-2.96923 Y-42.59550
G01 X-2.31978 Y-42.25107
G01 X-2.23830 Y-42.19661
G01 X-1.67155 Y-41.72842
G01 X-1.17409 Y-41.12227
G01 X-0.82545 Y-40.47508
G01 X-0.78793 Y-40.38453
G01 X-0.57683 Y-39.68034
G01 X-0.49997 Y-38.90000
G01 Z-1.00000 F60.00000 ( plunge. )
G04 P0 ( dwell for no time -- G64 should not smooth over this point )
G01 F120.00000
G01 X-0.49997 Y-4.49999
G01 X-0.56962 Y-3.76817
G01 X-0.58875 Y-3.67200
G01 X-0.78793 Y-3.01544
G01 X-0.82545 Y-2.92489
G01 X-1.17409 Y-2.27769
G01 X-1.63860 Y-1.70790
G01 X-1.70790 Y-1.63860
G01 X-2.23827 Y-1.20332
G01 X-2.31978 Y-1.14887
G01 X-2.92489 Y-0.82545
G01 X-3.01544 Y-0.78793
G01 X-3.67200 Y-0.58875
G01 X-3.76817 Y-0.56962
G01 X-4.49999 Y-0.49997
G01 X-25.70000 Y-0.49997
G01 X-26.43177 Y-0.56962
G01 X-26.52794 Y-0.58875
G01 X-27.18450 Y-0.78793
G01 X-27.27505 Y-0.82545
G01 X-27.92225 Y-1.17409
G01 X-28.49204 Y-1.63860
G01 X-28.56133 Y-1.70790
G01 X-29.02585 Y-2.27769
G01 X-29.37452 Y-2.92489
G01 X-29.41203 Y-3.01544
G01 X-29.61119 Y-3.67200
G01 X-29.63032 Y-3.76814
G01 X-29.69999 Y-4.49999
G01 X-29.69999 Y-38.90000
G01 X-29.63032 Y-39.63180
G01 X-29.61119 Y-39.72791
G01 X-29.41203 Y-40.38450
G01 X-29.37452 Y-40.47508
G01 X-29.02585 Y-41.12227
G01 X-28.52839 Y-41.72842
G01 X-27.96164 Y-42.19661
G01 X-27.88016 Y-42.25107
G01 X-27.27505 Y-42.57451
G01 X-27.18450 Y-42.61203
G01 X-26.52794 Y-42.81119
G01 X-26.43177 Y-42.83032
G01 X-25.74900 Y-42.89758
G01 X-4.45097 Y-42.89758
G01 X-3.76814 Y-42.83032
G01 X-3.67200 Y-42.81119
G01 X-2.96923 Y-42.59550
G01 X-2.31978 Y-42.25107
G01 X-2.23830 Y-42.19661
G01 X-1.67155 Y-41.72842
G01 X-1.17409 Y-41.12227
G01 X-0.82545 Y-40.47508
G01 X-0.78793 Y-40.38453
G01 X-0.57683 Y-39.68034
G01 X-0.49997 Y-38.90000
G01 Z-1.50000 F60.00000 ( plunge. )
G04 P0 ( dwell for no time -- G64 should not smooth over this point )
G01 F120.00000
G01 X-0.49997 Y-4.49999
G01 X-0.56962 Y-3.76817
G01 X-0.58875 Y-3.67200
G01 X-0.78793 Y-3.01544
G01 X-0.82545 Y-2.92489
G01 X-1.17409 Y-2.27769
G01 X-1.63860 Y-1.70790
G01 X-1.70790 Y-1.63860
G01 X-2.23827 Y-1.20332
G01 X-2.31978 Y-1.14887
G01 X-2.92489 Y-0.82545
G01 X-3.01544 Y-0.78793
G01 X-3.67200 Y-0.58875
G01 X-3.76817 Y-0.56962
G01 X-4.49999 Y-0.49997
G01 X-25.70000 Y-0.49997
G01 X-26.43177 Y-0.56962
G01 X-26.52794 Y-0.58875
G01 X-27.18450 Y-0.78793
G01 X-27.27505 Y-0.82545
G01 X-27.92225 Y-1.17409
G01 X-28.49204 Y-1.63860
G01 X-28.56133 Y-1.70790
G01 X-29.02585 Y-2.27769
G01 X-29.37452 Y-2.92489
G01 X-29.41203 Y-3.01544
G01 X-29.61119 Y-3.67200
G01 X-29.63032 Y-3.76814
G01 X-29.69999 Y-4.49999
G01 X-29.69999 Y-38.90000
G01 X-29.63032 Y-39.63180
G01 X-29.61119 Y-39.72791
G01 X-29.41203 Y-40.38450
G01 X-29.37452 Y-40.47508
G01 X-29.02585 Y-41.12227
G01 X-28.52839 Y-41.72842
G01 X-27.96164 Y-42.19661
G01 X-27.88016 Y-42.25107
G01 X-27.27505 Y-42.57451
G01 X-27.18450 Y-42.61203
G01 X-26.52794 Y-42.81119
G01 X-26.43177 Y-42.83032
G01 X-25.74900 Y-42.89758
G01 X-4.45097 Y-42.89758
G01 X-3.76814 Y-42.83032
G01 X-3.67200 Y-42.81119
G01 X-2.96923 Y-42.59550
G01 X-2.31978 Y-42.25107
G01 X-2.23830 Y-42.19661
G01 X-1.67155 Y-41.72842
G01 X-1.17409 Y-41.12227
G01 X-0.82545 Y-40.47508
G01 X-0.78793 Y-40.38453
G01 X-0.57683 Y-39.68034
G01 X-0.49997 Y-38.90000
G01 Z-2.00000 F60.00000 ( plunge. )
G04 P0 ( dwell for no time -- G64 should not smooth over this point )
G01 F120.00000
G01 X-0.49997 Y-4.49999
G01 X-0.56962 Y-3.76817
G01 X-0.58875 Y-3.67200
G01 X-0.78793 Y-3.01544
G01 X-0.82545 Y-2.92489
G01 X-1.17409 Y-2.27769
G01 X-1.63860 Y-1.70790
G01 X-1.70790 Y-1.63860
G01 X-2.23827 Y-1.20332
G01 X-2.31978 Y-1.14887
G01 X-2.92489 Y-0.82545
G01 X-3.01544 Y-0.78793
G01 X-3.67200 Y-0.58875
G01 X-3.76817 Y-0.56962
G01 X-4.49999 Y-0.49997
G01 X-25.70000 Y-0.49997
G01 X-26.43177 Y-0.56962
G01 X-26.52794 Y-0.58875
G01 X-27.18450 Y-0.78793
G01 X-27.27505 Y-0.82545
G01 X-27.92225 Y-1.17409
G01 X-28.49204 Y-1.63860
G01 X-28.56133 Y-1.70790
G01 X-29.02585 Y-2.27769
G01 X-29.37452 Y-2.92489
G01 X-29.41203 Y-3.01544
G01 X-29.61119 Y-3.67200
G01 X-29.63032 Y-3.76814
G01 X-29.69999 Y-4.49999
G01 X-29.69999 Y-38.90000
G01 X-29.63032 Y-39.63180
G01 X-29.61119 Y-39.72791
G01 X-29.41203 Y-40.38450
G01 X-29.37452 Y-40.47508
G01 X-29.02585 Y-41.12227
G01 X-28.52839 Y-41.72842
G01 X-27.96164 Y-42.19661
G01 X-27.88016 Y-42.25107
G01 X-27.27505 Y-42.57451
G01 X-27.18450 Y-42.61203
G01 X-26.52794 Y-42.81119
G01 X-26.43177 Y-42.83032
G01 X-25.74900 Y-42.89758
G01 X-4.45097 Y-42.89758
G01 X-3.76814 Y-42.83032
G01 X-3.67200 Y-42.81119
G01 X-2.96923 Y-42.59550
G01 X-2.31978 Y-42.25107
G01 X-2.23830 Y-42.19661
G01 X-1.67155 Y-41.72842
G01 X-1.17409 Y-41.12227
G01 X-0.82545 Y-40.47508
G01 X-0.78793 Y-40.38453
G01 X-0.57683 Y-39.68034
G01 X-0.49997 Y-38.90000
G01 Z-2.50000 F60.00000 ( plunge. )
G04 P0 ( dwell for no time -- G64 should not smooth over this point )
G01 F120.00000
G01 X-0.49997 Y-4.49999
G01 X-0.56962 Y-3.76817
G01 X-0.58875 Y-3.67200
G01 X-0.78793 Y-3.01544
G01 X-0.82545 Y-2.92489
G01 X-1.17409 Y-2.27769
G01 X-1.63860 Y-1.70790
G01 X-1.70790 Y-1.63860
G01 X-2.23827 Y-1.20332
G01 X-2.31978 Y-1.14887
G01 X-2.92489 Y-0.82545
G01 X-3.01544 Y-0.78793
G01 X-3.67200 Y-0.58875
G01 X-3.76817 Y-0.56962
G01 X-4.49999 Y-0.49997
G01 X-25.70000 Y-0.49997
G01 X-26.43177 Y-0.56962
G01 X-26.52794 Y-0.58875
G01 X-27.18450 Y-0.78793
G01 X-27.27505 Y-0.82545
G01 X-27.92225 Y-1.17409
G01 X-28.49204 Y-1.63860
G01 X-28.56133 Y-1.70790
G01 X-29.02585 Y-2.27769
G01 X-29.37452 Y-2.92489
G01 X-29.41203 Y-3.01544
G01 X-29.61119 Y-3.67200
G01 X-29.63032 Y-3.76814
G01 X-29.69999 Y-4.49999
G01 X-29.69999 Y-38.90000
G01 X-29.63032 Y-39.63180
G01 X-29.61119 Y-39.72791
G01 X-29.41203 Y-40.38450
G01 X-29.37452 Y-40.47508
G01 X-29.02585 Y-41.12227
G01 X-28.52839 Y-41.72842
G01 X-27.96164 Y-42.19661
G01 X-27.88016 Y-42.25107
G01 X-27.27505 Y-42.57451
G01 X-27.18450 Y-42.61203
G01 X-26.52794 Y-42.81119
G01 X-26.43177 Y-42.83032
G01 X-25.74900 Y-42.89758
G01 X-4.45097 Y-42.89758
G01 X-3.76814 Y-42.83032
G01 X-3.67200 Y-42.81119
G01 X-2.96923 Y-42.59550
G01 X-2.31978 Y-42.25107
G01 X-2.23830 Y-42.19661
G01 X-1.67155 Y-41.72842
G01 X-1.17409 Y-41.12227
G01 X-0.82545 Y-40.47508
G01 X-0.78793 Y-40.38453
G01 X-0.57683 Y-39.68034
G01 X-0.49997 Y-38.90000

G04 P0 ( dwell for no time -- G64 should not smooth over this point )
G00 Z15.000000 ( retract )

M5 ( Spindle off. )
G04 P1.000000
M9 ( Coolant off. )
M2 ( Program end. )

