( pcb2gcode 2.5.0 )
( Software-independent Gcode )

G94 ( Millimeters per minute feed rate. )
G21 ( Units == Millimeters. )

G90 ( Absolute coordinates. )
G00 S13000 ( RPM spindle speed. )
G01 F120.00000 ( Feedrate. )


G00 Z15.00000 (Retract to tool change height)
T0
M5      (Spindle stop.)
G04 P1.00000 (Wait for spindle to stop)
(MSG, Change tool bit to mill diameter 0.45360mm)
M6      (Tool change.)
M0      (Temporary machine stop.)
M3 ( Spindle on clockwise. )
G04 P1.00000 (Wait for spindle to get up to speed)
G04 P0 ( dwell for no time -- G64 should not smooth over this point )
G00 Z2.00000 ( retract )

G00 X-3.90180 Y-3.36819 ( rapid move to begin. )
G01 F60.00000
( Mill infeed pass 1/1 )
G01 Z-0.10000
G04 P0 ( dwell for no time -- G64 should not smooth over this point )
G01 F120.00000
G01 X-3.90180 Y-3.36819
G01 X-4.02499 Y-3.36819
G01 X-4.06923 Y-3.37254
G01 X-4.11178 Y-3.38544
G01 X-4.15099 Y-3.40642
G01 X-4.18536 Y-3.43461
G01 X-4.21356 Y-3.46898
G01 X-4.23454 Y-3.50820
G01 X-4.24744 Y-3.55074
G01 X-4.25178 Y-3.59499
G01 X-4.25178 Y-3.71815
G01 X-4.29816 Y-3.71815
G01 X-4.29611 Y-3.54015
G01 X-4.26723 Y-3.46268
G01 X-4.22016 Y-3.39979
G01 X-4.15727 Y-3.35272
G01 X-4.07977 Y-3.32384
G01 X-4.06067 Y-3.32179
G01 X-3.90180 Y-3.32179
G01 X-3.90180 Y-3.36819
G04 P0 ( dwell for no time -- G64 should not smooth over this point )
G00 Z2.00000 ( retract )

G00 X-4.72740 Y-2.46499 ( rapid move to begin. )
G01 F60.00000
( Mill infeed pass 1/1 )
G01 Z-0.10000
G04 P0 ( dwell for no time -- G64 should not smooth over this point )
G01 F120.00000
G01 X-4.72740 Y-2.46499
G01 X-4.74482 Y-2.25471
G01 X-4.74927 Y-2.23713
G01 X-4.79598 Y-2.28384
G01 X-4.77820 Y-2.46499
G01 X-4.79598 Y-2.64612
G01 X-4.74927 Y-2.69283
G01 X-4.74482 Y-2.67525
G01 X-4.72740 Y-2.46499
G04 P0 ( dwell for no time -- G64 should not smooth over this point )
G00 Z2.00000 ( retract )

G00 X-5.77964 Y-3.71818 ( rapid move to begin. )
G01 F60.00000
( Mill infeed pass 1/1 )
G01 Z-0.10000
G04 P0 ( dwell for no time -- G64 should not smooth over this point )
G01 F120.00000
G01 X-5.77964 Y-3.71818
G01 X-5.89945 Y-3.73817
G01 X-6.11048 Y-3.73817
G01 X-6.23032 Y-3.71818
G01 X-6.18703 Y-3.67490
G01 X-6.10951 Y-3.68630
G01 X-5.90047 Y-3.68630
G01 X-5.82292 Y-3.67490
G01 X-5.77964 Y-3.71818
G04 P0 ( dwell for no time -- G64 should not smooth over this point )
G00 Z2.00000 ( retract )

G00 X-7.21401 Y-2.64615 ( rapid move to begin. )
G01 F60.00000
( Mill infeed pass 1/1 )
G01 Z-0.10000
G04 P0 ( dwell for no time -- G64 should not smooth over this point )
G01 F120.00000
G01 X-7.21401 Y-2.64615
G01 X-7.26067 Y-2.69281
G01 X-7.26511 Y-2.67525
G01 X-7.28254 Y-2.46497
G01 X-7.26511 Y-2.25468
G01 X-7.26067 Y-2.23716
G01 X-7.21401 Y-2.28382
G01 X-7.23179 Y-2.46499
G01 X-7.21401 Y-2.64615
G04 P0 ( dwell for no time -- G64 should not smooth over this point )
G00 Z2.00000 ( retract )

G00 X-9.22741 Y-2.46499 ( rapid move to begin. )
G01 F60.00000
( Mill infeed pass 1/1 )
G01 Z-0.10000
G04 P0 ( dwell for no time -- G64 should not smooth over this point )
G01 F120.00000
G01 X-9.22741 Y-2.46499
G01 X-9.24484 Y-2.25471
G01 X-9.29663 Y-2.05016
G01 X-9.33298 Y-1.96728
G01 X-9.37039 Y-2.00467
G01 X-9.30499 Y-2.20993
G01 X-9.27819 Y-2.46499
G01 X-9.30499 Y-2.72006
G01 X-9.37036 Y-2.92527
G01 X-9.33298 Y-2.96266
G01 X-9.29663 Y-2.87980
G01 X-9.24484 Y-2.67525
G01 X-9.22741 Y-2.46499
G04 P0 ( dwell for no time -- G64 should not smooth over this point )
G00 Z2.00000 ( retract )

G00 X-10.00483 Y-3.63941 ( rapid move to begin. )
G01 F60.00000
( Mill infeed pass 1/1 )
G01 Z-0.10000
G04 P0 ( dwell for no time -- G64 should not smooth over this point )
G01 F120.00000
G01 X-10.00483 Y-3.63941
G01 X-10.19134 Y-3.70345
G01 X-10.39947 Y-3.73817
G01 X-10.61049 Y-3.73817
G01 X-10.81860 Y-3.70345
G01 X-11.00511 Y-3.63941
G01 X-10.96307 Y-3.59738
G01 X-10.90800 Y-3.62245
G01 X-10.86117 Y-3.63789
G01 X-10.65667 Y-3.68135
G01 X-10.60950 Y-3.68630
G01 X-10.40046 Y-3.68630
G01 X-10.35329 Y-3.68135
G01 X-10.12497 Y-3.63144
G01 X-10.04689 Y-3.59735
G01 X-10.00483 Y-3.63941
G04 P0 ( dwell for no time -- G64 should not smooth over this point )
G00 Z2.00000 ( retract )

G00 X-11.63960 Y-2.92529 ( rapid move to begin. )
G01 F60.00000
( Mill infeed pass 1/1 )
G01 Z-0.10000
G04 P0 ( dwell for no time -- G64 should not smooth over this point )
G01 F120.00000
G01 X-11.63960 Y-2.92529
G01 X-11.70498 Y-2.72006
G01 X-11.73178 Y-2.46499
G01 X-11.70498 Y-2.20993
G01 X-11.63960 Y-2.00464
G01 X-11.67696 Y-1.96728
G01 X-11.71331 Y-2.05014
G01 X-11.76510 Y-2.25468
G01 X-11.78255 Y-2.46497
G01 X-11.76510 Y-2.67525
G01 X-11.71331 Y-2.87983
G01 X-11.67696 Y-2.96268
G01 X-11.63960 Y-2.92529
G04 P0 ( dwell for no time -- G64 should not smooth over this point )
G00 Z2.00000 ( retract )

G00 X-12.21179 Y-3.96817 ( rapid move to begin. )
G01 F60.00000
( Mill infeed pass 1/1 )
G01 Z-0.10000
G04 P0 ( dwell for no time -- G64 should not smooth over this point )
G01 F120.00000
G01 X-12.21179 Y-3.96817
G01 X-12.25819 Y-3.96817
G01 X-12.25819 Y-3.59499
G01 X-12.26254 Y-3.55074
G01 X-12.27544 Y-3.50820
G01 X-12.29642 Y-3.46898
G01 X-12.32461 Y-3.43461
G01 X-12.35898 Y-3.40642
G01 X-12.39820 Y-3.38544
G01 X-12.44074 Y-3.37254
G01 X-12.48499 Y-3.36819
G01 X-12.85817 Y-3.36819
G01 X-12.85817 Y-3.32179
G01 X-12.43015 Y-3.32384
G01 X-12.35268 Y-3.35272
G01 X-12.28979 Y-3.39979
G01 X-12.24272 Y-3.46268
G01 X-12.21384 Y-3.54018
G01 X-12.21179 Y-3.96817
G04 P0 ( dwell for no time -- G64 should not smooth over this point )
G00 Z2.00000 ( retract )

G00 X-13.81178 Y-3.36819 ( rapid move to begin. )
G01 F60.00000
( Mill infeed pass 1/1 )
G01 Z-0.10000
G04 P0 ( dwell for no time -- G64 should not smooth over this point )
G01 F120.00000
G01 X-13.81178 Y-3.36819
G01 X-14.18499 Y-3.36819
G01 X-14.22923 Y-3.37254
G01 X-14.27178 Y-3.38544
G01 X-14.31099 Y-3.40642
G01 X-14.34536 Y-3.43461
G01 X-14.37356 Y-3.46898
G01 X-14.39454 Y-3.50820
G01 X-14.40744 Y-3.55074
G01 X-14.41178 Y-3.59499
G01 X-14.41178 Y-3.96817
G01 X-14.45816 Y-3.96817
G01 X-14.45611 Y-3.54015
G01 X-14.42723 Y-3.46268
G01 X-14.38016 Y-3.39979
G01 X-14.31727 Y-3.35272
G01 X-14.23977 Y-3.32384
G01 X-14.22067 Y-3.32179
G01 X-13.81178 Y-3.32179
G01 X-13.81178 Y-3.36819
G04 P0 ( dwell for no time -- G64 should not smooth over this point )
G00 Z2.00000 ( retract )

G00 X-12.21179 Y-5.33067 ( rapid move to begin. )
G01 F60.00000
( Mill infeed pass 1/1 )
G01 Z-0.10000
G04 P0 ( dwell for no time -- G64 should not smooth over this point )
G01 F120.00000
G01 X-12.21179 Y-5.33067
G01 X-12.21384 Y-5.34977
G01 X-12.24272 Y-5.42727
G01 X-12.28979 Y-5.49016
G01 X-12.35268 Y-5.53723
G01 X-12.48367 Y-5.58853
G01 X-12.56685 Y-5.64792
G01 X-12.59873 Y-5.67693
G01 X-12.62456 Y-5.71144
G01 X-12.64341 Y-5.75023
G01 X-12.67897 Y-5.85732
G01 X-12.68204 Y-5.90034
G01 X-12.67691 Y-5.94314
G01 X-12.66205 Y-6.01142
G01 X-12.63952 Y-6.07187
G01 X-12.57968 Y-6.15180
G01 X-12.47127 Y-6.26024
G01 X-12.35855 Y-6.42120
G01 X-12.31798 Y-6.50814
G01 X-12.37226 Y-6.50814
G01 X-12.46383 Y-6.35206
G01 X-12.61448 Y-6.18477
G01 X-12.77668 Y-6.06539
G01 X-12.79797 Y-6.05165
G01 X-12.85817 Y-6.02432
G01 X-12.85817 Y-5.52178
G01 X-12.48499 Y-5.52178
G01 X-12.44074 Y-5.51744
G01 X-12.39820 Y-5.50454
G01 X-12.35898 Y-5.48356
G01 X-12.32461 Y-5.45536
G01 X-12.29642 Y-5.42099
G01 X-12.27544 Y-5.38178
G01 X-12.26254 Y-5.33923
G01 X-12.25819 Y-5.29499
G01 X-12.25819 Y-4.92178
G01 X-12.21179 Y-4.92178
G01 X-12.21179 Y-5.33067
G04 P0 ( dwell for no time -- G64 should not smooth over this point )
G00 Z2.00000 ( retract )

G00 X-13.81178 Y-6.02432 ( rapid move to begin. )
G01 F60.00000
( Mill infeed pass 1/1 )
G01 Z-0.10000
G04 P0 ( dwell for no time -- G64 should not smooth over this point )
G01 F120.00000
G01 X-13.81178 Y-6.02432
G01 X-13.87201 Y-6.05165
G01 X-13.89329 Y-6.06539
G01 X-14.05550 Y-6.18477
G01 X-14.20614 Y-6.35206
G01 X-14.29771 Y-6.50814
G01 X-14.35197 Y-6.50814
G01 X-14.31140 Y-6.42120
G01 X-14.19868 Y-6.26024
G01 X-14.09027 Y-6.15180
G01 X-14.05156 Y-6.10011
G01 X-14.00111 Y-5.99918
G01 X-13.99197 Y-5.95706
G01 X-13.99093 Y-5.91396
G01 X-13.99591 Y-5.84426
G01 X-14.00307 Y-5.80172
G01 X-14.01813 Y-5.76130
G01 X-14.04059 Y-5.72447
G01 X-14.10365 Y-5.64411
G01 X-14.12809 Y-5.62295
G01 X-14.18623 Y-5.58856
G01 X-14.31727 Y-5.53723
G01 X-14.38016 Y-5.49016
G01 X-14.42723 Y-5.42727
G01 X-14.45611 Y-5.34980
G01 X-14.45816 Y-5.33067
G01 X-14.45816 Y-4.92178
G01 X-14.41178 Y-4.92178
G01 X-14.41178 Y-5.29499
G01 X-14.40744 Y-5.33923
G01 X-14.39454 Y-5.38178
G01 X-14.37356 Y-5.42099
G01 X-14.34536 Y-5.45536
G01 X-14.31099 Y-5.48356
G01 X-14.27178 Y-5.50454
G01 X-14.22923 Y-5.51744
G01 X-14.18499 Y-5.52178
G01 X-13.81178 Y-5.52178
G01 X-13.81178 Y-6.02432
G04 P0 ( dwell for no time -- G64 should not smooth over this point )
G00 Z2.00000 ( retract )

G00 X-12.31798 Y-7.46178 ( rapid move to begin. )
G01 F60.00000
( Mill infeed pass 1/1 )
G01 Z-0.10000
G04 P0 ( dwell for no time -- G64 should not smooth over this point )
G01 F120.00000
G01 X-12.31798 Y-7.46178
G01 X-12.35855 Y-7.54873
G01 X-12.47127 Y-7.70971
G01 X-12.61024 Y-7.84868
G01 X-12.77122 Y-7.96140
G01 X-12.85817 Y-8.00197
G01 X-12.85817 Y-7.94565
G01 X-12.79797 Y-7.91832
G01 X-12.77668 Y-7.90458
G01 X-12.61448 Y-7.78520
G01 X-12.46383 Y-7.61792
G01 X-12.37226 Y-7.46178
G01 X-12.31798 Y-7.46178
G04 P0 ( dwell for no time -- G64 should not smooth over this point )
G00 Z2.00000 ( retract )

G00 X-13.81178 Y-8.00197 ( rapid move to begin. )
G01 F60.00000
( Mill infeed pass 1/1 )
G01 Z-0.10000
G04 P0 ( dwell for no time -- G64 should not smooth over this point )
G01 F120.00000
G01 X-13.81178 Y-8.00197
G01 X-13.81178 Y-7.94565
G01 X-13.87201 Y-7.91832
G01 X-13.89329 Y-7.90458
G01 X-14.05550 Y-7.78520
G01 X-14.20614 Y-7.61792
G01 X-14.29771 Y-7.46178
G01 X-14.35197 Y-7.46178
G01 X-14.31140 Y-7.54873
G01 X-14.19868 Y-7.70971
G01 X-14.05971 Y-7.84868
G01 X-13.89873 Y-7.96140
G01 X-13.81178 Y-8.00197
G04 P0 ( dwell for no time -- G64 should not smooth over this point )
G00 Z2.00000 ( retract )

G00 X-11.63960 Y-9.42530 ( rapid move to begin. )
G01 F60.00000
( Mill infeed pass 1/1 )
G01 Z-0.10000
G04 P0 ( dwell for no time -- G64 should not smooth over this point )
G01 F120.00000
G01 X-11.63960 Y-9.42530
G01 X-11.70498 Y-9.22005
G01 X-11.73178 Y-8.96498
G01 X-11.70498 Y-8.70991
G01 X-11.63960 Y-8.50466
G01 X-11.67696 Y-8.46727
G01 X-11.71331 Y-8.55012
G01 X-11.76510 Y-8.75469
G01 X-11.78255 Y-8.96498
G01 X-11.76510 Y-9.17527
G01 X-11.71331 Y-9.37981
G01 X-11.67696 Y-9.46267
G01 X-11.63960 Y-9.42530
G04 P0 ( dwell for no time -- G64 should not smooth over this point )
G00 Z2.00000 ( retract )

G00 X-10.00483 Y-7.79054 ( rapid move to begin. )
G01 F60.00000
( Mill infeed pass 1/1 )
G01 Z-0.10000
G04 P0 ( dwell for no time -- G64 should not smooth over this point )
G01 F120.00000
G01 X-10.00483 Y-7.79054
G01 X-10.19134 Y-7.72650
G01 X-10.39947 Y-7.69178
G01 X-10.61049 Y-7.69178
G01 X-10.81860 Y-7.72650
G01 X-11.00511 Y-7.79054
G01 X-10.96305 Y-7.83260
G01 X-10.90800 Y-7.80753
G01 X-10.86117 Y-7.79209
G01 X-10.65667 Y-7.74863
G01 X-10.60950 Y-7.74367
G01 X-10.40046 Y-7.74367
G01 X-10.35329 Y-7.74863
G01 X-10.12497 Y-7.79854
G01 X-10.04689 Y-7.83262
G01 X-10.00483 Y-7.79054
G04 P0 ( dwell for no time -- G64 should not smooth over this point )
G00 Z2.00000 ( retract )

G00 X-9.22741 Y-8.96498 ( rapid move to begin. )
G01 F60.00000
( Mill infeed pass 1/1 )
G01 Z-0.10000
G04 P0 ( dwell for no time -- G64 should not smooth over this point )
G01 F120.00000
G01 X-9.22741 Y-8.96498
G01 X-9.24484 Y-8.75469
G01 X-9.29663 Y-8.55015
G01 X-9.33298 Y-8.46729
G01 X-9.37036 Y-8.50468
G01 X-9.30499 Y-8.70991
G01 X-9.27819 Y-8.96498
G01 X-9.30499 Y-9.22005
G01 X-9.37036 Y-9.42528
G01 X-9.33298 Y-9.46267
G01 X-9.29663 Y-9.37979
G01 X-9.24484 Y-9.17524
G01 X-9.22741 Y-8.96498
G04 P0 ( dwell for no time -- G64 should not smooth over this point )
G00 Z2.00000 ( retract )

G00 X-8.37057 Y-10.56135 ( rapid move to begin. )
G01 F60.00000
( Mill infeed pass 1/1 )
G01 Z-0.10000
G04 P0 ( dwell for no time -- G64 should not smooth over this point )
G01 F120.00000
G01 X-8.37057 Y-10.56135
G01 X-8.36574 Y-10.79500
G01 X-10.99754 Y-10.79500
G01 X-10.00846 Y-10.79500
G01 X-10.09429 Y-10.71654
G01 X-10.17765 Y-10.61748
G01 X-10.18256 Y-10.60872
G01 X-10.17260 Y-10.57841
G01 X-10.18256 Y-10.60872
G01 X-10.32934 Y-10.63610
G01 X-10.40046 Y-10.63983
G01 X-10.60950 Y-10.63983
G01 X-10.68062 Y-10.63610
G01 X-10.83051 Y-10.60806
G01 X-10.84097 Y-10.57935
G01 X-10.83051 Y-10.60806
G01 X-10.87351 Y-10.66757
G01 X-10.91928 Y-10.72037
G01 X-10.99754 Y-10.79500
G01 X-14.60500 Y-10.79500
G01 X-14.85275 Y-10.77059
G01 X-15.09100 Y-10.69830
G01 X-15.31056 Y-10.58095
G01 X-15.50302 Y-10.42302
G01 X-15.66095 Y-10.23056
G01 X-15.77830 Y-10.01100
G01 X-15.85059 Y-9.77275
G01 X-15.87500 Y-9.52500
G01 X-15.87500 Y-1.90500
G01 X-15.85059 Y-1.65722
G01 X-15.77830 Y-1.41897
G01 X-15.66095 Y-1.19941
G01 X-15.50302 Y-1.00696
G01 X-15.31056 Y-0.84902
G01 X-15.09100 Y-0.73167
G01 X-14.85275 Y-0.65938
G01 X-14.60500 Y-0.63500
G01 X-10.01245 Y-0.63500
G01 X-11.00148 Y-0.63500
G01 X-10.91578 Y-0.71328
G01 X-10.83236 Y-0.81232
G01 X-10.82738 Y-0.82126
G01 X-10.83734 Y-0.85156
G01 X-10.82738 Y-0.82126
G01 X-10.68062 Y-0.79383
G01 X-10.60950 Y-0.79014
G01 X-10.40046 Y-0.79014
G01 X-10.32934 Y-0.79383
G01 X-10.17946 Y-0.82192
G01 X-10.16899 Y-0.85062
G01 X-10.17946 Y-0.82192
G01 X-10.13656 Y-0.76251
G01 X-10.09081 Y-0.70970
G01 X-10.01245 Y-0.63500
G01 X-8.37100 Y-0.63500
G01 X-8.36615 Y-0.86977
G01 X-8.37014 Y-1.07307
G01 X-8.36836 Y-10.25332
G01 X-8.40918 Y-10.17049
G01 X-8.41436 Y-10.21867
G01 X-8.43664 Y-10.30625
G01 X-8.45353 Y-10.34001
G01 X-8.52152 Y-10.42330
G01 X-8.55271 Y-10.45307
G01 X-8.58898 Y-10.47638
G01 X-8.62904 Y-10.49241
G01 X-8.72769 Y-10.51898
G01 X-9.50956 Y-10.52129
G01 X-9.56465 Y-10.51448
G01 X-9.62307 Y-10.49985
G01 X-9.66092 Y-10.48672
G01 X-9.69584 Y-10.46716
G01 X-9.72680 Y-10.44174
G01 X-9.77666 Y-10.39282
G01 X-9.80445 Y-10.35980
G01 X-9.82716 Y-10.31707
G01 X-10.04687 Y-10.09736
G01 X-10.10196 Y-10.12243
G01 X-10.14882 Y-10.13788
G01 X-10.35329 Y-10.18136
G01 X-10.40046 Y-10.18631
G01 X-10.63323 Y-10.18507
G01 X-10.86117 Y-10.13788
G01 X-10.90800 Y-10.12243
G01 X-10.96307 Y-10.09736
G01 X-11.18250 Y-10.31679
G01 X-11.19271 Y-10.33800
G01 X-11.21621 Y-10.37054
G01 X-11.29317 Y-10.45309
G01 X-11.32944 Y-10.47638
G01 X-11.36947 Y-10.49241
G01 X-11.46813 Y-10.51898
G01 X-14.63667 Y-10.51921
G01 X-14.81447 Y-10.49787
G01 X-14.97947 Y-10.44611
G01 X-15.01711 Y-10.43018
G01 X-15.12862 Y-10.37059
G01 X-15.16281 Y-10.34814
G01 X-15.28074 Y-10.25444
G01 X-15.31269 Y-10.22347
G01 X-15.41008 Y-10.10854
G01 X-15.43705 Y-10.06884
G01 X-15.51945 Y-9.91469
G01 X-15.53748 Y-9.87016
G01 X-15.57894 Y-9.72533
G01 X-15.58668 Y-9.68423
G01 X-15.60129 Y-9.51890
G01 X-15.60129 Y-1.91107
G01 X-15.57797 Y-1.69598
G01 X-15.52611 Y-1.53048
G01 X-15.51018 Y-1.49283
G01 X-15.43914 Y-1.36223
G01 X-15.31498 Y-1.20922
G01 X-15.28074 Y-1.17551
G01 X-15.16281 Y-1.08181
G01 X-15.12862 Y-1.05936
G01 X-15.01711 Y-0.99977
G01 X-14.97947 Y-0.98384
G01 X-14.83604 Y-0.93784
G01 X-14.79141 Y-0.92834
G01 X-14.59890 Y-0.90866
G01 X-11.47262 Y-0.91039
G01 X-11.38687 Y-0.93010
G01 X-11.34908 Y-0.94320
G01 X-11.31415 Y-0.96279
G01 X-11.28321 Y-0.98816
G01 X-11.23333 Y-1.03708
G01 X-11.20551 Y-1.07013
G01 X-11.18281 Y-1.11288
G01 X-10.96305 Y-1.33261
G01 X-10.90800 Y-1.30754
G01 X-10.86117 Y-1.29210
G01 X-10.65667 Y-1.24861
G01 X-10.60950 Y-1.24366
G01 X-10.40046 Y-1.24366
G01 X-10.35329 Y-1.24861
G01 X-10.12497 Y-1.29852
G01 X-10.04692 Y-1.33261
G01 X-9.82741 Y-1.11313
G01 X-9.81720 Y-1.09192
G01 X-9.79376 Y-1.05946
G01 X-9.71682 Y-0.97688
G01 X-9.68052 Y-0.95357
G01 X-9.64049 Y-0.93754
G01 X-9.54181 Y-0.91097
G01 X-8.73572 Y-0.90996
G01 X-8.66026 Y-0.92504
G01 X-8.62414 Y-0.93612
G01 X-8.59036 Y-0.95303
G01 X-8.50709 Y-1.02111
G01 X-8.47735 Y-1.05230
G01 X-8.45409 Y-1.08854
G01 X-8.43806 Y-1.12855
G01 X-8.41837 Y-1.19558
G01 X-8.40918 Y-1.25948
G01 X-8.40918 Y-10.17049
G01 X-8.36836 Y-10.25332
G01 X-8.37019 Y-10.59091
G01 X-8.41253 Y-10.63130
G01 X-8.48507 Y-10.67791
G01 X-8.56513 Y-10.70999
G01 X-8.63216 Y-10.72967
G01 X-8.69541 Y-10.74341
G01 X-8.75998 Y-10.74804
G01 X-9.50956 Y-10.74804
G01 X-9.56506 Y-10.74463
G01 X-9.67814 Y-10.71982
G01 X-9.75383 Y-10.69358
G01 X-9.82370 Y-10.65444
G01 X-9.88560 Y-10.60361
G01 X-9.93546 Y-10.55469
G01 X-9.99106 Y-10.48865
G01 X-10.00971 Y-10.45520
G01 X-10.10460 Y-10.36030
G01 X-10.09332 Y-10.32835
G01 X-10.10460 Y-10.36030
G01 X-10.30615 Y-10.40315
G01 X-10.40046 Y-10.41306
G01 X-10.60950 Y-10.41306
G01 X-10.70381 Y-10.40315
G01 X-10.90534 Y-10.36033
G01 X-10.91583 Y-10.32820
G01 X-10.90534 Y-10.36033
G01 X-10.99680 Y-10.45177
G01 X-11.04486 Y-10.51905
G01 X-11.09063 Y-10.57186
G01 X-11.15301 Y-10.63135
G01 X-11.22553 Y-10.67793
G01 X-11.30557 Y-10.70999
G01 X-11.43589 Y-10.74344
G01 X-11.50048 Y-10.74804
G01 X-14.61112 Y-10.74743
G01 X-14.66233 Y-10.74453
G01 X-14.81808 Y-10.72680
G01 X-14.90530 Y-10.70803
G01 X-15.04874 Y-10.66203
G01 X-15.12400 Y-10.63015
G01 X-15.23550 Y-10.57057
G01 X-15.30388 Y-10.52566
G01 X-15.45526 Y-10.40257
G01 X-15.61216 Y-10.21685
G01 X-15.71945 Y-10.02157
G01 X-15.75549 Y-9.93257
G01 X-15.79695 Y-9.78774
G01 X-15.81244 Y-9.70554
G01 X-15.82804 Y-9.51890
G01 X-15.82804 Y-1.91107
G01 X-15.80703 Y-1.69393
G01 X-15.78803 Y-1.60459
G01 X-15.74203 Y-1.46121
G01 X-15.71015 Y-1.38595
G01 X-15.65057 Y-1.27444
G01 X-15.60116 Y-1.20048
G01 X-15.49027 Y-1.06535
G01 X-15.45783 Y-1.02984
G01 X-15.42181 Y-0.99799
G01 X-15.30388 Y-0.90429
G01 X-15.23550 Y-0.85938
G01 X-15.12400 Y-0.79980
G01 X-15.04874 Y-0.76792
G01 X-14.86113 Y-0.71018
G01 X-14.64813 Y-0.68458
G01 X-14.59890 Y-0.68191
G01 X-11.50041 Y-0.68191
G01 X-11.44486 Y-0.68532
G01 X-11.33178 Y-0.71013
G01 X-11.25614 Y-0.73637
G01 X-11.18631 Y-0.77549
G01 X-11.12444 Y-0.82626
G01 X-11.07455 Y-0.87518
G01 X-11.01893 Y-0.94125
G01 X-11.00023 Y-0.97475
G01 X-10.90531 Y-1.06964
G01 X-10.91679 Y-1.10338
G01 X-10.90531 Y-1.06964
G01 X-10.70381 Y-1.02682
G01 X-10.60950 Y-1.01691
G01 X-10.40046 Y-1.01691
G01 X-10.30615 Y-1.02682
G01 X-10.10463 Y-1.06964
G01 X-10.09432 Y-1.10007
G01 X-10.10463 Y-1.06964
G01 X-10.01311 Y-0.97813
G01 X-9.96516 Y-0.91100
G01 X-9.91941 Y-0.85819
G01 X-9.85700 Y-0.79865
G01 X-9.78444 Y-0.75202
G01 X-9.70435 Y-0.71996
G01 X-9.57407 Y-0.68654
G01 X-9.50956 Y-0.68191
G01 X-8.71149 Y-0.68450
G01 X-8.61207 Y-0.70348
G01 X-8.53986 Y-0.72563
G01 X-8.47230 Y-0.75943
G01 X-8.41131 Y-0.80401
G01 X-8.36651 Y-0.84285
G01 X-8.13938 Y-0.86860
G01 X-8.14423 Y-0.63500
G01 X-5.83700 Y-0.63500
G01 X-6.17433 Y-0.63500
G01 X-6.11000 Y-0.69073
G01 X-6.01058 Y-0.79014
G01 X-6.01177 Y-0.87155
G01 X-6.01058 Y-0.79014
G01 X-5.99938 Y-0.79014
G01 X-5.89996 Y-0.69073
G01 X-5.83700 Y-0.63500
G01 X-1.90500 Y-0.63500
G01 X-1.65722 Y-0.65938
G01 X-1.41897 Y-0.73167
G01 X-1.19941 Y-0.84902
G01 X-1.00696 Y-1.00696
G01 X-0.84902 Y-1.19941
G01 X-0.73167 Y-1.41897
G01 X-0.65938 Y-1.65722
G01 X-0.63500 Y-1.90500
G01 X-0.63500 Y-9.52500
G01 X-0.65938 Y-9.77275
G01 X-0.73167 Y-10.01100
G01 X-0.84902 Y-10.23056
G01 X-1.00696 Y-10.42302
G01 X-1.19941 Y-10.58095
G01 X-1.41897 Y-10.69830
G01 X-1.65722 Y-10.77059
G01 X-1.90500 Y-10.79500
G01 X-6.17299 Y-10.79500
G01 X-5.83560 Y-10.79500
G01 X-5.89996 Y-10.73922
G01 X-5.99935 Y-10.63983
G01 X-6.01061 Y-10.63983
G01 X-6.01213 Y-10.55840
G01 X-6.01061 Y-10.63983
G01 X-6.11000 Y-10.73922
G01 X-6.17299 Y-10.79500
G01 X-8.13895 Y-10.79500
G01 X-8.14382 Y-10.56018
G01 X-8.13981 Y-10.35375
G01 X-8.14339 Y-1.07597
G01 X-8.13976 Y-0.83906
G01 X-8.09742 Y-0.79865
G01 X-8.02488 Y-0.75204
G01 X-7.94482 Y-0.71996
G01 X-7.87778 Y-0.70028
G01 X-7.81454 Y-0.68654
G01 X-7.75000 Y-0.68191
G01 X-6.67875 Y-0.68191
G01 X-6.60372 Y-0.68737
G01 X-6.51678 Y-0.70551
G01 X-6.43501 Y-0.74023
G01 X-6.31927 Y-0.80869
G01 X-6.27035 Y-0.85108
G01 X-6.10451 Y-1.01691
G01 X-6.11167 Y-1.03416
G01 X-6.10451 Y-1.01691
G01 X-5.90545 Y-1.01691
G01 X-5.89854 Y-1.03378
G01 X-5.90545 Y-1.01691
G01 X-5.73961 Y-0.85108
G01 X-5.68279 Y-0.80193
G01 X-5.60847 Y-0.75326
G01 X-5.52605 Y-0.71996
G01 X-5.39577 Y-0.68654
G01 X-5.33123 Y-0.68191
G01 X-1.91107 Y-0.68191
G01 X-1.86182 Y-0.68458
G01 X-1.64882 Y-0.71018
G01 X-1.46121 Y-0.76792
G01 X-1.38595 Y-0.79980
G01 X-1.27444 Y-0.85938
G01 X-1.20045 Y-0.90881
G01 X-1.06535 Y-1.01971
G01 X-0.99804 Y-1.08809
G01 X-0.90432 Y-1.20602
G01 X-0.85938 Y-1.27444
G01 X-0.79980 Y-1.38595
G01 X-0.76792 Y-1.46121
G01 X-0.71018 Y-1.64882
G01 X-0.68458 Y-1.86182
G01 X-0.68191 Y-1.91107
G01 X-0.68191 Y-9.51890
G01 X-0.90866 Y-9.51890
G01 X-0.90866 Y-1.91107
G01 X-0.93198 Y-1.69598
G01 X-0.98384 Y-1.53048
G01 X-0.99977 Y-1.49283
G01 X-1.05936 Y-1.38133
G01 X-1.08184 Y-1.34711
G01 X-1.17556 Y-1.22918
G01 X-1.20922 Y-1.19499
G01 X-1.36223 Y-1.07081
G01 X-1.49283 Y-0.99977
G01 X-1.53048 Y-0.98384
G01 X-1.69598 Y-0.93198
G01 X-1.91107 Y-0.90866
G01 X-5.36349 Y-0.91097
G01 X-5.46214 Y-0.93754
G01 X-5.50337 Y-0.95418
G01 X-5.54053 Y-0.97853
G01 X-5.57926 Y-1.01143
G01 X-5.82292 Y-1.25509
G01 X-5.90047 Y-1.24366
G01 X-6.10951 Y-1.24366
G01 X-6.18703 Y-1.25506
G01 X-6.45513 Y-0.99022
G01 X-6.54370 Y-0.93924
G01 X-6.58457 Y-0.92189
G01 X-6.62803 Y-0.91283
G01 X-6.67875 Y-0.90866
G01 X-7.78226 Y-0.91097
G01 X-7.88091 Y-0.93754
G01 X-7.92096 Y-0.95357
G01 X-7.95724 Y-0.97688
G01 X-7.98843 Y-1.00665
G01 X-8.05642 Y-1.08991
G01 X-8.07329 Y-1.12362
G01 X-8.09559 Y-1.21117
G01 X-8.10080 Y-1.25948
G01 X-8.10080 Y-10.17049
G01 X-8.09160 Y-10.23437
G01 X-8.07192 Y-10.30140
G01 X-8.05589 Y-10.34143
G01 X-8.03260 Y-10.37770
G01 X-8.00285 Y-10.40889
G01 X-7.91954 Y-10.47694
G01 X-7.88579 Y-10.49383
G01 X-7.84969 Y-10.50491
G01 X-7.77423 Y-10.51999
G01 X-6.64647 Y-10.51898
G01 X-6.51990 Y-10.48220
G01 X-6.46925 Y-10.45131
G01 X-6.43067 Y-10.41852
G01 X-6.18706 Y-10.17488
G01 X-6.10951 Y-10.18631
G01 X-5.90047 Y-10.18631
G01 X-5.82290 Y-10.17488
G01 X-5.55480 Y-10.43973
G01 X-5.46626 Y-10.49071
G01 X-5.42539 Y-10.50806
G01 X-5.35554 Y-10.51997
G01 X-1.91107 Y-10.52129
G01 X-1.71854 Y-10.50160
G01 X-1.67391 Y-10.49211
G01 X-1.53048 Y-10.44611
G01 X-1.49283 Y-10.43018
G01 X-1.38133 Y-10.37059
G01 X-1.34714 Y-10.34814
G01 X-1.21247 Y-10.23973
G01 X-1.09987 Y-10.10854
G01 X-1.07290 Y-10.06884
G01 X-0.99050 Y-9.91469
G01 X-0.97246 Y-9.87019
G01 X-0.93101 Y-9.72538
G01 X-0.92326 Y-9.68426
G01 X-0.90866 Y-9.51890
G01 X-0.68191 Y-9.51890
G01 X-0.63500 Y-9.52500
G01 X-0.68191 Y-9.51890
G01 X-0.69751 Y-9.70554
G01 X-0.71300 Y-9.78779
G01 X-0.77013 Y-9.97803
G01 X-0.87290 Y-10.17572
G01 X-0.89779 Y-10.21685
G01 X-1.02425 Y-10.37006
G01 X-1.08814 Y-10.43196
G01 X-1.20607 Y-10.52566
G01 X-1.27444 Y-10.57057
G01 X-1.38595 Y-10.63015
G01 X-1.46121 Y-10.66203
G01 X-1.60459 Y-10.70803
G01 X-1.69393 Y-10.72703
G01 X-1.91107 Y-10.74804
G01 X-5.33123 Y-10.74804
G01 X-5.37987 Y-10.74542
G01 X-5.49318 Y-10.72444
G01 X-5.57494 Y-10.68972
G01 X-5.69069 Y-10.62126
G01 X-5.73961 Y-10.57887
G01 X-5.90542 Y-10.41306
G01 X-5.89826 Y-10.39581
G01 X-5.90542 Y-10.41306
G01 X-6.10453 Y-10.41306
G01 X-6.11058 Y-10.39759
G01 X-6.10453 Y-10.41306
G01 X-6.27035 Y-10.57887
G01 X-6.32691 Y-10.62782
G01 X-6.37550 Y-10.66201
G01 X-6.42813 Y-10.68956
G01 X-6.48393 Y-10.70999
G01 X-6.61421 Y-10.74341
G01 X-6.67875 Y-10.74804
G01 X-7.79846 Y-10.74544
G01 X-7.89788 Y-10.72647
G01 X-7.97006 Y-10.70435
G01 X-8.03758 Y-10.67054
G01 X-8.09856 Y-10.62601
G01 X-8.14344 Y-10.58710
G04 P0 ( dwell for no time -- G64 should not smooth over this point )
G00 Z2.00000 ( retract )

G00 X-7.21401 Y-9.14613 ( rapid move to begin. )
G01 F60.00000
( Mill infeed pass 1/1 )
G01 Z-0.10000
G04 P0 ( dwell for no time -- G64 should not smooth over this point )
G01 F120.00000
G01 X-7.21401 Y-9.14613
G01 X-7.26067 Y-9.19279
G01 X-7.26511 Y-9.17527
G01 X-7.28254 Y-8.96498
G01 X-7.26511 Y-8.75469
G01 X-7.26067 Y-8.73714
G01 X-7.21401 Y-8.78380
G01 X-7.23179 Y-8.96498
G01 X-7.21401 Y-9.14613
G04 P0 ( dwell for no time -- G64 should not smooth over this point )
G00 Z2.00000 ( retract )

G00 X-5.77964 Y-7.71177 ( rapid move to begin. )
G01 F60.00000
( Mill infeed pass 1/1 )
G01 Z-0.10000
G04 P0 ( dwell for no time -- G64 should not smooth over this point )
G01 F120.00000
G01 X-5.77964 Y-7.71177
G01 X-5.89945 Y-7.69178
G01 X-6.11048 Y-7.69178
G01 X-6.23032 Y-7.71177
G01 X-6.18701 Y-7.75508
G01 X-6.10951 Y-7.74367
G01 X-5.90047 Y-7.74367
G01 X-5.82295 Y-7.75508
G01 X-5.77964 Y-7.71177
G04 P0 ( dwell for no time -- G64 should not smooth over this point )
G00 Z2.00000 ( retract )

G00 X-4.72740 Y-8.96498 ( rapid move to begin. )
G01 F60.00000
( Mill infeed pass 1/1 )
G01 Z-0.10000
G04 P0 ( dwell for no time -- G64 should not smooth over this point )
G01 F120.00000
G01 X-4.72740 Y-8.96498
G01 X-4.74482 Y-8.75469
G01 X-4.74927 Y-8.73712
G01 X-4.79598 Y-8.78383
G01 X-4.77820 Y-8.96498
G01 X-4.79598 Y-9.14611
G01 X-4.74927 Y-9.19282
G01 X-4.74482 Y-9.17524
G01 X-4.72740 Y-8.96498
G04 P0 ( dwell for no time -- G64 should not smooth over this point )
G00 Z2.00000 ( retract )

G00 X-3.90180 Y-7.84662 ( rapid move to begin. )
G01 F60.00000
( Mill infeed pass 1/1 )
G01 Z-0.10000
G04 P0 ( dwell for no time -- G64 should not smooth over this point )
G01 F120.00000
G01 X-3.90180 Y-7.84662
G01 X-4.03662 Y-7.71180
G01 X-3.96329 Y-7.71180
G01 X-3.90180 Y-7.77893
G01 X-3.90180 Y-7.84662
G04 P0 ( dwell for no time -- G64 should not smooth over this point )
G00 Z2.00000 ( retract )

G00 X-2.31333 Y-7.71180 ( rapid move to begin. )
G01 F60.00000
( Mill infeed pass 1/1 )
G01 Z-0.10000
G04 P0 ( dwell for no time -- G64 should not smooth over this point )
G01 F120.00000
G01 X-2.31333 Y-7.71180
G01 X-2.44815 Y-7.84662
G01 X-2.44815 Y-7.77890
G01 X-2.38669 Y-7.71180
G01 X-2.31333 Y-7.71180
G04 P0 ( dwell for no time -- G64 should not smooth over this point )
G00 Z2.00000 ( retract )

G00 X-2.31333 Y-6.25815 ( rapid move to begin. )
G01 F60.00000
( Mill infeed pass 1/1 )
G01 Z-0.10000
G04 P0 ( dwell for no time -- G64 should not smooth over this point )
G01 F120.00000
G01 X-2.31333 Y-6.25815
G01 X-2.41968 Y-6.15180
G01 X-2.44815 Y-6.11762
G01 X-2.44815 Y-6.19107
G01 X-2.38671 Y-6.25815
G01 X-2.31333 Y-6.25815
G04 P0 ( dwell for no time -- G64 should not smooth over this point )
G00 Z2.00000 ( retract )

G00 X-2.05179 Y-5.33067 ( rapid move to begin. )
G01 F60.00000
( Mill infeed pass 1/1 )
G01 Z-0.10000
G04 P0 ( dwell for no time -- G64 should not smooth over this point )
G01 F120.00000
G01 X-2.05179 Y-5.33067
G01 X-2.05384 Y-5.34977
G01 X-2.08272 Y-5.42727
G01 X-2.12979 Y-5.49016
G01 X-2.19268 Y-5.53723
G01 X-2.32367 Y-5.58853
G01 X-2.40685 Y-5.64792
G01 X-2.44815 Y-5.68952
G01 X-2.44815 Y-5.52178
G01 X-2.32499 Y-5.52178
G01 X-2.28074 Y-5.51744
G01 X-2.23820 Y-5.50454
G01 X-2.19898 Y-5.48356
G01 X-2.16461 Y-5.45536
G01 X-2.13642 Y-5.42099
G01 X-2.11544 Y-5.38178
G01 X-2.10254 Y-5.33923
G01 X-2.09819 Y-5.29499
G01 X-2.09819 Y-5.17180
G01 X-2.05179 Y-5.17180
G01 X-2.05179 Y-5.33067
G04 P0 ( dwell for no time -- G64 should not smooth over this point )
G00 Z2.00000 ( retract )

G00 X-2.05179 Y-3.71815 ( rapid move to begin. )
G01 F60.00000
( Mill infeed pass 1/1 )
G01 Z-0.10000
G04 P0 ( dwell for no time -- G64 should not smooth over this point )
G01 F120.00000
G01 X-2.05179 Y-3.71815
G01 X-2.09819 Y-3.71815
G01 X-2.09819 Y-3.59499
G01 X-2.10254 Y-3.55074
G01 X-2.11544 Y-3.50820
G01 X-2.13642 Y-3.46898
G01 X-2.16461 Y-3.43461
G01 X-2.19898 Y-3.40642
G01 X-2.23820 Y-3.38544
G01 X-2.28074 Y-3.37254
G01 X-2.32499 Y-3.36819
G01 X-2.44815 Y-3.36819
G01 X-2.44815 Y-3.32179
G01 X-2.27015 Y-3.32384
G01 X-2.19268 Y-3.35272
G01 X-2.12979 Y-3.39979
G01 X-2.08272 Y-3.46268
G01 X-2.05384 Y-3.54018
G01 X-2.05179 Y-3.71815
G04 P0 ( dwell for no time -- G64 should not smooth over this point )
G00 Z2.00000 ( retract )

G00 X-3.90180 Y-5.69618 ( rapid move to begin. )
G01 F60.00000
( Mill infeed pass 1/1 )
G01 Z-0.10000
G04 P0 ( dwell for no time -- G64 should not smooth over this point )
G01 F120.00000
G01 X-3.90180 Y-5.69618
G01 X-3.90180 Y-5.52178
G01 X-4.02499 Y-5.52178
G01 X-4.06923 Y-5.51744
G01 X-4.11178 Y-5.50454
G01 X-4.15099 Y-5.48356
G01 X-4.18536 Y-5.45536
G01 X-4.21356 Y-5.42099
G01 X-4.23454 Y-5.38178
G01 X-4.24744 Y-5.33923
G01 X-4.25178 Y-5.29499
G01 X-4.25178 Y-5.17180
G01 X-4.29816 Y-5.17180
G01 X-4.29611 Y-5.34980
G01 X-4.26723 Y-5.42727
G01 X-4.22016 Y-5.49016
G01 X-4.15727 Y-5.53723
G01 X-4.05574 Y-5.57507
G01 X-3.96809 Y-5.62295
G01 X-3.94365 Y-5.64411
G01 X-3.90180 Y-5.69618
G04 P0 ( dwell for no time -- G64 should not smooth over this point )
G00 Z2.00000 ( retract )

G00 X-3.90180 Y-6.19105 ( rapid move to begin. )
G01 F60.00000
( Mill infeed pass 1/1 )
G01 Z-0.10000
G04 P0 ( dwell for no time -- G64 should not smooth over this point )
G01 F120.00000
G01 X-3.90180 Y-6.19105
G01 X-3.90180 Y-6.11602
G01 X-3.93027 Y-6.15180
G01 X-4.03662 Y-6.25815
G01 X-3.96326 Y-6.25815
G01 X-3.90180 Y-6.19105

G04 P0 ( dwell for no time -- G64 should not smooth over this point )
G00 Z15.000000 ( retract )

M5 ( Spindle off. )
G04 P1.000000
M9 ( Coolant off. )
M2 ( Program end. )

