( pcb2gcode 2.5.0 )
( Software-independent Gcode )

G94 ( Millimeters per minute feed rate. )
G21 ( Units == Millimeters. )

G90 ( Absolute coordinates. )
G00 S13000 ( RPM spindle speed. )
G01 F120.00000 ( Feedrate. )


G00 Z15.00000 (Retract to tool change height)
T0
M5      (Spindle stop.)
G04 P1.00000 (Wait for spindle to stop)
(MSG, Change tool bit to cutter diameter 1.00000mm)
M6      (Tool change.)
M0      (Temporary machine stop.)
M3 ( Spindle on clockwise. )
G04 P1.00000 (Wait for spindle to get up to speed)
G04 P0 ( dwell for no time -- G64 should not smooth over this point )
G00 Z2.00000 ( retract )

G00 X-0.13498 Y-9.52500 ( rapid move to begin. )
G01 Z-0.50000 F60.00000 ( plunge. )
G04 P0 ( dwell for no time -- G64 should not smooth over this point )
G01 F120.00000
G01 X-0.13498 Y-1.90500
G01 X-0.16177 Y-1.60825
G01 X-0.18090 Y-1.51204
G01 X-0.25319 Y-1.27378
G01 X-0.29070 Y-1.18328
G01 X-0.40805 Y-0.96373
G01 X-0.46248 Y-0.88222
G01 X-0.65339 Y-0.65339
G01 X-0.88222 Y-0.46248
G01 X-0.96373 Y-0.40805
G01 X-1.18328 Y-0.29070
G01 X-1.27378 Y-0.25319
G01 X-1.55966 Y-0.16899
G01 X-1.90500 Y-0.13498
G01 X-14.65397 Y-0.13739
G01 X-14.95029 Y-0.16899
G01 X-15.23616 Y-0.25319
G01 X-15.32666 Y-0.29070
G01 X-15.58834 Y-0.43327
G01 X-15.82019 Y-0.62042
G01 X-15.88953 Y-0.68976
G01 X-16.07668 Y-0.92161
G01 X-16.21925 Y-1.18328
G01 X-16.25676 Y-1.27378
G01 X-16.34096 Y-1.55964
G01 X-16.37500 Y-1.90500
G01 X-16.37259 Y-9.57402
G01 X-16.34096 Y-9.87031
G01 X-16.25676 Y-10.15616
G01 X-16.21925 Y-10.24666
G01 X-16.07668 Y-10.50834
G01 X-15.88953 Y-10.74019
G01 X-15.82019 Y-10.80953
G01 X-15.58834 Y-10.99668
G01 X-15.32666 Y-11.13925
G01 X-15.23616 Y-11.17676
G01 X-14.95031 Y-11.26096
G01 X-14.60500 Y-11.29500
G01 X-1.90500 Y-11.29500
G01 X-1.60818 Y-11.26818
G01 X-1.51204 Y-11.24905
G01 X-1.27378 Y-11.17676
G01 X-1.18328 Y-11.13925
G01 X-0.96373 Y-11.02190
G01 X-0.88222 Y-10.96747
G01 X-0.68976 Y-10.80953
G01 X-0.62042 Y-10.74019
G01 X-0.43327 Y-10.50834
G01 X-0.29070 Y-10.24666
G01 X-0.25319 Y-10.15616
G01 X-0.16899 Y-9.87029
G01 X-0.13498 Y-9.52500
G01 Z-1.00000 F60.00000 ( plunge. )
G04 P0 ( dwell for no time -- G64 should not smooth over this point )
G01 F120.00000
G01 X-0.13498 Y-1.90500
G01 X-0.16177 Y-1.60825
G01 X-0.18090 Y-1.51204
G01 X-0.25319 Y-1.27378
G01 X-0.29070 Y-1.18328
G01 X-0.40805 Y-0.96373
G01 X-0.46248 Y-0.88222
G01 X-0.65339 Y-0.65339
G01 X-0.88222 Y-0.46248
G01 X-0.96373 Y-0.40805
G01 X-1.18328 Y-0.29070
G01 X-1.27378 Y-0.25319
G01 X-1.55966 Y-0.16899
G01 X-1.90500 Y-0.13498
G01 X-14.65397 Y-0.13739
G01 X-14.95029 Y-0.16899
G01 X-15.23616 Y-0.25319
G01 X-15.32666 Y-0.29070
G01 X-15.58834 Y-0.43327
G01 X-15.82019 Y-0.62042
G01 X-15.88953 Y-0.68976
G01 X-16.07668 Y-0.92161
G01 X-16.21925 Y-1.18328
G01 X-16.25676 Y-1.27378
G01 X-16.34096 Y-1.55964
G01 X-16.37500 Y-1.90500
G01 X-16.37259 Y-9.57402
G01 X-16.34096 Y-9.87031
G01 X-16.25676 Y-10.15616
G01 X-16.21925 Y-10.24666
G01 X-16.07668 Y-10.50834
G01 X-15.88953 Y-10.74019
G01 X-15.82019 Y-10.80953
G01 X-15.58834 Y-10.99668
G01 X-15.32666 Y-11.13925
G01 X-15.23616 Y-11.17676
G01 X-14.95031 Y-11.26096
G01 X-14.60500 Y-11.29500
G01 X-1.90500 Y-11.29500
G01 X-1.60818 Y-11.26818
G01 X-1.51204 Y-11.24905
G01 X-1.27378 Y-11.17676
G01 X-1.18328 Y-11.13925
G01 X-0.96373 Y-11.02190
G01 X-0.88222 Y-10.96747
G01 X-0.68976 Y-10.80953
G01 X-0.62042 Y-10.74019
G01 X-0.43327 Y-10.50834
G01 X-0.29070 Y-10.24666
G01 X-0.25319 Y-10.15616
G01 X-0.16899 Y-9.87029
G01 X-0.13498 Y-9.52500
G01 Z-1.50000 F60.00000 ( plunge. )
G04 P0 ( dwell for no time -- G64 should not smooth over this point )
G01 F120.00000
G01 X-0.13498 Y-1.90500
G01 X-0.16177 Y-1.60825
G01 X-0.18090 Y-1.51204
G01 X-0.25319 Y-1.27378
G01 X-0.29070 Y-1.18328
G01 X-0.40805 Y-0.96373
G01 X-0.46248 Y-0.88222
G01 X-0.65339 Y-0.65339
G01 X-0.88222 Y-0.46248
G01 X-0.96373 Y-0.40805
G01 X-1.18328 Y-0.29070
G01 X-1.27378 Y-0.25319
G01 X-1.55966 Y-0.16899
G01 X-1.90500 Y-0.13498
G01 X-14.65397 Y-0.13739
G01 X-14.95029 Y-0.16899
G01 X-15.23616 Y-0.25319
G01 X-15.32666 Y-0.29070
G01 X-15.58834 Y-0.43327
G01 X-15.82019 Y-0.62042
G01 X-15.88953 Y-0.68976
G01 X-16.07668 Y-0.92161
G01 X-16.21925 Y-1.18328
G01 X-16.25676 Y-1.27378
G01 X-16.34096 Y-1.55964
G01 X-16.37500 Y-1.90500
G01 X-16.37259 Y-9.57402
G01 X-16.34096 Y-9.87031
G01 X-16.25676 Y-10.15616
G01 X-16.21925 Y-10.24666
G01 X-16.07668 Y-10.50834
G01 X-15.88953 Y-10.74019
G01 X-15.82019 Y-10.80953
G01 X-15.58834 Y-10.99668
G01 X-15.32666 Y-11.13925
G01 X-15.23616 Y-11.17676
G01 X-14.95031 Y-11.26096
G01 X-14.60500 Y-11.29500
G01 X-1.90500 Y-11.29500
G01 X-1.60818 Y-11.26818
G01 X-1.51204 Y-11.24905
G01 X-1.27378 Y-11.17676
G01 X-1.18328 Y-11.13925
G01 X-0.96373 Y-11.02190
G01 X-0.88222 Y-10.96747
G01 X-0.68976 Y-10.80953
G01 X-0.62042 Y-10.74019
G01 X-0.43327 Y-10.50834
G01 X-0.29070 Y-10.24666
G01 X-0.25319 Y-10.15616
G01 X-0.16899 Y-9.87029
G01 X-0.13498 Y-9.52500
G01 Z-2.00000 F60.00000 ( plunge. )
G04 P0 ( dwell for no time -- G64 should not smooth over this point )
G01 F120.00000
G01 X-0.13498 Y-1.90500
G01 X-0.16177 Y-1.60825
G01 X-0.18090 Y-1.51204
G01 X-0.25319 Y-1.27378
G01 X-0.29070 Y-1.18328
G01 X-0.40805 Y-0.96373
G01 X-0.46248 Y-0.88222
G01 X-0.65339 Y-0.65339
G01 X-0.88222 Y-0.46248
G01 X-0.96373 Y-0.40805
G01 X-1.18328 Y-0.29070
G01 X-1.27378 Y-0.25319
G01 X-1.55966 Y-0.16899
G01 X-1.90500 Y-0.13498
G01 X-14.65397 Y-0.13739
G01 X-14.95029 Y-0.16899
G01 X-15.23616 Y-0.25319
G01 X-15.32666 Y-0.29070
G01 X-15.58834 Y-0.43327
G01 X-15.82019 Y-0.62042
G01 X-15.88953 Y-0.68976
G01 X-16.07668 Y-0.92161
G01 X-16.21925 Y-1.18328
G01 X-16.25676 Y-1.27378
G01 X-16.34096 Y-1.55964
G01 X-16.37500 Y-1.90500
G01 X-16.37259 Y-9.57402
G01 X-16.34096 Y-9.87031
G01 X-16.25676 Y-10.15616
G01 X-16.21925 Y-10.24666
G01 X-16.07668 Y-10.50834
G01 X-15.88953 Y-10.74019
G01 X-15.82019 Y-10.80953
G01 X-15.58834 Y-10.99668
G01 X-15.32666 Y-11.13925
G01 X-15.23616 Y-11.17676
G01 X-14.95031 Y-11.26096
G01 X-14.60500 Y-11.29500
G01 X-1.90500 Y-11.29500
G01 X-1.60818 Y-11.26818
G01 X-1.51204 Y-11.24905
G01 X-1.27378 Y-11.17676
G01 X-1.18328 Y-11.13925
G01 X-0.96373 Y-11.02190
G01 X-0.88222 Y-10.96747
G01 X-0.68976 Y-10.80953
G01 X-0.62042 Y-10.74019
G01 X-0.43327 Y-10.50834
G01 X-0.29070 Y-10.24666
G01 X-0.25319 Y-10.15616
G01 X-0.16899 Y-9.87029
G01 X-0.13498 Y-9.52500
G01 Z-2.50000 F60.00000 ( plunge. )
G04 P0 ( dwell for no time -- G64 should not smooth over this point )
G01 F120.00000
G01 X-0.13498 Y-1.90500
G01 X-0.16177 Y-1.60825
G01 X-0.18090 Y-1.51204
G01 X-0.25319 Y-1.27378
G01 X-0.29070 Y-1.18328
G01 X-0.40805 Y-0.96373
G01 X-0.46248 Y-0.88222
G01 X-0.65339 Y-0.65339
G01 X-0.88222 Y-0.46248
G01 X-0.96373 Y-0.40805
G01 X-1.18328 Y-0.29070
G01 X-1.27378 Y-0.25319
G01 X-1.55966 Y-0.16899
G01 X-1.90500 Y-0.13498
G01 X-14.65397 Y-0.13739
G01 X-14.95029 Y-0.16899
G01 X-15.23616 Y-0.25319
G01 X-15.32666 Y-0.29070
G01 X-15.58834 Y-0.43327
G01 X-15.82019 Y-0.62042
G01 X-15.88953 Y-0.68976
G01 X-16.07668 Y-0.92161
G01 X-16.21925 Y-1.18328
G01 X-16.25676 Y-1.27378
G01 X-16.34096 Y-1.55964
G01 X-16.37500 Y-1.90500
G01 X-16.37259 Y-9.57402
G01 X-16.34096 Y-9.87031
G01 X-16.25676 Y-10.15616
G01 X-16.21925 Y-10.24666
G01 X-16.07668 Y-10.50834
G01 X-15.88953 Y-10.74019
G01 X-15.82019 Y-10.80953
G01 X-15.58834 Y-10.99668
G01 X-15.32666 Y-11.13925
G01 X-15.23616 Y-11.17676
G01 X-14.95031 Y-11.26096
G01 X-14.60500 Y-11.29500
G01 X-1.90500 Y-11.29500
G01 X-1.60818 Y-11.26818
G01 X-1.51204 Y-11.24905
G01 X-1.27378 Y-11.17676
G01 X-1.18328 Y-11.13925
G01 X-0.96373 Y-11.02190
G01 X-0.88222 Y-10.96747
G01 X-0.68976 Y-10.80953
G01 X-0.62042 Y-10.74019
G01 X-0.43327 Y-10.50834
G01 X-0.29070 Y-10.24666
G01 X-0.25319 Y-10.15616
G01 X-0.16899 Y-9.87029
G01 X-0.13498 Y-9.52500

G04 P0 ( dwell for no time -- G64 should not smooth over this point )
G00 Z15.000000 ( retract )

M5 ( Spindle off. )
G04 P1.000000
M9 ( Coolant off. )
M2 ( Program end. )

