( pcb2gcode 2.5.0 )
( Software-independent Gcode )

G94 ( Millimeters per minute feed rate. )
G21 ( Units == Millimeters. )

G90 ( Absolute coordinates. )
G00 S13000 ( RPM spindle speed. )
G01 F120.00000 ( Feedrate. )


G00 Z15.00000 (Retract to tool change height)
T0
M5      (Spindle stop.)
G04 P1.00000 (Wait for spindle to stop)
(MSG, Change tool bit to mill diameter 0.45360mm)
M6      (Tool change.)
M0      (Temporary machine stop.)
M3 ( Spindle on clockwise. )
G04 P1.00000 (Wait for spindle to get up to speed)
G04 P0 ( dwell for no time -- G64 should not smooth over this point )
G00 Z2.00000 ( retract )

G00 X-1.00000 Y-4.49999 ( rapid move to begin. )
G01 F60.00000
( Mill infeed pass 1/1 )
G01 Z-0.10000
G04 P0 ( dwell for no time -- G64 should not smooth over this point )
G01 F120.00000
G01 X-1.00000 Y-4.49999
G01 X-1.06723 Y-3.81716
G01 X-1.26642 Y-3.16060
G01 X-1.58979 Y-2.55549
G01 X-2.02512 Y-2.02512
G01 X-2.55549 Y-1.58979
G01 X-3.16060 Y-1.26642
G01 X-3.81716 Y-1.06723
G01 X-4.49999 Y-1.00000
G01 X-24.49998 Y-1.00000
G01 X-25.18280 Y-1.06723
G01 X-25.83937 Y-1.26642
G01 X-26.44447 Y-1.58979
G01 X-26.97485 Y-2.02512
G01 X-27.41013 Y-2.55549
G01 X-27.73357 Y-3.16060
G01 X-27.93274 Y-3.81716
G01 X-27.99999 Y-4.49999
G01 X-27.99999 Y-24.49998
G01 X-27.93274 Y-25.18280
G01 X-27.73357 Y-25.83937
G01 X-27.41013 Y-26.44447
G01 X-26.97485 Y-26.97485
G01 X-26.44447 Y-27.41013
G01 X-25.83937 Y-27.73357
G01 X-25.18280 Y-27.93274
G01 X-24.49998 Y-27.99999
G01 X-4.49999 Y-27.99999
G01 X-3.81716 Y-27.93274
G01 X-3.16060 Y-27.73357
G01 X-2.55549 Y-27.41013
G01 X-2.02512 Y-26.97485
G01 X-1.58979 Y-26.44447
G01 X-1.26642 Y-25.83937
G01 X-1.06723 Y-25.18280
G01 X-1.00000 Y-24.49998
G01 X-1.00000 Y-4.49999
G01 X-1.04691 Y-4.50652
G01 X-1.04727 Y-24.50650
G01 X-1.06327 Y-24.82418
G01 X-1.11572 Y-25.17976
G01 X-1.20528 Y-25.52972
G01 X-1.33099 Y-25.86850
G01 X-1.50531 Y-26.21656
G01 X-1.53012 Y-26.25933
G01 X-1.73032 Y-26.56017
G01 X-1.96080 Y-26.83833
G01 X-2.21917 Y-27.09098
G01 X-2.46398 Y-27.28745
G01 X-2.76647 Y-27.48498
G01 X-3.13146 Y-27.66898
G01 X-3.42501 Y-27.78018
G01 X-3.77370 Y-27.87457
G01 X-4.13047 Y-27.93200
G01 X-4.48328 Y-27.95245
G01 X-24.50650 Y-27.95270
G01 X-24.86947 Y-27.93200
G01 X-25.22624 Y-27.87457
G01 X-25.57493 Y-27.78018
G01 X-25.86845 Y-27.66898
G01 X-25.91374 Y-27.64894
G01 X-26.25933 Y-27.46982
G01 X-26.52187 Y-27.29771
G01 X-26.80320 Y-27.07107
G01 X-27.05936 Y-26.81620
G01 X-27.28745 Y-26.53596
G01 X-27.48498 Y-26.23345
G01 X-27.64986 Y-25.91199
G01 X-27.78018 Y-25.57493
G01 X-27.87457 Y-25.22621
G01 X-27.93200 Y-24.86947
G01 X-27.95303 Y-24.49345
G01 X-27.95209 Y-4.46971
G01 X-27.93200 Y-4.13047
G01 X-27.87406 Y-3.77180
G01 X-27.77142 Y-3.39837
G01 X-27.64986 Y-3.08795
G01 X-27.48498 Y-2.76647
G01 X-27.28745 Y-2.46398
G01 X-27.05933 Y-2.18371
G01 X-26.80322 Y-1.92893
G01 X-26.52187 Y-1.70223
G01 X-26.25933 Y-1.53012
G01 X-25.93927 Y-1.36251
G01 X-25.60340 Y-1.22923
G01 X-25.20912 Y-1.12174
G01 X-24.85149 Y-1.06606
G01 X-24.51857 Y-1.04760
G01 X-4.49346 Y-1.04727
G01 X-4.17573 Y-1.06327
G01 X-3.82019 Y-1.11572
G01 X-3.47020 Y-1.20528
G01 X-3.13144 Y-1.33099
G01 X-3.08623 Y-1.35100
G01 X-2.78338 Y-1.50531
G01 X-2.47810 Y-1.70223
G01 X-2.16159 Y-1.96080
G01 X-1.94059 Y-2.18374
G01 X-1.71249 Y-2.46398
G01 X-1.51496 Y-2.76647
G01 X-1.35011 Y-3.08798
G01 X-1.20528 Y-3.47020
G01 X-1.11572 Y-3.82019
G01 X-1.06324 Y-4.17622
G01 X-1.04691 Y-4.50652
G01 X-1.27366 Y-4.50652
G01 X-1.28971 Y-4.18782
G01 X-1.33982 Y-3.85468
G01 X-1.42458 Y-3.52793
G01 X-1.54305 Y-3.21178
G01 X-1.69388 Y-2.90977
G01 X-1.87549 Y-2.62517
G01 X-2.08582 Y-2.36111
G01 X-2.32263 Y-2.12044
G01 X-2.58328 Y-1.90589
G01 X-2.86494 Y-1.71976
G01 X-3.18917 Y-1.55306
G01 X-3.52793 Y-1.42458
G01 X-3.85468 Y-1.33982
G01 X-4.18760 Y-1.28974
G01 X-4.49346 Y-1.27401
G01 X-24.50602 Y-1.27401
G01 X-24.83894 Y-1.29248
G01 X-25.17267 Y-1.34556
G01 X-25.49865 Y-1.43314
G01 X-25.81379 Y-1.55433
G01 X-26.13500 Y-1.71976
G01 X-26.41669 Y-1.90591
G01 X-26.67729 Y-2.12047
G01 X-26.91412 Y-2.36111
G01 X-27.12446 Y-2.62517
G01 X-27.30607 Y-2.90975
G01 X-27.44737 Y-3.19004
G01 X-27.56705 Y-3.50218
G01 X-27.65504 Y-3.83050
G01 X-27.70789 Y-4.16496
G01 X-27.72562 Y-4.48160
G01 X-27.72628 Y-24.49345
G01 X-27.71023 Y-24.81209
G01 X-27.66014 Y-25.14521
G01 X-27.57536 Y-25.47198
G01 X-27.44737 Y-25.80991
G01 X-27.29428 Y-26.11079
G01 X-27.12446 Y-26.37478
G01 X-26.91412 Y-26.63883
G01 X-26.67732 Y-26.87950
G01 X-26.41669 Y-27.09403
G01 X-26.13500 Y-27.28018
G01 X-25.81079 Y-27.44691
G01 X-25.47198 Y-27.57536
G01 X-25.14524 Y-27.66014
G01 X-24.81235 Y-27.71021
G01 X-24.50650 Y-27.72595
G01 X-4.49489 Y-27.72598
G01 X-4.16496 Y-27.70789
G01 X-3.83146 Y-27.65529
G01 X-3.50533 Y-27.56814
G01 X-3.21178 Y-27.45694
G01 X-2.88915 Y-27.29428
G01 X-2.60591 Y-27.11059
G01 X-2.34338 Y-26.89830
G01 X-2.10452 Y-26.65974
G01 X-1.89187 Y-26.39751
G01 X-1.70736 Y-26.11361
G01 X-1.55306 Y-25.81077
G01 X-1.43182 Y-25.49461
G01 X-1.34468 Y-25.16848
G01 X-1.29205 Y-24.83498
G01 X-1.27434 Y-24.51834
G01 X-1.27366 Y-4.50652
G04 P0 ( dwell for no time -- G64 should not smooth over this point )
G00 Z2.00000 ( retract )

G00 X-2.87630 Y-4.60642 ( rapid move to begin. )
G01 F60.00000
( Mill infeed pass 1/1 )
G01 Z-0.10000
G04 P0 ( dwell for no time -- G64 should not smooth over this point )
G01 F120.00000
G01 X-2.87630 Y-4.60642
G01 X-2.87630 Y-4.39354
G01 X-2.90406 Y-4.18252
G01 X-2.95915 Y-3.97695
G01 X-3.04058 Y-3.78028
G01 X-3.14701 Y-3.59598
G01 X-3.27657 Y-3.42712
G01 X-3.42709 Y-3.27660
G01 X-3.59595 Y-3.14703
G01 X-3.78028 Y-3.04061
G01 X-3.97693 Y-2.95915
G01 X-4.18252 Y-2.90406
G01 X-4.39354 Y-2.87630
G01 X-4.60642 Y-2.87630
G01 X-4.81744 Y-2.90406
G01 X-5.02300 Y-2.95915
G01 X-5.21965 Y-3.04058
G01 X-5.40398 Y-3.14701
G01 X-5.57284 Y-3.27657
G01 X-5.72336 Y-3.42709
G01 X-5.85292 Y-3.59595
G01 X-5.95935 Y-3.78028
G01 X-6.04081 Y-3.97693
G01 X-6.09590 Y-4.18252
G01 X-6.12366 Y-4.39354
G01 X-6.12366 Y-4.60642
G01 X-6.09590 Y-4.81744
G01 X-6.04081 Y-5.02300
G01 X-5.95935 Y-5.21967
G01 X-5.85292 Y-5.40398
G01 X-5.72336 Y-5.57284
G01 X-5.57284 Y-5.72336
G01 X-5.40398 Y-5.85292
G01 X-5.21965 Y-5.95935
G01 X-5.02300 Y-6.04081
G01 X-4.81744 Y-6.09590
G01 X-4.60642 Y-6.12366
G01 X-4.39354 Y-6.12366
G01 X-4.18252 Y-6.09590
G01 X-3.97693 Y-6.04081
G01 X-3.78028 Y-5.95935
G01 X-3.59595 Y-5.85292
G01 X-3.42709 Y-5.72336
G01 X-3.27657 Y-5.57284
G01 X-3.14701 Y-5.40398
G01 X-3.04058 Y-5.21965
G01 X-2.95915 Y-5.02300
G01 X-2.90406 Y-4.81744
G01 X-2.87630 Y-4.60642
G01 X-3.10304 Y-4.59156
G01 X-3.10256 Y-4.40837
G01 X-3.12646 Y-4.22676
G01 X-3.17388 Y-4.04983
G01 X-3.24396 Y-3.88056
G01 X-3.33555 Y-3.72196
G01 X-3.44706 Y-3.57662
G01 X-3.57660 Y-3.44708
G01 X-3.72194 Y-3.33558
G01 X-3.88059 Y-3.24399
G01 X-4.04983 Y-3.17386
G01 X-4.22674 Y-3.12646
G01 X-4.40837 Y-3.10256
G01 X-4.59158 Y-3.10256
G01 X-4.77319 Y-3.12646
G01 X-4.95013 Y-3.17388
G01 X-5.11937 Y-3.24396
G01 X-5.27799 Y-3.33555
G01 X-5.42333 Y-3.44706
G01 X-5.55287 Y-3.57660
G01 X-5.66438 Y-3.72194
G01 X-5.75597 Y-3.88059
G01 X-5.82610 Y-4.04983
G01 X-5.87350 Y-4.22674
G01 X-5.89740 Y-4.40837
G01 X-5.89740 Y-4.59158
G01 X-5.87350 Y-4.77319
G01 X-5.82610 Y-4.95010
G01 X-5.75597 Y-5.11937
G01 X-5.66438 Y-5.27799
G01 X-5.55287 Y-5.42333
G01 X-5.42333 Y-5.55287
G01 X-5.27799 Y-5.66438
G01 X-5.11934 Y-5.75597
G01 X-4.95010 Y-5.82610
G01 X-4.77319 Y-5.87350
G01 X-4.59158 Y-5.89740
G01 X-4.40837 Y-5.89740
G01 X-4.22674 Y-5.87350
G01 X-4.04983 Y-5.82610
G01 X-3.88059 Y-5.75597
G01 X-3.72194 Y-5.66438
G01 X-3.57660 Y-5.55287
G01 X-3.44706 Y-5.42333
G01 X-3.33555 Y-5.27799
G01 X-3.24396 Y-5.11937
G01 X-3.17388 Y-4.95013
G01 X-3.12646 Y-4.77319
G01 X-3.10304 Y-4.59156
G01 X-3.32981 Y-4.57670
G01 X-3.32870 Y-4.42323
G01 X-3.34874 Y-4.27093
G01 X-3.38953 Y-4.12303
G01 X-3.44721 Y-3.98084
G01 X-3.52448 Y-3.84820
G01 X-3.61749 Y-3.72603
G01 X-3.72674 Y-3.61831
G01 X-3.84736 Y-3.52331
G01 X-3.98130 Y-3.44823
G01 X-4.12265 Y-3.38849
G01 X-4.27109 Y-3.34935
G01 X-4.42323 Y-3.32870
G01 X-4.57670 Y-3.32981
G01 X-4.72915 Y-3.34790
G01 X-4.87693 Y-3.38953
G01 X-5.01912 Y-3.44721
G01 X-5.15214 Y-3.52400
G01 X-5.27319 Y-3.61828
G01 X-5.38244 Y-3.72600
G01 X-5.47596 Y-3.84787
G01 X-5.55173 Y-3.98130
G01 X-5.61147 Y-4.12265
G01 X-5.65061 Y-4.27109
G01 X-5.67126 Y-4.42323
G01 X-5.67014 Y-4.57670
G01 X-5.65206 Y-4.72915
G01 X-5.61045 Y-4.87690
G01 X-5.55274 Y-5.01909
G01 X-5.47545 Y-5.15175
G01 X-5.38244 Y-5.27393
G01 X-5.27319 Y-5.38165
G01 X-5.15214 Y-5.47594
G01 X-5.01907 Y-5.55274
G01 X-4.87690 Y-5.61045
G01 X-4.72915 Y-5.65206
G01 X-4.57670 Y-5.67014
G01 X-4.42323 Y-5.67126
G01 X-4.27109 Y-5.65061
G01 X-4.12265 Y-5.61147
G01 X-3.98130 Y-5.55173
G01 X-3.84787 Y-5.47596
G01 X-3.72600 Y-5.38244
G01 X-3.61828 Y-5.27319
G01 X-3.52400 Y-5.15214
G01 X-3.44721 Y-5.01912
G01 X-3.38953 Y-4.87693
G01 X-3.34790 Y-4.72915
G01 X-3.32981 Y-4.57670
G01 X-3.55656 Y-4.56184
G01 X-3.55656 Y-4.43812
G01 X-3.57160 Y-4.31533
G01 X-3.60423 Y-4.19590
G01 X-3.65105 Y-4.08127
G01 X-3.71384 Y-3.97474
G01 X-3.78767 Y-3.87530
G01 X-3.87657 Y-3.78915
G01 X-3.97406 Y-3.71297
G01 X-4.08137 Y-3.65102
G01 X-4.19608 Y-3.60469
G01 X-4.31526 Y-3.57162
G01 X-4.43809 Y-3.55547
G01 X-4.56184 Y-3.55656
G01 X-4.68462 Y-3.57160
G01 X-4.80403 Y-3.60423
G01 X-4.91866 Y-3.65105
G01 X-5.02524 Y-3.71386
G01 X-5.12465 Y-3.78767
G01 X-5.21081 Y-3.87657
G01 X-5.28698 Y-3.97406
G01 X-5.34894 Y-4.08137
G01 X-5.39526 Y-4.19608
G01 X-5.42834 Y-4.31526
G01 X-5.44449 Y-4.43809
G01 X-5.44340 Y-4.56184
G01 X-5.42836 Y-4.68462
G01 X-5.39572 Y-4.80400
G01 X-5.34888 Y-4.91866
G01 X-5.28610 Y-5.02521
G01 X-5.21226 Y-5.12465
G01 X-5.12336 Y-5.21081
G01 X-5.02587 Y-5.28698
G01 X-4.91856 Y-5.34894
G01 X-4.80383 Y-5.39526
G01 X-4.68470 Y-5.42834
G01 X-4.56187 Y-5.44449
G01 X-4.43812 Y-5.44340
G01 X-4.31533 Y-5.42834
G01 X-4.19570 Y-5.39628
G01 X-4.08181 Y-5.34792
G01 X-3.97411 Y-5.28701
G01 X-3.87627 Y-5.21117
G01 X-3.78828 Y-5.12404
G01 X-3.71386 Y-5.02524
G01 X-3.65026 Y-4.91901
G01 X-3.60469 Y-4.80388
G01 X-3.57162 Y-4.68470
G01 X-3.55656 Y-4.56184
G01 X-3.78330 Y-4.54698
G01 X-3.78221 Y-4.45292
G01 X-3.79451 Y-4.35961
G01 X-3.81988 Y-4.26910
G01 X-3.85483 Y-4.18183
G01 X-3.90238 Y-4.10073
G01 X-3.95917 Y-4.02570
G01 X-4.02641 Y-3.96001
G01 X-4.10030 Y-3.90192
G01 X-4.18188 Y-3.85483
G01 X-4.26913 Y-3.81988
G01 X-4.35958 Y-3.79451
G01 X-4.45292 Y-3.78221
G01 X-4.54698 Y-3.78330
G01 X-4.64050 Y-3.79364
G01 X-4.73083 Y-3.81988
G01 X-4.81810 Y-3.85483
G01 X-4.89963 Y-3.90190
G01 X-4.97352 Y-3.95999
G01 X-5.04076 Y-4.02567
G01 X-5.09755 Y-4.10068
G01 X-5.14513 Y-4.18188
G01 X-5.18008 Y-4.26913
G01 X-5.20545 Y-4.35958
G01 X-5.21774 Y-4.45292
G01 X-5.21665 Y-4.54698
G01 X-5.20631 Y-4.64050
G01 X-5.18008 Y-4.73080
G01 X-5.14513 Y-4.81808
G01 X-5.09755 Y-4.89923
G01 X-5.04076 Y-4.97426
G01 X-4.97352 Y-5.03994
G01 X-4.89963 Y-5.09803
G01 X-4.81805 Y-5.14513
G01 X-4.73078 Y-5.18008
G01 X-4.64050 Y-5.20631
G01 X-4.54698 Y-5.21665
G01 X-4.45292 Y-5.21774
G01 X-4.35958 Y-5.20545
G01 X-4.26913 Y-5.18008
G01 X-4.18188 Y-5.14513
G01 X-4.10068 Y-5.09755
G01 X-4.02567 Y-5.04076
G01 X-3.95999 Y-4.97352
G01 X-3.90190 Y-4.89963
G01 X-3.85483 Y-4.81810
G01 X-3.81988 Y-4.73083
G01 X-3.79364 Y-4.64050
G01 X-3.78330 Y-4.54698
G01 X-4.01008 Y-4.53215
G01 X-4.01008 Y-4.46783
G01 X-4.01846 Y-4.40418
G01 X-4.03507 Y-4.34213
G01 X-4.03088 Y-4.34071
G01 X-4.03507 Y-4.34213
G01 X-4.05966 Y-4.28280
G01 X-4.09171 Y-4.22725
G01 X-4.13083 Y-4.17627
G01 X-4.12750 Y-4.17335
G01 X-4.13083 Y-4.17627
G01 X-4.17624 Y-4.13085
G01 X-4.22719 Y-4.09176
G01 X-4.28282 Y-4.05966
G01 X-4.28087 Y-4.05567
G01 X-4.28282 Y-4.05966
G01 X-4.34218 Y-4.03507
G01 X-4.40416 Y-4.01846
G01 X-4.46783 Y-4.01008
G01 X-4.46753 Y-4.00563
G01 X-4.46783 Y-4.01008
G01 X-4.53212 Y-4.01008
G01 X-4.59577 Y-4.01846
G01 X-4.65780 Y-4.03507
G01 X-4.65922 Y-4.03085
G01 X-4.65780 Y-4.03507
G01 X-4.71716 Y-4.05966
G01 X-4.77274 Y-4.09174
G01 X-4.82369 Y-4.13083
G01 X-4.82661 Y-4.12750
G01 X-4.82369 Y-4.13083
G01 X-4.86910 Y-4.17624
G01 X-4.90819 Y-4.22719
G01 X-4.94030 Y-4.28282
G01 X-4.94429 Y-4.28087
G01 X-4.94030 Y-4.28282
G01 X-4.96489 Y-4.34218
G01 X-4.98150 Y-4.40416
G01 X-4.98988 Y-4.46783
G01 X-4.99433 Y-4.46753
G01 X-4.98988 Y-4.46783
G01 X-4.98988 Y-4.53212
G01 X-4.98150 Y-4.59577
G01 X-4.96489 Y-4.65775
G01 X-4.96910 Y-4.65917
G01 X-4.96489 Y-4.65775
G01 X-4.94030 Y-4.71711
G01 X-4.90822 Y-4.77271
G01 X-4.86910 Y-4.82369
G01 X-4.87243 Y-4.82661
G01 X-4.86910 Y-4.82369
G01 X-4.82369 Y-4.86910
G01 X-4.77274 Y-4.90819
G01 X-4.71711 Y-4.94030
G01 X-4.71907 Y-4.94429
G01 X-4.71711 Y-4.94030
G01 X-4.65773 Y-4.96491
G01 X-4.59577 Y-4.98150
G01 X-4.53212 Y-4.98988
G01 X-4.53243 Y-4.99433
G01 X-4.53212 Y-4.98988
G01 X-4.46783 Y-4.98988
G01 X-4.40416 Y-4.98150
G01 X-4.34218 Y-4.96489
G01 X-4.34076 Y-4.96910
G01 X-4.34218 Y-4.96489
G01 X-4.28282 Y-4.94030
G01 X-4.22719 Y-4.90819
G01 X-4.17624 Y-4.86910
G01 X-4.17332 Y-4.87243
G01 X-4.17624 Y-4.86910
G01 X-4.13083 Y-4.82369
G01 X-4.09174 Y-4.77274
G01 X-4.05966 Y-4.71716
G01 X-4.05567 Y-4.71912
G01 X-4.05966 Y-4.71716
G01 X-4.03507 Y-4.65780
G01 X-4.01846 Y-4.59577
G01 X-4.01008 Y-4.53215
G01 X-4.23682 Y-4.51726
G01 X-4.24132 Y-4.44851
G01 X-4.23697 Y-4.44764
G01 X-4.24132 Y-4.44851
G01 X-4.26347 Y-4.38328
G01 X-4.28066 Y-4.35348
G01 X-4.27698 Y-4.35102
G01 X-4.28066 Y-4.35348
G01 X-4.30169 Y-4.32610
G01 X-4.35343 Y-4.28071
G01 X-4.35097 Y-4.27703
G01 X-4.35343 Y-4.28071
G01 X-4.38333 Y-4.26344
G01 X-4.44848 Y-4.24134
G01 X-4.44762 Y-4.23697
G01 X-4.44848 Y-4.24134
G01 X-4.48269 Y-4.23682
G01 X-4.55145 Y-4.24132
G01 X-4.55231 Y-4.23697
G01 X-4.55145 Y-4.24132
G01 X-4.61665 Y-4.26347
G01 X-4.64650 Y-4.28069
G01 X-4.64896 Y-4.27700
G01 X-4.64650 Y-4.28069
G01 X-4.67385 Y-4.30169
G01 X-4.71924 Y-4.35343
G01 X-4.72293 Y-4.35097
G01 X-4.71924 Y-4.35343
G01 X-4.73652 Y-4.38333
G01 X-4.75861 Y-4.44848
G01 X-4.76298 Y-4.44762
G01 X-4.75861 Y-4.44848
G01 X-4.76313 Y-4.48269
G01 X-4.75864 Y-4.55145
G01 X-4.76298 Y-4.55231
G01 X-4.75864 Y-4.55145
G01 X-4.73652 Y-4.61660
G01 X-4.71927 Y-4.64647
G01 X-4.72295 Y-4.64894
G01 X-4.71927 Y-4.64647
G01 X-4.69824 Y-4.67385
G01 X-4.64650 Y-4.71924
G01 X-4.64896 Y-4.72293
G01 X-4.64650 Y-4.71924
G01 X-4.61660 Y-4.73652
G01 X-4.55145 Y-4.75864
G01 X-4.55231 Y-4.76298
G01 X-4.55145 Y-4.75864
G01 X-4.48269 Y-4.76313
G01 X-4.44848 Y-4.75861
G01 X-4.44762 Y-4.76298
G01 X-4.44848 Y-4.75861
G01 X-4.38333 Y-4.73652
G01 X-4.35343 Y-4.71924
G01 X-4.35097 Y-4.72293
G01 X-4.35343 Y-4.71924
G01 X-4.32608 Y-4.69824
G01 X-4.28069 Y-4.64650
G01 X-4.27700 Y-4.64896
G01 X-4.28069 Y-4.64650
G01 X-4.26347 Y-4.61665
G01 X-4.24132 Y-4.55145
G01 X-4.23697 Y-4.55231
G01 X-4.24132 Y-4.55145
G01 X-4.23682 Y-4.51726
G01 X-4.45049 Y-4.52445
G01 X-4.46728 Y-4.51615
G01 X-4.46359 Y-4.50243
G01 X-4.46545 Y-4.48821
G01 X-4.44772 Y-4.48219
G01 X-4.46545 Y-4.48821
G01 X-4.47253 Y-4.47594
G01 X-4.48386 Y-4.46725
G01 X-4.47561 Y-4.45054
G01 X-4.48386 Y-4.46725
G01 X-4.49753 Y-4.46359
G01 X-4.51170 Y-4.46545
G01 X-4.51772 Y-4.44774
G01 X-4.51170 Y-4.46545
G01 X-4.52402 Y-4.47253
G01 X-4.53271 Y-4.48386
G01 X-4.54942 Y-4.47561
G01 X-4.53271 Y-4.48386
G01 X-4.53636 Y-4.49753
G01 X-4.53453 Y-4.51165
G01 X-4.55226 Y-4.51767
G01 X-4.53453 Y-4.51165
G01 X-4.52740 Y-4.52402
G01 X-4.51607 Y-4.53271
G01 X-4.52432 Y-4.54942
G01 X-4.51607 Y-4.53271
G01 X-4.50243 Y-4.53636
G01 X-4.48828 Y-4.53453
G01 X-4.48231 Y-4.55219
G01 X-4.48828 Y-4.53453
G01 X-4.47591 Y-4.52740
G01 X-4.46728 Y-4.51615
G04 P0 ( dwell for no time -- G64 should not smooth over this point )
G00 Z2.00000 ( retract )

G00 X-7.88927 Y-12.47927 ( rapid move to begin. )
G01 F60.00000
( Mill infeed pass 1/1 )
G01 Z-0.10000
G04 P0 ( dwell for no time -- G64 should not smooth over this point )
G01 F120.00000
G01 X-7.88927 Y-12.47927
G01 X-7.91848 Y-12.54978
G01 X-8.02160 Y-12.72837
G01 X-8.14713 Y-12.89195
G01 X-8.29295 Y-13.03777
G01 X-8.45657 Y-13.16335
G01 X-8.63516 Y-13.26647
G01 X-8.82569 Y-13.34536
G01 X-8.95566 Y-13.38021
G01 X-8.95566 Y-13.01422
G01 X-8.83351 Y-12.97323
G01 X-8.61139 Y-12.84498
G01 X-8.42079 Y-12.67338
G01 X-8.27872 Y-12.47927
G01 X-7.88927 Y-12.47927
G04 P0 ( dwell for no time -- G64 should not smooth over this point )
G00 Z2.00000 ( retract )

G00 X-13.46091 Y-10.24402 ( rapid move to begin. )
G01 F60.00000
( Mill infeed pass 1/1 )
G01 Z-0.10000
G04 P0 ( dwell for no time -- G64 should not smooth over this point )
G01 F120.00000
G01 X-13.46091 Y-10.24402
G01 X-13.39306 Y-10.38703
G01 X-12.34478 Y-10.38659
G01 X-12.30008 Y-10.35103
G01 X-12.26485 Y-10.31240
G01 X-11.95535 Y-10.16602
G01 X-11.95664 Y-10.16036
G01 X-11.95535 Y-10.16602
G01 X-11.92525 Y-10.16602
G01 X-11.92421 Y-10.16112
G01 X-11.92525 Y-10.16602
G01 X-10.90816 Y-10.61636
G01 X-10.52264 Y-10.55649
G01 X-10.43259 Y-10.53645
G01 X-10.47311 Y-10.53186
G01 X-10.56594 Y-10.51212
G01 X-10.65136 Y-10.48207
G01 X-11.87729 Y-9.93927
G01 X-12.00704 Y-9.93927
G01 X-12.40218 Y-10.12929
G01 X-12.45182 Y-10.18253
G01 X-12.53033 Y-10.23958
G01 X-12.61900 Y-10.27908
G01 X-12.69050 Y-10.29553
G01 X-12.76307 Y-10.30178
G01 X-13.28628 Y-10.29922
G01 X-13.35804 Y-10.28520
G01 X-13.40312 Y-10.27057
G01 X-13.46965 Y-10.23958
G01 X-13.52972 Y-10.19746
G01 X-13.56495 Y-10.16574
G01 X-13.61310 Y-10.11039
G01 X-13.65087 Y-10.04748
G01 X-13.68549 Y-9.95695
G01 X-13.69535 Y-9.91057
G01 X-13.70178 Y-9.83750
G01 X-13.70178 Y-9.33750
G01 X-13.69164 Y-9.24095
G01 X-13.66164 Y-9.14865
G01 X-13.61310 Y-9.06457
G01 X-13.56495 Y-9.00923
G01 X-13.52972 Y-8.97750
G01 X-13.46965 Y-8.93539
G01 X-13.38097 Y-8.89592
G01 X-13.30947 Y-8.87943
G01 X-13.26391 Y-8.87451
G01 X-13.17280 Y-8.87385
G01 X-13.10739 Y-8.81639
G01 X-13.02507 Y-8.76270
G01 X-12.99334 Y-8.74652
G01 X-12.90152 Y-8.71151
G01 X-12.80536 Y-8.69130
G01 X-12.72499 Y-8.68566
G01 X-11.87643 Y-8.68566
G01 X-10.65141 Y-8.14291
G01 X-10.56594 Y-8.11286
G01 X-10.47311 Y-8.09313
G01 X-10.42594 Y-8.08817
G01 X-8.73902 Y-8.08817
G01 X-8.69188 Y-8.09313
G01 X-8.59904 Y-8.11286
G01 X-8.55396 Y-8.12752
G01 X-8.44608 Y-8.17690
G01 X-8.34939 Y-8.24560
G01 X-8.31416 Y-8.27735
G01 X-8.25066 Y-8.34786
G01 X-8.22277 Y-8.38624
G01 X-8.16455 Y-8.48957
G01 X-8.12670 Y-8.60201
G01 X-8.11685 Y-8.64840
G01 X-8.10570 Y-8.76648
G01 X-8.10570 Y-9.85848
G01 X-8.12056 Y-10.00003
G01 X-8.16455 Y-10.13539
G01 X-8.22277 Y-10.23874
G01 X-8.25066 Y-10.27709
G01 X-8.33095 Y-10.36442
G01 X-8.44578 Y-10.44791
G01 X-8.55396 Y-10.49746
G01 X-8.59904 Y-10.51212
G01 X-8.69188 Y-10.53186
G01 X-8.73382 Y-10.53683
G01 X-8.69188 Y-10.53186
G01 X-8.57611 Y-10.50597
G01 X-8.44578 Y-10.44791
G01 X-8.51522 Y-10.57610
G01 X-8.64298 Y-10.55639
G01 X-8.73382 Y-10.53683
G01 X-10.43259 Y-10.53645
G01 X-10.52264 Y-10.55649
G01 X-10.99736 Y-10.63076
G01 X-11.15936 Y-10.66571
G01 X-11.28238 Y-10.69866
G01 X-11.93701 Y-10.40882
G01 X-11.93736 Y-10.38581
G01 X-11.91537 Y-10.42733
G01 X-12.10881 Y-10.38840
G01 X-12.34478 Y-10.38659
G01 X-12.12893 Y-10.38565
G01 X-11.95667 Y-10.41827
G01 X-11.93701 Y-10.40882
G01 X-11.95667 Y-10.41827
G01 X-11.93701 Y-10.40882
G01 X-11.28238 Y-10.69866
G01 X-11.52106 Y-10.76625
G01 X-11.56917 Y-10.73015
G01 X-11.73376 Y-10.56310
G01 X-11.86185 Y-10.45240
G01 X-11.85913 Y-10.44773
G01 X-11.86185 Y-10.45240
G01 X-11.89317 Y-10.43368
G01 X-11.91537 Y-10.42733
G01 X-11.26922 Y-11.64687
G01 X-11.21491 Y-11.40330
G01 X-11.11286 Y-11.16800
G01 X-11.06546 Y-11.08588
G01 X-10.94257 Y-10.91677
G01 X-10.87912 Y-10.84631
G01 X-10.87244 Y-10.84031
G01 X-10.48431 Y-10.78001
G01 X-10.37656 Y-10.75634
G01 X-10.48431 Y-10.78001
G01 X-10.95256 Y-10.85306
G01 X-11.10877 Y-10.88677
G01 X-11.41900 Y-10.97219
G01 X-11.38352 Y-11.21844
G01 X-11.32002 Y-11.07577
G01 X-11.28768 Y-11.01232
G01 X-11.22347 Y-10.91763
G01 X-11.28768 Y-11.01232
G01 X-11.32002 Y-11.07577
G01 X-11.38352 Y-11.21844
G01 X-11.35377 Y-11.37188
G01 X-11.28860 Y-11.59192
G01 X-11.18890 Y-11.85896
G01 X-11.10173 Y-12.12093
G01 X-10.98172 Y-12.60495
G01 X-10.90955 Y-12.82672
G01 X-10.90417 Y-12.86833
G01 X-10.90732 Y-12.88915
G01 X-10.91428 Y-12.90902
G01 X-10.94463 Y-12.95535
G01 X-10.91428 Y-12.90902
G01 X-10.91123 Y-12.91036
G01 X-10.91428 Y-12.90902
G01 X-10.90417 Y-12.86833
G01 X-10.89683 Y-12.86827
G01 X-10.90417 Y-12.86833
G01 X-10.90910 Y-12.82870
G01 X-10.78095 Y-12.94707
G01 X-10.44430 Y-13.06904
G01 X-10.78095 Y-12.94707
G01 X-10.82264 Y-12.94569
G01 X-10.94463 Y-12.95535
G01 X-11.00546 Y-13.04138
G01 X-11.06132 Y-13.13119
G01 X-11.13726 Y-13.28842
G01 X-11.21161 Y-13.37107
G01 X-11.24450 Y-13.42029
G01 X-11.28710 Y-13.53970
G01 X-11.29612 Y-13.57564
G01 X-11.29916 Y-13.61257
G01 X-11.30018 Y-20.50484
G01 X-11.26995 Y-20.65177
G01 X-11.24153 Y-20.71281
G01 X-10.73917 Y-21.55078
G01 X-10.70442 Y-21.63788
G01 X-10.69894 Y-21.69653
G01 X-10.70125 Y-24.33556
G01 X-10.70333 Y-24.35487
G01 X-10.73229 Y-24.43249
G01 X-10.77946 Y-24.49551
G01 X-10.84247 Y-24.54267
G01 X-10.92007 Y-24.57160
G01 X-10.93925 Y-24.57366
G01 X-13.01072 Y-24.57366
G01 X-13.02992 Y-24.57160
G01 X-13.10749 Y-24.54267
G01 X-13.17051 Y-24.49551
G01 X-13.20935 Y-24.45088
G01 X-13.28161 Y-24.38596
G01 X-13.33048 Y-24.35248
G01 X-13.44938 Y-24.30849
G01 X-13.49251 Y-24.29787
G01 X-13.39047 Y-24.32924
G01 X-13.42730 Y-24.27338
G01 X-13.49251 Y-24.29787
G01 X-13.53690 Y-24.29589
G01 X-13.63393 Y-24.30107
G01 X-13.67714 Y-24.30760
G01 X-13.71829 Y-24.32228
G01 X-13.80305 Y-24.36211
G01 X-13.84734 Y-24.38931
G01 X-14.02606 Y-24.48037
G01 X-14.21671 Y-24.54232
G01 X-14.41473 Y-24.57366
G01 X-14.61521 Y-24.57366
G01 X-14.81325 Y-24.54232
G01 X-15.00391 Y-24.48037
G01 X-15.18255 Y-24.38936
G01 X-15.29926 Y-24.30589
G01 X-15.40723 Y-24.25492
G01 X-15.44922 Y-24.24036
G01 X-15.49321 Y-24.23427
G01 X-15.61996 Y-24.23122
G01 X-15.67777 Y-24.24430
G01 X-15.80121 Y-24.29281
G01 X-15.89672 Y-24.36658
G01 X-16.01546 Y-24.48530
G01 X-16.17909 Y-24.61085
G01 X-16.35768 Y-24.71397
G01 X-16.42816 Y-24.74318
G01 X-16.42816 Y-24.35372
G01 X-16.23411 Y-24.21169
G01 X-16.06248 Y-24.02108
G01 X-15.93426 Y-23.79896
G01 X-15.89834 Y-23.69251
G01 X-15.89834 Y-24.02624
G01 X-15.89148 Y-24.06510
G01 X-15.88310 Y-24.08304
G01 X-15.85770 Y-24.11324
G01 X-15.84147 Y-24.12456
G01 X-15.70157 Y-24.18232
G01 X-15.60060 Y-24.23071
G01 X-15.70157 Y-24.18232
G01 X-15.84147 Y-24.12456
G01 X-15.84368 Y-24.12779
G01 X-15.84147 Y-24.12456
G01 X-15.85770 Y-24.11324
G01 X-15.88310 Y-24.08304
G01 X-15.89006 Y-24.08705
G01 X-15.88310 Y-24.08304
G01 X-15.89148 Y-24.06510
G01 X-15.90030 Y-24.02652
G01 X-15.89834 Y-23.69251
G01 X-15.85498 Y-23.55505
G01 X-15.82819 Y-23.29998
G01 X-15.82819 Y-22.69998
G01 X-15.85498 Y-22.44491
G01 X-15.93426 Y-22.20100
G01 X-16.06248 Y-21.97890
G01 X-16.23411 Y-21.78830
G01 X-16.42816 Y-21.64626
G01 X-16.42816 Y-21.25678
G01 X-16.35768 Y-21.28599
G01 X-16.17909 Y-21.38911
G01 X-16.09202 Y-21.45454
G01 X-15.95801 Y-21.51969
G01 X-15.89992 Y-21.53125
G01 X-15.77330 Y-21.53757
G01 X-15.71521 Y-21.52602
G01 X-15.63002 Y-21.49711
G01 X-15.66608 Y-21.54121
G01 X-15.73461 Y-21.61055
G01 X-15.88963 Y-21.73829
G01 X-15.90792 Y-21.75797
G01 X-15.96042 Y-21.75149
G01 X-16.33377 Y-21.55708
G01 X-15.96042 Y-21.75149
G01 X-15.92501 Y-21.79084
G01 X-15.93078 Y-21.82051
G01 X-15.93009 Y-21.83940
G01 X-15.90246 Y-22.09886
G01 X-15.89816 Y-22.18027
G01 X-15.89827 Y-22.30770
G01 X-15.89816 Y-22.18027
G01 X-15.90246 Y-22.09886
G01 X-15.93009 Y-21.83940
G01 X-15.92834 Y-21.80173
G01 X-15.92280 Y-21.78365
G01 X-15.90792 Y-21.75797
G01 X-15.92280 Y-21.78365
G01 X-15.92834 Y-21.80173
G01 X-15.91434 Y-21.76676
G01 X-15.88963 Y-21.73829
G01 X-15.73461 Y-21.61055
G01 X-15.66608 Y-21.54121
G01 X-15.63002 Y-21.49711
G01 X-15.58275 Y-21.47644
G01 X-15.54660 Y-21.45055
G01 X-15.47355 Y-21.38650
G01 X-15.44500 Y-21.35640
G01 X-15.42240 Y-21.32160
G01 X-15.36817 Y-21.21154
G01 X-15.21201 Y-20.73135
G01 X-15.19149 Y-20.61975
G01 X-15.18867 Y-20.58421
G01 X-15.18867 Y-14.96113
G01 X-15.19304 Y-14.91689
G01 X-15.21965 Y-14.79293
G01 X-15.24584 Y-14.73980
G01 X-15.29982 Y-14.65903
G01 X-15.32804 Y-14.62468
G01 X-17.18732 Y-12.76540
G01 X-17.22166 Y-12.73719
G01 X-17.30243 Y-12.68321
G01 X-17.35557 Y-12.65702
G01 X-17.47952 Y-12.63040
G01 X-17.51929 Y-12.62609
G01 X-17.55922 Y-12.62883
G01 X-17.67121 Y-12.64945
G01 X-19.03438 Y-13.09484
G01 X-19.23222 Y-13.12614
G01 X-19.93273 Y-13.12614
G01 X-20.13074 Y-13.09482
G01 X-20.32140 Y-13.03287
G01 X-20.50006 Y-12.94186
G01 X-20.66221 Y-12.82400
G01 X-20.80400 Y-12.68222
G01 X-20.92185 Y-12.52004
G01 X-21.01286 Y-12.34140
G01 X-21.07481 Y-12.15075
G01 X-21.10616 Y-11.95273
G01 X-21.10616 Y-11.75222
G01 X-21.07481 Y-11.55421
G01 X-21.01286 Y-11.36355
G01 X-20.92185 Y-11.18489
G01 X-20.83839 Y-11.06820
G01 X-20.77679 Y-10.93254
G01 X-20.76676 Y-10.87420
G01 X-20.76295 Y-10.77712
G01 X-20.76557 Y-10.73274
G01 X-20.77679 Y-10.68972
G01 X-20.82531 Y-10.56627
G01 X-20.89907 Y-10.47072
G01 X-21.01779 Y-10.35197
G01 X-21.14334 Y-10.18837
G01 X-21.24646 Y-10.00978
G01 X-21.27567 Y-9.93927
G01 X-20.88624 Y-9.93927
G01 X-20.74418 Y-10.13338
G01 X-20.55358 Y-10.30498
G01 X-20.33148 Y-10.43323
G01 X-20.22511 Y-10.46909
G01 X-20.55876 Y-10.46909
G01 X-20.59762 Y-10.47595
G01 X-20.61555 Y-10.48433
G01 X-20.63176 Y-10.49571
G01 X-20.65706 Y-10.52596
G01 X-20.71482 Y-10.66579
G01 X-20.76353 Y-10.76747
G01 X-20.71482 Y-10.66579
G01 X-20.66569 Y-10.54377
G01 X-20.64573 Y-10.50973
G01 X-20.64982 Y-10.50600
G01 X-20.64573 Y-10.50973
G01 X-20.63176 Y-10.49571
G01 X-20.59762 Y-10.47595
G01 X-20.60082 Y-10.46610
G01 X-20.59762 Y-10.47595
G01 X-20.55876 Y-10.46909
G01 X-20.22511 Y-10.46909
G01 X-20.08756 Y-10.51248
G01 X-19.83250 Y-10.53930
G01 X-19.33250 Y-10.53930
G01 X-19.10088 Y-10.51618
G01 X-19.05450 Y-10.50633
G01 X-18.83349 Y-10.43323
G01 X-18.61139 Y-10.30498
G01 X-18.42079 Y-10.13338
G01 X-18.34243 Y-10.02764
G01 X-18.42079 Y-10.13338
G01 X-18.61139 Y-10.30498
G01 X-18.83349 Y-10.43323
G01 X-18.94009 Y-10.46917
G01 X-18.81284 Y-10.46927
G01 X-18.73136 Y-10.46495
G01 X-18.50507 Y-10.44123
G01 X-18.41774 Y-10.24506
G01 X-18.38795 Y-10.16767
G01 X-18.34243 Y-10.02764
G01 X-18.27004 Y-9.92589
G01 X-18.16572 Y-9.69160
G01 X-18.11241 Y-9.44072
G01 X-18.11117 Y-9.20796
G01 X-18.11612 Y-9.16081
G01 X-18.16572 Y-8.93338
G01 X-18.25927 Y-8.72025
G01 X-18.28297 Y-8.67918
G01 X-18.42079 Y-8.49160
G01 X-18.59295 Y-8.33493
G01 X-18.63131 Y-8.30704
G01 X-18.83349 Y-8.19175
G01 X-18.95566 Y-8.15076
G01 X-18.95566 Y-7.78474
G01 X-18.82569 Y-7.81957
G01 X-18.63517 Y-7.89849
G01 X-18.45658 Y-8.00161
G01 X-18.29295 Y-8.12714
G01 X-18.14713 Y-8.27296
G01 X-18.02160 Y-8.43658
G01 X-17.91848 Y-8.61517
G01 X-17.90342 Y-8.64867
G01 X-17.83801 Y-8.74855
G01 X-17.80979 Y-8.78289
G01 X-17.77545 Y-8.81111
G01 X-17.70355 Y-8.85914
G01 X-17.92976 Y-8.87186
G01 X-17.96768 Y-8.88126
G01 X-18.00019 Y-8.90300
G01 X-18.01315 Y-8.91774
G01 X-18.03055 Y-8.95276
G01 X-18.07225 Y-9.09358
G01 X-18.11160 Y-9.19955
G01 X-18.07225 Y-9.09358
G01 X-18.02336 Y-8.93450
G01 X-18.03126 Y-8.92899
G01 X-18.02336 Y-8.93450
G01 X-18.00019 Y-8.90300
G01 X-17.96768 Y-8.88126
G01 X-17.94914 Y-8.87491
G01 X-17.95313 Y-8.86460
G01 X-17.94914 Y-8.87491
G01 X-17.70355 Y-8.85914
G01 X-17.65546 Y-8.88604
G01 X-17.61294 Y-8.89894
G01 X-17.48135 Y-8.92213
G01 X-17.39186 Y-8.91377
G01 X-16.53603 Y-8.91377
G01 X-15.77345 Y-8.82627
G01 X-15.22486 Y-8.82627
G01 X-15.16002 Y-8.83290
G01 X-15.04495 Y-8.87103
G01 X-14.94325 Y-8.93374
G01 X-14.85875 Y-9.01824
G01 X-14.79601 Y-9.11997
G01 X-14.75791 Y-9.23498
G01 X-14.75128 Y-9.29985
G01 X-14.75128 Y-9.87509
G01 X-14.75786 Y-9.93945
G01 X-14.80696 Y-10.08545
G01 X-14.83538 Y-10.19820
G01 X-14.84165 Y-10.24222
G01 X-14.83152 Y-10.33668
G01 X-14.89019 Y-10.45977
G01 X-14.79936 Y-10.51870
G01 X-14.74379 Y-10.54885
G01 X-14.79418 Y-10.46579
G01 X-14.81341 Y-10.42571
G01 X-14.83152 Y-10.33668
G01 X-14.81341 Y-10.42571
G01 X-14.79418 Y-10.46579
G01 X-14.72677 Y-10.57318
G01 X-14.68397 Y-10.61413
G01 X-14.60561 Y-10.67156
G01 X-14.56736 Y-10.69421
G01 X-14.52542 Y-10.70894
G01 X-14.40442 Y-10.73688
G01 X-14.11153 Y-10.73770
G01 X-13.99410 Y-10.71547
G01 X-13.93802 Y-10.69645
G01 X-13.80802 Y-10.60955
G01 X-13.76898 Y-10.56503
G01 X-13.71501 Y-10.48423
G01 X-13.69405 Y-10.44504
G01 X-13.68115 Y-10.40249
G01 X-13.66799 Y-10.33645
G01 X-13.68115 Y-10.40249
G01 X-13.69405 Y-10.44504
G01 X-13.71501 Y-10.48423
G01 X-13.75811 Y-10.54880
G01 X-13.72392 Y-10.53208
G01 X-13.61084 Y-10.45967
G01 X-13.66799 Y-10.33645
G01 X-13.65783 Y-10.26300
G01 X-13.66220 Y-10.21875
G01 X-13.68900 Y-10.09426
G01 X-13.74216 Y-9.93887
G01 X-13.74866 Y-9.87511
G01 X-13.74866 Y-9.29985
G01 X-13.74206 Y-9.23498
G01 X-13.70393 Y-9.11997
G01 X-13.64120 Y-9.01824
G01 X-13.55672 Y-8.93374
G01 X-13.45499 Y-8.87103
G01 X-13.33998 Y-8.83290
G01 X-13.27226 Y-8.82160
G01 X-13.14968 Y-8.78159
G01 X-13.04514 Y-8.71586
G01 X-12.92151 Y-8.66468
G01 X-12.79131 Y-8.63879
G01 X-12.00300 Y-8.63879
G01 X-11.95870 Y-8.63443
G01 X-11.83932 Y-8.60925
G01 X-10.67935 Y-8.09818
G01 X-10.50480 Y-8.04598
G01 X-10.42378 Y-8.03880
G01 X-8.74116 Y-8.03880
G01 X-8.65881 Y-8.04608
G01 X-8.51515 Y-8.08721
G01 X-8.38396 Y-8.15574
G01 X-8.26925 Y-8.24926
G01 X-8.17575 Y-8.36394
G01 X-8.10720 Y-8.49516
G01 X-8.06610 Y-8.63882
G01 X-8.05878 Y-8.72119
G01 X-8.05878 Y-9.90376
G01 X-8.06610 Y-9.98611
G01 X-8.10720 Y-10.12980
G01 X-8.19226 Y-10.29261
G01 X-8.23105 Y-10.39213
G01 X-8.24172 Y-10.43158
G01 X-8.24512 Y-10.47229
G01 X-8.24451 Y-10.56945
G01 X-8.23989 Y-10.61364
G01 X-8.22670 Y-10.65611
G01 X-8.17613 Y-10.77138
G01 X-8.02170 Y-10.97641
G01 X-7.91848 Y-11.15517
G01 X-7.88929 Y-11.22566
G01 X-8.27877 Y-11.22566
G01 X-8.40585 Y-11.05004
G01 X-8.43758 Y-11.01481
G01 X-8.61139 Y-10.85997
G01 X-8.78660 Y-10.75741
G01 X-8.68063 Y-10.78001
G01 X-8.46590 Y-10.81133
G01 X-8.42645 Y-10.80960
G01 X-8.40755 Y-10.80361
G01 X-8.37430 Y-10.78235
G01 X-8.36094 Y-10.76769
G01 X-8.24464 Y-10.55258
G01 X-8.35035 Y-10.75096
G01 X-8.37430 Y-10.78235
G01 X-7.88929 Y-11.22566
G01 X-8.37430 Y-10.78235
G01 X-8.40755 Y-10.80361
G01 X-8.44608 Y-10.81220
G01 X-8.44504 Y-10.82035
G01 X-8.44608 Y-10.81220
G01 X-8.68515 Y-10.78001
G01 X-8.78660 Y-10.75741
G01 X-8.85566 Y-10.72325
G01 X-9.05449 Y-10.65863
G01 X-9.10087 Y-10.64877
G01 X-9.33249 Y-10.62568
G01 X-9.83249 Y-10.62568
G01 X-10.06411 Y-10.64877
G01 X-10.11050 Y-10.65863
G01 X-10.33148 Y-10.73175
G01 X-10.53368 Y-10.84704
G01 X-10.57204 Y-10.87493
G01 X-10.74417 Y-11.03160
G01 X-10.88199 Y-11.21918
G01 X-10.90569 Y-11.26025
G01 X-10.99924 Y-11.47338
G01 X-11.04885 Y-11.70081
G01 X-11.05380 Y-11.74796
G01 X-11.05256 Y-11.98072
G01 X-11.00539 Y-12.20866
G01 X-10.99073 Y-12.25375
G01 X-10.89492 Y-12.46589
G01 X-10.74417 Y-12.67338
G01 X-10.57204 Y-12.83005
G01 X-10.53368 Y-12.85791
G01 X-10.33148 Y-12.97323
G01 X-10.20928 Y-13.01425
G01 X-10.20928 Y-13.38021
G01 X-10.33925 Y-13.34536
G01 X-10.52977 Y-13.26647
G01 X-10.60740 Y-13.22291
G01 X-10.72010 Y-13.18351
G01 X-10.76338 Y-13.17341
G01 X-10.80780 Y-13.17193
G01 X-10.90473 Y-13.17831
G01 X-10.96282 Y-13.18986
G01 X-11.07737 Y-13.24419
G01 X-11.11512 Y-13.26764
G01 X-11.13726 Y-13.28842
G04 P0 ( dwell for no time -- G64 should not smooth over this point )
G00 Z2.00000 ( retract )

G00 X-11.34816 Y-13.20498 ( rapid move to begin. )
G01 F60.00000
( Mill infeed pass 1/1 )
G01 Z-0.10000
G04 P0 ( dwell for no time -- G64 should not smooth over this point )
G01 F120.00000
G01 X-11.34816 Y-13.20498
G01 X-11.33508 Y-13.17191
G01 X-11.25710 Y-13.01570
G01 X-11.19627 Y-12.91877
G01 X-11.14278 Y-12.84280
G01 X-11.19828 Y-12.67234
G01 X-11.22642 Y-12.56820
G01 X-11.25649 Y-12.43056
G01 X-11.31918 Y-12.18613
G01 X-11.40226 Y-11.93576
G01 X-11.48306 Y-11.72228
G01 X-11.64257 Y-11.56277
G01 X-12.08321 Y-11.03983
G01 X-12.08738 Y-11.04212
G01 X-12.08321 Y-11.03983
G01 X-12.08654 Y-11.01880
G01 X-12.11415 Y-10.92573
G01 X-12.13117 Y-10.88141
G01 X-12.17755 Y-10.79612
G01 X-12.20340 Y-10.75629
G01 X-12.26650 Y-10.68250
G01 X-12.30008 Y-10.64892
G01 X-12.34481 Y-10.61336
G01 X-12.13917 Y-10.61334
G01 X-12.00970 Y-10.63879
G01 X-11.95634 Y-10.72573
G01 X-11.92403 Y-10.78918
G01 X-11.88316 Y-10.90287
G01 X-11.87435 Y-10.93582
G01 X-11.87783 Y-10.93777
G01 X-11.87435 Y-10.93582
G01 X-11.60803 Y-11.25187
G01 X-11.57321 Y-11.43117
G01 X-11.48306 Y-11.72228
G01 X-11.50518 Y-11.65913
G01 X-11.57534 Y-11.42042
G01 X-11.60991 Y-11.24135
G01 X-11.64984 Y-10.95314
G01 X-11.73018 Y-10.89020
G01 X-11.89195 Y-10.72558
G01 X-11.98659 Y-10.64384
G01 X-12.13917 Y-10.61334
G01 X-13.43342 Y-10.61138
G01 X-13.51887 Y-10.67244
G01 X-13.61016 Y-10.72832
G01 X-13.65448 Y-10.75052
G01 X-13.95501 Y-10.78568
G01 X-14.54460 Y-10.78568
G01 X-15.14307 Y-10.71573
G01 X-15.22580 Y-10.69980
G01 X-15.77419 Y-10.69980
G01 X-15.88097 Y-10.72091
G01 X-15.94848 Y-10.74961
G01 X-15.98955 Y-10.77333
G01 X-16.04818 Y-10.81745
G01 X-16.09816 Y-10.87112
G01 X-16.12605 Y-10.90948
G01 X-16.16164 Y-10.97364
G01 X-16.19164 Y-11.06594
G01 X-16.20180 Y-11.16249
G01 X-16.20180 Y-11.66249
G01 X-16.19164 Y-11.75903
G01 X-16.16164 Y-11.85134
G01 X-16.11313 Y-11.93538
G01 X-16.04818 Y-12.00752
G01 X-15.98955 Y-12.05166
G01 X-15.94848 Y-12.07536
G01 X-15.88097 Y-12.10407
G01 X-15.78630 Y-12.12421
G01 X-15.26309 Y-12.12680
G01 X-15.18481 Y-12.11925
G01 X-15.14297 Y-12.10922
G01 X-14.54498 Y-12.03930
G01 X-13.95529 Y-12.03930
G01 X-13.35702 Y-12.10922
G01 X-13.29073 Y-12.12370
G01 X-13.26515 Y-12.12548
G01 X-12.69611 Y-12.60277
G01 X-12.60178 Y-12.69710
G01 X-12.60178 Y-20.63974
G01 X-13.16523 Y-21.57621
G01 X-13.18453 Y-21.61319
G01 X-13.19743 Y-21.65574
G01 X-13.20175 Y-21.69998
G01 X-13.20175 Y-23.90623
G01 X-13.25890 Y-24.11880
G01 X-13.20175 Y-24.20336
G01 X-13.20175 Y-23.90623
G01 X-13.20175 Y-24.29998
G01 X-13.19743 Y-24.34422
G01 X-13.18453 Y-24.38677
G01 X-13.16358 Y-24.42599
G01 X-13.13536 Y-24.46035
G01 X-13.10099 Y-24.48857
G01 X-13.06177 Y-24.50953
G01 X-13.01923 Y-24.52243
G01 X-12.97498 Y-24.52680
G01 X-10.97498 Y-24.52680
G01 X-10.93074 Y-24.52243
G01 X-10.88819 Y-24.50953
G01 X-10.84897 Y-24.48857
G01 X-10.81461 Y-24.46035
G01 X-10.78641 Y-24.42599
G01 X-10.76546 Y-24.38677
G01 X-10.75256 Y-24.34422
G01 X-10.74819 Y-24.29998
G01 X-10.74819 Y-21.69998
G01 X-10.75256 Y-21.65574
G01 X-10.76546 Y-21.61319
G01 X-10.78474 Y-21.57618
G01 X-11.34816 Y-20.64014
G01 X-11.34816 Y-12.43749
G01 X-11.35380 Y-12.35710
G01 X-11.37402 Y-12.26094
G01 X-11.38502 Y-12.22708
G01 X-11.42520 Y-12.13736
G01 X-11.47889 Y-12.05507
G01 X-11.51966 Y-12.00734
G01 X-11.80976 Y-11.71628
G01 X-12.29987 Y-11.13460
G01 X-12.30833 Y-11.06594
G01 X-12.33833 Y-10.97364
G01 X-12.37394 Y-10.90948
G01 X-12.40180 Y-10.87112
G01 X-12.45182 Y-10.81745
G01 X-12.51044 Y-10.77333
G01 X-12.55149 Y-10.74961
G01 X-12.61900 Y-10.72091
G01 X-12.69050 Y-10.70445
G01 X-12.75062 Y-10.69851
G01 X-13.26291 Y-10.69950
G01 X-13.28918 Y-10.70110
G01 X-13.35692 Y-10.71573
G01 X-13.95501 Y-10.78568
G01 X-14.54460 Y-10.78568
G01 X-14.84432 Y-10.75065
G01 X-14.91737 Y-10.71240
G01 X-15.06728 Y-10.61146
G01 X-15.89529 Y-10.61301
G01 X-16.03185 Y-10.62901
G01 X-16.13332 Y-10.65004
G01 X-16.22892 Y-10.67798
G01 X-16.29656 Y-10.75629
G01 X-16.36880 Y-10.88141
G01 X-16.40116 Y-10.97295
G01 X-16.41996 Y-11.05995
G01 X-16.40116 Y-10.97295
G01 X-16.36880 Y-10.88141
G01 X-16.29656 Y-10.75629
G01 X-16.22892 Y-10.67798
G01 X-16.35869 Y-10.72345
G01 X-16.36370 Y-10.74026
G01 X-16.40131 Y-10.90516
G01 X-16.42158 Y-11.08822
G01 X-16.20180 Y-11.61542
G01 X-16.20055 Y-11.68618
G01 X-16.19164 Y-11.75903
G01 X-16.16164 Y-11.85134
G01 X-16.12605 Y-11.91550
G01 X-16.09816 Y-11.95385
G01 X-16.04818 Y-12.00752
G01 X-15.96964 Y-12.06459
G01 X-15.90312 Y-12.09556
G01 X-15.85803 Y-12.11021
G01 X-15.78630 Y-12.12421
G01 X-15.69136 Y-12.12568
G01 X-15.16144 Y-12.34402
G01 X-15.10325 Y-12.33287
G01 X-14.53180 Y-12.26561
G01 X-13.96848 Y-12.26561
G01 X-13.39675 Y-12.33287
G01 X-13.36101 Y-12.34102
G01 X-13.35707 Y-12.33203
G01 X-13.36101 Y-12.34102
G01 X-12.82850 Y-12.79103
G01 X-12.80742 Y-12.78123
G01 X-12.82850 Y-12.79103
G01 X-12.82850 Y-20.57679
G01 X-12.82027 Y-20.57908
G01 X-12.82850 Y-20.57679
G01 X-13.24343 Y-21.26640
G01 X-13.18204 Y-20.72455
G01 X-13.05530 Y-20.51383
G01 X-13.04699 Y-20.51611
G01 X-13.05530 Y-20.51383
G01 X-13.05530 Y-12.89342
G01 X-13.03404 Y-12.88352
G01 X-13.05530 Y-12.89342
G01 X-13.46025 Y-12.55375
G01 X-13.45631 Y-12.54463
G01 X-13.46025 Y-12.55375
G01 X-13.98168 Y-12.49241
G01 X-14.51859 Y-12.49241
G01 X-14.67249 Y-12.51082
G01 X-15.16144 Y-12.34402
G01 X-14.46987 Y-12.58118
G01 X-14.13540 Y-12.71956
G01 X-13.99489 Y-12.71915
G01 X-13.55397 Y-12.77109
G01 X-13.55006 Y-12.76198
G01 X-13.55397 Y-12.77109
G01 X-13.28204 Y-12.99919
G01 X-13.26078 Y-12.98928
G01 X-13.28204 Y-12.99919
G01 X-13.28204 Y-13.59571
G01 X-13.35710 Y-13.39202
G01 X-13.47940 Y-13.09670
G01 X-13.47567 Y-13.09423
G01 X-13.47940 Y-13.09670
G01 X-13.50754 Y-13.05649
G01 X-13.61290 Y-12.96157
G01 X-13.61097 Y-12.95893
G01 X-13.61290 Y-12.96157
G01 X-13.96177 Y-12.79144
G01 X-14.13540 Y-12.71956
G01 X-13.96177 Y-12.79144
G01 X-13.62715 Y-12.95334
G01 X-13.59997 Y-12.97178
G01 X-13.50754 Y-13.05649
G01 X-13.48679 Y-13.08197
G01 X-13.31554 Y-13.49911
G01 X-13.28595 Y-13.58280
G01 X-13.22685 Y-13.77714
G01 X-13.20449 Y-13.86637
G01 X-13.16678 Y-14.05252
G01 X-13.13767 Y-14.31539
G01 X-13.13139 Y-14.48496
G01 X-13.12987 Y-20.46138
G01 X-13.16944 Y-20.61301
G01 X-13.26528 Y-21.45919
G01 X-13.26175 Y-21.69013
G01 X-13.20175 Y-22.06638
G01 X-13.42568 Y-22.10234
G01 X-13.88816 Y-20.68807
G01 X-13.88816 Y-14.48498
G01 X-13.89695 Y-14.38471
G01 X-13.90561 Y-14.34109
G01 X-13.93589 Y-14.24511
G01 X-13.98237 Y-14.15583
G01 X-14.00706 Y-14.11887
G01 X-14.07175 Y-14.04176
G01 X-16.41127 Y-11.70224
G01 X-16.63151 Y-11.17399
G01 X-16.64642 Y-11.16317
G01 X-16.65120 Y-11.16416
G01 X-16.64642 Y-11.16317
G01 X-16.64642 Y-11.13447
G01 X-16.63151 Y-11.17399
G01 X-16.64594 Y-11.13716
G01 X-16.64942 Y-11.10280
G01 X-16.64642 Y-11.04638
G01 X-16.64642 Y-10.44103
G01 X-16.71284 Y-10.37460
G01 X-16.64642 Y-10.44103
G01 X-16.46850 Y-10.44064
G01 X-16.29567 Y-10.46124
G01 X-16.18790 Y-10.42995
G01 X-16.07502 Y-10.40592
G01 X-15.90883 Y-10.38624
G01 X-15.10782 Y-10.38703
G01 X-15.03832 Y-10.24367
G01 X-15.10782 Y-10.38703
G01 X-15.89390 Y-10.38614
G01 X-16.01813 Y-10.39754
G01 X-16.18790 Y-10.42995
G01 X-16.36814 Y-10.48441
G01 X-16.49446 Y-10.53386
G01 X-16.49689 Y-10.52985
G01 X-16.49446 Y-10.53386
G01 X-16.52857 Y-10.55548
G01 X-16.55295 Y-10.58769
G01 X-16.56004 Y-10.58324
G01 X-16.55295 Y-10.58769
G01 X-16.59588 Y-10.72967
G01 X-16.63306 Y-10.91631
G01 X-16.64607 Y-11.04179
G01 X-16.64899 Y-11.12009
G01 X-16.64033 Y-11.15355
G01 X-16.41127 Y-11.70224
G01 X-16.71734 Y-11.39716
G01 X-16.79387 Y-11.33549
G01 X-16.87317 Y-11.28954
G01 X-16.87317 Y-10.21428
G01 X-16.45529 Y-10.21428
G01 X-15.85699 Y-10.28423
G01 X-15.81516 Y-10.29424
G01 X-15.73748 Y-10.30178
G01 X-15.22580 Y-10.30018
G01 X-15.11902 Y-10.27908
G01 X-15.03035 Y-10.23958
G01 X-14.95181 Y-10.18253
G01 X-14.88686 Y-10.11039
G01 X-14.83832 Y-10.02635
G01 X-14.81447 Y-9.95695
G01 X-14.80462 Y-9.91057
G01 X-14.79819 Y-9.83750
G01 X-14.79944 Y-9.31377
G01 X-14.80833 Y-9.24095
G01 X-14.82982 Y-9.17080
G01 X-14.84909 Y-9.12749
G01 X-14.88686 Y-9.06457
G01 X-14.95181 Y-8.99244
G01 X-15.01043 Y-8.94832
G01 X-15.05148 Y-8.92462
G01 X-15.14193 Y-8.88977
G01 X-15.19050 Y-8.87943
G01 X-15.25062 Y-8.87349
G01 X-15.76291 Y-8.87448
G01 X-15.78917 Y-8.87608
G01 X-15.85686 Y-8.89071
G01 X-16.45501 Y-8.96066
G01 X-17.31749 Y-8.96066
G01 X-17.39786 Y-8.96630
G01 X-17.43299 Y-8.97186
G01 X-17.52788 Y-8.99752
G01 X-17.61757 Y-9.03770
G01 X-17.69199 Y-9.08568
G01 X-17.83558 Y-9.09295
G01 X-17.85744 Y-9.16625
G01 X-17.90162 Y-9.28520
G01 X-17.76070 Y-9.14425
G01 X-17.69199 Y-9.08568
G01 X-17.76070 Y-9.14425
G01 X-17.95813 Y-9.34324
G01 X-18.00789 Y-9.40387
G01 X-18.03258 Y-9.44082
G01 X-18.07906 Y-9.53011
G01 X-18.10934 Y-9.62609
G01 X-18.11800 Y-9.66970
G01 X-18.12569 Y-9.74773
G01 X-18.12679 Y-10.09772
G01 X-18.17322 Y-10.24062
G01 X-18.20692 Y-10.32937
G01 X-18.32620 Y-10.59388
G01 X-18.35353 Y-10.62975
G01 X-18.35353 Y-10.64895
G01 X-18.33387 Y-10.67598
G01 X-18.35353 Y-10.64895
G01 X-18.37177 Y-10.64301
G01 X-18.35353 Y-10.64895
G01 X-18.35353 Y-10.62975
G01 X-18.37781 Y-10.64669
G01 X-18.39524 Y-10.65370
G01 X-18.48300 Y-10.66701
G01 X-18.71068 Y-10.69104
G01 X-18.80997 Y-10.69602
G01 X-18.94030 Y-10.69591
G01 X-18.80997 Y-10.69602
G01 X-18.71071 Y-10.69078
G01 X-18.41358 Y-10.65771
G01 X-18.39524 Y-10.65370
G01 X-18.36179 Y-10.63688
G01 X-18.33563 Y-10.61014
G01 X-18.32620 Y-10.59388
G01 X-18.20941 Y-10.33462
G01 X-18.17322 Y-10.24062
G01 X-18.12679 Y-10.09772
G01 X-18.12679 Y-10.96152
G01 X-19.05419 Y-10.65873
G01 X-19.10088 Y-10.64877
G01 X-19.33250 Y-10.62568
G01 X-19.83250 Y-10.62568
G01 X-20.08756 Y-10.65251
G01 X-20.22500 Y-10.69586
G01 X-20.48157 Y-10.69586
G01 X-20.55818 Y-10.86373
G01 X-20.33148 Y-10.73175
G01 X-20.22500 Y-10.69586
G01 X-20.33148 Y-10.73175
G01 X-20.53366 Y-10.84704
G01 X-20.57202 Y-10.87493
G01 X-20.74418 Y-11.03160
G01 X-20.89493 Y-11.23909
G01 X-20.99925 Y-11.47338
G01 X-21.05256 Y-11.72426
G01 X-21.05381 Y-11.95702
G01 X-21.04885 Y-12.00417
G01 X-21.00539 Y-12.20866
G01 X-20.99074 Y-12.25375
G01 X-20.89493 Y-12.46589
G01 X-20.74418 Y-12.67338
G01 X-20.55358 Y-12.84498
G01 X-20.35261 Y-12.96246
G01 X-20.30931 Y-12.98174
G01 X-20.08756 Y-13.05248
G01 X-19.85620 Y-13.07805
G01 X-19.33250 Y-13.07930
G01 X-19.10088 Y-13.05618
G01 X-19.05409 Y-13.04620
G01 X-17.38577 Y-12.50061
G01 X-15.14178 Y-14.74460
G01 X-15.14178 Y-20.68688
G01 X-15.45280 Y-21.63862
G01 X-15.50106 Y-21.69681
G01 X-15.57706 Y-21.77443
G01 X-15.69789 Y-21.87410
G01 X-15.67617 Y-22.08403
G01 X-15.67142 Y-22.17743
G01 X-15.67152 Y-22.30780
G01 X-15.70871 Y-22.42162
G01 X-15.45280 Y-21.63862
G01 X-15.71493 Y-22.44474
G01 X-15.74178 Y-22.69998
G01 X-15.74178 Y-23.29998
G01 X-15.71498 Y-23.55505
G01 X-15.67160 Y-23.69259
G01 X-15.67160 Y-23.94905
G01 X-15.50378 Y-24.02566
G01 X-15.63573 Y-23.79896
G01 X-15.67160 Y-23.69259
G01 X-15.63573 Y-23.79896
G01 X-15.52042 Y-24.00117
G01 X-15.49255 Y-24.03953
G01 X-15.33588 Y-24.21169
G01 X-15.14831 Y-24.34951
G01 X-15.10723 Y-24.37320
G01 X-14.89408 Y-24.46675
G01 X-14.66667 Y-24.51636
G01 X-14.61950 Y-24.52131
G01 X-14.38676 Y-24.52007
G01 X-14.13589 Y-24.46675
G01 X-13.90160 Y-24.36244
G01 X-13.71255 Y-24.22662
G01 X-13.67732 Y-24.19490
G01 X-13.58202 Y-24.08918
G01 X-13.47483 Y-24.04905
G01 X-13.42085 Y-23.84755
G01 X-13.52248 Y-24.02108
G01 X-13.58202 Y-24.08918
G01 X-13.53741 Y-24.03953
G01 X-13.50955 Y-24.00117
G01 X-13.39426 Y-23.79896
G01 X-13.32113 Y-23.57798
G01 X-13.31128 Y-23.53160
G01 X-13.28819 Y-23.29998
G01 X-13.28941 Y-22.67628
G01 X-13.31501 Y-22.44471
G01 X-13.42568 Y-22.10234
G01 X-13.48750 Y-21.71786
G01 X-13.49258 Y-21.45538
G01 X-13.39436 Y-20.57844
G01 X-13.35834 Y-20.44573
G01 X-13.35834 Y-14.48636
G01 X-13.36403 Y-14.32933
G01 X-13.39139 Y-14.08869
G01 X-13.42634 Y-13.91341
G01 X-13.44463 Y-13.84041
G01 X-13.49708 Y-13.66797
G01 X-13.59073 Y-13.56073
G01 X-14.22243 Y-12.92903
G01 X-13.59073 Y-13.56073
G01 X-13.49708 Y-13.66797
G01 X-13.56815 Y-13.47498
G01 X-13.67927 Y-13.20670
G01 X-13.74092 Y-13.15021
G01 X-14.05164 Y-12.99977
G01 X-14.54747 Y-12.79439
G01 X-15.23393 Y-12.55890
G01 X-14.74714 Y-12.72499
G01 X-13.75108 Y-13.72108
G01 X-13.65649 Y-13.83116
G01 X-13.58240 Y-13.94203
G01 X-13.51689 Y-14.07155
G01 X-13.47163 Y-14.20945
G01 X-13.44562 Y-14.34026
G01 X-13.43464 Y-14.48498
G01 X-13.43464 Y-20.61581
G01 X-13.43749 Y-20.61624
G01 X-13.43464 Y-20.61581
G01 X-13.40742 Y-20.69912
G01 X-13.49141 Y-21.44090
G01 X-13.46878 Y-21.24100
G01 X-13.66142 Y-20.65193
G01 X-13.66423 Y-20.65238
G01 X-13.66142 Y-20.65193
G01 X-13.66142 Y-14.48498
G01 X-13.67127 Y-14.36248
G01 X-13.68862 Y-14.27528
G01 X-13.72639 Y-14.15834
G01 X-13.78237 Y-14.04894
G01 X-13.83177 Y-13.97500
G01 X-13.88153 Y-13.91440
G01 X-15.23393 Y-12.55890
G01 X-15.77845 Y-12.33505
G04 P0 ( dwell for no time -- G64 should not smooth over this point )
G00 Z2.00000 ( retract )

G00 X-20.20928 Y-8.15073 ( rapid move to begin. )
G01 F60.00000
( Mill infeed pass 1/1 )
G01 Z-0.10000
G04 P0 ( dwell for no time -- G64 should not smooth over this point )
G01 F120.00000
G01 X-20.20928 Y-8.15073
G01 X-20.20928 Y-7.78474
G01 X-20.33925 Y-7.81957
G01 X-20.52978 Y-7.89849
G01 X-20.70837 Y-8.00161
G01 X-20.87199 Y-8.12714
G01 X-21.01781 Y-8.27296
G01 X-21.14334 Y-8.43658
G01 X-21.24646 Y-8.61517
G01 X-21.27567 Y-8.68566
G01 X-20.88622 Y-8.68566
G01 X-20.74418 Y-8.49160
G01 X-20.55358 Y-8.31997
G01 X-20.33148 Y-8.19175
G01 X-20.20928 Y-8.15073
G04 P0 ( dwell for no time -- G64 should not smooth over this point )
G00 Z2.00000 ( retract )

G00 X-22.87628 Y-4.60639 ( rapid move to begin. )
G01 F60.00000
( Mill infeed pass 1/1 )
G01 Z-0.10000
G04 P0 ( dwell for no time -- G64 should not smooth over this point )
G01 F120.00000
G01 X-22.87628 Y-4.60639
G01 X-22.87628 Y-4.39356
G01 X-22.90407 Y-4.18252
G01 X-22.95914 Y-3.97695
G01 X-23.04059 Y-3.78028
G01 X-23.14702 Y-3.59598
G01 X-23.27659 Y-3.42712
G01 X-23.42711 Y-3.27660
G01 X-23.59596 Y-3.14703
G01 X-23.78027 Y-3.04061
G01 X-23.97694 Y-2.95915
G01 X-24.18250 Y-2.90406
G01 X-24.39352 Y-2.87630
G01 X-24.60640 Y-2.87630
G01 X-24.81743 Y-2.90406
G01 X-25.02299 Y-2.95915
G01 X-25.21966 Y-3.04058
G01 X-25.40399 Y-3.14701
G01 X-25.57285 Y-3.27657
G01 X-25.72337 Y-3.42709
G01 X-25.85293 Y-3.59595
G01 X-25.95936 Y-3.78028
G01 X-26.04079 Y-3.97693
G01 X-26.09586 Y-4.18252
G01 X-26.12367 Y-4.39356
G01 X-26.12367 Y-4.60639
G01 X-26.09586 Y-4.81741
G01 X-26.04079 Y-5.02300
G01 X-25.95936 Y-5.21967
G01 X-25.85293 Y-5.40398
G01 X-25.72337 Y-5.57284
G01 X-25.57285 Y-5.72336
G01 X-25.40399 Y-5.85292
G01 X-25.21966 Y-5.95935
G01 X-25.02299 Y-6.04081
G01 X-24.81743 Y-6.09590
G01 X-24.60640 Y-6.12366
G01 X-24.39355 Y-6.12366
G01 X-24.18253 Y-6.09590
G01 X-23.97694 Y-6.04081
G01 X-23.78027 Y-5.95935
G01 X-23.59596 Y-5.85292
G01 X-23.42711 Y-5.72336
G01 X-23.27659 Y-5.57284
G01 X-23.14702 Y-5.40398
G01 X-23.04059 Y-5.21965
G01 X-22.95914 Y-5.02300
G01 X-22.90407 Y-4.81744
G01 X-22.87628 Y-4.60639
G01 X-23.10303 Y-4.59153
G01 X-23.10254 Y-4.40840
G01 X-23.12647 Y-4.22676
G01 X-23.17387 Y-4.04983
G01 X-23.24397 Y-3.88059
G01 X-23.33556 Y-3.72196
G01 X-23.44707 Y-3.57662
G01 X-23.57661 Y-3.44708
G01 X-23.72195 Y-3.33558
G01 X-23.88057 Y-3.24399
G01 X-24.04984 Y-3.17386
G01 X-24.22675 Y-3.12646
G01 X-24.40836 Y-3.10256
G01 X-24.59159 Y-3.10256
G01 X-24.77318 Y-3.12646
G01 X-24.95012 Y-3.17388
G01 X-25.11938 Y-3.24396
G01 X-25.27800 Y-3.33553
G01 X-25.42332 Y-3.44706
G01 X-25.55288 Y-3.57660
G01 X-25.66436 Y-3.72194
G01 X-25.75598 Y-3.88056
G01 X-25.82606 Y-4.04980
G01 X-25.87346 Y-4.22676
G01 X-25.89738 Y-4.40840
G01 X-25.89738 Y-4.59156
G01 X-25.87346 Y-4.77317
G01 X-25.82606 Y-4.95013
G01 X-25.75598 Y-5.11940
G01 X-25.66436 Y-5.27799
G01 X-25.55288 Y-5.42333
G01 X-25.42332 Y-5.55287
G01 X-25.27800 Y-5.66438
G01 X-25.11936 Y-5.75597
G01 X-24.95009 Y-5.82610
G01 X-24.77318 Y-5.87350
G01 X-24.59159 Y-5.89740
G01 X-24.40836 Y-5.89752
G01 X-24.22682 Y-5.87301
G01 X-24.04984 Y-5.82610
G01 X-23.88057 Y-5.75597
G01 X-23.72195 Y-5.66438
G01 X-23.57661 Y-5.55287
G01 X-23.44707 Y-5.42333
G01 X-23.33556 Y-5.27799
G01 X-23.24397 Y-5.11934
G01 X-23.17387 Y-4.95013
G01 X-23.12647 Y-4.77319
G01 X-23.10303 Y-4.59153
G01 X-23.32980 Y-4.57665
G01 X-23.32868 Y-4.42326
G01 X-23.34933 Y-4.27109
G01 X-23.38847 Y-4.12262
G01 X-23.44821 Y-3.98132
G01 X-23.52398 Y-3.84790
G01 X-23.61750 Y-3.72603
G01 X-23.72675 Y-3.61831
G01 X-23.84783 Y-3.52402
G01 X-23.98085 Y-3.44721
G01 X-24.12304 Y-3.38950
G01 X-24.27092 Y-3.34874
G01 X-24.42322 Y-3.32870
G01 X-24.57671 Y-3.32981
G01 X-24.72914 Y-3.34790
G01 X-24.87691 Y-3.38953
G01 X-25.01913 Y-3.44721
G01 X-25.15212 Y-3.52400
G01 X-25.27318 Y-3.61828
G01 X-25.38247 Y-3.72603
G01 X-25.47541 Y-3.84818
G01 X-25.55273 Y-3.98081
G01 X-25.61041 Y-4.12300
G01 X-25.65121 Y-4.27096
G01 X-25.67127 Y-4.42326
G01 X-25.67015 Y-4.57665
G01 X-25.65202 Y-4.72912
G01 X-25.61041 Y-4.87693
G01 X-25.55273 Y-5.01912
G01 X-25.47546 Y-5.15175
G01 X-25.38245 Y-5.27393
G01 X-25.27320 Y-5.38165
G01 X-25.15215 Y-5.47594
G01 X-25.01910 Y-5.55272
G01 X-24.87689 Y-5.61045
G01 X-24.72914 Y-5.65206
G01 X-24.57671 Y-5.67014
G01 X-24.42322 Y-5.67126
G01 X-24.27089 Y-5.65122
G01 X-24.12304 Y-5.61045
G01 X-23.98085 Y-5.55274
G01 X-23.84819 Y-5.47545
G01 X-23.72601 Y-5.38244
G01 X-23.61829 Y-5.27319
G01 X-23.52330 Y-5.15257
G01 X-23.44821 Y-5.01863
G01 X-23.38847 Y-4.87731
G01 X-23.34875 Y-4.72895
G01 X-23.32980 Y-4.57665
G01 X-23.55654 Y-4.56184
G01 X-23.55545 Y-4.43807
G01 X-23.57270 Y-4.31551
G01 X-23.60364 Y-4.19575
G01 X-23.65106 Y-4.08130
G01 X-23.71385 Y-3.97474
G01 X-23.78829 Y-3.87591
G01 X-23.87590 Y-3.78831
G01 X-23.97473 Y-3.71386
G01 X-24.08128 Y-3.65107
G01 X-24.19594 Y-3.60423
G01 X-24.31532 Y-3.57160
G01 X-24.43810 Y-3.55656
G01 X-24.56188 Y-3.55547
G01 X-24.68466 Y-3.57162
G01 X-24.80389 Y-3.60472
G01 X-24.91864 Y-3.65105
G01 X-25.02586 Y-3.71295
G01 X-25.12334 Y-3.78912
G01 X-25.21229 Y-3.87530
G01 X-25.28608 Y-3.97469
G01 X-25.34890 Y-4.08127
G01 X-25.39571 Y-4.19588
G01 X-25.42832 Y-4.31536
G01 X-25.44341 Y-4.43817
G01 X-25.44450 Y-4.56184
G01 X-25.42832 Y-4.68465
G01 X-25.39522 Y-4.80390
G01 X-25.34968 Y-4.91904
G01 X-25.28611 Y-5.02521
G01 X-25.21166 Y-5.12404
G01 X-25.12405 Y-5.21165
G01 X-25.02525 Y-5.28607
G01 X-24.91867 Y-5.34888
G01 X-24.80399 Y-5.39572
G01 X-24.68461 Y-5.42836
G01 X-24.56185 Y-5.44340
G01 X-24.43808 Y-5.44449
G01 X-24.31522 Y-5.42834
G01 X-24.19609 Y-5.39526
G01 X-24.08095 Y-5.34967
G01 X-23.97473 Y-5.28610
G01 X-23.87590 Y-5.21165
G01 X-23.78878 Y-5.12366
G01 X-23.71293 Y-5.02582
G01 X-23.65202 Y-4.91813
G01 X-23.60285 Y-4.80451
G01 X-23.57270 Y-4.68445
G01 X-23.55654 Y-4.56184
G01 X-23.78329 Y-4.54693
G01 X-23.78220 Y-4.45300
G01 X-23.79510 Y-4.35976
G01 X-23.81885 Y-4.26872
G01 X-23.85583 Y-4.18234
G01 X-23.90117 Y-4.09989
G01 X-23.96000 Y-4.02643
G01 X-24.02568 Y-3.95920
G01 X-24.10071 Y-3.90241
G01 X-24.18187 Y-3.85483
G01 X-24.26914 Y-3.81988
G01 X-24.35959 Y-3.79451
G01 X-24.45291 Y-3.78221
G01 X-24.54699 Y-3.78330
G01 X-24.64046 Y-3.79364
G01 X-24.73084 Y-3.81988
G01 X-24.81814 Y-3.85486
G01 X-24.89962 Y-3.90190
G01 X-24.97351 Y-3.95999
G01 X-25.04079 Y-4.02570
G01 X-25.09807 Y-4.10035
G01 X-25.14410 Y-4.18229
G01 X-25.18108 Y-4.26870
G01 X-25.20485 Y-4.35978
G01 X-25.21775 Y-4.45300
G01 X-25.21666 Y-4.54693
G01 X-25.20630 Y-4.64043
G01 X-25.18006 Y-4.73085
G01 X-25.14511 Y-4.81813
G01 X-25.09756 Y-4.89923
G01 X-25.04077 Y-4.97426
G01 X-24.97353 Y-5.03994
G01 X-24.89965 Y-5.09803
G01 X-24.81809 Y-5.14510
G01 X-24.73079 Y-5.18008
G01 X-24.64046 Y-5.20631
G01 X-24.54699 Y-5.21665
G01 X-24.45294 Y-5.21774
G01 X-24.35957 Y-5.20545
G01 X-24.26914 Y-5.18008
G01 X-24.18187 Y-5.14513
G01 X-24.10071 Y-5.09755
G01 X-24.02568 Y-5.04076
G01 X-23.96000 Y-4.97352
G01 X-23.90117 Y-4.90007
G01 X-23.85583 Y-4.81762
G01 X-23.81885 Y-4.73123
G01 X-23.79449 Y-4.64030
G01 X-23.78329 Y-4.54693
G01 X-24.01006 Y-4.53207
G01 X-24.01006 Y-4.46789
G01 X-24.01844 Y-4.40418
G01 X-24.01410 Y-4.40332
G01 X-24.01844 Y-4.40418
G01 X-24.03508 Y-4.34213
G01 X-24.05964 Y-4.28285
G01 X-24.09172 Y-4.22725
G01 X-24.08804 Y-4.22478
G01 X-24.09172 Y-4.22725
G01 X-24.13084 Y-4.17627
G01 X-24.17625 Y-4.13085
G01 X-24.22723 Y-4.09174
G01 X-24.22477 Y-4.08805
G01 X-24.22723 Y-4.09174
G01 X-24.28283 Y-4.05966
G01 X-24.34219 Y-4.03507
G01 X-24.40417 Y-4.01846
G01 X-24.40330 Y-4.01409
G01 X-24.40417 Y-4.01846
G01 X-24.46782 Y-4.01008
G01 X-24.53213 Y-4.01008
G01 X-24.59576 Y-4.01846
G01 X-24.59662 Y-4.01409
G01 X-24.59576 Y-4.01846
G01 X-24.65781 Y-4.03507
G01 X-24.71720 Y-4.05966
G01 X-24.77272 Y-4.09171
G01 X-24.77519 Y-4.08803
G01 X-24.77272 Y-4.09171
G01 X-24.82367 Y-4.13083
G01 X-24.86914 Y-4.17629
G01 X-24.90821 Y-4.22719
G01 X-24.91189 Y-4.22471
G01 X-24.90821 Y-4.22719
G01 X-24.94029 Y-4.28277
G01 X-24.96487 Y-4.34213
G01 X-24.98151 Y-4.40423
G01 X-24.98585 Y-4.40337
G01 X-24.98151 Y-4.40423
G01 X-24.98989 Y-4.46789
G01 X-24.98989 Y-4.53207
G01 X-24.98151 Y-4.59572
G01 X-24.98588 Y-4.59659
G01 X-24.98151 Y-4.59572
G01 X-24.96487 Y-4.65783
G01 X-24.94029 Y-4.71716
G01 X-24.90823 Y-4.77271
G01 X-24.91191 Y-4.77517
G01 X-24.90823 Y-4.77271
G01 X-24.86911 Y-4.82369
G01 X-24.82370 Y-4.86910
G01 X-24.77275 Y-4.90819
G01 X-24.77521 Y-4.91188
G01 X-24.77275 Y-4.90819
G01 X-24.71712 Y-4.94030
G01 X-24.65774 Y-4.96489
G01 X-24.59576 Y-4.98150
G01 X-24.59662 Y-4.98587
G01 X-24.59576 Y-4.98150
G01 X-24.53213 Y-4.98988
G01 X-24.46782 Y-4.98988
G01 X-24.40414 Y-4.98150
G01 X-24.40328 Y-4.98587
G01 X-24.40414 Y-4.98150
G01 X-24.34219 Y-4.96489
G01 X-24.28283 Y-4.94030
G01 X-24.22723 Y-4.90822
G01 X-24.22477 Y-4.91190
G01 X-24.22723 Y-4.90822
G01 X-24.17625 Y-4.86910
G01 X-24.13084 Y-4.82369
G01 X-24.09175 Y-4.77274
G01 X-24.08806 Y-4.77520
G01 X-24.09175 Y-4.77274
G01 X-24.05964 Y-4.71711
G01 X-24.03505 Y-4.65780
G01 X-24.01844 Y-4.59577
G01 X-24.01410 Y-4.59664
G01 X-24.01844 Y-4.59577
G01 X-24.01006 Y-4.53207
G01 X-24.23681 Y-4.51719
G01 X-24.23681 Y-4.48277
G01 X-24.23239 Y-4.48246
G01 X-24.23681 Y-4.48277
G01 X-24.25024 Y-4.41518
G01 X-24.26343 Y-4.38335
G01 X-24.25944 Y-4.38137
G01 X-24.26343 Y-4.38335
G01 X-24.28067 Y-4.35348
G01 X-24.32609 Y-4.30172
G01 X-24.32317 Y-4.29837
G01 X-24.32609 Y-4.30172
G01 X-24.35347 Y-4.28069
G01 X-24.41524 Y-4.25023
G01 X-24.41382 Y-4.24602
G01 X-24.41524 Y-4.25023
G01 X-24.48268 Y-4.23682
G01 X-24.51727 Y-4.23682
G01 X-24.51755 Y-4.23240
G01 X-24.51727 Y-4.23682
G01 X-24.55144 Y-4.24132
G01 X-24.61669 Y-4.26349
G01 X-24.61867 Y-4.25950
G01 X-24.61669 Y-4.26349
G01 X-24.67386 Y-4.30169
G01 X-24.69830 Y-4.32613
G01 X-24.70163 Y-4.32321
G01 X-24.69830 Y-4.32613
G01 X-24.71925 Y-4.35343
G01 X-24.74968 Y-4.41515
G01 X-24.75387 Y-4.41373
G01 X-24.74968 Y-4.41515
G01 X-24.76315 Y-4.48277
G01 X-24.76315 Y-4.51719
G01 X-24.76757 Y-4.51749
G01 X-24.76315 Y-4.51719
G01 X-24.74968 Y-4.58478
G01 X-24.73648 Y-4.61668
G01 X-24.74046 Y-4.61863
G01 X-24.73648 Y-4.61668
G01 X-24.71928 Y-4.64647
G01 X-24.67386 Y-4.69824
G01 X-24.67679 Y-4.70159
G01 X-24.67386 Y-4.69824
G01 X-24.61664 Y-4.73649
G01 X-24.58469 Y-4.74972
G01 X-24.58611 Y-4.75391
G01 X-24.58469 Y-4.74972
G01 X-24.51727 Y-4.76313
G01 X-24.48268 Y-4.76313
G01 X-24.48240 Y-4.76755
G01 X-24.48268 Y-4.76313
G01 X-24.41524 Y-4.74972
G01 X-24.38334 Y-4.73652
G01 X-24.38138 Y-4.74048
G01 X-24.38334 Y-4.73652
G01 X-24.35347 Y-4.71927
G01 X-24.30170 Y-4.67385
G01 X-24.29835 Y-4.67678
G01 X-24.30170 Y-4.67385
G01 X-24.26343 Y-4.61660
G01 X-24.25024 Y-4.58475
G01 X-24.24605 Y-4.58617
G01 X-24.25024 Y-4.58475
G01 X-24.23681 Y-4.51719
G01 X-24.46358 Y-4.50233
G01 X-24.46724 Y-4.51607
G01 X-24.47592 Y-4.52740
G01 X-24.46355 Y-4.54149
G01 X-24.47592 Y-4.52740
G01 X-24.48829 Y-4.53453
G01 X-24.50241 Y-4.53636
G01 X-24.50366 Y-4.55501
G01 X-24.50241 Y-4.53636
G01 X-24.51613 Y-4.53268
G01 X-24.52741 Y-4.52402
G01 X-24.54140 Y-4.53629
G01 X-24.52741 Y-4.52402
G01 X-24.53449 Y-4.51175
G01 X-24.53637 Y-4.49763
G01 X-24.55502 Y-4.49641
G01 X-24.53637 Y-4.49763
G01 X-24.53267 Y-4.48379
G01 X-24.52403 Y-4.47253
G01 X-24.53640 Y-4.45841
G01 X-24.52403 Y-4.47253
G01 X-24.51174 Y-4.46545
G01 X-24.49751 Y-4.46359
G01 X-24.49627 Y-4.44497
G01 X-24.49751 Y-4.46359
G01 X-24.48385 Y-4.46725
G01 X-24.47254 Y-4.47594
G01 X-24.45855 Y-4.46367
G01 X-24.47254 Y-4.47594
G01 X-24.46543 Y-4.48821
G01 X-24.46358 Y-4.50233
G04 P0 ( dwell for no time -- G64 should not smooth over this point )
G00 Z2.00000 ( retract )

G00 X-4.46545 Y-24.48822 ( rapid move to begin. )
G01 F60.00000
( Mill infeed pass 1/1 )
G01 Z-0.10000
G04 P0 ( dwell for no time -- G64 should not smooth over this point )
G01 F120.00000
G01 X-4.46545 Y-24.48822
G01 X-4.46359 Y-24.50241
G01 X-4.46730 Y-24.51621
G01 X-4.45054 Y-24.52449
G01 X-4.46730 Y-24.51621
G01 X-4.47596 Y-24.52743
G01 X-4.48821 Y-24.53449
G01 X-4.48224 Y-24.55207
G01 X-4.48821 Y-24.53449
G01 X-4.50233 Y-24.53637
G01 X-4.51607 Y-24.53272
G01 X-4.52438 Y-24.54956
G01 X-4.51607 Y-24.53272
G01 X-4.52740 Y-24.52403
G01 X-4.53456 Y-24.51161
G01 X-4.55226 Y-24.51760
G01 X-4.53456 Y-24.51161
G01 X-4.53636 Y-24.49754
G01 X-4.53271 Y-24.48385
G01 X-4.54939 Y-24.47562
G01 X-4.53271 Y-24.48385
G01 X-4.52402 Y-24.47254
G01 X-4.51170 Y-24.46543
G01 X-4.51772 Y-24.44768
G01 X-4.51170 Y-24.46543
G01 X-4.49763 Y-24.46358
G01 X-4.48379 Y-24.46729
G01 X-4.47551 Y-24.45055
G01 X-4.48379 Y-24.46729
G01 X-4.47253 Y-24.47592
G01 X-4.46545 Y-24.48822
G01 X-4.44777 Y-24.48225
G01 X-4.23682 Y-24.51727
G01 X-4.24132 Y-24.55144
G01 X-4.23697 Y-24.55230
G01 X-4.24132 Y-24.55144
G01 X-4.25026 Y-24.58476
G01 X-4.28066 Y-24.64646
G01 X-4.27698 Y-24.64892
G01 X-4.28066 Y-24.64646
G01 X-4.30169 Y-24.67386
G01 X-4.35343 Y-24.71925
G01 X-4.35097 Y-24.72294
G01 X-4.35343 Y-24.71925
G01 X-4.41515 Y-24.74968
G01 X-4.44856 Y-24.75862
G01 X-4.44769 Y-24.76299
G01 X-4.44856 Y-24.75862
G01 X-4.48277 Y-24.76315
G01 X-4.55145 Y-24.75862
G01 X-4.55231 Y-24.76299
G01 X-4.55145 Y-24.75862
G01 X-4.61660 Y-24.73653
G01 X-4.64650 Y-24.71925
G01 X-4.64896 Y-24.72294
G01 X-4.64650 Y-24.71925
G01 X-4.69824 Y-24.67386
G01 X-4.71924 Y-24.64651
G01 X-4.72293 Y-24.64897
G01 X-4.71924 Y-24.64651
G01 X-4.73652 Y-24.61661
G01 X-4.75861 Y-24.55149
G01 X-4.76298 Y-24.55235
G01 X-4.75861 Y-24.55149
G01 X-4.76313 Y-24.51727
G01 X-4.75864 Y-24.44852
G01 X-4.76298 Y-24.44763
G01 X-4.75864 Y-24.44852
G01 X-4.73652 Y-24.38334
G01 X-4.71927 Y-24.35347
G01 X-4.72295 Y-24.35101
G01 X-4.71927 Y-24.35347
G01 X-4.69824 Y-24.32609
G01 X-4.64650 Y-24.28070
G01 X-4.64896 Y-24.27702
G01 X-4.64650 Y-24.28070
G01 X-4.61660 Y-24.26343
G01 X-4.55145 Y-24.24133
G01 X-4.55231 Y-24.23696
G01 X-4.55145 Y-24.24133
G01 X-4.51719 Y-24.23681
G01 X-4.44856 Y-24.24133
G01 X-4.44769 Y-24.23696
G01 X-4.44856 Y-24.24133
G01 X-4.41515 Y-24.25027
G01 X-4.35343 Y-24.28070
G01 X-4.35097 Y-24.27702
G01 X-4.35343 Y-24.28070
G01 X-4.30169 Y-24.32609
G01 X-4.28069 Y-24.35344
G01 X-4.27700 Y-24.35098
G01 X-4.28069 Y-24.35344
G01 X-4.25026 Y-24.41519
G01 X-4.24132 Y-24.44852
G01 X-4.23697 Y-24.44765
G01 X-4.24132 Y-24.44852
G01 X-4.23682 Y-24.51727
G01 X-4.01008 Y-24.53213
G01 X-4.01846 Y-24.59576
G01 X-4.03507 Y-24.65781
G01 X-4.05966 Y-24.71720
G01 X-4.05567 Y-24.71915
G01 X-4.05966 Y-24.71720
G01 X-4.09171 Y-24.77272
G01 X-4.13083 Y-24.82367
G01 X-4.17629 Y-24.86914
G01 X-4.17335 Y-24.87247
G01 X-4.17629 Y-24.86914
G01 X-4.22719 Y-24.90821
G01 X-4.28277 Y-24.94029
G01 X-4.34213 Y-24.96487
G01 X-4.34071 Y-24.96906
G01 X-4.34213 Y-24.96487
G01 X-4.40423 Y-24.98151
G01 X-4.46789 Y-24.98989
G01 X-4.53207 Y-24.98989
G01 X-4.53235 Y-24.99434
G01 X-4.53207 Y-24.98989
G01 X-4.59577 Y-24.98151
G01 X-4.65780 Y-24.96490
G01 X-4.71711 Y-24.94031
G01 X-4.71907 Y-24.94430
G01 X-4.71711 Y-24.94031
G01 X-4.77274 Y-24.90821
G01 X-4.82369 Y-24.86911
G01 X-4.86910 Y-24.82370
G01 X-4.87243 Y-24.82662
G01 X-4.86910 Y-24.82370
G01 X-4.90819 Y-24.77275
G01 X-4.94030 Y-24.71712
G01 X-4.96491 Y-24.65771
G01 X-4.96913 Y-24.65913
G01 X-4.96491 Y-24.65771
G01 X-4.98150 Y-24.59581
G01 X-4.98988 Y-24.53213
G01 X-4.98988 Y-24.46782
G01 X-4.99430 Y-24.46754
G01 X-4.98988 Y-24.46782
G01 X-4.98150 Y-24.40417
G01 X-4.96489 Y-24.34217
G01 X-4.94030 Y-24.28283
G01 X-4.94429 Y-24.28085
G01 X-4.94030 Y-24.28283
G01 X-4.90822 Y-24.22723
G01 X-4.86910 Y-24.17625
G01 X-4.82369 Y-24.13084
G01 X-4.82661 Y-24.12751
G01 X-4.82369 Y-24.13084
G01 X-4.77274 Y-24.09175
G01 X-4.71711 Y-24.05964
G01 X-4.65780 Y-24.03505
G01 X-4.65922 Y-24.03086
G01 X-4.65780 Y-24.03505
G01 X-4.59577 Y-24.01844
G01 X-4.53207 Y-24.01006
G01 X-4.46789 Y-24.01006
G01 X-4.46761 Y-24.00562
G01 X-4.46789 Y-24.01006
G01 X-4.40423 Y-24.01844
G01 X-4.34213 Y-24.03508
G01 X-4.28277 Y-24.05967
G01 X-4.28081 Y-24.05568
G01 X-4.28277 Y-24.05967
G01 X-4.22719 Y-24.09175
G01 X-4.17624 Y-24.13084
G01 X-4.13083 Y-24.17625
G01 X-4.12750 Y-24.17333
G01 X-4.13083 Y-24.17625
G01 X-4.09174 Y-24.22721
G01 X-4.05966 Y-24.28276
G01 X-4.03507 Y-24.34214
G01 X-4.03088 Y-24.34072
G01 X-4.03507 Y-24.34214
G01 X-4.01846 Y-24.40419
G01 X-4.01008 Y-24.46782
G01 X-4.01008 Y-24.53213
G01 X-3.78330 Y-24.54699
G01 X-3.79364 Y-24.64046
G01 X-3.81988 Y-24.73084
G01 X-3.85486 Y-24.81814
G01 X-3.90190 Y-24.89962
G01 X-3.95999 Y-24.97351
G01 X-4.02570 Y-25.04079
G01 X-4.10035 Y-25.09807
G01 X-4.18229 Y-25.14410
G01 X-4.26870 Y-25.18108
G01 X-4.35971 Y-25.20546
G01 X-4.45303 Y-25.21666
G01 X-4.54696 Y-25.21775
G01 X-4.64020 Y-25.20485
G01 X-4.73123 Y-25.18110
G01 X-4.81762 Y-25.14412
G01 X-4.90007 Y-25.09878
G01 X-4.97352 Y-25.03995
G01 X-5.04076 Y-24.97427
G01 X-5.09755 Y-24.89926
G01 X-5.14513 Y-24.81806
G01 X-5.18010 Y-24.73076
G01 X-5.20545 Y-24.64039
G01 X-5.21774 Y-24.54702
G01 X-5.21665 Y-24.45296
G01 X-5.20631 Y-24.35946
G01 X-5.18008 Y-24.26912
G01 X-5.14513 Y-24.18187
G01 X-5.09755 Y-24.10071
G01 X-5.04076 Y-24.02568
G01 X-4.97352 Y-23.96000
G01 X-4.90007 Y-23.90117
G01 X-4.81762 Y-23.85583
G01 X-4.73123 Y-23.81885
G01 X-4.64020 Y-23.79510
G01 X-4.54696 Y-23.78220
G01 X-4.45303 Y-23.78329
G01 X-4.35971 Y-23.79449
G01 X-4.26870 Y-23.81888
G01 X-4.18229 Y-23.85586
G01 X-4.10035 Y-23.90188
G01 X-4.02567 Y-23.95918
G01 X-3.95999 Y-24.02642
G01 X-3.90190 Y-24.10031
G01 X-3.85486 Y-24.18182
G01 X-3.81988 Y-24.26912
G01 X-3.79451 Y-24.35962
G01 X-3.78221 Y-24.45294
G01 X-3.78330 Y-24.54699
G01 X-3.55656 Y-24.56185
G01 X-3.57162 Y-24.68466
G01 X-3.60472 Y-24.80389
G01 X-3.65105 Y-24.91864
G01 X-3.71295 Y-25.02586
G01 X-3.78912 Y-25.12334
G01 X-3.87530 Y-25.21229
G01 X-3.97469 Y-25.28608
G01 X-4.08127 Y-25.34890
G01 X-4.19588 Y-25.39571
G01 X-4.31536 Y-25.42832
G01 X-4.43817 Y-25.44341
G01 X-4.56192 Y-25.44536
G01 X-4.68445 Y-25.42725
G01 X-4.80421 Y-25.39632
G01 X-4.91833 Y-25.34836
G01 X-5.02587 Y-25.28700
G01 X-5.12336 Y-25.21082
G01 X-5.21226 Y-25.12466
G01 X-5.28607 Y-25.02525
G01 X-5.34888 Y-24.91864
G01 X-5.39633 Y-24.80412
G01 X-5.42727 Y-24.68446
G01 X-5.44449 Y-24.56195
G01 X-5.44388 Y-24.43808
G01 X-5.42834 Y-24.31527
G01 X-5.39526 Y-24.19607
G01 X-5.34967 Y-24.08095
G01 X-5.28610 Y-23.97473
G01 X-5.21165 Y-23.87590
G01 X-5.12366 Y-23.78878
G01 X-5.02582 Y-23.71293
G01 X-4.91813 Y-23.65202
G01 X-4.80451 Y-23.60285
G01 X-4.68445 Y-23.57270
G01 X-4.56189 Y-23.55545
G01 X-4.43814 Y-23.55606
G01 X-4.31531 Y-23.57163
G01 X-4.19603 Y-23.60473
G01 X-4.08092 Y-23.65027
G01 X-3.97469 Y-23.71387
G01 X-3.87589 Y-23.78829
G01 X-3.78828 Y-23.87590
G01 X-3.71386 Y-23.97470
G01 X-3.65107 Y-24.08126
G01 X-3.60423 Y-24.19591
G01 X-3.57160 Y-24.31534
G01 X-3.55656 Y-24.43810
G01 X-3.55656 Y-24.56185
G01 X-3.32981 Y-24.57671
G01 X-3.34790 Y-24.72914
G01 X-3.38953 Y-24.87691
G01 X-3.44721 Y-25.01913
G01 X-3.52400 Y-25.15212
G01 X-3.61828 Y-25.27318
G01 X-3.72603 Y-25.38247
G01 X-3.84818 Y-25.47541
G01 X-3.98081 Y-25.55273
G01 X-4.12300 Y-25.61041
G01 X-4.27083 Y-25.65202
G01 X-4.42331 Y-25.67015
G01 X-4.57670 Y-25.67127
G01 X-4.72887 Y-25.65062
G01 X-4.87731 Y-25.61148
G01 X-5.01863 Y-25.55171
G01 X-5.15257 Y-25.47666
G01 X-5.27319 Y-25.38166
G01 X-5.38244 Y-25.27394
G01 X-5.47596 Y-25.15207
G01 X-5.55173 Y-25.01864
G01 X-5.61149 Y-24.87724
G01 X-5.65061 Y-24.72888
G01 X-5.67126 Y-24.57674
G01 X-5.67014 Y-24.42324
G01 X-5.65206 Y-24.27082
G01 X-5.61045 Y-24.12304
G01 X-5.55274 Y-23.98085
G01 X-5.47545 Y-23.84819
G01 X-5.38244 Y-23.72601
G01 X-5.27319 Y-23.61829
G01 X-5.15257 Y-23.52330
G01 X-5.01863 Y-23.44821
G01 X-4.87731 Y-23.38847
G01 X-4.72887 Y-23.34933
G01 X-4.57670 Y-23.32868
G01 X-4.42331 Y-23.32980
G01 X-4.27083 Y-23.34791
G01 X-4.12300 Y-23.38954
G01 X-3.98081 Y-23.44722
G01 X-3.84818 Y-23.52451
G01 X-3.72600 Y-23.61750
G01 X-3.61828 Y-23.72675
G01 X-3.52400 Y-23.84781
G01 X-3.44721 Y-23.98083
G01 X-3.38953 Y-24.12304
G01 X-3.34874 Y-24.27094
G01 X-3.32870 Y-24.42322
G01 X-3.32981 Y-24.57671
G01 X-3.10304 Y-24.59157
G01 X-3.12646 Y-24.77318
G01 X-3.17388 Y-24.95012
G01 X-3.24396 Y-25.11938
G01 X-3.33553 Y-25.27800
G01 X-3.44706 Y-25.42332
G01 X-3.57660 Y-25.55288
G01 X-3.72194 Y-25.66436
G01 X-3.88056 Y-25.75598
G01 X-4.04980 Y-25.82606
G01 X-4.22676 Y-25.87346
G01 X-4.40840 Y-25.89738
G01 X-4.59156 Y-25.89738
G01 X-4.77319 Y-25.87346
G01 X-4.95013 Y-25.82608
G01 X-5.11934 Y-25.75598
G01 X-5.27799 Y-25.66436
G01 X-5.42333 Y-25.55288
G01 X-5.55287 Y-25.42332
G01 X-5.66438 Y-25.27800
G01 X-5.75597 Y-25.11936
G01 X-5.82610 Y-24.95006
G01 X-5.87350 Y-24.77320
G01 X-5.89740 Y-24.59159
G01 X-5.89740 Y-24.40836
G01 X-5.87350 Y-24.22677
G01 X-5.82607 Y-24.04984
G01 X-5.75597 Y-23.88057
G01 X-5.66438 Y-23.72195
G01 X-5.55287 Y-23.57661
G01 X-5.42333 Y-23.44707
G01 X-5.27799 Y-23.33556
G01 X-5.11934 Y-23.24397
G01 X-4.95013 Y-23.17387
G01 X-4.77319 Y-23.12647
G01 X-4.59156 Y-23.10254
G01 X-4.40840 Y-23.10254
G01 X-4.22676 Y-23.12647
G01 X-4.04980 Y-23.17389
G01 X-3.88056 Y-23.24397
G01 X-3.72194 Y-23.33556
G01 X-3.57660 Y-23.44707
G01 X-3.44706 Y-23.57661
G01 X-3.33555 Y-23.72195
G01 X-3.24396 Y-23.88057
G01 X-3.17388 Y-24.04984
G01 X-3.12646 Y-24.22677
G01 X-3.10256 Y-24.40836
G01 X-3.10304 Y-24.59157
G01 X-2.87630 Y-24.60640
G01 X-2.90406 Y-24.81743
G01 X-2.95915 Y-25.02299
G01 X-3.04058 Y-25.21966
G01 X-3.14701 Y-25.40399
G01 X-3.27657 Y-25.57285
G01 X-3.42709 Y-25.72337
G01 X-3.59595 Y-25.85293
G01 X-3.78028 Y-25.95936
G01 X-3.97693 Y-26.04079
G01 X-4.18252 Y-26.09586
G01 X-4.39356 Y-26.12367
G01 X-4.60639 Y-26.12367
G01 X-4.81744 Y-26.09586
G01 X-5.02300 Y-26.04082
G01 X-5.21965 Y-25.95936
G01 X-5.40398 Y-25.85293
G01 X-5.57284 Y-25.72337
G01 X-5.72336 Y-25.57285
G01 X-5.85292 Y-25.40399
G01 X-5.95935 Y-25.21966
G01 X-6.04083 Y-25.02299
G01 X-6.09590 Y-24.81743
G01 X-6.12366 Y-24.60640
G01 X-6.12366 Y-24.39355
G01 X-6.09590 Y-24.18253
G01 X-6.04081 Y-23.97694
G01 X-5.95935 Y-23.78027
G01 X-5.85292 Y-23.59596
G01 X-5.72336 Y-23.42711
G01 X-5.57284 Y-23.27659
G01 X-5.40398 Y-23.14702
G01 X-5.21965 Y-23.04059
G01 X-5.02300 Y-22.95914
G01 X-4.81744 Y-22.90407
G01 X-4.60639 Y-22.87628
G01 X-4.39356 Y-22.87628
G01 X-4.18252 Y-22.90407
G01 X-3.97693 Y-22.95916
G01 X-3.78028 Y-23.04059
G01 X-3.59595 Y-23.14702
G01 X-3.42709 Y-23.27659
G01 X-3.27657 Y-23.42711
G01 X-3.14701 Y-23.59596
G01 X-3.04058 Y-23.78029
G01 X-2.95915 Y-23.97696
G01 X-2.90406 Y-24.18253
G01 X-2.87630 Y-24.39355
G01 X-2.87630 Y-24.60640
G04 P0 ( dwell for no time -- G64 should not smooth over this point )
G00 Z2.00000 ( retract )

G00 X-17.68178 Y-21.64624 ( rapid move to begin. )
G01 F60.00000
( Mill infeed pass 1/1 )
G01 Z-0.10000
G04 P0 ( dwell for no time -- G64 should not smooth over this point )
G01 F120.00000
G01 X-17.68178 Y-21.64624
G01 X-17.68178 Y-21.25678
G01 X-17.75229 Y-21.28599
G01 X-17.93088 Y-21.38911
G01 X-18.09448 Y-21.51464
G01 X-18.24030 Y-21.66046
G01 X-18.36585 Y-21.82409
G01 X-18.46895 Y-22.00267
G01 X-18.54787 Y-22.19320
G01 X-18.59610 Y-22.37316
G01 X-18.23298 Y-22.37316
G01 X-18.17573 Y-22.20100
G01 X-18.04749 Y-21.97890
G01 X-17.87589 Y-21.78830
G01 X-17.68178 Y-21.64624
G04 P0 ( dwell for no time -- G64 should not smooth over this point )
G00 Z2.00000 ( retract )

G00 X-17.68178 Y-24.74318 ( rapid move to begin. )
G01 F60.00000
( Mill infeed pass 1/1 )
G01 Z-0.10000
G04 P0 ( dwell for no time -- G64 should not smooth over this point )
G01 F120.00000
G01 X-17.68178 Y-24.74318
G01 X-17.68178 Y-24.35375
G01 X-17.87589 Y-24.21169
G01 X-18.04749 Y-24.02108
G01 X-18.17573 Y-23.79896
G01 X-18.23298 Y-23.62678
G01 X-18.59610 Y-23.62678
G01 X-18.54787 Y-23.80676
G01 X-18.46895 Y-23.99728
G01 X-18.36585 Y-24.17587
G01 X-18.24030 Y-24.33950
G01 X-18.09448 Y-24.48532
G01 X-17.93088 Y-24.61085
G01 X-17.75226 Y-24.71397
G01 X-17.68178 Y-24.74318
G04 P0 ( dwell for no time -- G64 should not smooth over this point )
G00 Z2.00000 ( retract )

G00 X-22.87628 Y-24.60640 ( rapid move to begin. )
G01 F60.00000
( Mill infeed pass 1/1 )
G01 Z-0.10000
G04 P0 ( dwell for no time -- G64 should not smooth over this point )
G01 F120.00000
G01 X-22.87628 Y-24.60640
G01 X-22.87628 Y-24.39355
G01 X-22.90407 Y-24.18253
G01 X-22.95914 Y-23.97696
G01 X-23.04059 Y-23.78029
G01 X-23.14702 Y-23.59596
G01 X-23.27659 Y-23.42711
G01 X-23.42711 Y-23.27659
G01 X-23.59596 Y-23.14702
G01 X-23.78027 Y-23.04059
G01 X-23.97694 Y-22.95916
G01 X-24.18253 Y-22.90407
G01 X-24.39355 Y-22.87628
G01 X-24.60640 Y-22.87628
G01 X-24.81743 Y-22.90407
G01 X-25.02299 Y-22.95914
G01 X-25.21966 Y-23.04059
G01 X-25.40399 Y-23.14702
G01 X-25.57285 Y-23.27659
G01 X-25.72337 Y-23.42711
G01 X-25.85293 Y-23.59596
G01 X-25.95936 Y-23.78027
G01 X-26.04079 Y-23.97691
G01 X-26.09586 Y-24.18255
G01 X-26.12367 Y-24.39355
G01 X-26.12367 Y-24.60640
G01 X-26.09586 Y-24.81743
G01 X-26.04079 Y-25.02299
G01 X-25.95936 Y-25.21966
G01 X-25.85293 Y-25.40399
G01 X-25.72337 Y-25.57285
G01 X-25.57285 Y-25.72337
G01 X-25.40399 Y-25.85293
G01 X-25.21966 Y-25.95936
G01 X-25.02299 Y-26.04082
G01 X-24.81743 Y-26.09586
G01 X-24.60640 Y-26.12367
G01 X-24.39355 Y-26.12367
G01 X-24.18253 Y-26.09586
G01 X-23.97694 Y-26.04079
G01 X-23.78027 Y-25.95936
G01 X-23.59596 Y-25.85293
G01 X-23.42711 Y-25.72337
G01 X-23.27659 Y-25.57285
G01 X-23.14702 Y-25.40399
G01 X-23.04059 Y-25.21966
G01 X-22.95914 Y-25.02299
G01 X-22.90407 Y-24.81743
G01 X-22.87628 Y-24.60640
G01 X-23.10303 Y-24.59154
G01 X-23.10254 Y-24.40838
G01 X-23.12647 Y-24.22677
G01 X-23.17387 Y-24.04984
G01 X-23.24397 Y-23.88060
G01 X-23.33556 Y-23.72195
G01 X-23.44707 Y-23.57661
G01 X-23.57661 Y-23.44707
G01 X-23.72195 Y-23.33556
G01 X-23.88055 Y-23.24397
G01 X-24.04981 Y-23.17389
G01 X-24.22677 Y-23.12647
G01 X-24.40838 Y-23.10254
G01 X-24.59157 Y-23.10254
G01 X-24.77318 Y-23.12647
G01 X-24.95012 Y-23.17387
G01 X-25.11936 Y-23.24397
G01 X-25.27800 Y-23.33554
G01 X-25.42332 Y-23.44707
G01 X-25.55288 Y-23.57661
G01 X-25.66436 Y-23.72195
G01 X-25.75598 Y-23.88055
G01 X-25.82606 Y-24.04981
G01 X-25.87346 Y-24.22680
G01 X-25.89738 Y-24.40838
G01 X-25.89738 Y-24.59157
G01 X-25.87346 Y-24.77318
G01 X-25.82560 Y-24.94994
G01 X-25.75603 Y-25.11941
G01 X-25.66436 Y-25.27800
G01 X-25.55288 Y-25.42332
G01 X-25.42332 Y-25.55288
G01 X-25.27800 Y-25.66436
G01 X-25.11936 Y-25.75598
G01 X-24.95012 Y-25.82608
G01 X-24.77318 Y-25.87346
G01 X-24.59157 Y-25.89738
G01 X-24.40838 Y-25.89751
G01 X-24.22685 Y-25.87297
G01 X-24.04981 Y-25.82606
G01 X-23.88055 Y-25.75598
G01 X-23.72195 Y-25.66436
G01 X-23.57661 Y-25.55288
G01 X-23.44707 Y-25.42332
G01 X-23.33554 Y-25.27800
G01 X-23.24397 Y-25.11936
G01 X-23.17387 Y-24.95012
G01 X-23.12647 Y-24.77318
G01 X-23.10303 Y-24.59154
G01 X-23.32980 Y-24.57666
G01 X-23.32868 Y-24.42324
G01 X-23.34933 Y-24.27110
G01 X-23.38847 Y-24.12263
G01 X-23.44821 Y-23.98131
G01 X-23.52330 Y-23.84737
G01 X-23.61829 Y-23.72675
G01 X-23.72601 Y-23.61750
G01 X-23.84819 Y-23.52449
G01 X-23.98083 Y-23.44722
G01 X-24.12301 Y-23.38954
G01 X-24.27082 Y-23.34791
G01 X-24.42329 Y-23.32980
G01 X-24.57671 Y-23.32868
G01 X-24.72886 Y-23.34933
G01 X-24.87732 Y-23.38847
G01 X-25.01864 Y-23.44821
G01 X-25.15258 Y-23.52327
G01 X-25.27318 Y-23.61829
G01 X-25.38247 Y-23.72604
G01 X-25.47546 Y-23.84819
G01 X-25.55273 Y-23.98083
G01 X-25.61041 Y-24.12299
G01 X-25.65202 Y-24.27084
G01 X-25.67015 Y-24.42329
G01 X-25.67127 Y-24.57671
G01 X-25.65121 Y-24.72898
G01 X-25.61044 Y-24.87689
G01 X-25.55273 Y-25.01913
G01 X-25.47595 Y-25.15215
G01 X-25.38166 Y-25.27320
G01 X-25.27394 Y-25.38245
G01 X-25.15207 Y-25.47597
G01 X-25.01864 Y-25.55171
G01 X-24.87732 Y-25.61148
G01 X-24.72893 Y-25.65121
G01 X-24.57666 Y-25.67015
G01 X-24.42324 Y-25.67127
G01 X-24.27094 Y-25.65121
G01 X-24.12301 Y-25.61041
G01 X-23.98083 Y-25.55273
G01 X-23.84819 Y-25.47546
G01 X-23.72604 Y-25.38247
G01 X-23.61829 Y-25.27318
G01 X-23.52327 Y-25.15258
G01 X-23.44821 Y-25.01864
G01 X-23.38847 Y-24.87732
G01 X-23.34875 Y-24.72893
G01 X-23.32980 Y-24.57666
G01 X-23.55654 Y-24.56185
G01 X-23.55545 Y-24.43805
G01 X-23.57270 Y-24.31552
G01 X-23.60364 Y-24.19576
G01 X-23.65159 Y-24.08159
G01 X-23.71296 Y-23.97407
G01 X-23.78913 Y-23.87658
G01 X-23.87529 Y-23.78768
G01 X-23.97473 Y-23.71385
G01 X-24.08126 Y-23.65106
G01 X-24.19589 Y-23.60425
G01 X-24.31537 Y-23.57161
G01 X-24.43815 Y-23.55654
G01 X-24.56193 Y-23.55459
G01 X-24.68443 Y-23.57270
G01 X-24.80419 Y-23.60364
G01 X-24.91837 Y-23.65159
G01 X-25.02586 Y-23.71296
G01 X-25.12334 Y-23.78913
G01 X-25.21229 Y-23.87531
G01 X-25.28611 Y-23.97473
G01 X-25.34890 Y-24.08126
G01 X-25.39568 Y-24.19589
G01 X-25.42832 Y-24.31539
G01 X-25.44341 Y-24.43815
G01 X-25.44536 Y-24.56193
G01 X-25.42725 Y-24.68441
G01 X-25.39632 Y-24.80417
G01 X-25.34890 Y-24.91867
G01 X-25.28608 Y-25.02525
G01 X-25.21166 Y-25.12405
G01 X-25.12367 Y-25.21118
G01 X-25.02583 Y-25.28702
G01 X-24.91814 Y-25.34793
G01 X-24.80452 Y-25.39710
G01 X-24.68443 Y-25.42725
G01 X-24.56190 Y-25.44450
G01 X-24.43813 Y-25.44389
G01 X-24.31527 Y-25.42832
G01 X-24.19604 Y-25.39525
G01 X-24.08090 Y-25.34968
G01 X-23.97473 Y-25.28611
G01 X-23.87592 Y-25.21168
G01 X-23.78878 Y-25.12367
G01 X-23.71291 Y-25.02581
G01 X-23.65202 Y-24.91814
G01 X-23.60285 Y-24.80452
G01 X-23.57270 Y-24.68443
G01 X-23.55654 Y-24.56185
G01 X-23.78329 Y-24.54694
G01 X-23.78220 Y-24.45299
G01 X-23.79510 Y-24.35977
G01 X-23.81885 Y-24.26873
G01 X-23.85583 Y-24.18232
G01 X-23.90117 Y-24.09985
G01 X-23.96000 Y-24.02642
G01 X-24.02568 Y-23.95918
G01 X-24.10071 Y-23.90239
G01 X-24.18182 Y-23.85484
G01 X-24.26909 Y-23.81989
G01 X-24.35951 Y-23.79365
G01 X-24.45301 Y-23.78329
G01 X-24.54697 Y-23.78220
G01 X-24.64018 Y-23.79510
G01 X-24.73122 Y-23.81885
G01 X-24.81763 Y-23.85583
G01 X-24.90005 Y-23.90117
G01 X-24.97351 Y-23.96000
G01 X-25.04079 Y-24.02571
G01 X-25.09756 Y-24.10071
G01 X-25.14511 Y-24.18182
G01 X-25.18004 Y-24.26906
G01 X-25.20630 Y-24.35951
G01 X-25.21666 Y-24.45301
G01 X-25.21775 Y-24.54697
G01 X-25.20546 Y-24.64031
G01 X-25.18009 Y-24.73081
G01 X-25.14511 Y-24.81811
G01 X-25.09804 Y-24.89965
G01 X-25.03995 Y-24.97353
G01 X-24.97427 Y-25.04077
G01 X-24.89959 Y-25.09807
G01 X-24.81763 Y-25.14412
G01 X-24.73122 Y-25.18110
G01 X-24.64018 Y-25.20485
G01 X-24.54697 Y-25.21775
G01 X-24.45301 Y-25.21666
G01 X-24.35949 Y-25.20630
G01 X-24.26909 Y-25.18006
G01 X-24.18182 Y-25.14511
G01 X-24.10071 Y-25.09756
G01 X-24.02571 Y-25.04079
G01 X-23.96000 Y-24.97351
G01 X-23.90117 Y-24.90005
G01 X-23.85583 Y-24.81763
G01 X-23.81885 Y-24.73122
G01 X-23.79449 Y-24.64026
G01 X-23.78329 Y-24.54694
G01 X-24.01006 Y-24.53206
G01 X-24.01006 Y-24.46790
G01 X-24.01844 Y-24.40419
G01 X-24.01410 Y-24.40333
G01 X-24.01844 Y-24.40419
G01 X-24.03508 Y-24.34214
G01 X-24.05964 Y-24.28283
G01 X-24.09175 Y-24.22721
G01 X-24.08806 Y-24.22472
G01 X-24.09175 Y-24.22721
G01 X-24.13084 Y-24.17625
G01 X-24.17625 Y-24.13084
G01 X-24.22723 Y-24.09172
G01 X-24.22477 Y-24.08804
G01 X-24.22723 Y-24.09172
G01 X-24.28278 Y-24.05967
G01 X-24.34212 Y-24.03508
G01 X-24.40422 Y-24.01844
G01 X-24.40335 Y-24.01407
G01 X-24.40422 Y-24.01844
G01 X-24.46787 Y-24.01006
G01 X-24.53206 Y-24.01006
G01 X-24.59576 Y-24.01844
G01 X-24.59662 Y-24.01410
G01 X-24.59576 Y-24.01844
G01 X-24.65781 Y-24.03508
G01 X-24.71712 Y-24.05964
G01 X-24.77272 Y-24.09172
G01 X-24.77519 Y-24.08804
G01 X-24.77272 Y-24.09172
G01 X-24.82367 Y-24.13084
G01 X-24.86914 Y-24.17630
G01 X-24.90823 Y-24.22723
G01 X-24.91191 Y-24.22477
G01 X-24.90823 Y-24.22723
G01 X-24.94029 Y-24.28278
G01 X-24.96487 Y-24.34212
G01 X-24.98151 Y-24.40424
G01 X-24.98585 Y-24.40338
G01 X-24.98151 Y-24.40424
G01 X-24.98989 Y-24.46790
G01 X-24.98989 Y-24.53206
G01 X-24.98151 Y-24.59573
G01 X-24.98585 Y-24.59660
G01 X-24.98151 Y-24.59573
G01 X-24.96490 Y-24.65776
G01 X-24.94029 Y-24.71717
G01 X-24.90821 Y-24.77275
G01 X-24.91189 Y-24.77524
G01 X-24.90821 Y-24.77275
G01 X-24.86911 Y-24.82370
G01 X-24.82370 Y-24.86911
G01 X-24.77275 Y-24.90821
G01 X-24.77524 Y-24.91189
G01 X-24.77275 Y-24.90821
G01 X-24.71712 Y-24.94031
G01 X-24.65781 Y-24.96487
G01 X-24.59576 Y-24.98151
G01 X-24.59662 Y-24.98585
G01 X-24.59576 Y-24.98151
G01 X-24.53206 Y-24.98989
G01 X-24.46790 Y-24.98989
G01 X-24.40422 Y-24.98151
G01 X-24.40335 Y-24.98585
G01 X-24.40422 Y-24.98151
G01 X-24.34212 Y-24.96487
G01 X-24.28278 Y-24.94029
G01 X-24.22723 Y-24.90823
G01 X-24.22477 Y-24.91191
G01 X-24.22723 Y-24.90823
G01 X-24.17630 Y-24.86914
G01 X-24.13084 Y-24.82367
G01 X-24.09172 Y-24.77272
G01 X-24.08804 Y-24.77519
G01 X-24.09172 Y-24.77272
G01 X-24.05964 Y-24.71712
G01 X-24.03508 Y-24.65781
G01 X-24.01844 Y-24.59576
G01 X-24.01410 Y-24.59662
G01 X-24.01844 Y-24.59576
G01 X-24.01006 Y-24.53206
G01 X-24.23681 Y-24.51720
G01 X-24.23681 Y-24.48276
G01 X-24.23239 Y-24.48248
G01 X-24.23681 Y-24.48276
G01 X-24.25024 Y-24.41519
G01 X-24.26345 Y-24.38331
G01 X-24.25946 Y-24.38136
G01 X-24.26345 Y-24.38331
G01 X-24.28070 Y-24.35344
G01 X-24.32609 Y-24.30170
G01 X-24.32317 Y-24.29835
G01 X-24.32609 Y-24.30170
G01 X-24.35347 Y-24.28067
G01 X-24.41517 Y-24.25027
G01 X-24.41374 Y-24.24608
G01 X-24.41517 Y-24.25027
G01 X-24.48276 Y-24.23681
G01 X-24.51720 Y-24.23681
G01 X-24.51748 Y-24.23239
G01 X-24.51720 Y-24.23681
G01 X-24.58476 Y-24.25024
G01 X-24.61664 Y-24.26345
G01 X-24.61859 Y-24.25946
G01 X-24.61664 Y-24.26345
G01 X-24.67386 Y-24.30170
G01 X-24.69830 Y-24.32614
G01 X-24.70163 Y-24.32319
G01 X-24.69830 Y-24.32614
G01 X-24.71928 Y-24.35347
G01 X-24.74968 Y-24.41514
G01 X-24.75387 Y-24.41372
G01 X-24.74968 Y-24.41514
G01 X-24.76315 Y-24.48276
G01 X-24.76315 Y-24.51720
G01 X-24.76757 Y-24.51748
G01 X-24.76315 Y-24.51720
G01 X-24.74971 Y-24.58474
G01 X-24.73648 Y-24.61666
G01 X-24.74046 Y-24.61865
G01 X-24.73648 Y-24.61666
G01 X-24.71925 Y-24.64651
G01 X-24.67386 Y-24.69825
G01 X-24.67679 Y-24.70160
G01 X-24.67386 Y-24.69825
G01 X-24.64651 Y-24.71925
G01 X-24.58476 Y-24.74971
G01 X-24.58618 Y-24.75390
G01 X-24.58476 Y-24.74971
G01 X-24.51720 Y-24.76315
G01 X-24.48276 Y-24.76315
G01 X-24.48248 Y-24.76757
G01 X-24.48276 Y-24.76315
G01 X-24.41517 Y-24.74968
G01 X-24.38326 Y-24.73648
G01 X-24.38131 Y-24.74046
G01 X-24.38326 Y-24.73648
G01 X-24.32614 Y-24.69830
G01 X-24.30170 Y-24.67386
G01 X-24.29835 Y-24.67679
G01 X-24.30170 Y-24.67386
G01 X-24.28067 Y-24.64646
G01 X-24.25024 Y-24.58476
G01 X-24.24605 Y-24.58618
G01 X-24.25024 Y-24.58476
G01 X-24.23681 Y-24.51720
G01 X-24.46358 Y-24.50231
G01 X-24.46543 Y-24.48822
G01 X-24.47254 Y-24.47592
G01 X-24.45850 Y-24.46358
G01 X-24.47254 Y-24.47592
G01 X-24.48377 Y-24.46729
G01 X-24.49761 Y-24.46358
G01 X-24.49639 Y-24.44493
G01 X-24.49761 Y-24.46358
G01 X-24.51174 Y-24.46543
G01 X-24.52403 Y-24.47254
G01 X-24.53635 Y-24.45850
G01 X-24.52403 Y-24.47254
G01 X-24.53267 Y-24.48377
G01 X-24.53637 Y-24.49764
G01 X-24.55502 Y-24.49642
G01 X-24.53637 Y-24.49764
G01 X-24.53452 Y-24.51171
G01 X-24.52741 Y-24.52403
G01 X-24.54145 Y-24.53637
G01 X-24.52741 Y-24.52403
G01 X-24.51613 Y-24.53269
G01 X-24.50231 Y-24.53637
G01 X-24.50353 Y-24.55497
G01 X-24.50231 Y-24.53637
G01 X-24.48819 Y-24.53449
G01 X-24.47597 Y-24.52743
G01 X-24.46365 Y-24.54151
G01 X-24.47597 Y-24.52743
G01 X-24.46726 Y-24.51613
G01 X-24.46358 Y-24.50231

G04 P0 ( dwell for no time -- G64 should not smooth over this point )
G00 Z15.000000 ( retract )

M5 ( Spindle off. )
G04 P1.000000
M9 ( Coolant off. )
M2 ( Program end. )

