( pcb2gcode 2.5.0 )
( Software-independent Gcode )
( This file uses a mill head of 1.00000mm to drill the 1 hole sizes. )
( Hole sizes: [3.2004mm] )

G94       (Millimeters per minute feed rate.)
G21       (Units == Millimeters.)
G91.1     (Incremental arc distance mode.)
G90       (Absolute coordinates.)
S13000    (RPM spindle speed.)

G01 F120.00000 (Feedrate)
G00 Z15.00000 (Retract to tool change height)
T3
M5        (Spindle stop.)
G04 P1.00000
(MSG, Change tool bit to drill size 1.00000mm)
M6        (Tool change.)
M0        (Temporary machine stop.)
M3        (Spindle on clockwise.)
G04 P1.00000
G00 Z2.00000

G0 X-3.40068 Y-4.50088
G1 Z0.50000 F60.00000
G1 F120.00000
G2 X-3.40068 Y-4.50088 Z-0.00000 I-1.10020 J0.00000
G2 X-3.40068 Y-4.50088 Z-0.50000 I-1.10020 J0.00000
G2 X-3.40068 Y-4.50088 Z-1.00000 I-1.10020 J0.00000
G2 X-3.40068 Y-4.50088 Z-1.50000 I-1.10020 J0.00000
G2 X-3.40068 Y-4.50088 Z-2.00000 I-1.10020 J0.00000
G2 X-3.40068 Y-4.50088 Z-2.50000 I-1.10020 J0.00000
G2 X-3.40068 Y-4.50088 I-1.10020 J0.00000
G1 Z2.00000 F60.00000

G0 X-3.40068 Y-24.50084
G1 Z0.50000 F60.00000
G1 F120.00000
G2 X-3.40068 Y-24.50084 Z-0.00000 I-1.10020 J0.00000
G2 X-3.40068 Y-24.50084 Z-0.50000 I-1.10020 J0.00000
G2 X-3.40068 Y-24.50084 Z-1.00000 I-1.10020 J0.00000
G2 X-3.40068 Y-24.50084 Z-1.50000 I-1.10020 J0.00000
G2 X-3.40068 Y-24.50084 Z-2.00000 I-1.10020 J0.00000
G2 X-3.40068 Y-24.50084 Z-2.50000 I-1.10020 J0.00000
G2 X-3.40068 Y-24.50084 I-1.10020 J0.00000
G1 Z2.00000 F60.00000

G0 X-23.40064 Y-4.50088
G1 Z0.50000 F60.00000
G1 F120.00000
G2 X-23.40064 Y-4.50088 Z-0.00000 I-1.10020 J0.00000
G2 X-23.40064 Y-4.50088 Z-0.50000 I-1.10020 J0.00000
G2 X-23.40064 Y-4.50088 Z-1.00000 I-1.10020 J0.00000
G2 X-23.40064 Y-4.50088 Z-1.50000 I-1.10020 J0.00000
G2 X-23.40064 Y-4.50088 Z-2.00000 I-1.10020 J0.00000
G2 X-23.40064 Y-4.50088 Z-2.50000 I-1.10020 J0.00000
G2 X-23.40064 Y-4.50088 I-1.10020 J0.00000
G1 Z2.00000 F60.00000

G0 X-23.40064 Y-24.50084
G1 Z0.50000 F60.00000
G1 F120.00000
G2 X-23.40064 Y-24.50084 Z-0.00000 I-1.10020 J0.00000
G2 X-23.40064 Y-24.50084 Z-0.50000 I-1.10020 J0.00000
G2 X-23.40064 Y-24.50084 Z-1.00000 I-1.10020 J0.00000
G2 X-23.40064 Y-24.50084 Z-1.50000 I-1.10020 J0.00000
G2 X-23.40064 Y-24.50084 Z-2.00000 I-1.10020 J0.00000
G2 X-23.40064 Y-24.50084 Z-2.50000 I-1.10020 J0.00000
G2 X-23.40064 Y-24.50084 I-1.10020 J0.00000
G1 Z2.00000 F60.00000

G00 X-0.49997 Y-24.49998 ( rapid move to begin. )
G01 Z-0.50000 F60.00000 ( plunge. )
G04 P0 ( dwell for no time -- G64 should not smooth over this point )
G01 F120.00000
G01 X-0.50239 Y-4.45099
G01 X-0.57683 Y-3.71960
G01 X-0.78793 Y-3.01544
G01 X-0.82545 Y-2.92489
G01 X-1.17409 Y-2.27769
G01 X-1.63860 Y-1.70790
G01 X-1.70790 Y-1.63860
G01 X-2.27769 Y-1.17409
G01 X-2.92489 Y-0.82545
G01 X-3.01544 Y-0.78793
G01 X-3.71960 Y-0.57683
G01 X-4.45099 Y-0.50239
G01 X-24.49998 Y-0.49997
G01 X-25.28034 Y-0.57683
G01 X-25.98450 Y-0.78793
G01 X-26.07506 Y-0.82545
G01 X-26.72225 Y-1.17409
G01 X-27.29205 Y-1.63860
G01 X-27.36134 Y-1.70790
G01 X-27.82585 Y-2.27769
G01 X-28.19550 Y-2.96923
G01 X-28.41120 Y-3.67200
G01 X-28.43032 Y-3.76814
G01 X-28.49758 Y-4.45097
G01 X-28.49999 Y-24.49998
G01 X-28.43032 Y-25.23180
G01 X-28.41120 Y-25.32794
G01 X-28.19550 Y-26.03071
G01 X-27.82585 Y-26.72225
G01 X-27.36134 Y-27.29205
G01 X-27.29205 Y-27.36134
G01 X-26.72225 Y-27.82585
G01 X-26.03071 Y-28.19550
G01 X-25.32794 Y-28.41120
G01 X-25.23180 Y-28.43032
G01 X-24.49998 Y-28.49999
G01 X-4.49999 Y-28.49999
G01 X-3.76814 Y-28.43032
G01 X-3.67200 Y-28.41120
G01 X-3.01544 Y-28.21203
G01 X-2.92489 Y-28.17452
G01 X-2.27769 Y-27.82585
G01 X-1.70790 Y-27.36134
G01 X-1.63860 Y-27.29205
G01 X-1.17409 Y-26.72225
G01 X-0.82545 Y-26.07506
G01 X-0.78793 Y-25.98450
G01 X-0.57683 Y-25.28034
G01 X-0.49997 Y-24.49998
G01 Z-1.00000 F60.00000 ( plunge. )
G04 P0 ( dwell for no time -- G64 should not smooth over this point )
G01 F120.00000
G01 X-0.50239 Y-4.45099
G01 X-0.57683 Y-3.71960
G01 X-0.78793 Y-3.01544
G01 X-0.82545 Y-2.92489
G01 X-1.17409 Y-2.27769
G01 X-1.63860 Y-1.70790
G01 X-1.70790 Y-1.63860
G01 X-2.27769 Y-1.17409
G01 X-2.92489 Y-0.82545
G01 X-3.01544 Y-0.78793
G01 X-3.71960 Y-0.57683
G01 X-4.45099 Y-0.50239
G01 X-24.49998 Y-0.49997
G01 X-25.28034 Y-0.57683
G01 X-25.98450 Y-0.78793
G01 X-26.07506 Y-0.82545
G01 X-26.72225 Y-1.17409
G01 X-27.29205 Y-1.63860
G01 X-27.36134 Y-1.70790
G01 X-27.82585 Y-2.27769
G01 X-28.19550 Y-2.96923
G01 X-28.41120 Y-3.67200
G01 X-28.43032 Y-3.76814
G01 X-28.49758 Y-4.45097
G01 X-28.49999 Y-24.49998
G01 X-28.43032 Y-25.23180
G01 X-28.41120 Y-25.32794
G01 X-28.19550 Y-26.03071
G01 X-27.82585 Y-26.72225
G01 X-27.36134 Y-27.29205
G01 X-27.29205 Y-27.36134
G01 X-26.72225 Y-27.82585
G01 X-26.03071 Y-28.19550
G01 X-25.32794 Y-28.41120
G01 X-25.23180 Y-28.43032
G01 X-24.49998 Y-28.49999
G01 X-4.49999 Y-28.49999
G01 X-3.76814 Y-28.43032
G01 X-3.67200 Y-28.41120
G01 X-3.01544 Y-28.21203
G01 X-2.92489 Y-28.17452
G01 X-2.27769 Y-27.82585
G01 X-1.70790 Y-27.36134
G01 X-1.63860 Y-27.29205
G01 X-1.17409 Y-26.72225
G01 X-0.82545 Y-26.07506
G01 X-0.78793 Y-25.98450
G01 X-0.57683 Y-25.28034
G01 X-0.49997 Y-24.49998
G01 Z-1.50000 F60.00000 ( plunge. )
G04 P0 ( dwell for no time -- G64 should not smooth over this point )
G01 F120.00000
G01 X-0.50239 Y-4.45099
G01 X-0.57683 Y-3.71960
G01 X-0.78793 Y-3.01544
G01 X-0.82545 Y-2.92489
G01 X-1.17409 Y-2.27769
G01 X-1.63860 Y-1.70790
G01 X-1.70790 Y-1.63860
G01 X-2.27769 Y-1.17409
G01 X-2.92489 Y-0.82545
G01 X-3.01544 Y-0.78793
G01 X-3.71960 Y-0.57683
G01 X-4.45099 Y-0.50239
G01 X-24.49998 Y-0.49997
G01 X-25.28034 Y-0.57683
G01 X-25.98450 Y-0.78793
G01 X-26.07506 Y-0.82545
G01 X-26.72225 Y-1.17409
G01 X-27.29205 Y-1.63860
G01 X-27.36134 Y-1.70790
G01 X-27.82585 Y-2.27769
G01 X-28.19550 Y-2.96923
G01 X-28.41120 Y-3.67200
G01 X-28.43032 Y-3.76814
G01 X-28.49758 Y-4.45097
G01 X-28.49999 Y-24.49998
G01 X-28.43032 Y-25.23180
G01 X-28.41120 Y-25.32794
G01 X-28.19550 Y-26.03071
G01 X-27.82585 Y-26.72225
G01 X-27.36134 Y-27.29205
G01 X-27.29205 Y-27.36134
G01 X-26.72225 Y-27.82585
G01 X-26.03071 Y-28.19550
G01 X-25.32794 Y-28.41120
G01 X-25.23180 Y-28.43032
G01 X-24.49998 Y-28.49999
G01 X-4.49999 Y-28.49999
G01 X-3.76814 Y-28.43032
G01 X-3.67200 Y-28.41120
G01 X-3.01544 Y-28.21203
G01 X-2.92489 Y-28.17452
G01 X-2.27769 Y-27.82585
G01 X-1.70790 Y-27.36134
G01 X-1.63860 Y-27.29205
G01 X-1.17409 Y-26.72225
G01 X-0.82545 Y-26.07506
G01 X-0.78793 Y-25.98450
G01 X-0.57683 Y-25.28034
G01 X-0.49997 Y-24.49998
G01 Z-2.00000 F60.00000 ( plunge. )
G04 P0 ( dwell for no time -- G64 should not smooth over this point )
G01 F120.00000
G01 X-0.50239 Y-4.45099
G01 X-0.57683 Y-3.71960
G01 X-0.78793 Y-3.01544
G01 X-0.82545 Y-2.92489
G01 X-1.17409 Y-2.27769
G01 X-1.63860 Y-1.70790
G01 X-1.70790 Y-1.63860
G01 X-2.27769 Y-1.17409
G01 X-2.92489 Y-0.82545
G01 X-3.01544 Y-0.78793
G01 X-3.71960 Y-0.57683
G01 X-4.45099 Y-0.50239
G01 X-24.49998 Y-0.49997
G01 X-25.28034 Y-0.57683
G01 X-25.98450 Y-0.78793
G01 X-26.07506 Y-0.82545
G01 X-26.72225 Y-1.17409
G01 X-27.29205 Y-1.63860
G01 X-27.36134 Y-1.70790
G01 X-27.82585 Y-2.27769
G01 X-28.19550 Y-2.96923
G01 X-28.41120 Y-3.67200
G01 X-28.43032 Y-3.76814
G01 X-28.49758 Y-4.45097
G01 X-28.49999 Y-24.49998
G01 X-28.43032 Y-25.23180
G01 X-28.41120 Y-25.32794
G01 X-28.19550 Y-26.03071
G01 X-27.82585 Y-26.72225
G01 X-27.36134 Y-27.29205
G01 X-27.29205 Y-27.36134
G01 X-26.72225 Y-27.82585
G01 X-26.03071 Y-28.19550
G01 X-25.32794 Y-28.41120
G01 X-25.23180 Y-28.43032
G01 X-24.49998 Y-28.49999
G01 X-4.49999 Y-28.49999
G01 X-3.76814 Y-28.43032
G01 X-3.67200 Y-28.41120
G01 X-3.01544 Y-28.21203
G01 X-2.92489 Y-28.17452
G01 X-2.27769 Y-27.82585
G01 X-1.70790 Y-27.36134
G01 X-1.63860 Y-27.29205
G01 X-1.17409 Y-26.72225
G01 X-0.82545 Y-26.07506
G01 X-0.78793 Y-25.98450
G01 X-0.57683 Y-25.28034
G01 X-0.49997 Y-24.49998
G01 Z-2.50000 F60.00000 ( plunge. )
G04 P0 ( dwell for no time -- G64 should not smooth over this point )
G01 F120.00000
G01 X-0.50239 Y-4.45099
G01 X-0.57683 Y-3.71960
G01 X-0.78793 Y-3.01544
G01 X-0.82545 Y-2.92489
G01 X-1.17409 Y-2.27769
G01 X-1.63860 Y-1.70790
G01 X-1.70790 Y-1.63860
G01 X-2.27769 Y-1.17409
G01 X-2.92489 Y-0.82545
G01 X-3.01544 Y-0.78793
G01 X-3.71960 Y-0.57683
G01 X-4.45099 Y-0.50239
G01 X-24.49998 Y-0.49997
G01 X-25.28034 Y-0.57683
G01 X-25.98450 Y-0.78793
G01 X-26.07506 Y-0.82545
G01 X-26.72225 Y-1.17409
G01 X-27.29205 Y-1.63860
G01 X-27.36134 Y-1.70790
G01 X-27.82585 Y-2.27769
G01 X-28.19550 Y-2.96923
G01 X-28.41120 Y-3.67200
G01 X-28.43032 Y-3.76814
G01 X-28.49758 Y-4.45097
G01 X-28.49999 Y-24.49998
G01 X-28.43032 Y-25.23180
G01 X-28.41120 Y-25.32794
G01 X-28.19550 Y-26.03071
G01 X-27.82585 Y-26.72225
G01 X-27.36134 Y-27.29205
G01 X-27.29205 Y-27.36134
G01 X-26.72225 Y-27.82585
G01 X-26.03071 Y-28.19550
G01 X-25.32794 Y-28.41120
G01 X-25.23180 Y-28.43032
G01 X-24.49998 Y-28.49999
G01 X-4.49999 Y-28.49999
G01 X-3.76814 Y-28.43032
G01 X-3.67200 Y-28.41120
G01 X-3.01544 Y-28.21203
G01 X-2.92489 Y-28.17452
G01 X-2.27769 Y-27.82585
G01 X-1.70790 Y-27.36134
G01 X-1.63860 Y-27.29205
G01 X-1.17409 Y-26.72225
G01 X-0.82545 Y-26.07506
G01 X-0.78793 Y-25.98450
G01 X-0.57683 Y-25.28034
G01 X-0.49997 Y-24.49998

G00 Z15.000000 ( All done -- retract )

M5      (Spindle off.)
G04 P1.000000
M9      (Coolant off.)
M2      (Program end.)

