( pcb2gcode 2.5.0 )
( Software-independent Gcode )

G94 ( Millimeters per minute feed rate. )
G21 ( Units == Millimeters. )

G90 ( Absolute coordinates. )
G00 S13000 ( RPM spindle speed. )
G01 F120.00000 ( Feedrate. )


G00 Z15.00000 (Retract to tool change height)
T0
M5      (Spindle stop.)
G04 P1.00000 (Wait for spindle to stop)
(MSG, Change tool bit to mill diameter 0.45360mm)
M6      (Tool change.)
M0      (Temporary machine stop.)
M3 ( Spindle on clockwise. )
G04 P1.00000 (Wait for spindle to get up to speed)
G04 P0 ( dwell for no time -- G64 should not smooth over this point )
G00 Z2.00000 ( retract )

G00 X-3.12804 Y-4.49999 ( rapid move to begin. )
G01 F60.00000
( Mill infeed pass 1/1 )
G01 Z-0.01000
G04 P0 ( dwell for no time -- G64 should not smooth over this point )
G01 F120.00000
G01 X-3.12804 Y-4.49999
G01 X-3.15801 Y-4.78523
G01 X-3.24663 Y-5.05800
G01 X-3.39006 Y-5.30639
G01 X-3.58198 Y-5.51955
G01 X-3.81401 Y-5.68813
G01 X-4.07604 Y-5.80479
G01 X-4.35658 Y-5.86443
G01 X-4.64340 Y-5.86443
G01 X-4.92394 Y-5.80479
G01 X-5.18597 Y-5.68813
G01 X-5.41800 Y-5.51955
G01 X-5.60992 Y-5.30639
G01 X-5.75333 Y-5.05800
G01 X-5.84195 Y-4.78523
G01 X-5.87195 Y-4.49999
G01 X-5.84195 Y-4.21475
G01 X-5.75333 Y-3.94195
G01 X-5.60992 Y-3.69357
G01 X-5.41800 Y-3.48043
G01 X-5.18597 Y-3.31186
G01 X-4.92394 Y-3.19517
G01 X-4.64340 Y-3.13555
G01 X-4.35658 Y-3.13555
G01 X-4.07604 Y-3.19517
G01 X-3.81401 Y-3.31186
G01 X-3.58198 Y-3.48043
G01 X-3.39006 Y-3.69357
G01 X-3.24663 Y-3.94195
G01 X-3.15801 Y-4.21475
G01 X-3.12804 Y-4.49999
G01 X-3.35605 Y-4.49999
G01 X-3.37983 Y-4.73809
G01 X-3.45379 Y-4.96578
G01 X-3.57350 Y-5.17312
G01 X-3.73370 Y-5.35104
G01 X-3.92740 Y-5.49176
G01 X-4.14609 Y-5.58914
G01 X-4.38028 Y-5.63890
G01 X-4.61970 Y-5.63890
G01 X-4.85386 Y-5.58914
G01 X-5.07258 Y-5.49176
G01 X-5.26628 Y-5.35104
G01 X-5.42646 Y-5.17312
G01 X-5.54617 Y-4.96578
G01 X-5.62016 Y-4.73809
G01 X-5.64518 Y-4.49999
G01 X-5.62016 Y-4.26189
G01 X-5.54617 Y-4.03421
G01 X-5.42646 Y-3.82687
G01 X-5.26628 Y-3.64894
G01 X-5.07258 Y-3.50822
G01 X-4.85386 Y-3.41084
G01 X-4.61970 Y-3.36105
G01 X-4.38028 Y-3.36105
G01 X-4.14609 Y-3.41084
G01 X-3.92740 Y-3.50822
G01 X-3.73370 Y-3.64894
G01 X-3.57350 Y-3.82687
G01 X-3.45379 Y-4.03421
G01 X-3.37983 Y-4.26189
G01 X-3.35605 Y-4.49999
G01 X-3.58404 Y-4.49999
G01 X-3.60284 Y-4.69067
G01 X-3.66210 Y-4.87304
G01 X-3.75796 Y-5.03911
G01 X-3.88628 Y-5.18160
G01 X-4.04139 Y-5.29430
G01 X-4.21655 Y-5.37228
G01 X-4.40411 Y-5.41216
G01 X-4.59585 Y-5.41216
G01 X-4.78340 Y-5.37228
G01 X-4.95859 Y-5.29430
G01 X-5.11371 Y-5.18160
G01 X-5.24200 Y-5.03911
G01 X-5.33789 Y-4.87304
G01 X-5.39712 Y-4.69067
G01 X-5.41718 Y-4.49999
G01 X-5.39712 Y-4.30929
G01 X-5.33789 Y-4.12694
G01 X-5.24200 Y-3.96088
G01 X-5.11371 Y-3.81838
G01 X-4.95859 Y-3.70568
G01 X-4.78340 Y-3.62768
G01 X-4.59585 Y-3.58783
G01 X-4.40411 Y-3.58783
G01 X-4.21655 Y-3.62768
G01 X-4.04139 Y-3.70568
G01 X-3.88628 Y-3.81838
G01 X-3.75796 Y-3.96088
G01 X-3.66210 Y-4.12694
G01 X-3.60284 Y-4.30929
G01 X-3.58404 Y-4.49999
G01 X-3.81206 Y-4.49999
G01 X-3.82587 Y-4.64327
G01 X-3.87040 Y-4.78031
G01 X-3.94244 Y-4.90507
G01 X-4.03883 Y-5.01216
G01 X-4.15539 Y-5.09684
G01 X-4.28701 Y-5.15544
G01 X-4.42796 Y-5.18538
G01 X-4.57203 Y-5.18538
G01 X-4.71294 Y-5.15544
G01 X-4.84457 Y-5.09684
G01 X-4.96113 Y-5.01216
G01 X-5.05755 Y-4.90507
G01 X-5.12958 Y-4.78031
G01 X-5.17411 Y-4.64327
G01 X-5.18917 Y-4.49999
G01 X-5.17411 Y-4.35671
G01 X-5.12958 Y-4.21968
G01 X-5.05755 Y-4.09489
G01 X-4.96113 Y-3.98783
G01 X-4.84457 Y-3.90314
G01 X-4.71294 Y-3.84454
G01 X-4.57203 Y-3.81457
G01 X-4.42796 Y-3.81457
G01 X-4.28701 Y-3.84454
G01 X-4.15539 Y-3.90314
G01 X-4.03883 Y-3.98783
G01 X-3.94244 Y-4.09489
G01 X-3.87040 Y-4.21968
G01 X-3.82587 Y-4.35671
G01 X-3.81206 Y-4.49999
G01 X-4.04007 Y-4.49999
G01 X-4.05011 Y-4.59562
G01 X-4.07982 Y-4.68706
G01 X-4.07520 Y-4.68912
G01 X-4.07982 Y-4.68706
G01 X-4.12791 Y-4.77032
G01 X-4.19224 Y-4.84177
G01 X-4.18884 Y-4.84553
G01 X-4.19224 Y-4.84177
G01 X-4.27002 Y-4.89829
G01 X-4.35785 Y-4.93740
G01 X-4.35686 Y-4.94005
G01 X-4.35785 Y-4.93740
G01 X-4.45191 Y-4.95739
G01 X-4.45176 Y-4.96021
G01 X-4.45191 Y-4.95739
G01 X-4.54807 Y-4.95739
G01 X-4.64210 Y-4.93740
G01 X-4.64368 Y-4.94223
G01 X-4.64210 Y-4.93740
G01 X-4.72996 Y-4.89829
G01 X-4.80774 Y-4.84177
G01 X-4.81112 Y-4.84553
G01 X-4.80774 Y-4.84177
G01 X-4.87208 Y-4.77032
G01 X-4.92016 Y-4.68706
G01 X-4.92267 Y-4.68833
G01 X-4.92016 Y-4.68706
G01 X-4.94985 Y-4.59562
G01 X-4.95264 Y-4.59605
G01 X-4.94985 Y-4.59562
G01 X-4.95991 Y-4.49999
G01 X-4.94985 Y-4.40436
G01 X-4.95483 Y-4.40332
G01 X-4.94985 Y-4.40436
G01 X-4.92016 Y-4.31292
G01 X-4.87208 Y-4.22966
G01 X-4.87617 Y-4.22666
G01 X-4.87208 Y-4.22966
G01 X-4.80774 Y-4.15821
G01 X-4.72996 Y-4.10167
G01 X-4.73248 Y-4.09730
G01 X-4.72996 Y-4.10167
G01 X-4.64210 Y-4.06258
G01 X-4.54807 Y-4.04259
G01 X-4.54858 Y-4.03753
G01 X-4.54807 Y-4.04259
G01 X-4.45191 Y-4.04259
G01 X-4.35785 Y-4.06258
G01 X-4.35630 Y-4.05775
G01 X-4.35785 Y-4.06258
G01 X-4.27002 Y-4.10167
G01 X-4.19224 Y-4.15821
G01 X-4.18884 Y-4.15442
G01 X-4.19224 Y-4.15821
G01 X-4.12791 Y-4.22966
G01 X-4.07982 Y-4.31292
G01 X-4.07520 Y-4.31086
G01 X-4.07982 Y-4.31292
G01 X-4.05011 Y-4.40436
G01 X-4.04007 Y-4.49999
G01 X-4.26806 Y-4.49999
G01 X-4.27314 Y-4.54820
G01 X-4.26524 Y-4.54944
G01 X-4.27314 Y-4.54820
G01 X-4.28813 Y-4.59433
G01 X-4.31236 Y-4.63631
G01 X-4.30827 Y-4.63928
G01 X-4.31236 Y-4.63631
G01 X-4.34480 Y-4.67233
G01 X-4.38404 Y-4.70083
G01 X-4.38150 Y-4.70522
G01 X-4.38404 Y-4.70083
G01 X-4.42831 Y-4.72056
G01 X-4.47573 Y-4.73062
G01 X-4.47523 Y-4.73568
G01 X-4.47573 Y-4.73062
G01 X-4.52422 Y-4.73062
G01 X-4.57164 Y-4.72056
G01 X-4.57322 Y-4.72537
G01 X-4.57164 Y-4.72056
G01 X-4.61594 Y-4.70083
G01 X-4.65516 Y-4.67233
G01 X-4.65856 Y-4.67609
G01 X-4.65516 Y-4.67233
G01 X-4.68762 Y-4.63631
G01 X-4.71185 Y-4.59433
G01 X-4.71648 Y-4.59638
G01 X-4.71185 Y-4.59433
G01 X-4.72684 Y-4.54820
G01 X-4.73192 Y-4.49999
G01 X-4.73697 Y-4.49999
G01 X-4.73192 Y-4.49999
G01 X-4.72684 Y-4.45176
G01 X-4.71185 Y-4.40566
G01 X-4.71899 Y-4.40202
G01 X-4.71185 Y-4.40566
G01 X-4.68762 Y-4.36367
G01 X-4.65516 Y-4.32763
G01 X-4.61594 Y-4.29913
G01 X-4.62031 Y-4.29242
G01 X-4.61594 Y-4.29913
G01 X-4.57164 Y-4.27942
G01 X-4.52422 Y-4.26933
G01 X-4.52476 Y-4.26430
G01 X-4.52422 Y-4.26933
G01 X-4.47573 Y-4.26933
G01 X-4.42831 Y-4.27942
G01 X-4.42676 Y-4.27459
G01 X-4.42831 Y-4.27942
G01 X-4.38404 Y-4.29913
G01 X-4.34480 Y-4.32763
G01 X-4.34142 Y-4.32387
G01 X-4.34480 Y-4.32763
G01 X-4.31236 Y-4.36367
G01 X-4.28813 Y-4.40566
G01 X-4.28066 Y-4.40279
G01 X-4.28813 Y-4.40566
G01 X-4.27314 Y-4.45176
G01 X-4.26806 Y-4.49999
G01 X-4.49608 Y-4.49999
G01 X-4.49958 Y-4.49610
G01 X-4.50390 Y-4.49999
G01 X-4.50040 Y-4.50388
G01 X-4.49608 Y-4.49999
G04 P0 ( dwell for no time -- G64 should not smooth over this point )
G00 Z2.00000 ( retract )

G00 X-9.23955 Y-9.40473 ( rapid move to begin. )
G01 F60.00000
( Mill infeed pass 1/1 )
G01 Z-0.01000
G04 P0 ( dwell for no time -- G64 should not smooth over this point )
G01 F120.00000
G01 X-9.23955 Y-9.40473
G01 X-9.23955 Y-9.22025
G01 X-9.17303 Y-9.15360
G01 X-9.23955 Y-9.22025
G01 X-9.92541 Y-9.22129
G01 X-9.99170 Y-9.15510
G01 X-9.92541 Y-9.22129
G01 X-9.92541 Y-9.40369
G01 X-9.99170 Y-9.46988
G01 X-9.92541 Y-9.40369
G01 X-9.23955 Y-9.40473
G01 X-9.01281 Y-9.63183
G01 X-10.15218 Y-9.63011
G01 X-10.21847 Y-9.69630
G01 X-10.15218 Y-9.63011
G01 X-10.15218 Y-8.99488
G01 X-10.21847 Y-8.92868
G01 X-10.15218 Y-8.99488
G01 X-9.01281 Y-8.99315
G01 X-8.94626 Y-8.92650
G01 X-9.01281 Y-8.99315
G01 X-9.01281 Y-9.63183
G01 X-8.72226 Y-9.92307
G01 X-8.78837 Y-9.85680
G01 X-10.37664 Y-9.85652
G01 X-10.44303 Y-9.92292
G01 X-10.37664 Y-9.85652
G01 X-10.37664 Y-8.76846
G01 X-10.44293 Y-8.70227
G01 X-10.37664 Y-8.76846
G01 X-8.79831 Y-8.76607
G01 X-8.77768 Y-8.73242
G01 X-8.79831 Y-8.76607
G01 X-8.78837 Y-8.76818
G01 X-8.78604 Y-8.79025
G01 X-8.77976 Y-8.78876
G01 X-8.78604 Y-8.79025
G01 X-8.78835 Y-9.85680
G01 X-8.72226 Y-9.92307
G01 X-8.55929 Y-9.84659
G01 X-8.55929 Y-8.77837
G01 X-8.56546 Y-8.71952
G01 X-8.58007 Y-8.67458
G01 X-8.60369 Y-8.63369
G01 X-8.63529 Y-8.59859
G01 X-8.67352 Y-8.57080
G01 X-8.71667 Y-8.55160
G01 X-8.76872 Y-8.54052
G01 X-8.79226 Y-8.53930
G01 X-10.40193 Y-8.54174
G01 X-10.44832 Y-8.55160
G01 X-10.49147 Y-8.57080
G01 X-10.52967 Y-8.59859
G01 X-10.56129 Y-8.63369
G01 X-10.58489 Y-8.67458
G01 X-10.59950 Y-8.71952
G01 X-10.60569 Y-8.77837
G01 X-10.60569 Y-9.84659
G01 X-10.59950 Y-9.90547
G01 X-10.58489 Y-9.95040
G01 X-10.56129 Y-9.99129
G01 X-10.52967 Y-10.02640
G01 X-10.49147 Y-10.05416
G01 X-10.44832 Y-10.07339
G01 X-10.40193 Y-10.08324
G01 X-8.76872 Y-10.08443
G01 X-8.71667 Y-10.07339
G01 X-8.67352 Y-10.05416
G01 X-8.63529 Y-10.02640
G01 X-8.60369 Y-9.99129
G01 X-8.58007 Y-9.95040
G01 X-8.56546 Y-9.90547
G01 X-8.55929 Y-9.84659
G01 X-8.72226 Y-9.92307
G01 X-8.78835 Y-9.85680
G04 P0 ( dwell for no time -- G64 should not smooth over this point )
G00 Z2.00000 ( retract )

G00 X-8.79152 Y-11.90935 ( rapid move to begin. )
G01 F60.00000
( Mill infeed pass 1/1 )
G01 Z-0.01000
G04 P0 ( dwell for no time -- G64 should not smooth over this point )
G01 F120.00000
G01 X-8.79152 Y-11.90935
G01 X-8.81398 Y-12.02096
G01 X-8.86033 Y-12.12510
G01 X-8.92734 Y-12.21730
G01 X-9.01202 Y-12.29355
G01 X-9.11073 Y-12.35055
G01 X-9.21913 Y-12.38578
G01 X-9.35624 Y-12.39924
G01 X-9.80874 Y-12.39924
G01 X-9.94583 Y-12.38578
G01 X-10.05423 Y-12.35055
G01 X-10.15294 Y-12.29355
G01 X-10.23765 Y-12.21730
G01 X-10.30463 Y-12.12510
G01 X-10.35101 Y-12.02096
G01 X-10.37471 Y-11.90948
G01 X-10.37471 Y-11.79551
G01 X-10.35101 Y-11.68403
G01 X-10.30463 Y-11.57989
G01 X-10.23765 Y-11.48768
G01 X-10.15294 Y-11.41141
G01 X-10.05423 Y-11.35443
G01 X-9.94583 Y-11.31921
G01 X-9.80874 Y-11.30574
G01 X-9.35624 Y-11.30574
G01 X-9.21913 Y-11.31921
G01 X-9.11073 Y-11.35443
G01 X-9.01202 Y-11.41141
G01 X-8.92734 Y-11.48768
G01 X-8.86033 Y-11.57989
G01 X-8.81398 Y-11.68403
G01 X-8.79028 Y-11.79551
G01 X-8.79152 Y-11.90935
G01 X-8.56475 Y-11.93317
G01 X-8.59831 Y-12.09103
G01 X-8.66397 Y-12.23846
G01 X-8.75881 Y-12.36901
G01 X-8.87875 Y-12.47701
G01 X-9.01850 Y-12.55771
G01 X-9.17199 Y-12.60757
G01 X-9.34438 Y-12.62568
G01 X-9.82061 Y-12.62568
G01 X-9.99300 Y-12.60757
G01 X-10.14646 Y-12.55771
G01 X-10.28624 Y-12.47701
G01 X-10.40615 Y-12.36901
G01 X-10.50102 Y-12.23846
G01 X-10.56665 Y-12.09103
G01 X-10.60021 Y-11.93317
G01 X-10.60021 Y-11.77181
G01 X-10.56665 Y-11.61395
G01 X-10.50102 Y-11.46650
G01 X-10.40615 Y-11.33594
G01 X-10.28624 Y-11.22797
G01 X-10.14646 Y-11.14727
G01 X-9.99300 Y-11.09741
G01 X-9.82061 Y-11.07928
G01 X-9.34438 Y-11.07928
G01 X-9.17199 Y-11.09741
G01 X-9.01850 Y-11.14727
G01 X-8.87875 Y-11.22797
G01 X-8.75881 Y-11.33594
G01 X-8.66397 Y-11.46650
G01 X-8.59831 Y-11.61395
G01 X-8.56475 Y-11.77181
G01 X-8.56475 Y-11.93317
G01 X-9.01827 Y-11.88552
G01 X-9.01827 Y-11.81946
G01 X-9.03201 Y-11.75487
G01 X-9.02719 Y-11.75329
G01 X-9.03201 Y-11.75487
G01 X-9.05888 Y-11.69452
G01 X-9.09770 Y-11.64107
G01 X-9.09394 Y-11.63770
G01 X-9.09770 Y-11.64107
G01 X-9.14679 Y-11.59688
G01 X-9.20399 Y-11.56386
G01 X-9.20176 Y-11.55870
G01 X-9.20399 Y-11.56386
G01 X-9.26681 Y-11.54346
G01 X-9.36803 Y-11.53157
G01 X-9.79683 Y-11.53279
G01 X-9.89858 Y-11.54102
G01 X-9.96099 Y-11.56386
G01 X-9.96229 Y-11.56134
G01 X-9.96099 Y-11.56386
G01 X-10.01819 Y-11.59688
G01 X-10.06726 Y-11.64107
G01 X-10.07105 Y-11.63770
G01 X-10.06726 Y-11.64107
G01 X-10.10610 Y-11.69452
G01 X-10.13297 Y-11.75487
G01 X-10.13559 Y-11.75385
G01 X-10.13297 Y-11.75487
G01 X-10.14669 Y-11.81946
G01 X-10.14951 Y-11.81931
G01 X-10.14669 Y-11.81946
G01 X-10.14669 Y-11.88552
G01 X-10.13297 Y-11.95012
G01 X-10.13569 Y-11.95085
G01 X-10.13297 Y-11.95012
G01 X-10.10610 Y-12.01047
G01 X-10.10846 Y-12.01199
G01 X-10.10610 Y-12.01047
G01 X-10.06726 Y-12.06388
G01 X-10.01819 Y-12.10808
G01 X-10.01997 Y-12.11029
G01 X-10.01819 Y-12.10808
G01 X-9.96099 Y-12.14110
G01 X-9.96213 Y-12.14415
G01 X-9.96099 Y-12.14110
G01 X-9.89818 Y-12.16152
G01 X-9.79693 Y-12.17338
G01 X-9.36813 Y-12.17216
G01 X-9.26681 Y-12.16152
G01 X-9.26579 Y-12.16599
G01 X-9.26681 Y-12.16152
G01 X-9.20399 Y-12.14110
G01 X-9.14679 Y-12.10808
G01 X-9.14380 Y-12.11219
G01 X-9.14679 Y-12.10808
G01 X-9.09770 Y-12.06388
G01 X-9.05888 Y-12.01047
G01 X-9.05449 Y-12.01298
G01 X-9.05888 Y-12.01047
G01 X-9.03201 Y-11.95012
G01 X-9.01827 Y-11.88552
G01 X-9.01324 Y-11.88603
G01 X-9.23343 Y-11.84206
G01 X-9.24504 Y-11.84328
G01 X-9.24885 Y-11.82533
G01 X-9.26714 Y-11.79365
G01 X-9.25848 Y-11.78583
G01 X-9.26714 Y-11.79365
G01 X-9.28080 Y-11.78136
G01 X-9.31421 Y-11.76647
G01 X-9.31212 Y-11.75875
G01 X-9.31421 Y-11.76647
G01 X-9.38002 Y-11.75957
G01 X-9.78494 Y-11.75957
G01 X-9.85078 Y-11.76647
G01 X-9.85284 Y-11.75875
G01 X-9.85078 Y-11.76647
G01 X-9.88418 Y-11.78136
G01 X-9.89782 Y-11.79365
G01 X-9.90651 Y-11.78583
G01 X-9.89782 Y-11.79365
G01 X-9.90864 Y-11.80851
G01 X-9.91994 Y-11.84328
G01 X-9.93155 Y-11.84206
G01 X-9.91994 Y-11.84328
G01 X-9.91994 Y-11.86167
G01 X-9.90864 Y-11.89645
G01 X-9.91875 Y-11.90229
G01 X-9.90864 Y-11.89645
G01 X-9.88418 Y-11.92362
G01 X-9.86826 Y-11.93282
G01 X-9.87252 Y-11.94184
G01 X-9.86826 Y-11.93282
G01 X-9.85078 Y-11.93851
G01 X-9.78499 Y-11.94618
G01 X-9.38002 Y-11.94542
G01 X-9.31421 Y-11.93851
G01 X-9.31070 Y-11.94902
G01 X-9.31421 Y-11.93851
G01 X-9.28080 Y-11.92362
G01 X-9.25634 Y-11.89645
G01 X-9.24281 Y-11.90523
G01 X-9.25634 Y-11.89645
G01 X-9.24885 Y-11.87966
G01 X-9.24504 Y-11.84328
G04 P0 ( dwell for no time -- G64 should not smooth over this point )
G00 Z2.00000 ( retract )

G00 X-12.75179 Y-11.65060 ( rapid move to begin. )
G01 F60.00000
( Mill infeed pass 1/1 )
G01 Z-0.01000
G04 P0 ( dwell for no time -- G64 should not smooth over this point )
G01 F120.00000
G01 X-12.75179 Y-11.65060
G01 X-12.75179 Y-11.17437
G01 X-12.75385 Y-11.15865
G01 X-12.75956 Y-11.15350
G01 X-13.23185 Y-11.15179
G01 X-13.24381 Y-11.15545
G01 X-13.24818 Y-11.17437
G01 X-13.24818 Y-11.65060
G01 X-13.24381 Y-11.66952
G01 X-13.23185 Y-11.67318
G01 X-12.76180 Y-11.67196
G01 X-12.75385 Y-11.66632
G01 X-12.75179 Y-11.65060
G01 X-12.91234 Y-11.51179
G01 X-12.97854 Y-11.44575
G01 X-13.02144 Y-11.44587
G01 X-12.97854 Y-11.44575
G01 X-12.97854 Y-11.37923
G01 X-12.91234 Y-11.31319
G01 X-12.97854 Y-11.37923
G01 X-13.02144 Y-11.37910
G01 X-13.08806 Y-11.31232
G01 X-13.02144 Y-11.37910
G01 X-12.97854 Y-11.37923
G01 X-13.02144 Y-11.37910
G01 X-13.02144 Y-11.44587
G01 X-13.08806 Y-11.51265
G04 P0 ( dwell for no time -- G64 should not smooth over this point )
G00 Z2.00000 ( retract )

G00 X-12.75179 Y-9.82561 ( rapid move to begin. )
G01 F60.00000
( Mill infeed pass 1/1 )
G01 Z-0.01000
G04 P0 ( dwell for no time -- G64 should not smooth over this point )
G01 F120.00000
G01 X-12.75179 Y-9.82561
G01 X-12.75179 Y-9.34938
G01 X-12.75385 Y-9.33364
G01 X-12.75956 Y-9.32851
G01 X-13.23185 Y-9.32680
G01 X-13.24381 Y-9.33046
G01 X-13.24818 Y-9.34938
G01 X-13.24818 Y-9.82561
G01 X-13.24381 Y-9.84451
G01 X-13.23185 Y-9.84816
G01 X-12.76180 Y-9.84694
G01 X-12.75385 Y-9.84133
G01 X-12.75179 Y-9.82561
G01 X-12.91234 Y-9.68680
G01 X-12.97854 Y-9.62076
G01 X-13.02144 Y-9.62086
G01 X-12.97854 Y-9.62076
G01 X-12.97854 Y-9.55421
G01 X-13.02144 Y-9.55411
G01 X-12.97854 Y-9.55421
G01 X-12.91234 Y-9.48820
G01 X-12.97854 Y-9.55421
G01 X-13.02144 Y-9.55411
G01 X-13.08806 Y-9.48731
G01 X-13.02144 Y-9.55411
G01 X-13.02144 Y-9.62086
G01 X-13.08806 Y-9.68766
G04 P0 ( dwell for no time -- G64 should not smooth over this point )
G00 Z2.00000 ( retract )

G00 X-15.25179 Y-9.82561 ( rapid move to begin. )
G01 F60.00000
( Mill infeed pass 1/1 )
G01 Z-0.01000
G04 P0 ( dwell for no time -- G64 should not smooth over this point )
G01 F120.00000
G01 X-15.25179 Y-9.82561
G01 X-15.25179 Y-9.34938
G01 X-15.25384 Y-9.33364
G01 X-15.25956 Y-9.32851
G01 X-15.74381 Y-9.33046
G01 X-15.74818 Y-9.34938
G01 X-15.74818 Y-9.82561
G01 X-15.74381 Y-9.84451
G01 X-15.26814 Y-9.84816
G01 X-15.25384 Y-9.84133
G01 X-15.25179 Y-9.82561
G01 X-15.41193 Y-9.68766
G01 X-15.47856 Y-9.62086
G01 X-15.52143 Y-9.62076
G01 X-15.47856 Y-9.62086
G01 X-15.47856 Y-9.55411
G01 X-15.41193 Y-9.48731
G01 X-15.47856 Y-9.55411
G01 X-15.52143 Y-9.55421
G01 X-15.58765 Y-9.48820
G01 X-15.52143 Y-9.55421
G01 X-15.47856 Y-9.55411
G01 X-15.52143 Y-9.55421
G01 X-15.52143 Y-9.62076
G01 X-15.58765 Y-9.68680
G04 P0 ( dwell for no time -- G64 should not smooth over this point )
G00 Z2.00000 ( retract )

G00 X-23.12805 Y-4.49999 ( rapid move to begin. )
G01 F60.00000
( Mill infeed pass 1/1 )
G01 Z-0.01000
G04 P0 ( dwell for no time -- G64 should not smooth over this point )
G01 F120.00000
G01 X-23.12805 Y-4.49999
G01 X-23.15802 Y-4.78523
G01 X-23.24664 Y-5.05800
G01 X-23.39005 Y-5.30639
G01 X-23.58197 Y-5.51955
G01 X-23.81402 Y-5.68813
G01 X-24.07602 Y-5.80479
G01 X-24.35657 Y-5.86443
G01 X-24.64338 Y-5.86443
G01 X-24.92395 Y-5.80479
G01 X-25.18595 Y-5.68813
G01 X-25.41801 Y-5.51955
G01 X-25.60993 Y-5.30639
G01 X-25.75331 Y-5.05800
G01 X-25.84196 Y-4.78523
G01 X-25.87193 Y-4.49999
G01 X-25.84196 Y-4.21475
G01 X-25.75331 Y-3.94195
G01 X-25.60993 Y-3.69357
G01 X-25.41801 Y-3.48043
G01 X-25.18595 Y-3.31186
G01 X-24.92395 Y-3.19517
G01 X-24.64338 Y-3.13555
G01 X-24.35657 Y-3.13555
G01 X-24.07602 Y-3.19517
G01 X-23.81402 Y-3.31186
G01 X-23.58197 Y-3.48043
G01 X-23.39005 Y-3.69357
G01 X-23.24664 Y-3.94195
G01 X-23.15802 Y-4.21475
G01 X-23.12805 Y-4.49999
G01 X-23.35604 Y-4.49999
G01 X-23.37981 Y-4.73809
G01 X-23.45380 Y-4.96578
G01 X-23.57351 Y-5.17312
G01 X-23.73371 Y-5.35104
G01 X-23.92738 Y-5.49176
G01 X-24.14610 Y-5.58914
G01 X-24.38029 Y-5.63890
G01 X-24.61969 Y-5.63890
G01 X-24.85387 Y-5.58914
G01 X-25.07259 Y-5.49176
G01 X-25.26627 Y-5.35104
G01 X-25.42647 Y-5.17312
G01 X-25.54618 Y-4.96578
G01 X-25.62014 Y-4.73809
G01 X-25.64516 Y-4.49999
G01 X-25.62014 Y-4.26189
G01 X-25.54618 Y-4.03421
G01 X-25.42647 Y-3.82687
G01 X-25.26627 Y-3.64894
G01 X-25.07259 Y-3.50822
G01 X-24.85387 Y-3.41084
G01 X-24.61969 Y-3.36105
G01 X-24.38029 Y-3.36105
G01 X-24.14610 Y-3.41084
G01 X-23.92738 Y-3.50822
G01 X-23.73371 Y-3.64894
G01 X-23.57351 Y-3.82687
G01 X-23.45380 Y-4.03421
G01 X-23.37981 Y-4.26189
G01 X-23.35604 Y-4.49999
G01 X-23.58405 Y-4.49999
G01 X-23.60285 Y-4.69067
G01 X-23.66211 Y-4.87304
G01 X-23.75797 Y-5.03911
G01 X-23.88626 Y-5.18160
G01 X-24.04140 Y-5.29430
G01 X-24.21656 Y-5.37228
G01 X-24.40412 Y-5.41216
G01 X-24.59586 Y-5.41216
G01 X-24.78341 Y-5.37228
G01 X-24.95857 Y-5.29430
G01 X-25.11372 Y-5.18160
G01 X-25.24201 Y-5.03911
G01 X-25.33787 Y-4.87304
G01 X-25.39713 Y-4.69067
G01 X-25.41714 Y-4.49999
G01 X-25.39713 Y-4.30929
G01 X-25.33787 Y-4.12694
G01 X-25.24201 Y-3.96088
G01 X-25.11372 Y-3.81838
G01 X-24.95857 Y-3.70568
G01 X-24.78341 Y-3.62768
G01 X-24.59586 Y-3.58783
G01 X-24.40412 Y-3.58783
G01 X-24.21656 Y-3.62768
G01 X-24.04140 Y-3.70568
G01 X-23.88626 Y-3.81838
G01 X-23.75797 Y-3.96088
G01 X-23.66211 Y-4.12694
G01 X-23.60285 Y-4.30929
G01 X-23.58405 Y-4.49999
G01 X-23.81207 Y-4.49999
G01 X-23.82586 Y-4.64327
G01 X-23.87039 Y-4.78031
G01 X-23.94242 Y-4.90507
G01 X-24.03884 Y-5.01216
G01 X-24.15540 Y-5.09684
G01 X-24.28702 Y-5.15544
G01 X-24.42794 Y-5.18538
G01 X-24.57204 Y-5.18538
G01 X-24.71296 Y-5.15544
G01 X-24.84458 Y-5.09684
G01 X-24.96114 Y-5.01216
G01 X-25.05756 Y-4.90507
G01 X-25.12959 Y-4.78031
G01 X-25.17412 Y-4.64327
G01 X-25.18918 Y-4.49999
G01 X-25.17412 Y-4.35671
G01 X-25.12959 Y-4.21968
G01 X-25.05756 Y-4.09489
G01 X-24.96114 Y-3.98783
G01 X-24.84458 Y-3.90314
G01 X-24.71296 Y-3.84454
G01 X-24.57204 Y-3.81457
G01 X-24.42794 Y-3.81457
G01 X-24.28702 Y-3.84454
G01 X-24.15540 Y-3.90314
G01 X-24.03884 Y-3.98783
G01 X-23.94242 Y-4.09489
G01 X-23.87039 Y-4.21968
G01 X-23.82586 Y-4.35671
G01 X-23.81207 Y-4.49999
G01 X-24.04006 Y-4.49999
G01 X-24.05012 Y-4.59562
G01 X-24.07983 Y-4.68706
G01 X-24.07519 Y-4.68912
G01 X-24.07983 Y-4.68706
G01 X-24.12789 Y-4.77032
G01 X-24.19223 Y-4.84177
G01 X-24.18885 Y-4.84553
G01 X-24.19223 Y-4.84177
G01 X-24.27003 Y-4.89829
G01 X-24.35786 Y-4.93740
G01 X-24.35629 Y-4.94223
G01 X-24.35786 Y-4.93740
G01 X-24.45192 Y-4.95739
G01 X-24.54806 Y-4.95739
G01 X-24.54859 Y-4.96242
G01 X-24.54806 Y-4.95739
G01 X-24.64211 Y-4.93740
G01 X-24.72995 Y-4.89829
G01 X-24.73249 Y-4.90268
G01 X-24.72995 Y-4.89829
G01 X-24.80775 Y-4.84177
G01 X-24.87209 Y-4.77032
G01 X-24.87618 Y-4.77330
G01 X-24.87209 Y-4.77032
G01 X-24.92014 Y-4.68706
G01 X-24.94986 Y-4.59562
G01 X-24.95481 Y-4.59666
G01 X-24.94986 Y-4.59562
G01 X-24.95992 Y-4.49999
G01 X-24.94986 Y-4.40436
G01 X-24.95266 Y-4.40393
G01 X-24.94986 Y-4.40436
G01 X-24.92014 Y-4.31292
G01 X-24.92266 Y-4.31162
G01 X-24.92014 Y-4.31292
G01 X-24.87209 Y-4.22966
G01 X-24.80775 Y-4.15821
G01 X-24.81113 Y-4.15442
G01 X-24.80775 Y-4.15821
G01 X-24.72995 Y-4.10167
G01 X-24.64211 Y-4.06258
G01 X-24.64369 Y-4.05775
G01 X-24.64211 Y-4.06258
G01 X-24.54806 Y-4.04259
G01 X-24.45192 Y-4.04259
G01 X-24.45139 Y-4.03753
G01 X-24.45192 Y-4.04259
G01 X-24.35786 Y-4.06258
G01 X-24.27003 Y-4.10167
G01 X-24.26749 Y-4.09730
G01 X-24.27003 Y-4.10167
G01 X-24.19223 Y-4.15821
G01 X-24.12789 Y-4.22966
G01 X-24.12571 Y-4.22788
G01 X-24.12789 Y-4.22966
G01 X-24.07983 Y-4.31292
G01 X-24.07719 Y-4.31190
G01 X-24.07983 Y-4.31292
G01 X-24.05012 Y-4.40436
G01 X-24.04006 Y-4.49999
G01 X-24.26807 Y-4.49999
G01 X-24.27313 Y-4.54820
G01 X-24.28811 Y-4.59433
G01 X-24.28100 Y-4.59796
G01 X-24.28811 Y-4.59433
G01 X-24.31237 Y-4.63631
G01 X-24.34481 Y-4.67233
G01 X-24.38403 Y-4.70083
G01 X-24.37968 Y-4.70753
G01 X-24.38403 Y-4.70083
G01 X-24.42832 Y-4.72056
G01 X-24.47574 Y-4.73062
G01 X-24.47521 Y-4.73568
G01 X-24.47574 Y-4.73062
G01 X-24.52423 Y-4.73062
G01 X-24.57166 Y-4.72056
G01 X-24.57323 Y-4.72537
G01 X-24.57166 Y-4.72056
G01 X-24.61595 Y-4.70083
G01 X-24.65517 Y-4.67233
G01 X-24.65855 Y-4.67609
G01 X-24.65517 Y-4.67233
G01 X-24.68761 Y-4.63631
G01 X-24.71186 Y-4.59433
G01 X-24.71649 Y-4.59638
G01 X-24.71186 Y-4.59433
G01 X-24.72685 Y-4.54820
G01 X-24.73190 Y-4.49999
G01 X-24.73698 Y-4.49999
G01 X-24.73190 Y-4.49999
G01 X-24.72685 Y-4.45176
G01 X-24.71186 Y-4.40566
G01 X-24.71898 Y-4.40202
G01 X-24.71186 Y-4.40566
G01 X-24.68761 Y-4.36367
G01 X-24.65517 Y-4.32763
G01 X-24.61595 Y-4.29913
G01 X-24.62030 Y-4.29242
G01 X-24.61595 Y-4.29913
G01 X-24.57166 Y-4.27942
G01 X-24.52423 Y-4.26933
G01 X-24.52477 Y-4.26430
G01 X-24.52423 Y-4.26933
G01 X-24.47574 Y-4.26933
G01 X-24.42832 Y-4.27942
G01 X-24.42675 Y-4.27459
G01 X-24.42832 Y-4.27942
G01 X-24.38403 Y-4.29913
G01 X-24.34481 Y-4.32763
G01 X-24.34140 Y-4.32387
G01 X-24.34481 Y-4.32763
G01 X-24.31237 Y-4.36367
G01 X-24.28811 Y-4.40566
G01 X-24.28349 Y-4.40360
G01 X-24.28811 Y-4.40566
G01 X-24.27313 Y-4.45176
G01 X-24.26807 Y-4.49999
G01 X-24.49606 Y-4.49999
G01 X-24.49957 Y-4.49610
G01 X-24.50389 Y-4.49999
G01 X-24.50041 Y-4.50388
G01 X-24.49606 Y-4.49999
G04 P0 ( dwell for no time -- G64 should not smooth over this point )
G00 Z2.00000 ( retract )

G00 X-19.24505 Y-9.30328 ( rapid move to begin. )
G01 F60.00000
( Mill infeed pass 1/1 )
G01 Z-0.01000
G04 P0 ( dwell for no time -- G64 should not smooth over this point )
G01 F120.00000
G01 X-19.24505 Y-9.30328
G01 X-19.25632 Y-9.26851
G01 X-19.26714 Y-9.25365
G01 X-19.25846 Y-9.24583
G01 X-19.26714 Y-9.25365
G01 X-19.29671 Y-9.23216
G01 X-19.31421 Y-9.22647
G01 X-19.31264 Y-9.22165
G01 X-19.31421 Y-9.22647
G01 X-19.38000 Y-9.21926
G01 X-19.78510 Y-9.21824
G01 X-19.85076 Y-9.22647
G01 X-19.88416 Y-9.24136
G01 X-19.89282 Y-9.22810
G01 X-19.88416 Y-9.24136
G01 X-19.90865 Y-9.26851
G01 X-19.91611 Y-9.28533
G01 X-19.92358 Y-9.28246
G01 X-19.91611 Y-9.28533
G01 X-19.91992 Y-9.32167
G01 X-19.92785 Y-9.32292
G01 X-19.91992 Y-9.32167
G01 X-19.90865 Y-9.35645
G01 X-19.89783 Y-9.37133
G01 X-19.90651 Y-9.37913
G01 X-19.89783 Y-9.37133
G01 X-19.86826 Y-9.39282
G01 X-19.85076 Y-9.39851
G01 X-19.85277 Y-9.40577
G01 X-19.85076 Y-9.39851
G01 X-19.78495 Y-9.40542
G01 X-19.38000 Y-9.40582
G01 X-19.31421 Y-9.39851
G01 X-19.31264 Y-9.40331
G01 X-19.31421 Y-9.39851
G01 X-19.29671 Y-9.39282
G01 X-19.26714 Y-9.37133
G01 X-19.25460 Y-9.38149
G01 X-19.26714 Y-9.37133
G01 X-19.24886 Y-9.33966
G01 X-19.24505 Y-9.30328
G01 X-19.22892 Y-9.30245
G01 X-19.01325 Y-9.34603
G01 X-19.01828 Y-9.34552
G01 X-19.03202 Y-9.41012
G01 X-19.05886 Y-9.47047
G01 X-19.05635 Y-9.47174
G01 X-19.05886 Y-9.47047
G01 X-19.09770 Y-9.52388
G01 X-19.09569 Y-9.52589
G01 X-19.09770 Y-9.52388
G01 X-19.14677 Y-9.56808
G01 X-19.20397 Y-9.60110
G01 X-19.20174 Y-9.60628
G01 X-19.20397 Y-9.60110
G01 X-19.26679 Y-9.62152
G01 X-19.36803 Y-9.63338
G01 X-19.79684 Y-9.63216
G01 X-19.89818 Y-9.62152
G01 X-19.89917 Y-9.62599
G01 X-19.89818 Y-9.62152
G01 X-19.96100 Y-9.60110
G01 X-20.01820 Y-9.56808
G01 X-20.01972 Y-9.57047
G01 X-20.01820 Y-9.56808
G01 X-20.06727 Y-9.52388
G01 X-20.06948 Y-9.52566
G01 X-20.06727 Y-9.52388
G01 X-20.10611 Y-9.47047
G01 X-20.13295 Y-9.41012
G01 X-20.13560 Y-9.41113
G01 X-20.13295 Y-9.41012
G01 X-20.14670 Y-9.34552
G01 X-20.14952 Y-9.34565
G01 X-20.14670 Y-9.34552
G01 X-20.14670 Y-9.27946
G01 X-20.13295 Y-9.21487
G01 X-20.13778 Y-9.21329
G01 X-20.13295 Y-9.21487
G01 X-20.10611 Y-9.15452
G01 X-20.06727 Y-9.10107
G01 X-20.07103 Y-9.09770
G01 X-20.06727 Y-9.10107
G01 X-20.01820 Y-9.05688
G01 X-19.96100 Y-9.02386
G01 X-19.96323 Y-9.01870
G01 X-19.96100 Y-9.02386
G01 X-19.89818 Y-9.00346
G01 X-19.79694 Y-8.99180
G01 X-19.36813 Y-8.99249
G01 X-19.26679 Y-9.00346
G01 X-19.26608 Y-9.00072
G01 X-19.26679 Y-9.00346
G01 X-19.20397 Y-9.02386
G01 X-19.14677 Y-9.05688
G01 X-19.14380 Y-9.05279
G01 X-19.14677 Y-9.05688
G01 X-19.09770 Y-9.10107
G01 X-19.05886 Y-9.15452
G01 X-19.05650 Y-9.15297
G01 X-19.05886 Y-9.15452
G01 X-19.03202 Y-9.21487
G01 X-19.02927 Y-9.21413
G01 X-19.03202 Y-9.21487
G01 X-19.01828 Y-9.27946
G01 X-19.01828 Y-9.34552
G01 X-18.56476 Y-9.39317
G01 X-18.56476 Y-9.23181
G01 X-18.59831 Y-9.07395
G01 X-18.66397 Y-8.92650
G01 X-18.75881 Y-8.79594
G01 X-18.87875 Y-8.68797
G01 X-19.01850 Y-8.60727
G01 X-19.17200 Y-8.55741
G01 X-19.34439 Y-8.53928
G01 X-19.82061 Y-8.53928
G01 X-19.99297 Y-8.55741
G01 X-20.14647 Y-8.60727
G01 X-20.28622 Y-8.68797
G01 X-20.40616 Y-8.79594
G01 X-20.50103 Y-8.92650
G01 X-20.56666 Y-9.07395
G01 X-20.60021 Y-9.23181
G01 X-20.60021 Y-9.39317
G01 X-20.56666 Y-9.55103
G01 X-20.50103 Y-9.69846
G01 X-20.40616 Y-9.82901
G01 X-20.28622 Y-9.93701
G01 X-20.14647 Y-10.01771
G01 X-19.99297 Y-10.06757
G01 X-19.82061 Y-10.08568
G01 X-19.34439 Y-10.08568
G01 X-19.17200 Y-10.06757
G01 X-19.01850 Y-10.01771
G01 X-18.87875 Y-9.93701
G01 X-18.75881 Y-9.82901
G01 X-18.66397 Y-9.69846
G01 X-18.59831 Y-9.55103
G01 X-18.56476 Y-9.39317
G01 X-18.79153 Y-9.36935
G01 X-18.79028 Y-9.25551
G01 X-18.81398 Y-9.14403
G01 X-18.86034 Y-9.03989
G01 X-18.92732 Y-8.94768
G01 X-19.01203 Y-8.87141
G01 X-19.11073 Y-8.81443
G01 X-19.21914 Y-8.77921
G01 X-19.35625 Y-8.76574
G01 X-19.80872 Y-8.76574
G01 X-19.94583 Y-8.77921
G01 X-20.05424 Y-8.81443
G01 X-20.15294 Y-8.87141
G01 X-20.23765 Y-8.94768
G01 X-20.30463 Y-9.03989
G01 X-20.35099 Y-9.14403
G01 X-20.37469 Y-9.25551
G01 X-20.37469 Y-9.36948
G01 X-20.35099 Y-9.48096
G01 X-20.30463 Y-9.58510
G01 X-20.23765 Y-9.67730
G01 X-20.15294 Y-9.75355
G01 X-20.05424 Y-9.81055
G01 X-19.94583 Y-9.84578
G01 X-19.80872 Y-9.85924
G01 X-19.35625 Y-9.85924
G01 X-19.21914 Y-9.84578
G01 X-19.11073 Y-9.81055
G01 X-19.01203 Y-9.75355
G01 X-18.92732 Y-9.67730
G01 X-18.86034 Y-9.58510
G01 X-18.81398 Y-9.48096
G01 X-18.79153 Y-9.36935
G04 P0 ( dwell for no time -- G64 should not smooth over this point )
G00 Z2.00000 ( retract )

G00 X-19.24505 Y-11.86167 ( rapid move to begin. )
G01 F60.00000
( Mill infeed pass 1/1 )
G01 Z-0.01000
G04 P0 ( dwell for no time -- G64 should not smooth over this point )
G01 F120.00000
G01 X-19.24505 Y-11.86167
G01 X-19.25632 Y-11.89645
G01 X-19.26714 Y-11.91133
G01 X-19.25846 Y-11.91913
G01 X-19.26714 Y-11.91133
G01 X-19.29671 Y-11.93282
G01 X-19.31421 Y-11.93851
G01 X-19.31213 Y-11.94623
G01 X-19.31421 Y-11.93851
G01 X-19.38002 Y-11.94542
G01 X-19.78495 Y-11.94542
G01 X-19.85076 Y-11.93851
G01 X-19.85284 Y-11.94623
G01 X-19.85076 Y-11.93851
G01 X-19.86826 Y-11.93282
G01 X-19.89783 Y-11.91133
G01 X-19.90651 Y-11.91913
G01 X-19.89783 Y-11.91133
G01 X-19.90865 Y-11.89645
G01 X-19.91992 Y-11.86167
G01 X-19.93605 Y-11.86251
G01 X-19.91992 Y-11.86167
G01 X-19.91611 Y-11.82533
G01 X-19.89783 Y-11.79365
G01 X-19.91037 Y-11.78349
G01 X-19.89783 Y-11.79365
G01 X-19.86826 Y-11.77216
G01 X-19.85076 Y-11.76647
G01 X-19.85277 Y-11.75921
G01 X-19.85076 Y-11.76647
G01 X-19.78495 Y-11.75957
G01 X-19.37987 Y-11.75804
G01 X-19.31421 Y-11.76647
G01 X-19.28081 Y-11.78136
G01 X-19.27215 Y-11.76810
G01 X-19.28081 Y-11.78136
G01 X-19.25632 Y-11.80851
G01 X-19.24886 Y-11.82533
G01 X-19.24139 Y-11.82246
G01 X-19.24886 Y-11.82533
G01 X-19.24505 Y-11.86167
G01 X-19.01828 Y-11.88552
G01 X-19.03202 Y-11.95012
G01 X-19.05886 Y-12.01047
G01 X-19.05635 Y-12.01174
G01 X-19.05886 Y-12.01047
G01 X-19.09770 Y-12.06388
G01 X-19.09569 Y-12.06589
G01 X-19.09770 Y-12.06388
G01 X-19.14677 Y-12.10808
G01 X-19.20397 Y-12.14110
G01 X-19.20174 Y-12.14628
G01 X-19.20397 Y-12.14110
G01 X-19.26679 Y-12.16152
G01 X-19.36803 Y-12.17338
G01 X-19.79684 Y-12.17216
G01 X-19.89818 Y-12.16152
G01 X-19.89917 Y-12.16599
G01 X-19.89818 Y-12.16152
G01 X-19.96100 Y-12.14110
G01 X-20.01820 Y-12.10808
G01 X-20.01972 Y-12.11047
G01 X-20.01820 Y-12.10808
G01 X-20.06727 Y-12.06388
G01 X-20.06948 Y-12.06566
G01 X-20.06727 Y-12.06388
G01 X-20.10611 Y-12.01047
G01 X-20.13295 Y-11.95012
G01 X-20.13560 Y-11.95113
G01 X-20.13295 Y-11.95012
G01 X-20.14670 Y-11.88552
G01 X-20.14952 Y-11.88565
G01 X-20.14670 Y-11.88552
G01 X-20.14670 Y-11.81946
G01 X-20.13295 Y-11.75487
G01 X-20.13778 Y-11.75329
G01 X-20.13295 Y-11.75487
G01 X-20.10611 Y-11.69452
G01 X-20.06727 Y-11.64107
G01 X-20.07103 Y-11.63770
G01 X-20.06727 Y-11.64107
G01 X-20.01820 Y-11.59688
G01 X-19.96100 Y-11.56386
G01 X-19.96323 Y-11.55870
G01 X-19.96100 Y-11.56386
G01 X-19.89818 Y-11.54346
G01 X-19.79694 Y-11.53180
G01 X-19.36813 Y-11.53249
G01 X-19.26679 Y-11.54346
G01 X-19.26608 Y-11.54072
G01 X-19.26679 Y-11.54346
G01 X-19.20397 Y-11.56386
G01 X-19.14677 Y-11.59688
G01 X-19.14380 Y-11.59279
G01 X-19.14677 Y-11.59688
G01 X-19.09770 Y-11.64107
G01 X-19.05886 Y-11.69452
G01 X-19.05650 Y-11.69297
G01 X-19.05886 Y-11.69452
G01 X-19.03202 Y-11.75487
G01 X-19.02927 Y-11.75413
G01 X-19.03202 Y-11.75487
G01 X-19.01828 Y-11.81946
G01 X-19.01828 Y-11.88552
G01 X-18.79153 Y-11.90935
G01 X-18.81398 Y-12.02096
G01 X-18.86034 Y-12.12510
G01 X-18.92732 Y-12.21730
G01 X-19.01203 Y-12.29355
G01 X-19.11073 Y-12.35055
G01 X-19.21914 Y-12.38578
G01 X-19.35625 Y-12.39924
G01 X-19.80872 Y-12.39924
G01 X-19.94583 Y-12.38578
G01 X-20.05424 Y-12.35055
G01 X-20.15294 Y-12.29355
G01 X-20.23765 Y-12.21730
G01 X-20.30463 Y-12.12510
G01 X-20.35099 Y-12.02096
G01 X-20.37469 Y-11.90948
G01 X-20.37469 Y-11.79551
G01 X-20.35099 Y-11.68403
G01 X-20.30463 Y-11.57989
G01 X-20.23765 Y-11.48768
G01 X-20.15294 Y-11.41141
G01 X-20.05424 Y-11.35443
G01 X-19.94583 Y-11.31921
G01 X-19.80872 Y-11.30574
G01 X-19.35625 Y-11.30574
G01 X-19.21914 Y-11.31921
G01 X-19.11073 Y-11.35443
G01 X-19.01203 Y-11.41141
G01 X-18.92732 Y-11.48768
G01 X-18.86034 Y-11.57989
G01 X-18.81398 Y-11.68403
G01 X-18.79028 Y-11.79551
G01 X-18.79153 Y-11.90935
G01 X-18.56476 Y-11.93317
G01 X-18.59831 Y-12.09103
G01 X-18.66397 Y-12.23846
G01 X-18.75881 Y-12.36901
G01 X-18.87875 Y-12.47701
G01 X-19.01850 Y-12.55771
G01 X-19.17200 Y-12.60757
G01 X-19.34439 Y-12.62568
G01 X-19.82061 Y-12.62568
G01 X-19.99297 Y-12.60757
G01 X-20.14647 Y-12.55771
G01 X-20.28622 Y-12.47701
G01 X-20.40616 Y-12.36901
G01 X-20.50103 Y-12.23846
G01 X-20.56666 Y-12.09103
G01 X-20.60021 Y-11.93317
G01 X-20.60021 Y-11.77181
G01 X-20.56666 Y-11.61395
G01 X-20.50103 Y-11.46650
G01 X-20.40616 Y-11.33594
G01 X-20.28622 Y-11.22797
G01 X-20.14647 Y-11.14727
G01 X-19.99297 Y-11.09741
G01 X-19.82061 Y-11.07928
G01 X-19.34439 Y-11.07928
G01 X-19.17200 Y-11.09741
G01 X-19.01850 Y-11.14727
G01 X-18.87875 Y-11.22797
G01 X-18.75881 Y-11.33594
G01 X-18.66397 Y-11.46650
G01 X-18.59831 Y-11.61395
G01 X-18.56476 Y-11.77181
G01 X-18.56476 Y-11.93317
G04 P0 ( dwell for no time -- G64 should not smooth over this point )
G00 Z2.00000 ( retract )

G00 X-15.47856 Y-11.44587 ( rapid move to begin. )
G01 F60.00000
( Mill infeed pass 1/1 )
G01 Z-0.01000
G04 P0 ( dwell for no time -- G64 should not smooth over this point )
G01 F120.00000
G01 X-15.47856 Y-11.44587
G01 X-15.52143 Y-11.44575
G01 X-15.58765 Y-11.51179
G01 X-15.52143 Y-11.44575
G01 X-15.52143 Y-11.37923
G01 X-15.58765 Y-11.31319
G01 X-15.52143 Y-11.37923
G01 X-15.47856 Y-11.37910
G01 X-15.41193 Y-11.31232
G01 X-15.47856 Y-11.37910
G01 X-15.52143 Y-11.37923
G01 X-15.47856 Y-11.37910
G01 X-15.47856 Y-11.44587
G01 X-15.41193 Y-11.51265
G01 X-15.25179 Y-11.65060
G01 X-15.25179 Y-11.17437
G01 X-15.25615 Y-11.15545
G01 X-15.26814 Y-11.15179
G01 X-15.74381 Y-11.15545
G01 X-15.74818 Y-11.17437
G01 X-15.74818 Y-11.65060
G01 X-15.74381 Y-11.66952
G01 X-15.26814 Y-11.67318
G01 X-15.25483 Y-11.66805
G01 X-15.25179 Y-11.65060
G04 P0 ( dwell for no time -- G64 should not smooth over this point )
G00 Z2.00000 ( retract )

G00 X-3.12804 Y-24.49998 ( rapid move to begin. )
G01 F60.00000
( Mill infeed pass 1/1 )
G01 Z-0.01000
G04 P0 ( dwell for no time -- G64 should not smooth over this point )
G01 F120.00000
G01 X-3.12804 Y-24.49998
G01 X-3.15801 Y-24.78524
G01 X-3.24663 Y-25.05801
G01 X-3.39006 Y-25.30640
G01 X-3.58198 Y-25.51956
G01 X-3.81401 Y-25.68814
G01 X-4.07604 Y-25.80480
G01 X-4.35658 Y-25.86441
G01 X-4.64340 Y-25.86441
G01 X-4.92394 Y-25.80480
G01 X-5.18597 Y-25.68814
G01 X-5.41800 Y-25.51956
G01 X-5.60992 Y-25.30640
G01 X-5.75333 Y-25.05801
G01 X-5.84195 Y-24.78524
G01 X-5.87195 Y-24.49998
G01 X-5.84195 Y-24.21473
G01 X-5.75333 Y-23.94196
G01 X-5.60992 Y-23.69358
G01 X-5.41800 Y-23.48042
G01 X-5.18597 Y-23.31184
G01 X-4.92394 Y-23.19518
G01 X-4.64340 Y-23.13556
G01 X-4.35658 Y-23.13556
G01 X-4.07604 Y-23.19518
G01 X-3.81401 Y-23.31184
G01 X-3.58198 Y-23.48042
G01 X-3.39006 Y-23.69358
G01 X-3.24663 Y-23.94196
G01 X-3.15801 Y-24.21473
G01 X-3.12804 Y-24.49998
G01 X-3.35605 Y-24.49998
G01 X-3.37983 Y-24.73808
G01 X-3.45379 Y-24.96579
G01 X-3.57350 Y-25.17313
G01 X-3.73370 Y-25.35103
G01 X-3.92740 Y-25.49174
G01 X-4.14609 Y-25.58913
G01 X-4.38028 Y-25.63891
G01 X-4.61970 Y-25.63891
G01 X-4.85386 Y-25.58913
G01 X-5.07258 Y-25.49174
G01 X-5.26628 Y-25.35103
G01 X-5.42646 Y-25.17313
G01 X-5.54617 Y-24.96579
G01 X-5.62016 Y-24.73808
G01 X-5.64518 Y-24.49998
G01 X-5.62016 Y-24.26188
G01 X-5.54617 Y-24.03419
G01 X-5.42646 Y-23.82685
G01 X-5.26628 Y-23.64895
G01 X-5.07258 Y-23.50823
G01 X-4.85386 Y-23.41085
G01 X-4.61970 Y-23.36107
G01 X-4.38028 Y-23.36107
G01 X-4.14609 Y-23.41085
G01 X-3.92740 Y-23.50823
G01 X-3.73370 Y-23.64895
G01 X-3.57350 Y-23.82685
G01 X-3.45379 Y-24.03419
G01 X-3.37983 Y-24.26188
G01 X-3.35605 Y-24.49998
G01 X-3.58404 Y-24.49998
G01 X-3.60284 Y-24.69068
G01 X-3.66210 Y-24.87305
G01 X-3.75796 Y-25.03909
G01 X-3.88628 Y-25.18159
G01 X-4.04139 Y-25.29429
G01 X-4.21655 Y-25.37229
G01 X-4.40411 Y-25.41214
G01 X-4.59585 Y-25.41214
G01 X-4.78340 Y-25.37229
G01 X-4.95859 Y-25.29429
G01 X-5.11371 Y-25.18159
G01 X-5.24200 Y-25.03909
G01 X-5.33789 Y-24.87305
G01 X-5.39712 Y-24.69068
G01 X-5.41718 Y-24.49998
G01 X-5.39712 Y-24.30930
G01 X-5.33789 Y-24.12693
G01 X-5.24200 Y-23.96089
G01 X-5.11371 Y-23.81839
G01 X-4.95859 Y-23.70567
G01 X-4.78340 Y-23.62769
G01 X-4.59585 Y-23.58784
G01 X-4.40411 Y-23.58784
G01 X-4.21655 Y-23.62769
G01 X-4.04139 Y-23.70567
G01 X-3.88628 Y-23.81839
G01 X-3.75796 Y-23.96089
G01 X-3.66210 Y-24.12693
G01 X-3.60284 Y-24.30930
G01 X-3.58404 Y-24.49998
G01 X-3.81206 Y-24.49998
G01 X-3.82587 Y-24.64328
G01 X-3.87040 Y-24.78029
G01 X-3.94244 Y-24.90508
G01 X-4.03883 Y-25.01214
G01 X-4.15539 Y-25.09683
G01 X-4.28701 Y-25.15545
G01 X-4.42796 Y-25.18540
G01 X-4.57203 Y-25.18540
G01 X-4.71294 Y-25.15545
G01 X-4.84457 Y-25.09683
G01 X-4.96113 Y-25.01214
G01 X-5.05755 Y-24.90508
G01 X-5.12958 Y-24.78029
G01 X-5.17411 Y-24.64328
G01 X-5.18917 Y-24.49998
G01 X-5.17411 Y-24.35669
G01 X-5.12958 Y-24.21966
G01 X-5.05755 Y-24.09490
G01 X-4.96113 Y-23.98784
G01 X-4.84457 Y-23.90313
G01 X-4.71294 Y-23.84453
G01 X-4.57203 Y-23.81458
G01 X-4.42796 Y-23.81458
G01 X-4.28701 Y-23.84453
G01 X-4.15539 Y-23.90313
G01 X-4.03883 Y-23.98784
G01 X-3.94244 Y-24.09490
G01 X-3.87040 Y-24.21966
G01 X-3.82587 Y-24.35669
G01 X-3.81206 Y-24.49998
G01 X-4.04007 Y-24.49998
G01 X-4.05011 Y-24.59561
G01 X-4.07982 Y-24.68705
G01 X-4.07520 Y-24.68910
G01 X-4.07982 Y-24.68705
G01 X-4.12791 Y-24.77033
G01 X-4.19224 Y-24.84178
G01 X-4.18884 Y-24.84554
G01 X-4.19224 Y-24.84178
G01 X-4.27002 Y-24.89830
G01 X-4.35785 Y-24.93739
G01 X-4.35630 Y-24.94222
G01 X-4.35785 Y-24.93739
G01 X-4.45191 Y-24.95740
G01 X-4.54807 Y-24.95740
G01 X-4.54858 Y-24.96243
G01 X-4.54807 Y-24.95740
G01 X-4.64210 Y-24.93739
G01 X-4.72996 Y-24.89830
G01 X-4.73123 Y-24.90081
G01 X-4.72996 Y-24.89830
G01 X-4.80774 Y-24.84178
G01 X-4.80974 Y-24.84377
G01 X-4.80774 Y-24.84178
G01 X-4.87208 Y-24.77033
G01 X-4.92016 Y-24.68705
G01 X-4.92478 Y-24.68910
G01 X-4.92016 Y-24.68705
G01 X-4.94985 Y-24.59561
G01 X-4.95991 Y-24.49998
G01 X-4.96499 Y-24.49998
G01 X-4.95991 Y-24.49998
G01 X-4.94985 Y-24.40437
G01 X-4.92016 Y-24.31293
G01 X-4.92478 Y-24.31085
G01 X-4.92016 Y-24.31293
G01 X-4.87208 Y-24.22964
G01 X-4.80774 Y-24.15819
G01 X-4.81112 Y-24.15443
G01 X-4.80774 Y-24.15819
G01 X-4.72996 Y-24.10168
G01 X-4.64210 Y-24.06256
G01 X-4.64368 Y-24.05776
G01 X-4.64210 Y-24.06256
G01 X-4.54807 Y-24.04257
G01 X-4.45191 Y-24.04257
G01 X-4.45138 Y-24.03754
G01 X-4.45191 Y-24.04257
G01 X-4.35785 Y-24.06256
G01 X-4.27002 Y-24.10168
G01 X-4.26875 Y-24.09916
G01 X-4.27002 Y-24.10168
G01 X-4.19224 Y-24.15819
G01 X-4.19024 Y-24.15619
G01 X-4.19224 Y-24.15819
G01 X-4.12791 Y-24.22964
G01 X-4.07982 Y-24.31293
G01 X-4.07520 Y-24.31085
G01 X-4.07982 Y-24.31293
G01 X-4.05011 Y-24.40437
G01 X-4.04007 Y-24.49998
G01 X-4.26806 Y-24.49998
G01 X-4.27314 Y-24.54821
G01 X-4.26524 Y-24.54946
G01 X-4.27314 Y-24.54821
G01 X-4.28813 Y-24.59431
G01 X-4.31236 Y-24.63630
G01 X-4.30827 Y-24.63930
G01 X-4.31236 Y-24.63630
G01 X-4.34480 Y-24.67234
G01 X-4.38404 Y-24.70084
G01 X-4.38150 Y-24.70523
G01 X-4.38404 Y-24.70084
G01 X-4.42831 Y-24.72055
G01 X-4.47573 Y-24.73063
G01 X-4.47523 Y-24.73566
G01 X-4.47573 Y-24.73063
G01 X-4.52422 Y-24.73063
G01 X-4.57164 Y-24.72055
G01 X-4.57322 Y-24.72538
G01 X-4.57164 Y-24.72055
G01 X-4.61594 Y-24.70084
G01 X-4.65516 Y-24.67234
G01 X-4.65856 Y-24.67610
G01 X-4.65516 Y-24.67234
G01 X-4.68762 Y-24.63630
G01 X-4.71185 Y-24.59431
G01 X-4.71932 Y-24.59718
G01 X-4.71185 Y-24.59431
G01 X-4.72684 Y-24.54821
G01 X-4.73192 Y-24.49998
G01 X-4.72684 Y-24.45177
G01 X-4.73474 Y-24.45052
G01 X-4.72684 Y-24.45177
G01 X-4.71185 Y-24.40567
G01 X-4.68762 Y-24.36368
G01 X-4.69171 Y-24.36068
G01 X-4.68762 Y-24.36368
G01 X-4.65516 Y-24.32764
G01 X-4.61594 Y-24.29914
G01 X-4.61848 Y-24.29474
G01 X-4.61594 Y-24.29914
G01 X-4.57164 Y-24.27943
G01 X-4.52422 Y-24.26934
G01 X-4.52476 Y-24.26429
G01 X-4.52422 Y-24.26934
G01 X-4.47573 Y-24.26934
G01 X-4.42831 Y-24.27943
G01 X-4.42676 Y-24.27460
G01 X-4.42831 Y-24.27943
G01 X-4.38404 Y-24.29914
G01 X-4.34480 Y-24.32764
G01 X-4.34142 Y-24.32388
G01 X-4.34480 Y-24.32764
G01 X-4.31236 Y-24.36368
G01 X-4.28813 Y-24.40567
G01 X-4.28066 Y-24.40280
G01 X-4.28813 Y-24.40567
G01 X-4.27314 Y-24.45177
G01 X-4.26806 Y-24.49998
G01 X-4.49608 Y-24.49998
G01 X-4.49958 Y-24.50389
G01 X-4.50390 Y-24.49998
G01 X-4.50040 Y-24.49609
G01 X-4.49608 Y-24.49998
G04 P0 ( dwell for no time -- G64 should not smooth over this point )
G00 Z2.00000 ( retract )

G00 X-11.42855 Y-23.84641 ( rapid move to begin. )
G01 F60.00000
( Mill infeed pass 1/1 )
G01 Z-0.01000
G04 P0 ( dwell for no time -- G64 should not smooth over this point )
G01 F120.00000
G01 X-11.42855 Y-23.84641
G01 X-11.42855 Y-22.15355
G01 X-11.36213 Y-22.08713
G01 X-11.42855 Y-22.15355
G01 X-12.52144 Y-22.15355
G01 X-12.58783 Y-22.08713
G01 X-12.52144 Y-22.15355
G01 X-12.52144 Y-23.84643
G01 X-12.58783 Y-23.91286
G01 X-12.52144 Y-23.84643
G01 X-11.42855 Y-23.84643
G01 X-11.20178 Y-24.07318
G01 X-11.20178 Y-21.92678
G01 X-12.74818 Y-21.92678
G01 X-12.74818 Y-24.07318
G01 X-11.20178 Y-24.07318
G01 X-11.65530 Y-23.61966
G01 X-11.65530 Y-22.38030
G01 X-11.58888 Y-22.31387
G01 X-11.65530 Y-22.38030
G01 X-12.29467 Y-22.38030
G01 X-12.36109 Y-22.31387
G01 X-12.29467 Y-22.38030
G01 X-12.29467 Y-23.61966
G01 X-12.36109 Y-23.68608
G01 X-12.29467 Y-23.61966
G01 X-11.65530 Y-23.61966
G01 X-11.88207 Y-23.39292
G01 X-12.06792 Y-23.39292
G01 X-12.13434 Y-23.45934
G01 X-12.06792 Y-23.39292
G01 X-12.06792 Y-22.60707
G01 X-12.13434 Y-22.54065
G01 X-12.06792 Y-22.60707
G01 X-11.88207 Y-22.60707
G01 X-11.81565 Y-22.54065
G01 X-11.88207 Y-22.60707
G01 X-11.88207 Y-23.39292
G04 P0 ( dwell for no time -- G64 should not smooth over this point )
G00 Z2.00000 ( retract )

G00 X-13.74178 Y-23.28809 ( rapid move to begin. )
G01 F60.00000
( Mill infeed pass 1/1 )
G01 Z-0.01000
G04 P0 ( dwell for no time -- G64 should not smooth over this point )
G01 F120.00000
G01 X-13.74178 Y-23.28809
G01 X-13.74178 Y-22.71187
G01 X-13.75992 Y-22.53948
G01 X-13.80978 Y-22.38601
G01 X-13.89047 Y-22.24623
G01 X-13.99845 Y-22.12632
G01 X-14.12900 Y-22.03145
G01 X-14.27645 Y-21.96582
G01 X-14.43429 Y-21.93226
G01 X-14.59568 Y-21.93226
G01 X-14.75354 Y-21.96582
G01 X-14.90096 Y-22.03145
G01 X-15.03152 Y-22.12632
G01 X-15.13952 Y-22.24623
G01 X-15.22019 Y-22.38601
G01 X-15.27007 Y-22.53948
G01 X-15.28818 Y-22.71187
G01 X-15.28818 Y-23.28809
G01 X-15.27007 Y-23.46048
G01 X-15.22019 Y-23.61397
G01 X-15.13952 Y-23.75372
G01 X-15.03152 Y-23.87366
G01 X-14.90096 Y-23.96851
G01 X-14.75354 Y-24.03417
G01 X-14.59568 Y-24.06772
G01 X-14.43429 Y-24.06772
G01 X-14.27645 Y-24.03417
G01 X-14.12900 Y-23.96851
G01 X-13.99845 Y-23.87366
G01 X-13.89047 Y-23.75372
G01 X-13.80978 Y-23.61397
G01 X-13.75992 Y-23.46048
G01 X-13.74178 Y-23.28809
G01 X-13.96855 Y-23.27623
G01 X-13.96822 Y-22.72373
G01 X-13.98171 Y-22.58665
G01 X-14.01694 Y-22.47824
G01 X-14.07391 Y-22.37953
G01 X-14.15019 Y-22.29482
G01 X-14.24239 Y-22.22784
G01 X-14.34650 Y-22.18149
G01 X-14.45801 Y-22.15779
G01 X-14.57198 Y-22.15779
G01 X-14.68346 Y-22.18149
G01 X-14.78758 Y-22.22784
G01 X-14.87980 Y-22.29482
G01 X-14.95605 Y-22.37953
G01 X-15.01305 Y-22.47824
G01 X-15.04826 Y-22.58665
G01 X-15.06174 Y-22.72373
G01 X-15.06174 Y-23.27623
G01 X-15.04826 Y-23.41334
G01 X-15.01305 Y-23.52175
G01 X-14.95605 Y-23.62045
G01 X-14.87980 Y-23.70513
G01 X-14.78758 Y-23.77214
G01 X-14.68346 Y-23.81849
G01 X-14.57198 Y-23.84219
G01 X-14.45801 Y-23.84219
G01 X-14.34650 Y-23.81849
G01 X-14.24239 Y-23.77214
G01 X-14.15019 Y-23.70513
G01 X-14.07391 Y-23.62045
G01 X-14.01694 Y-23.52175
G01 X-13.98171 Y-23.41334
G01 X-13.96855 Y-23.27623
G01 X-14.19530 Y-23.26434
G01 X-14.20597 Y-23.36566
G01 X-14.22636 Y-23.42850
G01 X-14.22118 Y-23.43071
G01 X-14.22636 Y-23.42850
G01 X-14.25938 Y-23.48570
G01 X-14.30358 Y-23.53478
G01 X-14.30160 Y-23.53678
G01 X-14.30358 Y-23.53478
G01 X-14.35702 Y-23.57359
G01 X-14.35572 Y-23.57613
G01 X-14.35702 Y-23.57359
G01 X-14.41734 Y-23.60046
G01 X-14.48196 Y-23.61420
G01 X-14.48143 Y-23.61923
G01 X-14.48196 Y-23.61420
G01 X-14.54800 Y-23.61420
G01 X-14.61262 Y-23.60046
G01 X-14.61419 Y-23.60529
G01 X-14.61262 Y-23.60046
G01 X-14.67295 Y-23.57359
G01 X-14.72639 Y-23.53478
G01 X-14.72979 Y-23.53854
G01 X-14.72639 Y-23.53478
G01 X-14.77058 Y-23.48570
G01 X-14.80360 Y-23.42850
G01 X-14.80878 Y-23.43071
G01 X-14.80360 Y-23.42850
G01 X-14.82402 Y-23.36566
G01 X-14.83566 Y-23.26442
G01 X-14.83566 Y-22.73554
G01 X-14.82402 Y-22.63430
G01 X-14.80360 Y-22.57148
G01 X-14.80878 Y-22.56925
G01 X-14.80360 Y-22.57148
G01 X-14.77058 Y-22.51428
G01 X-14.72639 Y-22.46521
G01 X-14.72979 Y-22.46142
G01 X-14.72639 Y-22.46521
G01 X-14.67295 Y-22.42637
G01 X-14.61262 Y-22.39952
G01 X-14.61364 Y-22.39688
G01 X-14.61262 Y-22.39952
G01 X-14.54800 Y-22.38578
G01 X-14.54815 Y-22.38296
G01 X-14.54800 Y-22.38578
G01 X-14.48196 Y-22.38578
G01 X-14.41734 Y-22.39952
G01 X-14.41580 Y-22.39470
G01 X-14.41734 Y-22.39952
G01 X-14.35702 Y-22.42637
G01 X-14.30358 Y-22.46521
G01 X-14.30020 Y-22.46142
G01 X-14.30358 Y-22.46521
G01 X-14.25938 Y-22.51428
G01 X-14.22636 Y-22.57148
G01 X-14.22118 Y-22.56925
G01 X-14.22636 Y-22.57148
G01 X-14.20597 Y-22.63430
G01 X-14.19431 Y-22.73554
G01 X-14.19431 Y-23.26442
G01 X-14.42207 Y-23.25246
G01 X-14.42898 Y-23.31827
G01 X-14.42415 Y-23.31984
G01 X-14.42898 Y-23.31827
G01 X-14.44384 Y-23.35167
G01 X-14.45616 Y-23.36533
G01 X-14.44833 Y-23.37399
G01 X-14.45616 Y-23.36533
G01 X-14.48780 Y-23.38362
G01 X-14.50579 Y-23.38743
G01 X-14.50495 Y-23.40356
G01 X-14.50579 Y-23.38743
G01 X-14.54216 Y-23.38362
G01 X-14.57383 Y-23.36533
G01 X-14.58397 Y-23.37788
G01 X-14.57383 Y-23.36533
G01 X-14.59532 Y-23.33574
G01 X-14.60099 Y-23.31827
G01 X-14.60581 Y-23.31984
G01 X-14.60099 Y-23.31827
G01 X-14.60830 Y-23.25246
G01 X-14.60792 Y-22.74753
G01 X-14.60099 Y-22.68172
G01 X-14.60835 Y-22.67969
G01 X-14.60099 Y-22.68172
G01 X-14.59532 Y-22.66422
G01 X-14.57383 Y-22.63465
G01 X-14.58163 Y-22.62596
G01 X-14.57383 Y-22.63465
G01 X-14.55895 Y-22.62383
G01 X-14.52418 Y-22.61253
G01 X-14.52542 Y-22.60463
G01 X-14.52418 Y-22.61253
G01 X-14.48780 Y-22.61636
G01 X-14.48496 Y-22.60890
G01 X-14.48780 Y-22.61636
G01 X-14.47101 Y-22.62383
G01 X-14.44384 Y-22.64829
G01 X-14.43060 Y-22.63963
G01 X-14.44384 Y-22.64829
G01 X-14.42898 Y-22.68172
G01 X-14.42075 Y-22.74738
G01 X-14.42207 Y-23.25246
G04 P0 ( dwell for no time -- G64 should not smooth over this point )
G00 Z2.00000 ( retract )

G00 X-16.28178 Y-23.28809 ( rapid move to begin. )
G01 F60.00000
( Mill infeed pass 1/1 )
G01 Z-0.01000
G04 P0 ( dwell for no time -- G64 should not smooth over this point )
G01 F120.00000
G01 X-16.28178 Y-23.28809
G01 X-16.28178 Y-22.71187
G01 X-16.29992 Y-22.53948
G01 X-16.34978 Y-22.38601
G01 X-16.43047 Y-22.24623
G01 X-16.53845 Y-22.12632
G01 X-16.66900 Y-22.03145
G01 X-16.81645 Y-21.96582
G01 X-16.97429 Y-21.93226
G01 X-17.13568 Y-21.93226
G01 X-17.29354 Y-21.96582
G01 X-17.44096 Y-22.03145
G01 X-17.57152 Y-22.12632
G01 X-17.67952 Y-22.24623
G01 X-17.76019 Y-22.38601
G01 X-17.81007 Y-22.53948
G01 X-17.82818 Y-22.71187
G01 X-17.82818 Y-23.28809
G01 X-17.81007 Y-23.46048
G01 X-17.76019 Y-23.61397
G01 X-17.67952 Y-23.75372
G01 X-17.57152 Y-23.87366
G01 X-17.44096 Y-23.96851
G01 X-17.29354 Y-24.03417
G01 X-17.13568 Y-24.06772
G01 X-16.97429 Y-24.06772
G01 X-16.81645 Y-24.03417
G01 X-16.66900 Y-23.96851
G01 X-16.53845 Y-23.87366
G01 X-16.43047 Y-23.75372
G01 X-16.34978 Y-23.61397
G01 X-16.29992 Y-23.46048
G01 X-16.28178 Y-23.28809
G01 X-16.50855 Y-23.27623
G01 X-16.50822 Y-22.72373
G01 X-16.52171 Y-22.58665
G01 X-16.55694 Y-22.47824
G01 X-16.61391 Y-22.37953
G01 X-16.69019 Y-22.29482
G01 X-16.78239 Y-22.22784
G01 X-16.88650 Y-22.18149
G01 X-16.99801 Y-22.15779
G01 X-17.11198 Y-22.15779
G01 X-17.22346 Y-22.18149
G01 X-17.32758 Y-22.22784
G01 X-17.41980 Y-22.29482
G01 X-17.49605 Y-22.37953
G01 X-17.55305 Y-22.47824
G01 X-17.58826 Y-22.58665
G01 X-17.60174 Y-22.72373
G01 X-17.60174 Y-23.27623
G01 X-17.58826 Y-23.41334
G01 X-17.55305 Y-23.52175
G01 X-17.49605 Y-23.62045
G01 X-17.41980 Y-23.70513
G01 X-17.32758 Y-23.77214
G01 X-17.22346 Y-23.81849
G01 X-17.11198 Y-23.84219
G01 X-16.99801 Y-23.84219
G01 X-16.88650 Y-23.81849
G01 X-16.78239 Y-23.77214
G01 X-16.69019 Y-23.70513
G01 X-16.61391 Y-23.62045
G01 X-16.55694 Y-23.52175
G01 X-16.52171 Y-23.41334
G01 X-16.50855 Y-23.27623
G01 X-16.73530 Y-23.26434
G01 X-16.73489 Y-22.73562
G01 X-16.74472 Y-22.63404
G01 X-16.76636 Y-22.57148
G01 X-16.76385 Y-22.57021
G01 X-16.76636 Y-22.57148
G01 X-16.79938 Y-22.51428
G01 X-16.84358 Y-22.46521
G01 X-16.84020 Y-22.46142
G01 X-16.84358 Y-22.46521
G01 X-16.89702 Y-22.42637
G01 X-16.95734 Y-22.39952
G01 X-16.95580 Y-22.39470
G01 X-16.95734 Y-22.39952
G01 X-17.02196 Y-22.38578
G01 X-17.08800 Y-22.38578
G01 X-17.08815 Y-22.38296
G01 X-17.08800 Y-22.38578
G01 X-17.15262 Y-22.39952
G01 X-17.15364 Y-22.39688
G01 X-17.15262 Y-22.39952
G01 X-17.21295 Y-22.42637
G01 X-17.26639 Y-22.46521
G01 X-17.26979 Y-22.46142
G01 X-17.26639 Y-22.46521
G01 X-17.31058 Y-22.51428
G01 X-17.34360 Y-22.57148
G01 X-17.34612 Y-22.57021
G01 X-17.34360 Y-22.57148
G01 X-17.36651 Y-22.63389
G01 X-17.37467 Y-22.73564
G01 X-17.37510 Y-23.26434
G01 X-17.36402 Y-23.36566
G01 X-17.36674 Y-23.36640
G01 X-17.36402 Y-23.36566
G01 X-17.34360 Y-23.42850
G01 X-17.31058 Y-23.48570
G01 X-17.31470 Y-23.48868
G01 X-17.31058 Y-23.48570
G01 X-17.26639 Y-23.53478
G01 X-17.21295 Y-23.57359
G01 X-17.21449 Y-23.57598
G01 X-17.21295 Y-23.57359
G01 X-17.15262 Y-23.60046
G01 X-17.15336 Y-23.60320
G01 X-17.15262 Y-23.60046
G01 X-17.08800 Y-23.61420
G01 X-17.02196 Y-23.61420
G01 X-17.02143 Y-23.61923
G01 X-17.02196 Y-23.61420
G01 X-16.95734 Y-23.60046
G01 X-16.89702 Y-23.57359
G01 X-16.89448 Y-23.57798
G01 X-16.89702 Y-23.57359
G01 X-16.84358 Y-23.53478
G01 X-16.79938 Y-23.48570
G01 X-16.79529 Y-23.48868
G01 X-16.79938 Y-23.48570
G01 X-16.76636 Y-23.42850
G01 X-16.74597 Y-23.36566
G01 X-16.74139 Y-23.36668
G01 X-16.74597 Y-23.36566
G01 X-16.73530 Y-23.26434
G01 X-16.96207 Y-23.25246
G01 X-16.96207 Y-22.74753
G01 X-16.96898 Y-22.68172
G01 X-16.95834 Y-22.67819
G01 X-16.96898 Y-22.68172
G01 X-16.98384 Y-22.64829
G01 X-17.01102 Y-22.62383
G01 X-17.00223 Y-22.61032
G01 X-17.01102 Y-22.62383
G01 X-17.04579 Y-22.61253
G01 X-17.06418 Y-22.61253
G01 X-17.06669 Y-22.59660
G01 X-17.06418 Y-22.61253
G01 X-17.09895 Y-22.62383
G01 X-17.12613 Y-22.64829
G01 X-17.14315 Y-22.63584
G01 X-17.12613 Y-22.64829
G01 X-17.14099 Y-22.68172
G01 X-17.14924 Y-22.74738
G01 X-17.14856 Y-23.25251
G01 X-17.14099 Y-23.31827
G01 X-17.13532 Y-23.33574
G01 X-17.14772 Y-23.34245
G01 X-17.13532 Y-23.33574
G01 X-17.11383 Y-23.36533
G01 X-17.08216 Y-23.38362
G01 X-17.08879 Y-23.40402
G01 X-17.08216 Y-23.38362
G01 X-17.04579 Y-23.38743
G01 X-17.01102 Y-23.37613
G01 X-17.00370 Y-23.39050
G01 X-17.01102 Y-23.37613
G01 X-16.98384 Y-23.35167
G01 X-16.97467 Y-23.33574
G01 X-16.96563 Y-23.34001
G01 X-16.97467 Y-23.33574
G01 X-16.96898 Y-23.31827
G01 X-16.96207 Y-23.25246
G04 P0 ( dwell for no time -- G64 should not smooth over this point )
G00 Z2.00000 ( retract )

G00 X-23.12805 Y-24.49998 ( rapid move to begin. )
G01 F60.00000
( Mill infeed pass 1/1 )
G01 Z-0.01000
G04 P0 ( dwell for no time -- G64 should not smooth over this point )
G01 F120.00000
G01 X-23.12805 Y-24.49998
G01 X-23.15802 Y-24.78524
G01 X-23.24664 Y-25.05801
G01 X-23.39005 Y-25.30640
G01 X-23.58197 Y-25.51956
G01 X-23.81402 Y-25.68814
G01 X-24.07602 Y-25.80480
G01 X-24.35657 Y-25.86441
G01 X-24.64338 Y-25.86441
G01 X-24.92395 Y-25.80480
G01 X-25.18595 Y-25.68814
G01 X-25.41801 Y-25.51956
G01 X-25.60993 Y-25.30640
G01 X-25.75331 Y-25.05801
G01 X-25.84196 Y-24.78524
G01 X-25.87193 Y-24.49998
G01 X-25.84196 Y-24.21473
G01 X-25.75331 Y-23.94196
G01 X-25.60993 Y-23.69358
G01 X-25.41801 Y-23.48042
G01 X-25.18595 Y-23.31184
G01 X-24.92395 Y-23.19518
G01 X-24.64338 Y-23.13556
G01 X-24.35657 Y-23.13556
G01 X-24.07602 Y-23.19518
G01 X-23.81402 Y-23.31184
G01 X-23.58197 Y-23.48042
G01 X-23.39005 Y-23.69358
G01 X-23.24664 Y-23.94196
G01 X-23.15802 Y-24.21473
G01 X-23.12805 Y-24.49998
G01 X-23.35604 Y-24.49998
G01 X-23.37981 Y-24.73808
G01 X-23.45380 Y-24.96579
G01 X-23.57351 Y-25.17313
G01 X-23.73371 Y-25.35103
G01 X-23.92738 Y-25.49174
G01 X-24.14610 Y-25.58913
G01 X-24.38029 Y-25.63891
G01 X-24.61969 Y-25.63891
G01 X-24.85387 Y-25.58913
G01 X-25.07259 Y-25.49174
G01 X-25.26627 Y-25.35103
G01 X-25.42647 Y-25.17313
G01 X-25.54618 Y-24.96579
G01 X-25.62014 Y-24.73808
G01 X-25.64516 Y-24.49998
G01 X-25.62014 Y-24.26188
G01 X-25.54618 Y-24.03419
G01 X-25.42647 Y-23.82685
G01 X-25.26627 Y-23.64895
G01 X-25.07259 Y-23.50823
G01 X-24.85387 Y-23.41085
G01 X-24.61969 Y-23.36107
G01 X-24.38029 Y-23.36107
G01 X-24.14610 Y-23.41085
G01 X-23.92738 Y-23.50823
G01 X-23.73371 Y-23.64895
G01 X-23.57351 Y-23.82685
G01 X-23.45380 Y-24.03419
G01 X-23.37981 Y-24.26188
G01 X-23.35604 Y-24.49998
G01 X-23.58405 Y-24.49998
G01 X-23.60285 Y-24.69068
G01 X-23.66211 Y-24.87305
G01 X-23.75797 Y-25.03909
G01 X-23.88626 Y-25.18159
G01 X-24.04140 Y-25.29429
G01 X-24.21656 Y-25.37229
G01 X-24.40412 Y-25.41214
G01 X-24.59586 Y-25.41214
G01 X-24.78341 Y-25.37229
G01 X-24.95857 Y-25.29429
G01 X-25.11372 Y-25.18159
G01 X-25.24201 Y-25.03909
G01 X-25.33787 Y-24.87305
G01 X-25.39713 Y-24.69068
G01 X-25.41714 Y-24.49998
G01 X-25.39713 Y-24.30930
G01 X-25.33787 Y-24.12693
G01 X-25.24201 Y-23.96089
G01 X-25.11372 Y-23.81839
G01 X-24.95857 Y-23.70567
G01 X-24.78341 Y-23.62769
G01 X-24.59586 Y-23.58784
G01 X-24.40412 Y-23.58784
G01 X-24.21656 Y-23.62769
G01 X-24.04140 Y-23.70567
G01 X-23.88626 Y-23.81839
G01 X-23.75797 Y-23.96089
G01 X-23.66211 Y-24.12693
G01 X-23.60285 Y-24.30930
G01 X-23.58405 Y-24.49998
G01 X-23.81207 Y-24.49998
G01 X-23.82586 Y-24.64328
G01 X-23.87039 Y-24.78029
G01 X-23.94242 Y-24.90508
G01 X-24.03884 Y-25.01214
G01 X-24.15540 Y-25.09683
G01 X-24.28702 Y-25.15545
G01 X-24.42794 Y-25.18540
G01 X-24.57204 Y-25.18540
G01 X-24.71296 Y-25.15545
G01 X-24.84458 Y-25.09683
G01 X-24.96114 Y-25.01214
G01 X-25.05756 Y-24.90508
G01 X-25.12959 Y-24.78029
G01 X-25.17412 Y-24.64328
G01 X-25.18918 Y-24.49998
G01 X-25.17412 Y-24.35669
G01 X-25.12959 Y-24.21966
G01 X-25.05756 Y-24.09490
G01 X-24.96114 Y-23.98784
G01 X-24.84458 Y-23.90313
G01 X-24.71296 Y-23.84453
G01 X-24.57204 Y-23.81458
G01 X-24.42794 Y-23.81458
G01 X-24.28702 Y-23.84453
G01 X-24.15540 Y-23.90313
G01 X-24.03884 Y-23.98784
G01 X-23.94242 Y-24.09490
G01 X-23.87039 Y-24.21966
G01 X-23.82586 Y-24.35669
G01 X-23.81207 Y-24.49998
G01 X-24.04006 Y-24.49998
G01 X-24.05012 Y-24.59561
G01 X-24.07983 Y-24.68705
G01 X-24.07519 Y-24.68910
G01 X-24.07983 Y-24.68705
G01 X-24.12789 Y-24.77033
G01 X-24.19223 Y-24.84178
G01 X-24.18885 Y-24.84554
G01 X-24.19223 Y-24.84178
G01 X-24.27003 Y-24.89830
G01 X-24.35786 Y-24.93739
G01 X-24.35629 Y-24.94222
G01 X-24.35786 Y-24.93739
G01 X-24.45192 Y-24.95740
G01 X-24.54806 Y-24.95740
G01 X-24.54859 Y-24.96243
G01 X-24.54806 Y-24.95740
G01 X-24.64211 Y-24.93739
G01 X-24.72995 Y-24.89830
G01 X-24.73249 Y-24.90269
G01 X-24.72995 Y-24.89830
G01 X-24.80775 Y-24.84178
G01 X-24.87209 Y-24.77033
G01 X-24.87618 Y-24.77331
G01 X-24.87209 Y-24.77033
G01 X-24.92014 Y-24.68705
G01 X-24.94986 Y-24.59561
G01 X-24.95481 Y-24.59667
G01 X-24.94986 Y-24.59561
G01 X-24.95992 Y-24.49998
G01 X-24.94986 Y-24.40437
G01 X-24.95266 Y-24.40391
G01 X-24.94986 Y-24.40437
G01 X-24.92014 Y-24.31293
G01 X-24.92266 Y-24.31164
G01 X-24.92014 Y-24.31293
G01 X-24.87209 Y-24.22964
G01 X-24.80775 Y-24.15819
G01 X-24.81113 Y-24.15443
G01 X-24.80775 Y-24.15819
G01 X-24.72995 Y-24.10168
G01 X-24.64211 Y-24.06256
G01 X-24.64369 Y-24.05776
G01 X-24.64211 Y-24.06256
G01 X-24.54806 Y-24.04257
G01 X-24.45192 Y-24.04257
G01 X-24.45139 Y-24.03754
G01 X-24.45192 Y-24.04257
G01 X-24.35786 Y-24.06256
G01 X-24.27003 Y-24.10168
G01 X-24.26873 Y-24.09916
G01 X-24.27003 Y-24.10168
G01 X-24.19223 Y-24.15819
G01 X-24.19025 Y-24.15619
G01 X-24.19223 Y-24.15819
G01 X-24.12789 Y-24.22964
G01 X-24.07983 Y-24.31293
G01 X-24.07519 Y-24.31085
G01 X-24.07983 Y-24.31293
G01 X-24.05012 Y-24.40437
G01 X-24.04006 Y-24.49998
G01 X-24.26807 Y-24.49998
G01 X-24.27313 Y-24.54821
G01 X-24.28811 Y-24.59431
G01 X-24.28100 Y-24.59794
G01 X-24.28811 Y-24.59431
G01 X-24.31237 Y-24.63630
G01 X-24.34481 Y-24.67234
G01 X-24.38403 Y-24.70084
G01 X-24.37968 Y-24.70755
G01 X-24.38403 Y-24.70084
G01 X-24.42832 Y-24.72055
G01 X-24.47574 Y-24.73063
G01 X-24.47521 Y-24.73566
G01 X-24.47574 Y-24.73063
G01 X-24.52423 Y-24.73063
G01 X-24.57166 Y-24.72055
G01 X-24.57323 Y-24.72538
G01 X-24.57166 Y-24.72055
G01 X-24.61595 Y-24.70084
G01 X-24.65517 Y-24.67234
G01 X-24.65855 Y-24.67610
G01 X-24.65517 Y-24.67234
G01 X-24.68761 Y-24.63630
G01 X-24.71186 Y-24.59431
G01 X-24.71649 Y-24.59637
G01 X-24.71186 Y-24.59431
G01 X-24.72685 Y-24.54821
G01 X-24.73190 Y-24.49998
G01 X-24.73698 Y-24.49998
G01 X-24.73190 Y-24.49998
G01 X-24.72685 Y-24.45177
G01 X-24.71186 Y-24.40567
G01 X-24.71898 Y-24.40203
G01 X-24.71186 Y-24.40567
G01 X-24.68761 Y-24.36368
G01 X-24.65517 Y-24.32764
G01 X-24.61595 Y-24.29914
G01 X-24.62030 Y-24.29243
G01 X-24.61595 Y-24.29914
G01 X-24.57166 Y-24.27943
G01 X-24.52423 Y-24.26934
G01 X-24.52477 Y-24.26429
G01 X-24.52423 Y-24.26934
G01 X-24.47574 Y-24.26934
G01 X-24.42832 Y-24.27943
G01 X-24.42675 Y-24.27460
G01 X-24.42832 Y-24.27943
G01 X-24.38403 Y-24.29914
G01 X-24.34481 Y-24.32764
G01 X-24.34140 Y-24.32388
G01 X-24.34481 Y-24.32764
G01 X-24.31237 Y-24.36368
G01 X-24.28811 Y-24.40567
G01 X-24.28349 Y-24.40361
G01 X-24.28811 Y-24.40567
G01 X-24.27313 Y-24.45177
G01 X-24.26807 Y-24.49998
G01 X-24.49606 Y-24.49998
G01 X-24.49957 Y-24.50389
G01 X-24.50389 Y-24.49998
G01 X-24.50041 Y-24.49609
G01 X-24.49606 Y-24.49998

G04 P0 ( dwell for no time -- G64 should not smooth over this point )
G00 Z15.000000 ( retract )

M5 ( Spindle off. )
G04 P1.000000
M9 ( Coolant off. )
M2 ( Program end. )

