( pcb2gcode 2.5.0 )
( Software-independent Gcode )

G94 ( Millimeters per minute feed rate. )
G21 ( Units == Millimeters. )

G90 ( Absolute coordinates. )
G00 S13000 ( RPM spindle speed. )
G01 F120.00000 ( Feedrate. )


G00 Z15.00000 (Retract to tool change height)
T0
M5      (Spindle stop.)
G04 P1.00000 (Wait for spindle to stop)
(MSG, Change tool bit to mill diameter 0.45360mm)
M6      (Tool change.)
M0      (Temporary machine stop.)
M3 ( Spindle on clockwise. )
G04 P1.00000 (Wait for spindle to get up to speed)
G04 P0 ( dwell for no time -- G64 should not smooth over this point )
G00 Z2.00000 ( retract )

G00 X-2.87630 Y-4.60639 ( rapid move to begin. )
G01 F60.00000
( Mill infeed pass 1/2 )
G01 Z-0.05000
G04 P0 ( dwell for no time -- G64 should not smooth over this point )
G01 F120.00000
G01 X-2.87630 Y-4.60639
G01 X-2.87630 Y-4.39354
G01 X-2.90406 Y-4.18252
G01 X-2.95915 Y-3.97693
G01 X-3.04058 Y-3.78028
G01 X-3.14703 Y-3.59595
G01 X-3.27657 Y-3.42709
G01 X-3.42709 Y-3.27660
G01 X-3.59595 Y-3.14703
G01 X-3.78028 Y-3.04061
G01 X-3.97693 Y-2.95915
G01 X-4.18252 Y-2.90406
G01 X-4.39354 Y-2.87630
G01 X-4.60639 Y-2.87630
G01 X-4.81741 Y-2.90406
G01 X-5.02303 Y-2.95915
G01 X-5.21965 Y-3.04058
G01 X-5.40398 Y-3.14703
G01 X-5.57286 Y-3.27657
G01 X-5.72336 Y-3.42709
G01 X-5.85292 Y-3.59595
G01 X-5.95935 Y-3.78028
G01 X-6.04081 Y-3.97693
G01 X-6.09590 Y-4.18252
G01 X-6.12366 Y-4.39354
G01 X-6.12366 Y-4.60642
G01 X-6.09590 Y-4.81744
G01 X-6.04081 Y-5.02300
G01 X-5.95935 Y-5.21967
G01 X-5.85292 Y-5.40398
G01 X-5.72336 Y-5.57284
G01 X-5.57284 Y-5.72336
G01 X-5.40398 Y-5.85292
G01 X-5.21967 Y-5.95935
G01 X-5.02300 Y-6.04081
G01 X-4.81744 Y-6.09590
G01 X-4.60642 Y-6.12366
G01 X-4.39354 Y-6.12366
G01 X-4.18252 Y-6.09590
G01 X-3.97693 Y-6.04081
G01 X-3.78028 Y-5.95935
G01 X-3.59595 Y-5.85292
G01 X-3.42709 Y-5.72336
G01 X-3.27657 Y-5.57286
G01 X-3.14703 Y-5.40398
G01 X-3.04058 Y-5.21965
G01 X-2.95915 Y-5.02303
G01 X-2.90406 Y-4.81741
G01 X-2.87630 Y-4.60639
G01 X-3.10304 Y-4.59156
G01 X-3.10256 Y-4.40837
G01 X-3.12646 Y-4.22674
G01 X-3.17388 Y-4.04980
G01 X-3.24396 Y-3.88059
G01 X-3.33555 Y-3.72194
G01 X-3.44706 Y-3.57662
G01 X-3.57660 Y-3.44708
G01 X-3.72194 Y-3.33558
G01 X-3.88059 Y-3.24399
G01 X-4.04983 Y-3.17386
G01 X-4.22674 Y-3.12646
G01 X-4.40837 Y-3.10256
G01 X-4.59158 Y-3.10256
G01 X-4.77319 Y-3.12646
G01 X-4.95016 Y-3.17388
G01 X-5.11934 Y-3.24396
G01 X-5.27799 Y-3.33558
G01 X-5.42336 Y-3.44708
G01 X-5.55287 Y-3.57660
G01 X-5.66438 Y-3.72194
G01 X-5.75597 Y-3.88059
G01 X-5.82610 Y-4.04983
G01 X-5.87350 Y-4.22674
G01 X-5.89740 Y-4.40837
G01 X-5.89740 Y-4.59158
G01 X-5.87350 Y-4.77319
G01 X-5.82610 Y-4.95010
G01 X-5.75597 Y-5.11937
G01 X-5.66438 Y-5.27799
G01 X-5.55287 Y-5.42333
G01 X-5.42333 Y-5.55287
G01 X-5.27799 Y-5.66438
G01 X-5.11937 Y-5.75597
G01 X-4.95010 Y-5.82610
G01 X-4.77319 Y-5.87350
G01 X-4.59158 Y-5.89740
G01 X-4.40837 Y-5.89740
G01 X-4.22674 Y-5.87350
G01 X-4.04983 Y-5.82610
G01 X-3.88059 Y-5.75597
G01 X-3.72194 Y-5.66438
G01 X-3.57660 Y-5.55287
G01 X-3.44708 Y-5.42336
G01 X-3.33558 Y-5.27799
G01 X-3.24396 Y-5.11934
G01 X-3.17388 Y-4.95016
G01 X-3.12646 Y-4.77319
G01 X-3.10304 Y-4.59156
G01 X-3.32981 Y-4.57670
G01 X-3.32870 Y-4.42323
G01 X-3.34874 Y-4.27093
G01 X-3.38953 Y-4.12300
G01 X-3.44645 Y-3.98043
G01 X-3.52491 Y-3.84846
G01 X-3.61744 Y-3.72608
G01 X-3.72643 Y-3.61795
G01 X-3.84787 Y-3.52400
G01 X-3.98130 Y-3.44823
G01 X-4.12265 Y-3.38849
G01 X-4.27098 Y-3.34874
G01 X-4.42326 Y-3.32981
G01 X-4.57672 Y-3.32870
G01 X-4.72902 Y-3.34874
G01 X-4.87695 Y-3.38953
G01 X-5.01947 Y-3.44645
G01 X-5.15148 Y-3.52491
G01 X-5.27390 Y-3.61744
G01 X-5.38201 Y-3.72643
G01 X-5.47596 Y-3.84787
G01 X-5.55173 Y-3.98130
G01 X-5.61147 Y-4.12265
G01 X-5.65122 Y-4.27098
G01 X-5.67014 Y-4.42326
G01 X-5.67126 Y-4.57672
G01 X-5.65122 Y-4.72902
G01 X-5.61045 Y-4.87690
G01 X-5.55348 Y-5.01952
G01 X-5.47505 Y-5.15148
G01 X-5.38249 Y-5.27388
G01 X-5.27388 Y-5.38249
G01 X-5.15148 Y-5.47505
G01 X-5.01917 Y-5.55269
G01 X-4.87705 Y-5.61091
G01 X-4.72895 Y-5.65122
G01 X-4.57670 Y-5.67014
G01 X-4.42323 Y-5.67126
G01 X-4.27093 Y-5.65122
G01 X-4.12303 Y-5.61045
G01 X-3.98087 Y-5.55274
G01 X-3.84780 Y-5.47594
G01 X-3.72674 Y-5.38165
G01 X-3.61683 Y-5.27449
G01 X-3.52491 Y-5.15148
G01 X-3.44724 Y-5.01914
G01 X-3.38907 Y-4.87710
G01 X-3.34874 Y-4.72895
G01 X-3.32981 Y-4.57670
G01 X-3.55656 Y-4.56184
G01 X-3.55547 Y-4.43809
G01 X-3.57162 Y-4.31526
G01 X-3.60472 Y-4.19603
G01 X-3.65102 Y-4.08137
G01 X-3.71345 Y-3.97444
G01 X-3.78833 Y-3.87584
G01 X-3.87657 Y-3.78915
G01 X-3.97360 Y-3.71224
G01 X-4.08181 Y-3.65204
G01 X-4.19570 Y-3.60368
G01 X-4.31541 Y-3.57221
G01 X-4.43809 Y-3.55547
G01 X-4.56184 Y-3.55656
G01 X-4.68483 Y-3.57078
G01 X-4.80390 Y-3.60472
G01 X-4.91856 Y-3.65100
G01 X-5.02552 Y-3.71345
G01 X-5.12412 Y-3.78836
G01 X-5.21081 Y-3.87657
G01 X-5.28772 Y-3.97360
G01 X-5.34792 Y-4.08181
G01 X-5.39628 Y-4.19570
G01 X-5.42775 Y-4.31541
G01 X-5.44449 Y-4.43809
G01 X-5.44340 Y-4.56184
G01 X-5.42917 Y-4.68483
G01 X-5.39526 Y-4.80385
G01 X-5.34894 Y-4.91858
G01 X-5.28698 Y-5.02585
G01 X-5.21081 Y-5.12336
G01 X-5.12409 Y-5.21160
G01 X-5.02549 Y-5.28650
G01 X-4.91858 Y-5.34894
G01 X-4.80385 Y-5.39526
G01 X-4.68483 Y-5.42917
G01 X-4.56184 Y-5.44340
G01 X-4.43809 Y-5.44449
G01 X-4.31541 Y-5.42775
G01 X-4.19570 Y-5.39628
G01 X-4.08181 Y-5.34792
G01 X-3.97360 Y-5.28772
G01 X-3.87657 Y-5.21081
G01 X-3.78836 Y-5.12412
G01 X-3.71345 Y-5.02552
G01 X-3.65100 Y-4.91856
G01 X-3.60472 Y-4.80390
G01 X-3.57078 Y-4.68483
G01 X-3.55656 Y-4.56184
G01 X-3.78330 Y-4.54698
G01 X-3.78221 Y-4.45292
G01 X-3.79451 Y-4.35958
G01 X-3.81988 Y-4.26908
G01 X-3.85483 Y-4.18188
G01 X-3.90241 Y-4.10070
G01 X-3.95920 Y-4.02567
G01 X-4.02641 Y-3.96001
G01 X-4.10030 Y-3.90192
G01 X-4.18188 Y-3.85483
G01 X-4.26913 Y-3.81988
G01 X-4.35958 Y-3.79451
G01 X-4.45292 Y-3.78221
G01 X-4.54698 Y-3.78330
G01 X-4.64050 Y-3.79364
G01 X-4.73088 Y-3.81988
G01 X-4.81805 Y-3.85481
G01 X-4.89925 Y-3.90241
G01 X-4.97431 Y-3.95922
G01 X-5.03994 Y-4.02641
G01 X-5.09803 Y-4.10030
G01 X-5.14513 Y-4.18188
G01 X-5.18008 Y-4.26913
G01 X-5.20545 Y-4.35958
G01 X-5.21774 Y-4.45292
G01 X-5.21665 Y-4.54698
G01 X-5.20631 Y-4.64050
G01 X-5.18008 Y-4.73080
G01 X-5.14513 Y-4.81808
G01 X-5.09803 Y-4.89961
G01 X-5.03994 Y-4.97352
G01 X-4.97426 Y-5.04076
G01 X-4.89923 Y-5.09755
G01 X-4.81808 Y-5.14513
G01 X-4.73080 Y-5.18008
G01 X-4.64050 Y-5.20631
G01 X-4.54698 Y-5.21665
G01 X-4.45292 Y-5.21774
G01 X-4.35958 Y-5.20545
G01 X-4.26913 Y-5.18008
G01 X-4.18188 Y-5.14513
G01 X-4.10030 Y-5.09803
G01 X-4.02641 Y-5.03994
G01 X-3.95922 Y-4.97431
G01 X-3.90241 Y-4.89925
G01 X-3.85481 Y-4.81805
G01 X-3.81988 Y-4.73088
G01 X-3.79364 Y-4.64050
G01 X-3.78330 Y-4.54698
G01 X-4.01008 Y-4.53212
G01 X-4.01008 Y-4.46783
G01 X-4.01846 Y-4.40416
G01 X-4.01409 Y-4.40329
G01 X-4.01846 Y-4.40416
G01 X-4.03507 Y-4.34213
G01 X-4.05963 Y-4.28282
G01 X-4.09174 Y-4.22722
G01 X-4.08805 Y-4.22476
G01 X-4.09174 Y-4.22722
G01 X-4.13085 Y-4.17627
G01 X-4.17624 Y-4.13085
G01 X-4.22719 Y-4.09176
G01 X-4.22473 Y-4.08808
G01 X-4.22719 Y-4.09176
G01 X-4.28282 Y-4.05966
G01 X-4.34218 Y-4.03507
G01 X-4.40416 Y-4.01846
G01 X-4.40329 Y-4.01409
G01 X-4.40416 Y-4.01846
G01 X-4.46783 Y-4.01008
G01 X-4.53212 Y-4.01008
G01 X-4.59577 Y-4.01846
G01 X-4.59666 Y-4.01409
G01 X-4.59577 Y-4.01846
G01 X-4.65783 Y-4.03507
G01 X-4.71708 Y-4.05961
G01 X-4.77274 Y-4.09176
G01 X-4.77520 Y-4.08808
G01 X-4.77274 Y-4.09176
G01 X-4.82374 Y-4.13088
G01 X-4.86910 Y-4.17624
G01 X-4.90819 Y-4.22719
G01 X-4.91188 Y-4.22473
G01 X-4.90819 Y-4.22719
G01 X-4.94030 Y-4.28282
G01 X-4.96489 Y-4.34218
G01 X-4.98150 Y-4.40416
G01 X-4.98587 Y-4.40329
G01 X-4.98150 Y-4.40416
G01 X-4.98988 Y-4.46783
G01 X-4.98988 Y-4.53212
G01 X-4.98150 Y-4.59577
G01 X-4.98587 Y-4.59664
G01 X-4.98150 Y-4.59577
G01 X-4.96489 Y-4.65775
G01 X-4.94030 Y-4.71711
G01 X-4.90822 Y-4.77271
G01 X-4.91190 Y-4.77517
G01 X-4.90822 Y-4.77271
G01 X-4.86910 Y-4.82369
G01 X-4.82369 Y-4.86910
G01 X-4.77271 Y-4.90822
G01 X-4.77517 Y-4.91190
G01 X-4.77271 Y-4.90822
G01 X-4.71711 Y-4.94030
G01 X-4.65775 Y-4.96489
G01 X-4.59577 Y-4.98150
G01 X-4.59664 Y-4.98587
G01 X-4.59577 Y-4.98150
G01 X-4.53212 Y-4.98988
G01 X-4.46783 Y-4.98988
G01 X-4.40416 Y-4.98150
G01 X-4.40329 Y-4.98587
G01 X-4.40416 Y-4.98150
G01 X-4.34218 Y-4.96489
G01 X-4.28282 Y-4.94030
G01 X-4.22719 Y-4.90819
G01 X-4.22473 Y-4.91188
G01 X-4.22719 Y-4.90819
G01 X-4.17624 Y-4.86910
G01 X-4.13088 Y-4.82374
G01 X-4.09176 Y-4.77274
G01 X-4.08808 Y-4.77520
G01 X-4.09176 Y-4.77274
G01 X-4.05961 Y-4.71708
G01 X-4.03507 Y-4.65783
G01 X-4.01846 Y-4.59577
G01 X-4.01409 Y-4.59666
G01 X-4.01846 Y-4.59577
G01 X-4.01008 Y-4.53212
G01 X-4.23240 Y-4.51754
G01 X-4.45041 Y-4.52432
G01 X-4.46723 Y-4.51604
G01 X-4.47591 Y-4.52740
G01 X-4.48828 Y-4.53453
G01 X-4.48226 Y-4.55226
G01 X-4.48828 Y-4.53453
G01 X-4.50243 Y-4.53636
G01 X-4.51609 Y-4.53271
G01 X-4.52435 Y-4.54944
G01 X-4.51609 Y-4.53271
G01 X-4.52740 Y-4.52402
G01 X-4.53453 Y-4.51165
G01 X-4.55224 Y-4.51767
G01 X-4.53453 Y-4.51165
G01 X-4.53636 Y-4.49753
G01 X-4.53271 Y-4.48386
G01 X-4.54939 Y-4.47561
G01 X-4.53271 Y-4.48386
G01 X-4.52407 Y-4.47258
G01 X-4.51175 Y-4.46545
G01 X-4.51777 Y-4.44774
G01 X-4.51175 Y-4.46545
G01 X-4.49753 Y-4.46359
G01 X-4.48386 Y-4.46725
G01 X-4.47561 Y-4.45054
G01 X-4.48386 Y-4.46725
G01 X-4.47256 Y-4.47591
G01 X-4.46545 Y-4.48821
G01 X-4.44777 Y-4.48219
G01 X-4.46545 Y-4.48821
G01 X-4.46359 Y-4.50240
G01 X-4.46723 Y-4.51604
G01 X-4.45041 Y-4.52432
G01 X-4.23240 Y-4.51754
G01 X-4.23682 Y-4.51726
G01 X-4.23682 Y-4.48269
G01 X-4.25026 Y-4.41515
G01 X-4.24604 Y-4.41373
G01 X-4.25026 Y-4.41515
G01 X-4.26344 Y-4.38333
G01 X-4.30169 Y-4.32608
G01 X-4.29837 Y-4.32316
G01 X-4.30169 Y-4.32608
G01 X-4.35343 Y-4.28071
G01 X-4.38333 Y-4.26344
G01 X-4.38137 Y-4.25948
G01 X-4.38333 Y-4.26344
G01 X-4.41523 Y-4.25023
G01 X-4.48269 Y-4.23682
G01 X-4.48239 Y-4.23240
G01 X-4.48269 Y-4.23682
G01 X-4.51726 Y-4.23682
G01 X-4.58478 Y-4.25026
G01 X-4.58622 Y-4.24604
G01 X-4.58478 Y-4.25026
G01 X-4.64650 Y-4.28071
G01 X-4.67390 Y-4.30174
G01 X-4.67683 Y-4.29839
G01 X-4.67390 Y-4.30174
G01 X-4.71924 Y-4.35343
G01 X-4.73652 Y-4.38333
G01 X-4.74048 Y-4.38137
G01 X-4.73652 Y-4.38333
G01 X-4.74972 Y-4.41523
G01 X-4.76313 Y-4.48269
G01 X-4.76755 Y-4.48239
G01 X-4.76313 Y-4.48269
G01 X-4.75864 Y-4.55145
G01 X-4.74972 Y-4.58470
G01 X-4.75394 Y-4.58612
G01 X-4.74972 Y-4.58470
G01 X-4.71927 Y-4.64647
G01 X-4.69824 Y-4.67385
G01 X-4.70159 Y-4.67678
G01 X-4.69824 Y-4.67385
G01 X-4.64647 Y-4.71927
G01 X-4.61660 Y-4.73652
G01 X-4.61856 Y-4.74048
G01 X-4.61660 Y-4.73652
G01 X-4.55145 Y-4.75864
G01 X-4.51726 Y-4.76313
G01 X-4.51757 Y-4.76755
G01 X-4.51726 Y-4.76313
G01 X-4.48269 Y-4.76313
G01 X-4.41523 Y-4.74972
G01 X-4.41381 Y-4.75394
G01 X-4.41523 Y-4.74972
G01 X-4.38333 Y-4.73652
G01 X-4.32608 Y-4.69824
G01 X-4.32313 Y-4.70159
G01 X-4.32608 Y-4.69824
G01 X-4.28071 Y-4.64650
G01 X-4.26342 Y-4.61655
G01 X-4.25943 Y-4.61853
G01 X-4.26342 Y-4.61655
G01 X-4.25026 Y-4.58478
G01 X-4.23682 Y-4.51726
( Mill infeed pass 2/2 )
G00 Z2.00000 ( retract )
G00 X-2.87630 Y-4.60639 ( rapid move to begin. )
G01 Z-0.10000
G04 P0 ( dwell for no time -- G64 should not smooth over this point )
G01 F120.00000
G01 X-2.87630 Y-4.60639
G01 X-2.87630 Y-4.39354
G01 X-2.90406 Y-4.18252
G01 X-2.95915 Y-3.97693
G01 X-3.04058 Y-3.78028
G01 X-3.14703 Y-3.59595
G01 X-3.27657 Y-3.42709
G01 X-3.42709 Y-3.27660
G01 X-3.59595 Y-3.14703
G01 X-3.78028 Y-3.04061
G01 X-3.97693 Y-2.95915
G01 X-4.18252 Y-2.90406
G01 X-4.39354 Y-2.87630
G01 X-4.60639 Y-2.87630
G01 X-4.81741 Y-2.90406
G01 X-5.02303 Y-2.95915
G01 X-5.21965 Y-3.04058
G01 X-5.40398 Y-3.14703
G01 X-5.57286 Y-3.27657
G01 X-5.72336 Y-3.42709
G01 X-5.85292 Y-3.59595
G01 X-5.95935 Y-3.78028
G01 X-6.04081 Y-3.97693
G01 X-6.09590 Y-4.18252
G01 X-6.12366 Y-4.39354
G01 X-6.12366 Y-4.60642
G01 X-6.09590 Y-4.81744
G01 X-6.04081 Y-5.02300
G01 X-5.95935 Y-5.21967
G01 X-5.85292 Y-5.40398
G01 X-5.72336 Y-5.57284
G01 X-5.57284 Y-5.72336
G01 X-5.40398 Y-5.85292
G01 X-5.21967 Y-5.95935
G01 X-5.02300 Y-6.04081
G01 X-4.81744 Y-6.09590
G01 X-4.60642 Y-6.12366
G01 X-4.39354 Y-6.12366
G01 X-4.18252 Y-6.09590
G01 X-3.97693 Y-6.04081
G01 X-3.78028 Y-5.95935
G01 X-3.59595 Y-5.85292
G01 X-3.42709 Y-5.72336
G01 X-3.27657 Y-5.57286
G01 X-3.14703 Y-5.40398
G01 X-3.04058 Y-5.21965
G01 X-2.95915 Y-5.02303
G01 X-2.90406 Y-4.81741
G01 X-2.87630 Y-4.60639
G01 X-3.10304 Y-4.59156
G01 X-3.10256 Y-4.40837
G01 X-3.12646 Y-4.22674
G01 X-3.17388 Y-4.04980
G01 X-3.24396 Y-3.88059
G01 X-3.33555 Y-3.72194
G01 X-3.44706 Y-3.57662
G01 X-3.57660 Y-3.44708
G01 X-3.72194 Y-3.33558
G01 X-3.88059 Y-3.24399
G01 X-4.04983 Y-3.17386
G01 X-4.22674 Y-3.12646
G01 X-4.40837 Y-3.10256
G01 X-4.59158 Y-3.10256
G01 X-4.77319 Y-3.12646
G01 X-4.95016 Y-3.17388
G01 X-5.11934 Y-3.24396
G01 X-5.27799 Y-3.33558
G01 X-5.42336 Y-3.44708
G01 X-5.55287 Y-3.57660
G01 X-5.66438 Y-3.72194
G01 X-5.75597 Y-3.88059
G01 X-5.82610 Y-4.04983
G01 X-5.87350 Y-4.22674
G01 X-5.89740 Y-4.40837
G01 X-5.89740 Y-4.59158
G01 X-5.87350 Y-4.77319
G01 X-5.82610 Y-4.95010
G01 X-5.75597 Y-5.11937
G01 X-5.66438 Y-5.27799
G01 X-5.55287 Y-5.42333
G01 X-5.42333 Y-5.55287
G01 X-5.27799 Y-5.66438
G01 X-5.11937 Y-5.75597
G01 X-4.95010 Y-5.82610
G01 X-4.77319 Y-5.87350
G01 X-4.59158 Y-5.89740
G01 X-4.40837 Y-5.89740
G01 X-4.22674 Y-5.87350
G01 X-4.04983 Y-5.82610
G01 X-3.88059 Y-5.75597
G01 X-3.72194 Y-5.66438
G01 X-3.57660 Y-5.55287
G01 X-3.44708 Y-5.42336
G01 X-3.33558 Y-5.27799
G01 X-3.24396 Y-5.11934
G01 X-3.17388 Y-4.95016
G01 X-3.12646 Y-4.77319
G01 X-3.10304 Y-4.59156
G01 X-3.32981 Y-4.57670
G01 X-3.32870 Y-4.42323
G01 X-3.34874 Y-4.27093
G01 X-3.38953 Y-4.12300
G01 X-3.44645 Y-3.98043
G01 X-3.52491 Y-3.84846
G01 X-3.61744 Y-3.72608
G01 X-3.72643 Y-3.61795
G01 X-3.84787 Y-3.52400
G01 X-3.98130 Y-3.44823
G01 X-4.12265 Y-3.38849
G01 X-4.27098 Y-3.34874
G01 X-4.42326 Y-3.32981
G01 X-4.57672 Y-3.32870
G01 X-4.72902 Y-3.34874
G01 X-4.87695 Y-3.38953
G01 X-5.01947 Y-3.44645
G01 X-5.15148 Y-3.52491
G01 X-5.27390 Y-3.61744
G01 X-5.38201 Y-3.72643
G01 X-5.47596 Y-3.84787
G01 X-5.55173 Y-3.98130
G01 X-5.61147 Y-4.12265
G01 X-5.65122 Y-4.27098
G01 X-5.67014 Y-4.42326
G01 X-5.67126 Y-4.57672
G01 X-5.65122 Y-4.72902
G01 X-5.61045 Y-4.87690
G01 X-5.55348 Y-5.01952
G01 X-5.47505 Y-5.15148
G01 X-5.38249 Y-5.27388
G01 X-5.27388 Y-5.38249
G01 X-5.15148 Y-5.47505
G01 X-5.01917 Y-5.55269
G01 X-4.87705 Y-5.61091
G01 X-4.72895 Y-5.65122
G01 X-4.57670 Y-5.67014
G01 X-4.42323 Y-5.67126
G01 X-4.27093 Y-5.65122
G01 X-4.12303 Y-5.61045
G01 X-3.98087 Y-5.55274
G01 X-3.84780 Y-5.47594
G01 X-3.72674 Y-5.38165
G01 X-3.61683 Y-5.27449
G01 X-3.52491 Y-5.15148
G01 X-3.44724 Y-5.01914
G01 X-3.38907 Y-4.87710
G01 X-3.34874 Y-4.72895
G01 X-3.32981 Y-4.57670
G01 X-3.55656 Y-4.56184
G01 X-3.55547 Y-4.43809
G01 X-3.57162 Y-4.31526
G01 X-3.60472 Y-4.19603
G01 X-3.65102 Y-4.08137
G01 X-3.71345 Y-3.97444
G01 X-3.78833 Y-3.87584
G01 X-3.87657 Y-3.78915
G01 X-3.97360 Y-3.71224
G01 X-4.08181 Y-3.65204
G01 X-4.19570 Y-3.60368
G01 X-4.31541 Y-3.57221
G01 X-4.43809 Y-3.55547
G01 X-4.56184 Y-3.55656
G01 X-4.68483 Y-3.57078
G01 X-4.80390 Y-3.60472
G01 X-4.91856 Y-3.65100
G01 X-5.02552 Y-3.71345
G01 X-5.12412 Y-3.78836
G01 X-5.21081 Y-3.87657
G01 X-5.28772 Y-3.97360
G01 X-5.34792 Y-4.08181
G01 X-5.39628 Y-4.19570
G01 X-5.42775 Y-4.31541
G01 X-5.44449 Y-4.43809
G01 X-5.44340 Y-4.56184
G01 X-5.42917 Y-4.68483
G01 X-5.39526 Y-4.80385
G01 X-5.34894 Y-4.91858
G01 X-5.28698 Y-5.02585
G01 X-5.21081 Y-5.12336
G01 X-5.12409 Y-5.21160
G01 X-5.02549 Y-5.28650
G01 X-4.91858 Y-5.34894
G01 X-4.80385 Y-5.39526
G01 X-4.68483 Y-5.42917
G01 X-4.56184 Y-5.44340
G01 X-4.43809 Y-5.44449
G01 X-4.31541 Y-5.42775
G01 X-4.19570 Y-5.39628
G01 X-4.08181 Y-5.34792
G01 X-3.97360 Y-5.28772
G01 X-3.87657 Y-5.21081
G01 X-3.78836 Y-5.12412
G01 X-3.71345 Y-5.02552
G01 X-3.65100 Y-4.91856
G01 X-3.60472 Y-4.80390
G01 X-3.57078 Y-4.68483
G01 X-3.55656 Y-4.56184
G01 X-3.78330 Y-4.54698
G01 X-3.78221 Y-4.45292
G01 X-3.79451 Y-4.35958
G01 X-3.81988 Y-4.26908
G01 X-3.85483 Y-4.18188
G01 X-3.90241 Y-4.10070
G01 X-3.95920 Y-4.02567
G01 X-4.02641 Y-3.96001
G01 X-4.10030 Y-3.90192
G01 X-4.18188 Y-3.85483
G01 X-4.26913 Y-3.81988
G01 X-4.35958 Y-3.79451
G01 X-4.45292 Y-3.78221
G01 X-4.54698 Y-3.78330
G01 X-4.64050 Y-3.79364
G01 X-4.73088 Y-3.81988
G01 X-4.81805 Y-3.85481
G01 X-4.89925 Y-3.90241
G01 X-4.97431 Y-3.95922
G01 X-5.03994 Y-4.02641
G01 X-5.09803 Y-4.10030
G01 X-5.14513 Y-4.18188
G01 X-5.18008 Y-4.26913
G01 X-5.20545 Y-4.35958
G01 X-5.21774 Y-4.45292
G01 X-5.21665 Y-4.54698
G01 X-5.20631 Y-4.64050
G01 X-5.18008 Y-4.73080
G01 X-5.14513 Y-4.81808
G01 X-5.09803 Y-4.89961
G01 X-5.03994 Y-4.97352
G01 X-4.97426 Y-5.04076
G01 X-4.89923 Y-5.09755
G01 X-4.81808 Y-5.14513
G01 X-4.73080 Y-5.18008
G01 X-4.64050 Y-5.20631
G01 X-4.54698 Y-5.21665
G01 X-4.45292 Y-5.21774
G01 X-4.35958 Y-5.20545
G01 X-4.26913 Y-5.18008
G01 X-4.18188 Y-5.14513
G01 X-4.10030 Y-5.09803
G01 X-4.02641 Y-5.03994
G01 X-3.95922 Y-4.97431
G01 X-3.90241 Y-4.89925
G01 X-3.85481 Y-4.81805
G01 X-3.81988 Y-4.73088
G01 X-3.79364 Y-4.64050
G01 X-3.78330 Y-4.54698
G01 X-4.01008 Y-4.53212
G01 X-4.01008 Y-4.46783
G01 X-4.01846 Y-4.40416
G01 X-4.01409 Y-4.40329
G01 X-4.01846 Y-4.40416
G01 X-4.03507 Y-4.34213
G01 X-4.05963 Y-4.28282
G01 X-4.09174 Y-4.22722
G01 X-4.08805 Y-4.22476
G01 X-4.09174 Y-4.22722
G01 X-4.13085 Y-4.17627
G01 X-4.17624 Y-4.13085
G01 X-4.22719 Y-4.09176
G01 X-4.22473 Y-4.08808
G01 X-4.22719 Y-4.09176
G01 X-4.28282 Y-4.05966
G01 X-4.34218 Y-4.03507
G01 X-4.40416 Y-4.01846
G01 X-4.40329 Y-4.01409
G01 X-4.40416 Y-4.01846
G01 X-4.46783 Y-4.01008
G01 X-4.53212 Y-4.01008
G01 X-4.59577 Y-4.01846
G01 X-4.59666 Y-4.01409
G01 X-4.59577 Y-4.01846
G01 X-4.65783 Y-4.03507
G01 X-4.71708 Y-4.05961
G01 X-4.77274 Y-4.09176
G01 X-4.77520 Y-4.08808
G01 X-4.77274 Y-4.09176
G01 X-4.82374 Y-4.13088
G01 X-4.86910 Y-4.17624
G01 X-4.90819 Y-4.22719
G01 X-4.91188 Y-4.22473
G01 X-4.90819 Y-4.22719
G01 X-4.94030 Y-4.28282
G01 X-4.96489 Y-4.34218
G01 X-4.98150 Y-4.40416
G01 X-4.98587 Y-4.40329
G01 X-4.98150 Y-4.40416
G01 X-4.98988 Y-4.46783
G01 X-4.98988 Y-4.53212
G01 X-4.98150 Y-4.59577
G01 X-4.98587 Y-4.59664
G01 X-4.98150 Y-4.59577
G01 X-4.96489 Y-4.65775
G01 X-4.94030 Y-4.71711
G01 X-4.90822 Y-4.77271
G01 X-4.91190 Y-4.77517
G01 X-4.90822 Y-4.77271
G01 X-4.86910 Y-4.82369
G01 X-4.82369 Y-4.86910
G01 X-4.77271 Y-4.90822
G01 X-4.77517 Y-4.91190
G01 X-4.77271 Y-4.90822
G01 X-4.71711 Y-4.94030
G01 X-4.65775 Y-4.96489
G01 X-4.59577 Y-4.98150
G01 X-4.59664 Y-4.98587
G01 X-4.59577 Y-4.98150
G01 X-4.53212 Y-4.98988
G01 X-4.46783 Y-4.98988
G01 X-4.40416 Y-4.98150
G01 X-4.40329 Y-4.98587
G01 X-4.40416 Y-4.98150
G01 X-4.34218 Y-4.96489
G01 X-4.28282 Y-4.94030
G01 X-4.22719 Y-4.90819
G01 X-4.22473 Y-4.91188
G01 X-4.22719 Y-4.90819
G01 X-4.17624 Y-4.86910
G01 X-4.13088 Y-4.82374
G01 X-4.09176 Y-4.77274
G01 X-4.08808 Y-4.77520
G01 X-4.09176 Y-4.77274
G01 X-4.05961 Y-4.71708
G01 X-4.03507 Y-4.65783
G01 X-4.01846 Y-4.59577
G01 X-4.01409 Y-4.59666
G01 X-4.01846 Y-4.59577
G01 X-4.01008 Y-4.53212
G01 X-4.23240 Y-4.51754
G01 X-4.45041 Y-4.52432
G01 X-4.46723 Y-4.51604
G01 X-4.47591 Y-4.52740
G01 X-4.48828 Y-4.53453
G01 X-4.48226 Y-4.55226
G01 X-4.48828 Y-4.53453
G01 X-4.50243 Y-4.53636
G01 X-4.51609 Y-4.53271
G01 X-4.52435 Y-4.54944
G01 X-4.51609 Y-4.53271
G01 X-4.52740 Y-4.52402
G01 X-4.53453 Y-4.51165
G01 X-4.55224 Y-4.51767
G01 X-4.53453 Y-4.51165
G01 X-4.53636 Y-4.49753
G01 X-4.53271 Y-4.48386
G01 X-4.54939 Y-4.47561
G01 X-4.53271 Y-4.48386
G01 X-4.52407 Y-4.47258
G01 X-4.51175 Y-4.46545
G01 X-4.51777 Y-4.44774
G01 X-4.51175 Y-4.46545
G01 X-4.49753 Y-4.46359
G01 X-4.48386 Y-4.46725
G01 X-4.47561 Y-4.45054
G01 X-4.48386 Y-4.46725
G01 X-4.47256 Y-4.47591
G01 X-4.46545 Y-4.48821
G01 X-4.44777 Y-4.48219
G01 X-4.46545 Y-4.48821
G01 X-4.46359 Y-4.50240
G01 X-4.46723 Y-4.51604
G01 X-4.45041 Y-4.52432
G01 X-4.23240 Y-4.51754
G01 X-4.23682 Y-4.51726
G01 X-4.23682 Y-4.48269
G01 X-4.25026 Y-4.41515
G01 X-4.24604 Y-4.41373
G01 X-4.25026 Y-4.41515
G01 X-4.26344 Y-4.38333
G01 X-4.30169 Y-4.32608
G01 X-4.29837 Y-4.32316
G01 X-4.30169 Y-4.32608
G01 X-4.35343 Y-4.28071
G01 X-4.38333 Y-4.26344
G01 X-4.38137 Y-4.25948
G01 X-4.38333 Y-4.26344
G01 X-4.41523 Y-4.25023
G01 X-4.48269 Y-4.23682
G01 X-4.48239 Y-4.23240
G01 X-4.48269 Y-4.23682
G01 X-4.51726 Y-4.23682
G01 X-4.58478 Y-4.25026
G01 X-4.58622 Y-4.24604
G01 X-4.58478 Y-4.25026
G01 X-4.64650 Y-4.28071
G01 X-4.67390 Y-4.30174
G01 X-4.67683 Y-4.29839
G01 X-4.67390 Y-4.30174
G01 X-4.71924 Y-4.35343
G01 X-4.73652 Y-4.38333
G01 X-4.74048 Y-4.38137
G01 X-4.73652 Y-4.38333
G01 X-4.74972 Y-4.41523
G01 X-4.76313 Y-4.48269
G01 X-4.76755 Y-4.48239
G01 X-4.76313 Y-4.48269
G01 X-4.75864 Y-4.55145
G01 X-4.74972 Y-4.58470
G01 X-4.75394 Y-4.58612
G01 X-4.74972 Y-4.58470
G01 X-4.71927 Y-4.64647
G01 X-4.69824 Y-4.67385
G01 X-4.70159 Y-4.67678
G01 X-4.69824 Y-4.67385
G01 X-4.64647 Y-4.71927
G01 X-4.61660 Y-4.73652
G01 X-4.61856 Y-4.74048
G01 X-4.61660 Y-4.73652
G01 X-4.55145 Y-4.75864
G01 X-4.51726 Y-4.76313
G01 X-4.51757 Y-4.76755
G01 X-4.51726 Y-4.76313
G01 X-4.48269 Y-4.76313
G01 X-4.41523 Y-4.74972
G01 X-4.41381 Y-4.75394
G01 X-4.41523 Y-4.74972
G01 X-4.38333 Y-4.73652
G01 X-4.32608 Y-4.69824
G01 X-4.32313 Y-4.70159
G01 X-4.32608 Y-4.69824
G01 X-4.28071 Y-4.64650
G01 X-4.26342 Y-4.61655
G01 X-4.25943 Y-4.61853
G01 X-4.26342 Y-4.61655
G01 X-4.25026 Y-4.58478
G01 X-4.23682 Y-4.51726
G04 P0 ( dwell for no time -- G64 should not smooth over this point )
G00 Z2.00000 ( retract )

G00 X-14.59931 Y-4.67086 ( rapid move to begin. )
G01 F60.00000
( Mill infeed pass 1/2 )
G01 Z-0.05000
G04 P0 ( dwell for no time -- G64 should not smooth over this point )
G01 F120.00000
G01 X-14.59931 Y-4.67086
G01 X-14.19603 Y-4.26756
G01 X-14.18359 Y-4.27350
G01 X-14.19603 Y-4.26756
G01 X-14.19329 Y-4.24157
G01 X-14.18798 Y-4.23677
G01 X-14.00365 Y-4.08683
G01 X-13.84125 Y-3.96883
G01 X-13.70759 Y-3.88168
G01 X-13.54549 Y-3.78811
G01 X-13.44722 Y-3.73786
G01 X-13.28539 Y-3.66583
G01 X-13.12240 Y-3.60843
G01 X-13.01336 Y-3.53075
G01 X-12.83945 Y-3.45196
G01 X-12.79436 Y-3.43731
G01 X-12.60732 Y-3.39882
G01 X-12.39266 Y-3.39882
G01 X-12.18268 Y-3.44345
G01 X-11.98659 Y-3.53075
G01 X-11.83137 Y-3.64198
G01 X-11.79614 Y-3.67370
G01 X-11.68423 Y-3.79801
G01 X-11.65636 Y-3.83637
G01 X-11.56195 Y-4.00235
G01 X-11.50178 Y-4.18358
G01 X-11.49190 Y-4.22994
G01 X-11.47359 Y-4.41234
G01 X-11.49190 Y-4.61002
G01 X-11.50178 Y-4.65640
G01 X-11.56195 Y-4.83763
G01 X-11.65636 Y-5.00362
G01 X-11.68837 Y-5.04660
G01 X-11.76304 Y-5.24693
G01 X-11.80092 Y-5.33171
G01 X-11.88342 Y-5.49364
G01 X-11.94973 Y-5.60809
G01 X-12.05509 Y-5.77037
G01 X-12.16937 Y-5.92696
G01 X-12.38842 Y-6.19166
G01 X-13.72306 Y-9.41565
G01 X-13.83236 Y-9.52495
G01 X-13.84963 Y-9.51779
G01 X-13.83236 Y-9.52495
G01 X-13.83236 Y-11.61194
G01 X-13.92321 Y-11.75207
G01 X-14.18275 Y-12.19995
G01 X-14.05913 Y-11.98662
G01 X-14.05913 Y-9.43102
G01 X-14.07638 Y-9.42388
G01 X-14.05913 Y-9.43102
G01 X-13.49632 Y-8.86821
G01 X-13.26952 Y-8.32076
G01 X-14.28587 Y-9.33709
G01 X-14.30315 Y-9.32995
G01 X-14.28587 Y-9.33709
G01 X-14.28587 Y-12.40579
G01 X-14.44531 Y-12.76274
G01 X-14.51346 Y-12.94000
G01 X-14.51265 Y-9.24316
G01 X-14.52989 Y-9.23602
G01 X-14.51265 Y-9.24316
G01 X-13.04277 Y-7.77337
G01 X-12.39456 Y-6.20837
G01 X-12.37633 Y-6.17845
G01 X-12.30219 Y-6.09100
G01 X-12.32499 Y-6.11789
G01 X-12.35075 Y-6.11924
G01 X-12.35730 Y-6.10451
G01 X-12.35075 Y-6.11924
G01 X-15.19291 Y-8.96140
G01 X-15.21018 Y-8.95424
G01 X-15.19291 Y-8.96140
G01 X-15.19291 Y-13.48702
G01 X-15.20439 Y-13.49080
G01 X-15.19291 Y-13.48702
G01 X-15.11894 Y-13.57660
G01 X-15.06723 Y-13.65623
G01 X-14.98361 Y-13.80106
G01 X-14.94051 Y-13.88565
G01 X-14.90647 Y-13.97429
G01 X-14.85478 Y-14.13335
G01 X-14.83022 Y-14.22507
G01 X-14.81536 Y-14.31884
G01 X-14.80393 Y-14.42753
G01 X-14.81541 Y-14.43317
G01 X-14.80393 Y-14.42753
G01 X-14.40058 Y-14.83088
G01 X-14.36563 Y-14.90381
G01 X-14.26611 Y-15.08745
G01 X-14.17358 Y-15.23952
G01 X-14.06497 Y-15.39730
G01 X-13.95900 Y-15.53616
G01 X-13.83855 Y-15.67675
G01 X-13.72362 Y-15.79832
G01 X-13.59530 Y-15.91988
G01 X-13.45964 Y-16.03583
G01 X-13.34773 Y-16.12354
G01 X-13.31859 Y-16.14007
G01 X-13.32055 Y-16.14432
G01 X-13.31859 Y-16.14007
G01 X-13.18125 Y-16.17111
G01 X-12.65667 Y-16.29888
G01 X-12.55900 Y-16.36784
G01 X-12.71603 Y-16.29766
G01 X-12.78255 Y-16.27213
G01 X-12.85133 Y-16.25369
G01 X-13.01491 Y-16.21892
G01 X-13.08524 Y-16.20779
G01 X-13.15634 Y-16.20406
G01 X-13.32362 Y-16.20406
G01 X-13.34689 Y-16.20528
G01 X-13.35357 Y-16.22054
G01 X-13.34689 Y-16.20528
G01 X-15.02230 Y-14.52984
G01 X-15.03434 Y-14.53566
G01 X-15.02230 Y-14.52984
G01 X-15.02339 Y-14.50889
G01 X-15.04089 Y-14.34254
G01 X-15.05201 Y-14.27221
G01 X-15.07045 Y-14.20343
G01 X-15.12214 Y-14.04437
G01 X-15.14765 Y-13.97790
G01 X-15.17998 Y-13.91445
G01 X-15.26360 Y-13.76959
G01 X-15.30238 Y-13.70988
G01 X-15.41965 Y-13.57406
G01 X-15.43390 Y-13.57935
G01 X-15.41965 Y-13.57406
G01 X-15.41965 Y-8.86747
G01 X-15.43693 Y-8.86031
G01 X-15.41965 Y-8.86747
G01 X-12.44811 Y-5.89592
G01 X-12.45486 Y-5.88043
G01 X-12.44811 Y-5.89592
G01 X-12.34526 Y-5.89219
G01 X-12.27493 Y-5.88107
G01 X-12.11029 Y-5.84604
G01 X-12.05509 Y-5.77037
G01 X-11.94973 Y-5.60809
G01 X-11.89751 Y-5.51800
G01 X-11.94973 Y-5.60809
G01 X-12.05509 Y-5.77037
G01 X-12.16937 Y-5.92696
G01 X-12.38661 Y-6.19270
G01 X-12.81605 Y-7.22589
G01 X-14.73939 Y-9.14923
G01 X-14.75666 Y-9.14209
G01 X-14.73939 Y-9.14923
G01 X-14.73939 Y-13.32949
G01 X-14.74790 Y-13.33190
G01 X-14.73939 Y-13.32949
G01 X-14.67447 Y-13.42946
G01 X-14.61336 Y-13.53533
G01 X-14.61336 Y-14.15951
G01 X-14.63914 Y-14.06329
G01 X-14.69083 Y-13.90421
G01 X-14.73335 Y-13.79342
G01 X-14.78722 Y-13.68768
G01 X-14.87084 Y-13.54285
G01 X-14.93548 Y-13.44331
G01 X-14.96616 Y-13.40543
G01 X-14.97650 Y-13.40869
G01 X-14.96616 Y-13.40543
G01 X-14.96616 Y-9.05533
G01 X-14.98341 Y-9.04817
G01 X-14.96616 Y-9.05533
G01 X-12.58928 Y-6.67847
G01 X-13.77770 Y-9.54758
G01 X-13.78196 Y-9.54672
G01 X-13.77770 Y-9.54758
G01 X-13.78633 Y-9.59096
G01 X-13.78633 Y-11.54163
G01 X-13.92321 Y-11.75207
G01 X-14.18275 Y-12.19995
G01 X-14.27086 Y-12.37254
G01 X-14.44765 Y-12.76830
G01 X-14.51346 Y-12.94000
G01 X-14.60741 Y-13.21920
G01 X-14.61336 Y-13.25540
G01 X-14.61613 Y-13.25496
G01 X-14.61336 Y-13.25540
G01 X-14.61336 Y-14.28252
G01 X-14.60685 Y-14.32037
G01 X-14.60990 Y-14.32100
G01 X-14.60685 Y-14.32037
G01 X-14.54183 Y-14.50360
G01 X-14.44495 Y-14.73858
G01 X-14.36563 Y-14.90381
G01 X-14.26309 Y-15.09268
G01 X-14.17005 Y-15.24424
G01 X-14.06144 Y-15.40215
G01 X-13.95875 Y-15.53599
G01 X-13.84254 Y-15.67233
G01 X-13.71920 Y-15.80231
G01 X-13.59530 Y-15.91988
G01 X-13.46335 Y-16.03278
G01 X-13.34773 Y-16.12354
G01 X-13.31859 Y-16.14007
G01 X-12.65667 Y-16.29888
G01 X-12.58217 Y-16.35008
G01 X-12.45519 Y-16.44744
G01 X-12.33216 Y-16.55252
G01 X-12.22098 Y-16.65801
G01 X-12.08334 Y-16.80456
G01 X-12.08334 Y-17.68452
G01 X-12.16109 Y-17.76481
G01 X-12.22924 Y-17.84469
G01 X-12.16109 Y-17.76481
G01 X-12.08334 Y-17.68452
G01 X-12.08334 Y-17.19997
G01 X-12.11636 Y-17.12783
G01 X-12.19998 Y-16.98297
G01 X-12.25570 Y-16.90627
G01 X-12.40119 Y-16.74840
G01 X-12.57338 Y-16.62024
G01 X-12.65550 Y-16.57281
G01 X-12.85263 Y-16.48777
G01 X-13.06208 Y-16.44073
G01 X-13.15634 Y-16.43080
G01 X-13.37102 Y-16.43329
G01 X-13.42962 Y-16.44322
G01 X-13.43790 Y-16.46700
G01 X-13.42962 Y-16.44322
G01 X-15.24874 Y-14.62410
G01 X-15.26215 Y-14.63030
G01 X-15.24874 Y-14.62410
G01 X-15.24643 Y-14.57998
G01 X-15.27383 Y-14.31935
G01 X-15.35481 Y-14.07013
G01 X-15.48585 Y-13.84315
G01 X-15.64643 Y-13.66319
G01 X-15.66131 Y-13.66886
G01 X-15.64643 Y-13.66319
G01 X-15.64643 Y-8.77354
G01 X-15.66367 Y-8.76640
G01 X-15.64643 Y-8.77354
G01 X-12.54204 Y-5.66915
G01 X-12.54905 Y-5.65262
G01 X-12.54204 Y-5.66915
G01 X-12.41636 Y-5.66915
G01 X-12.32207 Y-5.65925
G01 X-12.11262 Y-5.61218
G01 X-11.89751 Y-5.51800
G01 X-11.80092 Y-5.33171
G01 X-11.76304 Y-5.24693
G01 X-11.68837 Y-5.04660
G01 X-11.81293 Y-5.18305
G01 X-11.96668 Y-5.29628
G01 X-12.00775 Y-5.32000
G01 X-12.16053 Y-5.38803
G01 X-12.20561 Y-5.40268
G01 X-12.39266 Y-5.44116
G01 X-12.58362 Y-5.44241
G01 X-12.63076 Y-5.43745
G01 X-15.87317 Y-8.67961
G01 X-15.87317 Y-13.77160
G01 X-15.83136 Y-13.80198
G01 X-15.79613 Y-13.83370
G01 X-15.66929 Y-13.97645
G01 X-15.56197 Y-14.16235
G01 X-15.50177 Y-14.34358
G01 X-15.49192 Y-14.38994
G01 X-15.47320 Y-14.57998
G01 X-15.48541 Y-14.70812
G01 X-13.50289 Y-16.69062
G01 X-13.34732 Y-16.65882
G01 X-13.15634 Y-16.65757
G01 X-13.10922 Y-16.66253
G01 X-12.92266 Y-16.70345
G01 X-12.74775 Y-16.77998
G01 X-12.70668 Y-16.80367
G01 X-12.55293 Y-16.91693
G01 X-12.40930 Y-17.07645
G01 X-12.30196 Y-17.26235
G01 X-12.24176 Y-17.44358
G01 X-12.23190 Y-17.48996
G01 X-12.21443 Y-17.65628
G01 X-12.21443 Y-17.70370
G01 X-12.23564 Y-17.89346
G01 X-12.30196 Y-18.09763
G01 X-12.40930 Y-18.28353
G01 X-12.53614 Y-18.42625
G01 X-12.57137 Y-18.45798
G01 X-12.72659 Y-18.56923
G01 X-12.92266 Y-18.65653
G01 X-13.13266 Y-18.70116
G01 X-13.34140 Y-18.70149
G01 X-13.43177 Y-18.74731
G01 X-13.50777 Y-18.70603
G01 X-13.63475 Y-18.62341
G01 X-13.57945 Y-18.64802
G01 X-13.53436 Y-18.66268
G01 X-13.34140 Y-18.70149
G01 X-13.53436 Y-18.66268
G01 X-13.57945 Y-18.64802
G01 X-13.75339 Y-18.56923
G01 X-13.90861 Y-18.45798
G01 X-13.94384 Y-18.42625
G01 X-14.05575 Y-18.30197
G01 X-14.08361 Y-18.26362
G01 X-14.16723 Y-18.11879
G01 X-14.18836 Y-18.06979
G01 X-14.28892 Y-17.90814
G01 X-14.32720 Y-17.83748
G01 X-14.37726 Y-17.73194
G01 X-14.44478 Y-17.66481
G01 X-14.47627 Y-17.58892
G01 X-14.57013 Y-17.39623
G01 X-14.47627 Y-17.58892
G01 X-14.44478 Y-17.66481
G01 X-14.37881 Y-17.73309
G01 X-14.28892 Y-17.90814
G01 X-14.18836 Y-18.06979
G01 X-14.24435 Y-17.89346
G01 X-14.26571 Y-17.70068
G01 X-15.49296 Y-16.47342
G01 X-15.64764 Y-16.39463
G01 X-15.76278 Y-16.34678
G01 X-16.38988 Y-15.72278
G01 X-16.38793 Y-15.71998
G01 X-16.38988 Y-15.72278
G01 X-16.53751 Y-15.65925
G01 X-16.67873 Y-15.58724
G01 X-16.53751 Y-15.65925
G01 X-16.38988 Y-15.72278
G01 X-15.76278 Y-16.34678
G01 X-15.64764 Y-16.39463
G01 X-15.49296 Y-16.47342
G01 X-16.36898 Y-15.59740
G01 X-16.41638 Y-15.60241
G01 X-16.60731 Y-15.60116
G01 X-16.81729 Y-15.55653
G01 X-17.01338 Y-15.46921
G01 X-17.16860 Y-15.35798
G01 X-17.20383 Y-15.32626
G01 X-17.33067 Y-15.18354
G01 X-17.43801 Y-14.99763
G01 X-17.50436 Y-14.79347
G01 X-17.52633 Y-14.58849
G01 X-17.50436 Y-14.36649
G01 X-17.44652 Y-14.18450
G01 X-17.42724 Y-14.14120
G01 X-17.34363 Y-13.99637
G01 X-17.31157 Y-13.95336
G01 X-17.22201 Y-13.71653
G01 X-17.21358 Y-13.67363
G01 X-17.21038 Y-13.67417
G01 X-17.21358 Y-13.67363
G01 X-17.21358 Y-8.42137
G01 X-17.20898 Y-8.30791
G01 X-17.20108 Y-8.22803
G01 X-17.17335 Y-8.07029
G01 X-17.12656 Y-7.90357
G01 X-17.07980 Y-7.77700
G01 X-16.64363 Y-6.72396
G01 X-16.23598 Y-6.31632
G01 X-15.99949 Y-6.19041
G01 X-15.83271 Y-6.08810
G01 X-15.68719 Y-5.98889
G01 X-15.53667 Y-5.87286
G01 X-15.40469 Y-5.75993
G01 X-15.28023 Y-5.64281
G01 X-15.16139 Y-5.51675
G01 X-15.04483 Y-5.38048
G01 X-14.93451 Y-5.23751
G01 X-14.82677 Y-5.07944
G01 X-14.73670 Y-4.93291
G01 X-14.63157 Y-4.73845
G01 X-14.55278 Y-4.57289
G01 X-14.47836 Y-4.39329
G01 X-14.26210 Y-4.30456
G01 X-14.18798 Y-4.23677
G01 X-14.00365 Y-4.08683
G01 X-13.92507 Y-4.02974
G01 X-13.94795 Y-4.11221
G01 X-13.95910 Y-4.18254
G01 X-13.97767 Y-4.36989
G01 X-13.96497 Y-4.37589
G01 X-13.97767 Y-4.36989
G01 X-16.86413 Y-7.25635
G01 X-17.08963 Y-7.80252
G01 X-13.75123 Y-4.46413
G01 X-13.73782 Y-4.47035
G01 X-13.75123 Y-4.46413
G01 X-13.75354 Y-4.41998
G01 X-13.72616 Y-4.15935
G01 X-13.64516 Y-3.91013
G01 X-13.59365 Y-3.81592
G01 X-13.44722 Y-3.73786
G01 X-13.28539 Y-3.66583
G01 X-13.12240 Y-3.60843
G01 X-13.18705 Y-3.65691
G01 X-13.33068 Y-3.81645
G01 X-13.43802 Y-4.00235
G01 X-13.49820 Y-4.18358
G01 X-13.50808 Y-4.22994
G01 X-13.52680 Y-4.41998
G01 X-13.51458 Y-4.54815
G01 X-16.94320 Y-7.97677
G01 X-17.00789 Y-8.05388
G01 X-17.03258 Y-8.09084
G01 X-17.07906 Y-8.18012
G01 X-17.10934 Y-8.27611
G01 X-17.11800 Y-8.31972
G01 X-17.12679 Y-8.42000
G01 X-17.12679 Y-13.77160
G01 X-17.18706 Y-13.81691
G01 X-17.31574 Y-13.95801
( Mill infeed pass 2/2 )
G00 Z2.00000 ( retract )
G00 X-14.59931 Y-4.67086 ( rapid move to begin. )
G01 Z-0.10000
G04 P0 ( dwell for no time -- G64 should not smooth over this point )
G01 F120.00000
G01 X-14.59931 Y-4.67086
G01 X-14.19603 Y-4.26756
G01 X-14.18359 Y-4.27350
G01 X-14.19603 Y-4.26756
G01 X-14.19329 Y-4.24157
G01 X-14.18798 Y-4.23677
G01 X-14.00365 Y-4.08683
G01 X-13.84125 Y-3.96883
G01 X-13.70759 Y-3.88168
G01 X-13.54549 Y-3.78811
G01 X-13.44722 Y-3.73786
G01 X-13.28539 Y-3.66583
G01 X-13.12240 Y-3.60843
G01 X-13.01336 Y-3.53075
G01 X-12.83945 Y-3.45196
G01 X-12.79436 Y-3.43731
G01 X-12.60732 Y-3.39882
G01 X-12.39266 Y-3.39882
G01 X-12.18268 Y-3.44345
G01 X-11.98659 Y-3.53075
G01 X-11.83137 Y-3.64198
G01 X-11.79614 Y-3.67370
G01 X-11.68423 Y-3.79801
G01 X-11.65636 Y-3.83637
G01 X-11.56195 Y-4.00235
G01 X-11.50178 Y-4.18358
G01 X-11.49190 Y-4.22994
G01 X-11.47359 Y-4.41234
G01 X-11.49190 Y-4.61002
G01 X-11.50178 Y-4.65640
G01 X-11.56195 Y-4.83763
G01 X-11.65636 Y-5.00362
G01 X-11.68837 Y-5.04660
G01 X-11.76304 Y-5.24693
G01 X-11.80092 Y-5.33171
G01 X-11.88342 Y-5.49364
G01 X-11.94973 Y-5.60809
G01 X-12.05509 Y-5.77037
G01 X-12.16937 Y-5.92696
G01 X-12.38842 Y-6.19166
G01 X-13.72306 Y-9.41565
G01 X-13.83236 Y-9.52495
G01 X-13.84963 Y-9.51779
G01 X-13.83236 Y-9.52495
G01 X-13.83236 Y-11.61194
G01 X-13.92321 Y-11.75207
G01 X-14.18275 Y-12.19995
G01 X-14.05913 Y-11.98662
G01 X-14.05913 Y-9.43102
G01 X-14.07638 Y-9.42388
G01 X-14.05913 Y-9.43102
G01 X-13.49632 Y-8.86821
G01 X-13.26952 Y-8.32076
G01 X-14.28587 Y-9.33709
G01 X-14.30315 Y-9.32995
G01 X-14.28587 Y-9.33709
G01 X-14.28587 Y-12.40579
G01 X-14.44531 Y-12.76274
G01 X-14.51346 Y-12.94000
G01 X-14.51265 Y-9.24316
G01 X-14.52989 Y-9.23602
G01 X-14.51265 Y-9.24316
G01 X-13.04277 Y-7.77337
G01 X-12.39456 Y-6.20837
G01 X-12.37633 Y-6.17845
G01 X-12.30219 Y-6.09100
G01 X-12.32499 Y-6.11789
G01 X-12.35075 Y-6.11924
G01 X-12.35730 Y-6.10451
G01 X-12.35075 Y-6.11924
G01 X-15.19291 Y-8.96140
G01 X-15.21018 Y-8.95424
G01 X-15.19291 Y-8.96140
G01 X-15.19291 Y-13.48702
G01 X-15.20439 Y-13.49080
G01 X-15.19291 Y-13.48702
G01 X-15.11894 Y-13.57660
G01 X-15.06723 Y-13.65623
G01 X-14.98361 Y-13.80106
G01 X-14.94051 Y-13.88565
G01 X-14.90647 Y-13.97429
G01 X-14.85478 Y-14.13335
G01 X-14.83022 Y-14.22507
G01 X-14.81536 Y-14.31884
G01 X-14.80393 Y-14.42753
G01 X-14.81541 Y-14.43317
G01 X-14.80393 Y-14.42753
G01 X-14.40058 Y-14.83088
G01 X-14.36563 Y-14.90381
G01 X-14.26611 Y-15.08745
G01 X-14.17358 Y-15.23952
G01 X-14.06497 Y-15.39730
G01 X-13.95900 Y-15.53616
G01 X-13.83855 Y-15.67675
G01 X-13.72362 Y-15.79832
G01 X-13.59530 Y-15.91988
G01 X-13.45964 Y-16.03583
G01 X-13.34773 Y-16.12354
G01 X-13.31859 Y-16.14007
G01 X-13.32055 Y-16.14432
G01 X-13.31859 Y-16.14007
G01 X-13.18125 Y-16.17111
G01 X-12.65667 Y-16.29888
G01 X-12.55900 Y-16.36784
G01 X-12.71603 Y-16.29766
G01 X-12.78255 Y-16.27213
G01 X-12.85133 Y-16.25369
G01 X-13.01491 Y-16.21892
G01 X-13.08524 Y-16.20779
G01 X-13.15634 Y-16.20406
G01 X-13.32362 Y-16.20406
G01 X-13.34689 Y-16.20528
G01 X-13.35357 Y-16.22054
G01 X-13.34689 Y-16.20528
G01 X-15.02230 Y-14.52984
G01 X-15.03434 Y-14.53566
G01 X-15.02230 Y-14.52984
G01 X-15.02339 Y-14.50889
G01 X-15.04089 Y-14.34254
G01 X-15.05201 Y-14.27221
G01 X-15.07045 Y-14.20343
G01 X-15.12214 Y-14.04437
G01 X-15.14765 Y-13.97790
G01 X-15.17998 Y-13.91445
G01 X-15.26360 Y-13.76959
G01 X-15.30238 Y-13.70988
G01 X-15.41965 Y-13.57406
G01 X-15.43390 Y-13.57935
G01 X-15.41965 Y-13.57406
G01 X-15.41965 Y-8.86747
G01 X-15.43693 Y-8.86031
G01 X-15.41965 Y-8.86747
G01 X-12.44811 Y-5.89592
G01 X-12.45486 Y-5.88043
G01 X-12.44811 Y-5.89592
G01 X-12.34526 Y-5.89219
G01 X-12.27493 Y-5.88107
G01 X-12.11029 Y-5.84604
G01 X-12.05509 Y-5.77037
G01 X-11.94973 Y-5.60809
G01 X-11.89751 Y-5.51800
G01 X-11.94973 Y-5.60809
G01 X-12.05509 Y-5.77037
G01 X-12.16937 Y-5.92696
G01 X-12.38661 Y-6.19270
G01 X-12.81605 Y-7.22589
G01 X-14.73939 Y-9.14923
G01 X-14.75666 Y-9.14209
G01 X-14.73939 Y-9.14923
G01 X-14.73939 Y-13.32949
G01 X-14.74790 Y-13.33190
G01 X-14.73939 Y-13.32949
G01 X-14.67447 Y-13.42946
G01 X-14.61336 Y-13.53533
G01 X-14.61336 Y-14.15951
G01 X-14.63914 Y-14.06329
G01 X-14.69083 Y-13.90421
G01 X-14.73335 Y-13.79342
G01 X-14.78722 Y-13.68768
G01 X-14.87084 Y-13.54285
G01 X-14.93548 Y-13.44331
G01 X-14.96616 Y-13.40543
G01 X-14.97650 Y-13.40869
G01 X-14.96616 Y-13.40543
G01 X-14.96616 Y-9.05533
G01 X-14.98341 Y-9.04817
G01 X-14.96616 Y-9.05533
G01 X-12.58928 Y-6.67847
G01 X-13.77770 Y-9.54758
G01 X-13.78196 Y-9.54672
G01 X-13.77770 Y-9.54758
G01 X-13.78633 Y-9.59096
G01 X-13.78633 Y-11.54163
G01 X-13.92321 Y-11.75207
G01 X-14.18275 Y-12.19995
G01 X-14.27086 Y-12.37254
G01 X-14.44765 Y-12.76830
G01 X-14.51346 Y-12.94000
G01 X-14.60741 Y-13.21920
G01 X-14.61336 Y-13.25540
G01 X-14.61613 Y-13.25496
G01 X-14.61336 Y-13.25540
G01 X-14.61336 Y-14.28252
G01 X-14.60685 Y-14.32037
G01 X-14.60990 Y-14.32100
G01 X-14.60685 Y-14.32037
G01 X-14.54183 Y-14.50360
G01 X-14.44495 Y-14.73858
G01 X-14.36563 Y-14.90381
G01 X-14.26309 Y-15.09268
G01 X-14.17005 Y-15.24424
G01 X-14.06144 Y-15.40215
G01 X-13.95875 Y-15.53599
G01 X-13.84254 Y-15.67233
G01 X-13.71920 Y-15.80231
G01 X-13.59530 Y-15.91988
G01 X-13.46335 Y-16.03278
G01 X-13.34773 Y-16.12354
G01 X-13.31859 Y-16.14007
G01 X-12.65667 Y-16.29888
G01 X-12.58217 Y-16.35008
G01 X-12.45519 Y-16.44744
G01 X-12.33216 Y-16.55252
G01 X-12.22098 Y-16.65801
G01 X-12.08334 Y-16.80456
G01 X-12.08334 Y-17.68452
G01 X-12.16109 Y-17.76481
G01 X-12.22924 Y-17.84469
G01 X-12.16109 Y-17.76481
G01 X-12.08334 Y-17.68452
G01 X-12.08334 Y-17.19997
G01 X-12.11636 Y-17.12783
G01 X-12.19998 Y-16.98297
G01 X-12.25570 Y-16.90627
G01 X-12.40119 Y-16.74840
G01 X-12.57338 Y-16.62024
G01 X-12.65550 Y-16.57281
G01 X-12.85263 Y-16.48777
G01 X-13.06208 Y-16.44073
G01 X-13.15634 Y-16.43080
G01 X-13.37102 Y-16.43329
G01 X-13.42962 Y-16.44322
G01 X-13.43790 Y-16.46700
G01 X-13.42962 Y-16.44322
G01 X-15.24874 Y-14.62410
G01 X-15.26215 Y-14.63030
G01 X-15.24874 Y-14.62410
G01 X-15.24643 Y-14.57998
G01 X-15.27383 Y-14.31935
G01 X-15.35481 Y-14.07013
G01 X-15.48585 Y-13.84315
G01 X-15.64643 Y-13.66319
G01 X-15.66131 Y-13.66886
G01 X-15.64643 Y-13.66319
G01 X-15.64643 Y-8.77354
G01 X-15.66367 Y-8.76640
G01 X-15.64643 Y-8.77354
G01 X-12.54204 Y-5.66915
G01 X-12.54905 Y-5.65262
G01 X-12.54204 Y-5.66915
G01 X-12.41636 Y-5.66915
G01 X-12.32207 Y-5.65925
G01 X-12.11262 Y-5.61218
G01 X-11.89751 Y-5.51800
G01 X-11.80092 Y-5.33171
G01 X-11.76304 Y-5.24693
G01 X-11.68837 Y-5.04660
G01 X-11.81293 Y-5.18305
G01 X-11.96668 Y-5.29628
G01 X-12.00775 Y-5.32000
G01 X-12.16053 Y-5.38803
G01 X-12.20561 Y-5.40268
G01 X-12.39266 Y-5.44116
G01 X-12.58362 Y-5.44241
G01 X-12.63076 Y-5.43745
G01 X-15.87317 Y-8.67961
G01 X-15.87317 Y-13.77160
G01 X-15.83136 Y-13.80198
G01 X-15.79613 Y-13.83370
G01 X-15.66929 Y-13.97645
G01 X-15.56197 Y-14.16235
G01 X-15.50177 Y-14.34358
G01 X-15.49192 Y-14.38994
G01 X-15.47320 Y-14.57998
G01 X-15.48541 Y-14.70812
G01 X-13.50289 Y-16.69062
G01 X-13.34732 Y-16.65882
G01 X-13.15634 Y-16.65757
G01 X-13.10922 Y-16.66253
G01 X-12.92266 Y-16.70345
G01 X-12.74775 Y-16.77998
G01 X-12.70668 Y-16.80367
G01 X-12.55293 Y-16.91693
G01 X-12.40930 Y-17.07645
G01 X-12.30196 Y-17.26235
G01 X-12.24176 Y-17.44358
G01 X-12.23190 Y-17.48996
G01 X-12.21443 Y-17.65628
G01 X-12.21443 Y-17.70370
G01 X-12.23564 Y-17.89346
G01 X-12.30196 Y-18.09763
G01 X-12.40930 Y-18.28353
G01 X-12.53614 Y-18.42625
G01 X-12.57137 Y-18.45798
G01 X-12.72659 Y-18.56923
G01 X-12.92266 Y-18.65653
G01 X-13.13266 Y-18.70116
G01 X-13.34140 Y-18.70149
G01 X-13.43177 Y-18.74731
G01 X-13.50777 Y-18.70603
G01 X-13.63475 Y-18.62341
G01 X-13.57945 Y-18.64802
G01 X-13.53436 Y-18.66268
G01 X-13.34140 Y-18.70149
G01 X-13.53436 Y-18.66268
G01 X-13.57945 Y-18.64802
G01 X-13.75339 Y-18.56923
G01 X-13.90861 Y-18.45798
G01 X-13.94384 Y-18.42625
G01 X-14.05575 Y-18.30197
G01 X-14.08361 Y-18.26362
G01 X-14.16723 Y-18.11879
G01 X-14.18836 Y-18.06979
G01 X-14.28892 Y-17.90814
G01 X-14.32720 Y-17.83748
G01 X-14.37726 Y-17.73194
G01 X-14.44478 Y-17.66481
G01 X-14.47627 Y-17.58892
G01 X-14.57013 Y-17.39623
G01 X-14.47627 Y-17.58892
G01 X-14.44478 Y-17.66481
G01 X-14.37881 Y-17.73309
G01 X-14.28892 Y-17.90814
G01 X-14.18836 Y-18.06979
G01 X-14.24435 Y-17.89346
G01 X-14.26571 Y-17.70068
G01 X-15.49296 Y-16.47342
G01 X-15.64764 Y-16.39463
G01 X-15.76278 Y-16.34678
G01 X-16.38988 Y-15.72278
G01 X-16.38793 Y-15.71998
G01 X-16.38988 Y-15.72278
G01 X-16.53751 Y-15.65925
G01 X-16.67873 Y-15.58724
G01 X-16.53751 Y-15.65925
G01 X-16.38988 Y-15.72278
G01 X-15.76278 Y-16.34678
G01 X-15.64764 Y-16.39463
G01 X-15.49296 Y-16.47342
G01 X-16.36898 Y-15.59740
G01 X-16.41638 Y-15.60241
G01 X-16.60731 Y-15.60116
G01 X-16.81729 Y-15.55653
G01 X-17.01338 Y-15.46921
G01 X-17.16860 Y-15.35798
G01 X-17.20383 Y-15.32626
G01 X-17.33067 Y-15.18354
G01 X-17.43801 Y-14.99763
G01 X-17.50436 Y-14.79347
G01 X-17.52633 Y-14.58849
G01 X-17.50436 Y-14.36649
G01 X-17.44652 Y-14.18450
G01 X-17.42724 Y-14.14120
G01 X-17.34363 Y-13.99637
G01 X-17.31157 Y-13.95336
G01 X-17.22201 Y-13.71653
G01 X-17.21358 Y-13.67363
G01 X-17.21038 Y-13.67417
G01 X-17.21358 Y-13.67363
G01 X-17.21358 Y-8.42137
G01 X-17.20898 Y-8.30791
G01 X-17.20108 Y-8.22803
G01 X-17.17335 Y-8.07029
G01 X-17.12656 Y-7.90357
G01 X-17.07980 Y-7.77700
G01 X-16.64363 Y-6.72396
G01 X-16.23598 Y-6.31632
G01 X-15.99949 Y-6.19041
G01 X-15.83271 Y-6.08810
G01 X-15.68719 Y-5.98889
G01 X-15.53667 Y-5.87286
G01 X-15.40469 Y-5.75993
G01 X-15.28023 Y-5.64281
G01 X-15.16139 Y-5.51675
G01 X-15.04483 Y-5.38048
G01 X-14.93451 Y-5.23751
G01 X-14.82677 Y-5.07944
G01 X-14.73670 Y-4.93291
G01 X-14.63157 Y-4.73845
G01 X-14.55278 Y-4.57289
G01 X-14.47836 Y-4.39329
G01 X-14.26210 Y-4.30456
G01 X-14.18798 Y-4.23677
G01 X-14.00365 Y-4.08683
G01 X-13.92507 Y-4.02974
G01 X-13.94795 Y-4.11221
G01 X-13.95910 Y-4.18254
G01 X-13.97767 Y-4.36989
G01 X-13.96497 Y-4.37589
G01 X-13.97767 Y-4.36989
G01 X-16.86413 Y-7.25635
G01 X-17.08963 Y-7.80252
G01 X-13.75123 Y-4.46413
G01 X-13.73782 Y-4.47035
G01 X-13.75123 Y-4.46413
G01 X-13.75354 Y-4.41998
G01 X-13.72616 Y-4.15935
G01 X-13.64516 Y-3.91013
G01 X-13.59365 Y-3.81592
G01 X-13.44722 Y-3.73786
G01 X-13.28539 Y-3.66583
G01 X-13.12240 Y-3.60843
G01 X-13.18705 Y-3.65691
G01 X-13.33068 Y-3.81645
G01 X-13.43802 Y-4.00235
G01 X-13.49820 Y-4.18358
G01 X-13.50808 Y-4.22994
G01 X-13.52680 Y-4.41998
G01 X-13.51458 Y-4.54815
G01 X-16.94320 Y-7.97677
G01 X-17.00789 Y-8.05388
G01 X-17.03258 Y-8.09084
G01 X-17.07906 Y-8.18012
G01 X-17.10934 Y-8.27611
G01 X-17.11800 Y-8.31972
G01 X-17.12679 Y-8.42000
G01 X-17.12679 Y-13.77160
G01 X-17.18706 Y-13.81691
G01 X-17.31574 Y-13.95801
G04 P0 ( dwell for no time -- G64 should not smooth over this point )
G00 Z2.00000 ( retract )

G00 X-15.60104 Y-16.67276 ( rapid move to begin. )
G01 F60.00000
( Mill infeed pass 1/2 )
G01 Z-0.05000
G04 P0 ( dwell for no time -- G64 should not smooth over this point )
G01 F120.00000
G01 X-15.60104 Y-16.67276
G01 X-15.46268 Y-16.70345
G01 X-15.26659 Y-16.79075
G01 X-15.09293 Y-16.91693
G01 X-14.96423 Y-17.05801
G01 X-14.93637 Y-17.09636
G01 X-14.84196 Y-17.26235
G01 X-14.78176 Y-17.44358
G01 X-14.77061 Y-17.50225
G01 X-14.68224 Y-17.68381
G01 X-14.64132 Y-17.78196
G01 X-14.64358 Y-17.78345
G01 X-14.64132 Y-17.78196
G01 X-14.62138 Y-17.80891
G01 X-14.56535 Y-17.86491
G01 X-14.48684 Y-18.01884
G01 X-14.37518 Y-18.19834
G01 X-14.48684 Y-18.01884
G01 X-14.56535 Y-17.86491
G01 X-14.62138 Y-17.80891
G01 X-14.64132 Y-17.78196
G01 X-14.68224 Y-17.68381
G01 X-14.77061 Y-17.50225
G01 X-14.75318 Y-17.67997
G01 X-14.76540 Y-17.80812
G01 X-13.76324 Y-18.81025
G01 X-13.62362 Y-18.90100
G01 X-13.52812 Y-18.95302
G01 X-13.48649 Y-19.08703
G01 X-13.76324 Y-18.81025
G01 X-12.78466 Y-19.78983
G01 X-12.74387 Y-19.83755
G01 X-12.69020 Y-19.91987
G01 X-12.67402 Y-19.95157
G01 X-12.63901 Y-20.04342
G01 X-12.61880 Y-20.13958
G01 X-12.61316 Y-20.21997
G01 X-12.61316 Y-24.49162
G01 X-12.55293 Y-24.53693
G01 X-12.42423 Y-24.67800
G01 X-12.39637 Y-24.71636
G01 X-12.31707 Y-24.85367
G01 X-12.26076 Y-24.89195
G01 X-12.10544 Y-24.98242
G01 X-12.09309 Y-25.09233
G01 X-12.08463 Y-25.25362
G01 X-12.08463 Y-25.34630
G01 X-12.09309 Y-25.50762
G01 X-12.10546 Y-25.61760
G01 X-12.17628 Y-25.65563
G01 X-12.31422 Y-25.74135
G01 X-12.29345 Y-25.69545
G01 X-12.23564 Y-25.51346
G01 X-12.21318 Y-25.29997
G01 X-12.23564 Y-25.08651
G01 X-12.29345 Y-24.90452
G01 X-12.31707 Y-24.85367
G01 X-12.29345 Y-24.90452
G01 X-12.24176 Y-25.06358
G01 X-12.23190 Y-25.10996
G01 X-12.21318 Y-25.29997
G01 X-12.23564 Y-25.51346
G01 X-12.30196 Y-25.71763
G01 X-12.39637 Y-25.88362
G01 X-12.42423 Y-25.92197
G01 X-12.53614 Y-26.04625
G01 X-12.57137 Y-26.07795
G01 X-12.61316 Y-26.10833
G01 X-12.61316 Y-29.45326
G01 X-12.59289 Y-29.47319
G01 X-12.61316 Y-29.45326
G01 X-12.61316 Y-29.47319
G01 X-11.69998 Y-29.47319
G01 X-11.65573 Y-29.47754
G01 X-11.61318 Y-29.49044
G01 X-11.57399 Y-29.51142
G01 X-11.53963 Y-29.53962
G01 X-11.51141 Y-29.57398
G01 X-11.49045 Y-29.61320
G01 X-11.47755 Y-29.65574
G01 X-11.47318 Y-29.69999
G01 X-11.47318 Y-30.20941
G01 X-11.36221 Y-30.47733
G01 X-11.36221 Y-30.52260
G01 X-11.47318 Y-30.79052
G01 X-11.47318 Y-30.20941
G01 X-11.47318 Y-31.29999
G01 X-11.47755 Y-31.34423
G01 X-11.49045 Y-31.38678
G01 X-11.51141 Y-31.42600
G01 X-11.53963 Y-31.46036
G01 X-11.57399 Y-31.48856
G01 X-11.61318 Y-31.50951
G01 X-11.65573 Y-31.52244
G01 X-11.69998 Y-31.52678
G01 X-13.30000 Y-31.52678
G01 X-13.34425 Y-31.52244
G01 X-13.38679 Y-31.50951
G01 X-13.42598 Y-31.48856
G01 X-13.46035 Y-31.46036
G01 X-13.48857 Y-31.42600
G01 X-13.50952 Y-31.38678
G01 X-13.52243 Y-31.34423
G01 X-13.52680 Y-31.29999
G01 X-13.52680 Y-30.35958
G01 X-13.68318 Y-30.20319
G01 X-13.76114 Y-30.10819
G01 X-13.81905 Y-29.99984
G01 X-13.84932 Y-29.90385
G01 X-13.85799 Y-29.86024
G01 X-13.86677 Y-29.75999
G01 X-13.86677 Y-26.10838
G01 X-13.90861 Y-26.07800
G01 X-13.94384 Y-26.04625
G01 X-14.07069 Y-25.90353
G01 X-14.17803 Y-25.71763
G01 X-14.24435 Y-25.51346
G01 X-14.26680 Y-25.29997
G01 X-14.24435 Y-25.08651
G01 X-14.17803 Y-24.88235
G01 X-14.07069 Y-24.69645
G01 X-13.94384 Y-24.55372
G01 X-13.90861 Y-24.52197
G01 X-13.86677 Y-24.49159
G01 X-13.86677 Y-20.47959
G01 X-15.64897 Y-18.69740
G01 X-15.69636 Y-18.70240
G01 X-15.88732 Y-18.70116
G01 X-16.09728 Y-18.65653
G01 X-16.29339 Y-18.56923
G01 X-16.44861 Y-18.45798
G01 X-16.48384 Y-18.42625
G01 X-16.61069 Y-18.28353
G01 X-16.70723 Y-18.11879
G01 X-16.72653 Y-18.07545
G01 X-16.77820 Y-17.91640
G01 X-16.78805 Y-17.87002
G01 X-16.80680 Y-17.67997
G01 X-16.79456 Y-17.55181
G01 X-18.60928 Y-15.73611
G01 X-18.67096 Y-15.65958
G01 X-18.71993 Y-15.57437
G01 X-18.75493 Y-15.48252
G01 X-18.77515 Y-15.38635
G01 X-18.78079 Y-15.30599
G01 X-18.78079 Y-6.07398
G01 X-18.77200 Y-5.97370
G01 X-18.76334 Y-5.93009
G01 X-18.74055 Y-5.85506
G01 X-18.72356 Y-5.81398
G01 X-18.68658 Y-5.74482
G01 X-18.66189 Y-5.70786
G01 X-18.61213 Y-5.64723
G01 X-17.51457 Y-4.54812
G01 X-17.52679 Y-4.41998
G01 X-17.50807 Y-4.22994
G01 X-17.49821 Y-4.18358
G01 X-17.44652 Y-4.02450
G01 X-17.42724 Y-3.98120
G01 X-17.33067 Y-3.81645
G01 X-17.20383 Y-3.67370
G01 X-17.16860 Y-3.64198
G01 X-17.01338 Y-3.53075
G01 X-16.81729 Y-3.44345
G01 X-16.60731 Y-3.39882
G01 X-16.41638 Y-3.39758
G01 X-16.36921 Y-3.40253
G01 X-16.18270 Y-3.44345
G01 X-15.98658 Y-3.53075
G01 X-15.81292 Y-3.65691
G01 X-15.68422 Y-3.79801
G01 X-15.65636 Y-3.83637
G01 X-15.56197 Y-4.00235
G01 X-15.50177 Y-4.18358
G01 X-15.49192 Y-4.22994
G01 X-15.47444 Y-4.39628
G01 X-15.47444 Y-4.44370
G01 X-15.49563 Y-4.63347
G01 X-15.56197 Y-4.83763
G01 X-15.66929 Y-5.02354
G01 X-15.81292 Y-5.18305
G01 X-15.98658 Y-5.30921
G01 X-16.18270 Y-5.39653
G01 X-16.39265 Y-5.44116
G01 X-16.58361 Y-5.44241
G01 X-16.63078 Y-5.43745
G01 X-17.52717 Y-6.33359
G01 X-17.52717 Y-15.04635
G01 X-16.78706 Y-15.78646
G01 X-16.63230 Y-15.86527
G01 X-16.51709 Y-15.91318
G01 X-15.89603 Y-16.53286
G01 X-15.89796 Y-16.53558
G01 X-15.89603 Y-16.53286
G01 X-15.87040 Y-16.54764
G01 X-15.74244 Y-16.60065
G01 X-15.60104 Y-16.67276
G01 X-15.69636 Y-16.65757
G01 X-15.86362 Y-16.65757
G01 X-15.91076 Y-16.66253
G01 X-17.52717 Y-15.04635
G01 X-17.52717 Y-13.88313
G01 X-17.44035 Y-13.65133
G01 X-17.43972 Y-8.37517
G01 X-17.42580 Y-8.19749
G01 X-17.39608 Y-8.02307
G01 X-17.34271 Y-7.83496
G01 X-17.30042 Y-7.71886
G01 X-17.30042 Y-6.42752
G01 X-17.31767 Y-6.42038
G01 X-17.30042 Y-6.42752
G01 X-16.54205 Y-5.66915
G01 X-16.54907 Y-5.65262
G01 X-16.54205 Y-5.66915
G01 X-16.36895 Y-5.66669
G01 X-16.11262 Y-5.61218
G01 X-15.87320 Y-5.50560
G01 X-15.69809 Y-5.38145
G01 X-15.62763 Y-5.31800
G01 X-15.48585 Y-5.15681
G01 X-15.37635 Y-4.97215
G01 X-15.33779 Y-4.88554
G01 X-15.28610 Y-4.72648
G01 X-15.26639 Y-4.63372
G01 X-15.24643 Y-4.41998
G01 X-15.27383 Y-4.15935
G01 X-15.35481 Y-3.91013
G01 X-15.40634 Y-3.81589
G01 X-15.29230 Y-3.88173
G01 X-15.15882 Y-3.96875
G01 X-15.07490 Y-4.02974
G01 X-15.05201 Y-4.11221
G01 X-15.04089 Y-4.18254
G01 X-15.02339 Y-4.34889
G01 X-15.01968 Y-4.41998
G01 X-15.02339 Y-4.49110
G01 X-15.04089 Y-4.65742
G01 X-15.05201 Y-4.72775
G01 X-15.07045 Y-4.79654
G01 X-15.12214 Y-4.95562
G01 X-15.14765 Y-5.02209
G01 X-15.17998 Y-5.08554
G01 X-15.26360 Y-5.23037
G01 X-15.30238 Y-5.29008
G01 X-15.34721 Y-5.34543
G01 X-15.45910 Y-5.46971
G01 X-15.50947 Y-5.52008
G01 X-15.56482 Y-5.56489
G01 X-15.70012 Y-5.66318
G01 X-15.75984 Y-5.70197
G01 X-15.82329 Y-5.73430
G01 X-15.97607 Y-5.80233
G01 X-16.04254 Y-5.82785
G01 X-16.11132 Y-5.84629
G01 X-16.27492 Y-5.88107
G01 X-16.34526 Y-5.89219
G01 X-16.44813 Y-5.89592
G01 X-16.45430 Y-5.88267
G01 X-16.44813 Y-5.89592
G01 X-17.07365 Y-6.52142
G01 X-17.09092 Y-6.51426
G01 X-17.07365 Y-6.52142
G01 X-17.07365 Y-7.16963
G01 X-17.30042 Y-7.71886
G01 X-16.84691 Y-6.62219
G01 X-16.84691 Y-6.61538
G01 X-16.85066 Y-6.61286
G01 X-16.84691 Y-6.61538
G01 X-16.84058 Y-6.60908
G01 X-16.84691 Y-6.62219
G01 X-16.83400 Y-6.59674
G01 X-16.81991 Y-6.57957
G01 X-16.37022 Y-6.13184
G01 X-16.34838 Y-6.11914
G01 X-16.35453 Y-6.11947
G01 X-16.26494 Y-6.07644
G01 X-16.11544 Y-5.99529
G01 X-15.95361 Y-5.89625
G01 X-15.81836 Y-5.80329
G01 X-15.68168 Y-5.69849
G01 X-15.55864 Y-5.59338
G01 X-15.43898 Y-5.47987
G01 X-15.32791 Y-5.36283
G01 X-15.21922 Y-5.23550
G01 X-15.12016 Y-5.10639
G01 X-15.01859 Y-4.95846
G01 X-14.93182 Y-4.81688
G01 X-14.83500 Y-4.63819
G01 X-14.80401 Y-4.57330
G01 X-14.79291 Y-4.41998
G01 X-14.80668 Y-4.24155
G01 X-14.79291 Y-4.41998
G01 X-14.80401 Y-4.57330
G01 X-14.76113 Y-4.48335
G01 X-14.70053 Y-4.33713
G01 X-14.81183 Y-4.23690
G01 X-14.99639 Y-4.08676
G01 X-15.15882 Y-3.96875
G01 X-15.29230 Y-3.88173
G01 X-15.45440 Y-3.78813
G01 X-15.55272 Y-3.73786
G01 X-15.71452 Y-3.66583
G01 X-15.87749 Y-3.60845
( Mill infeed pass 2/2 )
G00 Z2.00000 ( retract )
G00 X-15.60104 Y-16.67276 ( rapid move to begin. )
G01 Z-0.10000
G04 P0 ( dwell for no time -- G64 should not smooth over this point )
G01 F120.00000
G01 X-15.60104 Y-16.67276
G01 X-15.46268 Y-16.70345
G01 X-15.26659 Y-16.79075
G01 X-15.09293 Y-16.91693
G01 X-14.96423 Y-17.05801
G01 X-14.93637 Y-17.09636
G01 X-14.84196 Y-17.26235
G01 X-14.78176 Y-17.44358
G01 X-14.77061 Y-17.50225
G01 X-14.68224 Y-17.68381
G01 X-14.64132 Y-17.78196
G01 X-14.64358 Y-17.78345
G01 X-14.64132 Y-17.78196
G01 X-14.62138 Y-17.80891
G01 X-14.56535 Y-17.86491
G01 X-14.48684 Y-18.01884
G01 X-14.37518 Y-18.19834
G01 X-14.48684 Y-18.01884
G01 X-14.56535 Y-17.86491
G01 X-14.62138 Y-17.80891
G01 X-14.64132 Y-17.78196
G01 X-14.68224 Y-17.68381
G01 X-14.77061 Y-17.50225
G01 X-14.75318 Y-17.67997
G01 X-14.76540 Y-17.80812
G01 X-13.76324 Y-18.81025
G01 X-13.62362 Y-18.90100
G01 X-13.52812 Y-18.95302
G01 X-13.48649 Y-19.08703
G01 X-13.76324 Y-18.81025
G01 X-12.78466 Y-19.78983
G01 X-12.74387 Y-19.83755
G01 X-12.69020 Y-19.91987
G01 X-12.67402 Y-19.95157
G01 X-12.63901 Y-20.04342
G01 X-12.61880 Y-20.13958
G01 X-12.61316 Y-20.21997
G01 X-12.61316 Y-24.49162
G01 X-12.55293 Y-24.53693
G01 X-12.42423 Y-24.67800
G01 X-12.39637 Y-24.71636
G01 X-12.31707 Y-24.85367
G01 X-12.26076 Y-24.89195
G01 X-12.10544 Y-24.98242
G01 X-12.09309 Y-25.09233
G01 X-12.08463 Y-25.25362
G01 X-12.08463 Y-25.34630
G01 X-12.09309 Y-25.50762
G01 X-12.10546 Y-25.61760
G01 X-12.17628 Y-25.65563
G01 X-12.31422 Y-25.74135
G01 X-12.29345 Y-25.69545
G01 X-12.23564 Y-25.51346
G01 X-12.21318 Y-25.29997
G01 X-12.23564 Y-25.08651
G01 X-12.29345 Y-24.90452
G01 X-12.31707 Y-24.85367
G01 X-12.29345 Y-24.90452
G01 X-12.24176 Y-25.06358
G01 X-12.23190 Y-25.10996
G01 X-12.21318 Y-25.29997
G01 X-12.23564 Y-25.51346
G01 X-12.30196 Y-25.71763
G01 X-12.39637 Y-25.88362
G01 X-12.42423 Y-25.92197
G01 X-12.53614 Y-26.04625
G01 X-12.57137 Y-26.07795
G01 X-12.61316 Y-26.10833
G01 X-12.61316 Y-29.45326
G01 X-12.59289 Y-29.47319
G01 X-12.61316 Y-29.45326
G01 X-12.61316 Y-29.47319
G01 X-11.69998 Y-29.47319
G01 X-11.65573 Y-29.47754
G01 X-11.61318 Y-29.49044
G01 X-11.57399 Y-29.51142
G01 X-11.53963 Y-29.53962
G01 X-11.51141 Y-29.57398
G01 X-11.49045 Y-29.61320
G01 X-11.47755 Y-29.65574
G01 X-11.47318 Y-29.69999
G01 X-11.47318 Y-30.20941
G01 X-11.36221 Y-30.47733
G01 X-11.36221 Y-30.52260
G01 X-11.47318 Y-30.79052
G01 X-11.47318 Y-30.20941
G01 X-11.47318 Y-31.29999
G01 X-11.47755 Y-31.34423
G01 X-11.49045 Y-31.38678
G01 X-11.51141 Y-31.42600
G01 X-11.53963 Y-31.46036
G01 X-11.57399 Y-31.48856
G01 X-11.61318 Y-31.50951
G01 X-11.65573 Y-31.52244
G01 X-11.69998 Y-31.52678
G01 X-13.30000 Y-31.52678
G01 X-13.34425 Y-31.52244
G01 X-13.38679 Y-31.50951
G01 X-13.42598 Y-31.48856
G01 X-13.46035 Y-31.46036
G01 X-13.48857 Y-31.42600
G01 X-13.50952 Y-31.38678
G01 X-13.52243 Y-31.34423
G01 X-13.52680 Y-31.29999
G01 X-13.52680 Y-30.35958
G01 X-13.68318 Y-30.20319
G01 X-13.76114 Y-30.10819
G01 X-13.81905 Y-29.99984
G01 X-13.84932 Y-29.90385
G01 X-13.85799 Y-29.86024
G01 X-13.86677 Y-29.75999
G01 X-13.86677 Y-26.10838
G01 X-13.90861 Y-26.07800
G01 X-13.94384 Y-26.04625
G01 X-14.07069 Y-25.90353
G01 X-14.17803 Y-25.71763
G01 X-14.24435 Y-25.51346
G01 X-14.26680 Y-25.29997
G01 X-14.24435 Y-25.08651
G01 X-14.17803 Y-24.88235
G01 X-14.07069 Y-24.69645
G01 X-13.94384 Y-24.55372
G01 X-13.90861 Y-24.52197
G01 X-13.86677 Y-24.49159
G01 X-13.86677 Y-20.47959
G01 X-15.64897 Y-18.69740
G01 X-15.69636 Y-18.70240
G01 X-15.88732 Y-18.70116
G01 X-16.09728 Y-18.65653
G01 X-16.29339 Y-18.56923
G01 X-16.44861 Y-18.45798
G01 X-16.48384 Y-18.42625
G01 X-16.61069 Y-18.28353
G01 X-16.70723 Y-18.11879
G01 X-16.72653 Y-18.07545
G01 X-16.77820 Y-17.91640
G01 X-16.78805 Y-17.87002
G01 X-16.80680 Y-17.67997
G01 X-16.79456 Y-17.55181
G01 X-18.60928 Y-15.73611
G01 X-18.67096 Y-15.65958
G01 X-18.71993 Y-15.57437
G01 X-18.75493 Y-15.48252
G01 X-18.77515 Y-15.38635
G01 X-18.78079 Y-15.30599
G01 X-18.78079 Y-6.07398
G01 X-18.77200 Y-5.97370
G01 X-18.76334 Y-5.93009
G01 X-18.74055 Y-5.85506
G01 X-18.72356 Y-5.81398
G01 X-18.68658 Y-5.74482
G01 X-18.66189 Y-5.70786
G01 X-18.61213 Y-5.64723
G01 X-17.51457 Y-4.54812
G01 X-17.52679 Y-4.41998
G01 X-17.50807 Y-4.22994
G01 X-17.49821 Y-4.18358
G01 X-17.44652 Y-4.02450
G01 X-17.42724 Y-3.98120
G01 X-17.33067 Y-3.81645
G01 X-17.20383 Y-3.67370
G01 X-17.16860 Y-3.64198
G01 X-17.01338 Y-3.53075
G01 X-16.81729 Y-3.44345
G01 X-16.60731 Y-3.39882
G01 X-16.41638 Y-3.39758
G01 X-16.36921 Y-3.40253
G01 X-16.18270 Y-3.44345
G01 X-15.98658 Y-3.53075
G01 X-15.81292 Y-3.65691
G01 X-15.68422 Y-3.79801
G01 X-15.65636 Y-3.83637
G01 X-15.56197 Y-4.00235
G01 X-15.50177 Y-4.18358
G01 X-15.49192 Y-4.22994
G01 X-15.47444 Y-4.39628
G01 X-15.47444 Y-4.44370
G01 X-15.49563 Y-4.63347
G01 X-15.56197 Y-4.83763
G01 X-15.66929 Y-5.02354
G01 X-15.81292 Y-5.18305
G01 X-15.98658 Y-5.30921
G01 X-16.18270 Y-5.39653
G01 X-16.39265 Y-5.44116
G01 X-16.58361 Y-5.44241
G01 X-16.63078 Y-5.43745
G01 X-17.52717 Y-6.33359
G01 X-17.52717 Y-15.04635
G01 X-16.78706 Y-15.78646
G01 X-16.63230 Y-15.86527
G01 X-16.51709 Y-15.91318
G01 X-15.89603 Y-16.53286
G01 X-15.89796 Y-16.53558
G01 X-15.89603 Y-16.53286
G01 X-15.87040 Y-16.54764
G01 X-15.74244 Y-16.60065
G01 X-15.60104 Y-16.67276
G01 X-15.69636 Y-16.65757
G01 X-15.86362 Y-16.65757
G01 X-15.91076 Y-16.66253
G01 X-17.52717 Y-15.04635
G01 X-17.52717 Y-13.88313
G01 X-17.44035 Y-13.65133
G01 X-17.43972 Y-8.37517
G01 X-17.42580 Y-8.19749
G01 X-17.39608 Y-8.02307
G01 X-17.34271 Y-7.83496
G01 X-17.30042 Y-7.71886
G01 X-17.30042 Y-6.42752
G01 X-17.31767 Y-6.42038
G01 X-17.30042 Y-6.42752
G01 X-16.54205 Y-5.66915
G01 X-16.54907 Y-5.65262
G01 X-16.54205 Y-5.66915
G01 X-16.36895 Y-5.66669
G01 X-16.11262 Y-5.61218
G01 X-15.87320 Y-5.50560
G01 X-15.69809 Y-5.38145
G01 X-15.62763 Y-5.31800
G01 X-15.48585 Y-5.15681
G01 X-15.37635 Y-4.97215
G01 X-15.33779 Y-4.88554
G01 X-15.28610 Y-4.72648
G01 X-15.26639 Y-4.63372
G01 X-15.24643 Y-4.41998
G01 X-15.27383 Y-4.15935
G01 X-15.35481 Y-3.91013
G01 X-15.40634 Y-3.81589
G01 X-15.29230 Y-3.88173
G01 X-15.15882 Y-3.96875
G01 X-15.07490 Y-4.02974
G01 X-15.05201 Y-4.11221
G01 X-15.04089 Y-4.18254
G01 X-15.02339 Y-4.34889
G01 X-15.01968 Y-4.41998
G01 X-15.02339 Y-4.49110
G01 X-15.04089 Y-4.65742
G01 X-15.05201 Y-4.72775
G01 X-15.07045 Y-4.79654
G01 X-15.12214 Y-4.95562
G01 X-15.14765 Y-5.02209
G01 X-15.17998 Y-5.08554
G01 X-15.26360 Y-5.23037
G01 X-15.30238 Y-5.29008
G01 X-15.34721 Y-5.34543
G01 X-15.45910 Y-5.46971
G01 X-15.50947 Y-5.52008
G01 X-15.56482 Y-5.56489
G01 X-15.70012 Y-5.66318
G01 X-15.75984 Y-5.70197
G01 X-15.82329 Y-5.73430
G01 X-15.97607 Y-5.80233
G01 X-16.04254 Y-5.82785
G01 X-16.11132 Y-5.84629
G01 X-16.27492 Y-5.88107
G01 X-16.34526 Y-5.89219
G01 X-16.44813 Y-5.89592
G01 X-16.45430 Y-5.88267
G01 X-16.44813 Y-5.89592
G01 X-17.07365 Y-6.52142
G01 X-17.09092 Y-6.51426
G01 X-17.07365 Y-6.52142
G01 X-17.07365 Y-7.16963
G01 X-17.30042 Y-7.71886
G01 X-16.84691 Y-6.62219
G01 X-16.84691 Y-6.61538
G01 X-16.85066 Y-6.61286
G01 X-16.84691 Y-6.61538
G01 X-16.84058 Y-6.60908
G01 X-16.84691 Y-6.62219
G01 X-16.83400 Y-6.59674
G01 X-16.81991 Y-6.57957
G01 X-16.37022 Y-6.13184
G01 X-16.34838 Y-6.11914
G01 X-16.35453 Y-6.11947
G01 X-16.26494 Y-6.07644
G01 X-16.11544 Y-5.99529
G01 X-15.95361 Y-5.89625
G01 X-15.81836 Y-5.80329
G01 X-15.68168 Y-5.69849
G01 X-15.55864 Y-5.59338
G01 X-15.43898 Y-5.47987
G01 X-15.32791 Y-5.36283
G01 X-15.21922 Y-5.23550
G01 X-15.12016 Y-5.10639
G01 X-15.01859 Y-4.95846
G01 X-14.93182 Y-4.81688
G01 X-14.83500 Y-4.63819
G01 X-14.80401 Y-4.57330
G01 X-14.79291 Y-4.41998
G01 X-14.80668 Y-4.24155
G01 X-14.79291 Y-4.41998
G01 X-14.80401 Y-4.57330
G01 X-14.76113 Y-4.48335
G01 X-14.70053 Y-4.33713
G01 X-14.81183 Y-4.23690
G01 X-14.99639 Y-4.08676
G01 X-15.15882 Y-3.96875
G01 X-15.29230 Y-3.88173
G01 X-15.45440 Y-3.78813
G01 X-15.55272 Y-3.73786
G01 X-15.71452 Y-3.66583
G01 X-15.87749 Y-3.60845
G04 P0 ( dwell for no time -- G64 should not smooth over this point )
G00 Z2.00000 ( retract )

G00 X-19.85914 Y-5.65554 ( rapid move to begin. )
G01 F60.00000
( Mill infeed pass 1/2 )
G01 Z-0.05000
G04 P0 ( dwell for no time -- G64 should not smooth over this point )
G01 F120.00000
G01 X-19.85914 Y-5.65554
G01 X-19.84085 Y-5.50682
G01 X-19.78246 Y-5.21393
G01 X-19.76410 Y-5.14066
G01 X-19.69361 Y-4.90477
G01 X-19.47949 Y-4.80797
G01 X-18.75846 Y-4.50931
G01 X-19.23857 Y-4.98937
G01 X-19.31327 Y-5.07182
G01 X-19.36303 Y-5.13245
G01 X-19.48652 Y-5.31726
G01 X-19.57106 Y-5.48698
G01 X-19.60855 Y-5.59176
G01 X-19.63130 Y-5.66679
G01 X-19.67466 Y-5.88480
G01 X-19.68236 Y-5.96283
G01 X-19.68779 Y-6.07398
G01 X-19.68779 Y-15.30599
G01 X-19.67939 Y-15.45750
G01 X-19.65155 Y-15.63324
G01 X-19.63689 Y-15.69428
G01 X-19.58193 Y-15.86349
G01 X-19.55790 Y-15.92148
G01 X-19.52361 Y-15.98879
G01 X-18.85018 Y-16.11419
G01 X-18.67398 Y-16.15615
G01 X-18.49158 Y-16.21038
G01 X-18.36590 Y-16.25455
G01 X-18.49158 Y-16.21038
G01 X-18.67398 Y-16.15615
G01 X-18.87906 Y-16.10871
G01 X-18.99491 Y-15.98292
G01 X-19.05765 Y-15.89656
G01 X-19.09044 Y-15.84305
G01 X-19.13890 Y-15.74792
G01 X-19.16293 Y-15.68994
G01 X-19.19592 Y-15.58841
G01 X-19.21058 Y-15.52738
G01 X-19.22727 Y-15.42194
G01 X-19.23430 Y-15.30599
G01 X-19.23430 Y-6.07398
G01 X-19.22333 Y-5.92925
G01 X-19.19732 Y-5.79844
G01 X-19.15206 Y-5.66054
G01 X-19.08655 Y-5.53103
G01 X-19.01246 Y-5.42016
G01 X-18.91787 Y-5.31007
G01 X-17.97766 Y-4.36987
G01 X-17.96499 Y-4.37589
G01 X-17.97766 Y-4.36987
G01 X-17.95910 Y-4.18254
G01 X-17.94794 Y-4.11221
G01 X-17.92508 Y-4.02976
G01 X-18.00357 Y-4.08676
G01 X-18.19331 Y-4.24157
G01 X-18.19603 Y-4.26753
G01 X-18.18371 Y-4.27340
G01 X-18.19603 Y-4.26753
G01 X-19.07822 Y-5.14972
G01 X-19.18774 Y-5.27629
G01 X-19.28652 Y-5.42414
G01 X-19.36156 Y-5.57378
G01 X-19.41431 Y-5.73263
G01 X-19.44898 Y-5.90702
G01 X-19.46105 Y-6.07398
G01 X-19.46105 Y-15.30599
G01 X-19.45333 Y-15.43972
G01 X-19.43105 Y-15.58031
G01 X-19.41642 Y-15.64135
G01 X-19.37243 Y-15.77670
G01 X-19.34840 Y-15.83469
G01 X-19.28378 Y-15.96151
G01 X-19.23047 Y-16.04327
G01 X-19.49638 Y-15.99443
G01 X-19.78081 Y-15.93360
G01 X-19.88950 Y-15.57597
G01 X-19.90545 Y-15.47531
G01 X-19.91457 Y-15.30599
G01 X-19.91457 Y-13.36111
G01 X-19.91457 Y-15.30599
G01 X-19.90545 Y-15.47531
G01 X-19.88950 Y-15.57597
G01 X-19.98185 Y-15.27038
G01 X-20.03412 Y-15.11252
G01 X-20.14131 Y-14.83180
G01 X-20.14131 Y-14.31503
G01 X-20.14131 Y-14.83180
G01 X-20.24563 Y-14.57996
G01 X-20.11650 Y-14.24564
G01 X-20.01799 Y-13.92227
G01 X-19.99531 Y-13.83309
G01 X-19.93616 Y-13.53467
G01 X-19.92328 Y-13.45075
G01 X-19.89450 Y-13.15781
G01 X-19.89021 Y-13.07381
G01 X-19.88647 Y-12.92598
G01 X-19.88657 Y-6.07535
G01 X-19.87951 Y-5.86166
G01 X-19.85914 Y-5.65554
G01 X-19.84830 Y-5.60098
G01 X-19.78055 Y-5.40022
G01 X-19.72346 Y-5.27952
G01 X-19.68650 Y-5.21035
G01 X-19.53832 Y-4.98859
G01 X-19.39889 Y-4.82905
G01 X-19.30590 Y-4.73608
G01 X-18.26207 Y-4.30461
G01 X-18.18813 Y-4.23690
G01 X-18.00357 Y-4.08676
G01 X-17.84114 Y-3.96875
G01 X-17.70766 Y-3.88173
G01 X-17.54556 Y-3.78813
G01 X-17.44723 Y-3.73786
G01 X-17.28544 Y-3.66583
G01 X-17.12242 Y-3.60843
G01 X-17.28544 Y-3.66583
G01 X-17.44723 Y-3.73786
G01 X-17.59364 Y-3.81592
G01 X-17.64518 Y-3.91013
G01 X-17.72615 Y-4.15935
G01 X-17.75353 Y-4.41998
G01 X-17.75122 Y-4.46410
G01 X-17.73883 Y-4.47002
G01 X-17.75122 Y-4.46410
G01 X-18.78741 Y-5.50339
G01 X-18.83717 Y-5.56400
G01 X-18.88658 Y-5.63794
G01 X-18.94256 Y-5.74733
G01 X-18.98033 Y-5.86428
G01 X-18.99768 Y-5.95147
G01 X-19.00753 Y-6.07398
G01 X-19.00753 Y-15.30599
G01 X-19.00121 Y-15.40413
G01 X-18.99008 Y-15.47444
G01 X-18.97543 Y-15.53545
G01 X-18.95343 Y-15.60314
G01 X-18.92940 Y-15.66113
G01 X-18.89709 Y-15.72456
G01 X-18.86430 Y-15.77807
G01 X-18.82247 Y-15.83566
G01 X-18.75752 Y-15.90954
G01 X-18.43791 Y-16.22915
G01 X-18.36021 Y-16.25671
G01 X-18.19295 Y-16.32600
G01 X-18.09981 Y-16.36954
G01 X-17.93634 Y-16.45892
G01 X-17.79669 Y-16.54970
G01 X-17.18470 Y-17.16169
G01 X-17.07281 Y-17.34101
G01 X-17.02933 Y-17.42216
G01 X-16.94155 Y-17.60929
G01 X-16.93591 Y-17.60797
G01 X-16.94155 Y-17.60929
G01 X-16.93659 Y-17.64243
G01 X-16.93659 Y-19.22460
G01 X-16.84642 Y-19.29011
G01 X-16.74691 Y-19.35472
G01 X-16.64117 Y-19.40862
G01 X-16.48836 Y-19.47664
G01 X-16.37756 Y-19.51916
G01 X-16.26293 Y-19.54990
G01 X-16.03411 Y-19.59498
G01 X-16.02928 Y-19.58594
G01 X-16.03411 Y-19.59498
G01 X-14.77378 Y-20.85530
G01 X-14.75654 Y-20.84814
G01 X-14.77378 Y-20.85530
G01 X-14.77378 Y-23.42893
G01 X-14.89047 Y-23.24809
G01 X-15.00055 Y-23.09693
G01 X-15.00055 Y-20.94923
G01 X-14.98328 Y-20.94207
G01 X-15.00055 Y-20.94923
G01 X-16.14272 Y-19.80705
G01 X-16.13837 Y-19.79925
G01 X-16.14272 Y-19.80705
G01 X-16.14650 Y-19.80646
G01 X-16.31008 Y-19.77169
G01 X-16.44764 Y-19.73483
G01 X-16.58061 Y-19.68378
G01 X-16.73339 Y-19.61576
G01 X-16.86029 Y-19.55112
G01 X-16.93659 Y-19.50156
G01 X-16.93659 Y-19.22460
G01 X-16.93659 Y-19.56280
G01 X-16.60967 Y-19.81797
G01 X-16.41259 Y-19.97865
G01 X-16.25531 Y-20.01515
G01 X-16.25089 Y-20.00720
G01 X-16.25531 Y-20.01515
G01 X-15.22730 Y-21.04314
G01 X-15.21005 Y-21.03600
G01 X-15.22730 Y-21.04314
G01 X-15.22730 Y-22.80110
G01 X-15.45407 Y-22.54674
G01 X-15.45407 Y-21.13707
G01 X-15.43680 Y-21.12993
G01 X-15.45407 Y-21.13707
G01 X-15.92994 Y-20.66120
G01 X-16.07416 Y-20.39089
G01 X-16.25956 Y-20.10143
G01 X-16.25724 Y-20.09935
G01 X-16.25956 Y-20.10143
G01 X-16.41259 Y-19.97865
G01 X-16.25956 Y-20.10143
G01 X-16.07416 Y-20.39089
G01 X-15.88681 Y-20.74230
G01 X-15.76413 Y-21.01403
G01 X-15.66875 Y-21.24992
G01 X-15.66431 Y-21.24903
G01 X-15.66875 Y-21.24992
G01 X-15.66657 Y-22.31741
G01 X-15.61229 Y-22.37191
G01 X-15.25425 Y-22.76782
G01 X-15.11536 Y-22.93958
G01 X-14.89047 Y-23.24809
G01 X-14.78171 Y-23.41524
G01 X-14.63482 Y-23.66907
G01 X-14.54930 Y-23.83615
G01 X-14.45466 Y-24.04890
G01 X-14.39850 Y-24.20056
G01 X-14.39418 Y-24.19970
G01 X-14.39850 Y-24.20056
G01 X-14.39659 Y-25.30437
G01 X-14.32524 Y-25.37770
G01 X-14.25077 Y-25.46421
G01 X-14.32524 Y-25.37770
G01 X-14.39659 Y-25.30437
G01 X-14.39850 Y-24.20056
G01 X-14.45466 Y-24.04890
G01 X-14.54704 Y-23.84171
G01 X-14.54704 Y-20.76138
G01 X-14.52977 Y-20.75421
G01 X-14.54704 Y-20.76138
G01 X-15.92918 Y-19.37923
G01 X-15.92412 Y-19.36956
G01 X-15.92918 Y-19.37923
G01 X-15.95841 Y-19.37771
G01 X-16.05219 Y-19.36285
G01 X-16.21579 Y-19.32808
G01 X-16.30751 Y-19.30352
G01 X-16.39613 Y-19.26948
G01 X-16.54894 Y-19.20146
G01 X-16.63352 Y-19.15836
G01 X-16.71315 Y-19.10664
G01 X-16.84846 Y-19.00834
G01 X-16.92224 Y-18.94858
G01 X-16.93659 Y-18.93425
G01 X-16.93659 Y-18.60072
G01 X-16.82087 Y-18.72973
G01 X-16.77050 Y-18.78007
G01 X-16.71518 Y-18.82488
G01 X-16.57988 Y-18.92320
G01 X-16.52013 Y-18.96199
G01 X-16.45669 Y-18.99430
G01 X-16.30390 Y-19.06232
G01 X-16.23743 Y-19.08785
G01 X-16.16865 Y-19.10629
G01 X-16.00505 Y-19.14106
G01 X-15.93472 Y-19.15218
G01 X-15.83182 Y-19.15592
G01 X-15.82565 Y-19.14266
G01 X-15.83182 Y-19.15592
G01 X-14.32029 Y-20.66745
G01 X-14.30302 Y-20.66028
G01 X-14.32029 Y-20.66745
G01 X-14.32029 Y-24.29403
G01 X-14.30533 Y-24.29975
G01 X-14.32029 Y-24.29403
G01 X-14.39659 Y-24.37925
G01 X-14.39659 Y-24.81986
G01 X-14.36362 Y-24.74783
G01 X-14.25412 Y-24.56317
G01 X-14.09352 Y-24.38316
G01 X-14.07864 Y-24.38883
G01 X-14.09352 Y-24.38316
G01 X-14.09352 Y-20.57352
G01 X-14.07627 Y-20.56638
G01 X-14.09352 Y-20.57352
G01 X-15.73789 Y-18.92917
G01 X-15.73091 Y-18.91261
G01 X-15.73789 Y-18.92917
G01 X-15.91102 Y-18.92668
G01 X-16.12151 Y-18.88447
G01 X-16.21168 Y-18.85518
G01 X-16.40677 Y-18.76560
G01 X-16.61879 Y-18.61157
G01 X-16.76425 Y-18.45371
G01 X-16.81998 Y-18.37700
G01 X-16.90362 Y-18.23215
G01 X-16.93659 Y-18.16011
G01 X-18.39440 Y-19.15592
G01 X-16.38031 Y-22.86000
G01 X-16.30164 Y-22.76312
G01 X-16.10586 Y-22.54677
G01 X-16.10586 Y-21.05998
G01 X-16.11460 Y-20.88215
G01 X-16.12918 Y-20.76953
G01 X-16.27025 Y-20.50512
G01 X-16.42864 Y-20.25485
G01 X-16.83807 Y-19.92658
G01 X-17.09641 Y-19.72523
G01 X-17.40131 Y-19.68424
G01 X-17.55485 Y-19.65592
G01 X-17.40131 Y-19.68424
G01 X-17.17548 Y-19.71462
G01 X-17.07505 Y-19.81505
G01 X-16.98539 Y-19.91398
G01 X-16.93563 Y-19.97459
G01 X-16.78744 Y-20.19635
G01 X-16.69339 Y-20.38622
G01 X-16.62565 Y-20.58698
G01 X-16.57363 Y-20.84857
G01 X-16.55938 Y-21.05998
G01 X-16.55938 Y-23.09693
G01 X-16.66954 Y-23.24819
G01 X-16.78114 Y-23.42035
G01 X-16.92217 Y-23.66371
G01 X-17.01282 Y-23.84156
G01 X-17.01289 Y-21.05998
G01 X-17.02496 Y-20.89302
G01 X-17.05963 Y-20.71863
G01 X-17.08239 Y-20.64357
G01 X-17.11239 Y-20.55978
G01 X-17.18742 Y-20.41014
G01 X-17.28620 Y-20.26229
G01 X-17.33596 Y-20.20169
G01 X-17.39572 Y-20.13572
G01 X-17.97939 Y-19.55206
G01 X-18.07395 Y-19.52389
G01 X-18.27406 Y-19.45330
G01 X-18.49107 Y-19.36105
G01 X-17.55607 Y-20.29607
G01 X-17.51124 Y-20.34553
G01 X-17.46148 Y-20.40616
G01 X-17.38739 Y-20.51703
G01 X-17.32189 Y-20.64654
G01 X-17.27662 Y-20.78444
G01 X-17.25061 Y-20.91525
G01 X-17.23964 Y-21.05998
G01 X-17.23964 Y-24.29408
G01 X-17.25460 Y-24.29980
G01 X-17.23964 Y-24.29408
G01 X-17.16334 Y-24.37930
G01 X-17.16334 Y-24.81997
G01 X-17.19636 Y-24.74783
G01 X-17.30583 Y-24.56317
G01 X-17.46641 Y-24.38319
G01 X-17.48130 Y-24.38888
G01 X-17.46641 Y-24.38319
G01 X-17.46641 Y-21.05998
G01 X-17.47627 Y-20.93747
G01 X-17.49361 Y-20.85028
G01 X-17.53138 Y-20.73333
G01 X-17.55041 Y-20.69308
G01 X-17.58737 Y-20.62394
G01 X-17.63677 Y-20.55000
G01 X-17.71640 Y-20.45640
G01 X-20.44875 Y-17.72407
G01 X-20.46216 Y-17.73029
G01 X-20.44875 Y-17.72407
G01 X-20.44644 Y-17.67997
G01 X-20.47382 Y-17.41935
G01 X-20.55480 Y-17.17012
G01 X-20.68584 Y-16.94317
G01 X-20.84642 Y-16.76319
G01 X-20.86041 Y-16.76870
G01 X-20.84642 Y-16.76319
G01 X-20.84642 Y-16.37998
G01 X-20.85627 Y-16.25747
G01 X-20.87362 Y-16.17028
G01 X-20.89640 Y-16.09522
G01 X-20.91139 Y-16.05333
G01 X-20.96737 Y-15.94394
G01 X-21.01677 Y-15.87000
G01 X-21.09640 Y-15.77640
G01 X-22.24875 Y-14.62408
G01 X-22.26600 Y-14.63124
G01 X-22.24875 Y-14.62408
G01 X-22.24644 Y-14.57998
G01 X-22.24875 Y-14.53586
G01 X-22.26572 Y-14.52888
G01 X-22.24875 Y-14.53586
G01 X-21.24240 Y-13.52954
G01 X-21.16277 Y-13.43594
G01 X-21.11337 Y-13.36200
G01 X-21.05739 Y-13.25260
G01 X-21.01962 Y-13.13564
G01 X-21.00227 Y-13.04846
G01 X-20.99241 Y-12.92598
G01 X-20.99241 Y-3.73487
G01 X-21.00146 Y-3.61953
G01 X-21.06785 Y-3.55313
G01 X-21.00146 Y-3.61953
G01 X-17.70703 Y-3.61953
G01 X-17.82892 Y-3.69011
G01 X-17.97210 Y-3.78363
G01 X-18.14426 Y-3.90891
G01 X-18.34502 Y-4.07304
G01 X-20.53890 Y-4.07304
G01 X-20.60532 Y-4.00662
G01 X-20.53890 Y-4.07304
G01 X-20.53890 Y-12.92598
G01 X-20.55096 Y-13.09289
G01 X-20.56402 Y-13.18095
G01 X-20.58563 Y-13.26731
G01 X-20.63839 Y-13.42616
G01 X-20.71342 Y-13.57579
G01 X-20.81220 Y-13.72365
G01 X-20.92173 Y-13.85021
G01 X-21.65149 Y-14.57998
G01 X-21.74542 Y-14.57998
G01 X-21.65149 Y-14.57998
G01 X-20.77573 Y-15.45572
G01 X-20.66620 Y-15.58229
G01 X-20.56742 Y-15.73014
G01 X-20.49239 Y-15.87978
G01 X-20.46239 Y-15.96357
G01 X-20.43963 Y-16.03863
G01 X-20.40496 Y-16.21302
G01 X-20.39290 Y-16.37998
G01 X-20.39290 Y-16.58704
G01 X-20.40313 Y-16.59059
G01 X-20.39290 Y-16.58704
G01 X-20.37870 Y-16.60281
G01 X-20.31893 Y-16.67660
G01 X-20.26722 Y-16.75623
G01 X-20.18360 Y-16.90106
G01 X-20.14050 Y-16.98567
G01 X-20.12335 Y-17.03034
G01 X-20.12335 Y-16.56199
G01 X-20.16615 Y-16.50545
G01 X-20.17634 Y-16.50911
G01 X-20.16615 Y-16.50545
G01 X-20.16615 Y-16.37998
G01 X-20.17928 Y-16.19080
G01 X-20.22264 Y-15.97279
G01 X-20.24540 Y-15.89776
G01 X-20.28289 Y-15.79298
G01 X-20.33046 Y-15.69240
G01 X-20.36742 Y-15.62326
G01 X-20.49092 Y-15.43845
G01 X-20.61538 Y-15.29537
G01 X-21.33079 Y-14.57998
G01 X-21.42396 Y-14.57975
G01 X-21.33079 Y-14.57998
G01 X-20.76138 Y-14.01056
G01 X-20.63692 Y-13.86749
G01 X-20.51342 Y-13.68268
G01 X-20.42889 Y-13.51295
G01 X-20.36864 Y-13.33315
G01 X-20.34162 Y-13.22517
G01 X-20.32528 Y-13.11514
G01 X-20.31215 Y-12.92598
G01 X-20.31215 Y-4.29979
G01 X-20.37855 Y-4.23339
G01 X-20.31215 Y-4.29979
G01 X-18.84525 Y-4.29979
G01 X-18.38526 Y-4.10926
G01 X-19.39270 Y-4.52656
G01 X-20.08538 Y-4.52656
G01 X-20.15180 Y-4.46014
G01 X-20.08538 Y-4.52656
G01 X-20.08538 Y-5.63910
( Mill infeed pass 2/2 )
G00 Z2.00000 ( retract )
G00 X-19.85914 Y-5.65554 ( rapid move to begin. )
G01 Z-0.10000
G04 P0 ( dwell for no time -- G64 should not smooth over this point )
G01 F120.00000
G01 X-19.85914 Y-5.65554
G01 X-19.84085 Y-5.50682
G01 X-19.78246 Y-5.21393
G01 X-19.76410 Y-5.14066
G01 X-19.69361 Y-4.90477
G01 X-19.47949 Y-4.80797
G01 X-18.75846 Y-4.50931
G01 X-19.23857 Y-4.98937
G01 X-19.31327 Y-5.07182
G01 X-19.36303 Y-5.13245
G01 X-19.48652 Y-5.31726
G01 X-19.57106 Y-5.48698
G01 X-19.60855 Y-5.59176
G01 X-19.63130 Y-5.66679
G01 X-19.67466 Y-5.88480
G01 X-19.68236 Y-5.96283
G01 X-19.68779 Y-6.07398
G01 X-19.68779 Y-15.30599
G01 X-19.67939 Y-15.45750
G01 X-19.65155 Y-15.63324
G01 X-19.63689 Y-15.69428
G01 X-19.58193 Y-15.86349
G01 X-19.55790 Y-15.92148
G01 X-19.52361 Y-15.98879
G01 X-18.85018 Y-16.11419
G01 X-18.67398 Y-16.15615
G01 X-18.49158 Y-16.21038
G01 X-18.36590 Y-16.25455
G01 X-18.49158 Y-16.21038
G01 X-18.67398 Y-16.15615
G01 X-18.87906 Y-16.10871
G01 X-18.99491 Y-15.98292
G01 X-19.05765 Y-15.89656
G01 X-19.09044 Y-15.84305
G01 X-19.13890 Y-15.74792
G01 X-19.16293 Y-15.68994
G01 X-19.19592 Y-15.58841
G01 X-19.21058 Y-15.52738
G01 X-19.22727 Y-15.42194
G01 X-19.23430 Y-15.30599
G01 X-19.23430 Y-6.07398
G01 X-19.22333 Y-5.92925
G01 X-19.19732 Y-5.79844
G01 X-19.15206 Y-5.66054
G01 X-19.08655 Y-5.53103
G01 X-19.01246 Y-5.42016
G01 X-18.91787 Y-5.31007
G01 X-17.97766 Y-4.36987
G01 X-17.96499 Y-4.37589
G01 X-17.97766 Y-4.36987
G01 X-17.95910 Y-4.18254
G01 X-17.94794 Y-4.11221
G01 X-17.92508 Y-4.02976
G01 X-18.00357 Y-4.08676
G01 X-18.19331 Y-4.24157
G01 X-18.19603 Y-4.26753
G01 X-18.18371 Y-4.27340
G01 X-18.19603 Y-4.26753
G01 X-19.07822 Y-5.14972
G01 X-19.18774 Y-5.27629
G01 X-19.28652 Y-5.42414
G01 X-19.36156 Y-5.57378
G01 X-19.41431 Y-5.73263
G01 X-19.44898 Y-5.90702
G01 X-19.46105 Y-6.07398
G01 X-19.46105 Y-15.30599
G01 X-19.45333 Y-15.43972
G01 X-19.43105 Y-15.58031
G01 X-19.41642 Y-15.64135
G01 X-19.37243 Y-15.77670
G01 X-19.34840 Y-15.83469
G01 X-19.28378 Y-15.96151
G01 X-19.23047 Y-16.04327
G01 X-19.49638 Y-15.99443
G01 X-19.78081 Y-15.93360
G01 X-19.88950 Y-15.57597
G01 X-19.90545 Y-15.47531
G01 X-19.91457 Y-15.30599
G01 X-19.91457 Y-13.36111
G01 X-19.91457 Y-15.30599
G01 X-19.90545 Y-15.47531
G01 X-19.88950 Y-15.57597
G01 X-19.98185 Y-15.27038
G01 X-20.03412 Y-15.11252
G01 X-20.14131 Y-14.83180
G01 X-20.14131 Y-14.31503
G01 X-20.14131 Y-14.83180
G01 X-20.24563 Y-14.57996
G01 X-20.11650 Y-14.24564
G01 X-20.01799 Y-13.92227
G01 X-19.99531 Y-13.83309
G01 X-19.93616 Y-13.53467
G01 X-19.92328 Y-13.45075
G01 X-19.89450 Y-13.15781
G01 X-19.89021 Y-13.07381
G01 X-19.88647 Y-12.92598
G01 X-19.88657 Y-6.07535
G01 X-19.87951 Y-5.86166
G01 X-19.85914 Y-5.65554
G01 X-19.84830 Y-5.60098
G01 X-19.78055 Y-5.40022
G01 X-19.72346 Y-5.27952
G01 X-19.68650 Y-5.21035
G01 X-19.53832 Y-4.98859
G01 X-19.39889 Y-4.82905
G01 X-19.30590 Y-4.73608
G01 X-18.26207 Y-4.30461
G01 X-18.18813 Y-4.23690
G01 X-18.00357 Y-4.08676
G01 X-17.84114 Y-3.96875
G01 X-17.70766 Y-3.88173
G01 X-17.54556 Y-3.78813
G01 X-17.44723 Y-3.73786
G01 X-17.28544 Y-3.66583
G01 X-17.12242 Y-3.60843
G01 X-17.28544 Y-3.66583
G01 X-17.44723 Y-3.73786
G01 X-17.59364 Y-3.81592
G01 X-17.64518 Y-3.91013
G01 X-17.72615 Y-4.15935
G01 X-17.75353 Y-4.41998
G01 X-17.75122 Y-4.46410
G01 X-17.73883 Y-4.47002
G01 X-17.75122 Y-4.46410
G01 X-18.78741 Y-5.50339
G01 X-18.83717 Y-5.56400
G01 X-18.88658 Y-5.63794
G01 X-18.94256 Y-5.74733
G01 X-18.98033 Y-5.86428
G01 X-18.99768 Y-5.95147
G01 X-19.00753 Y-6.07398
G01 X-19.00753 Y-15.30599
G01 X-19.00121 Y-15.40413
G01 X-18.99008 Y-15.47444
G01 X-18.97543 Y-15.53545
G01 X-18.95343 Y-15.60314
G01 X-18.92940 Y-15.66113
G01 X-18.89709 Y-15.72456
G01 X-18.86430 Y-15.77807
G01 X-18.82247 Y-15.83566
G01 X-18.75752 Y-15.90954
G01 X-18.43791 Y-16.22915
G01 X-18.36021 Y-16.25671
G01 X-18.19295 Y-16.32600
G01 X-18.09981 Y-16.36954
G01 X-17.93634 Y-16.45892
G01 X-17.79669 Y-16.54970
G01 X-17.18470 Y-17.16169
G01 X-17.07281 Y-17.34101
G01 X-17.02933 Y-17.42216
G01 X-16.94155 Y-17.60929
G01 X-16.93591 Y-17.60797
G01 X-16.94155 Y-17.60929
G01 X-16.93659 Y-17.64243
G01 X-16.93659 Y-19.22460
G01 X-16.84642 Y-19.29011
G01 X-16.74691 Y-19.35472
G01 X-16.64117 Y-19.40862
G01 X-16.48836 Y-19.47664
G01 X-16.37756 Y-19.51916
G01 X-16.26293 Y-19.54990
G01 X-16.03411 Y-19.59498
G01 X-16.02928 Y-19.58594
G01 X-16.03411 Y-19.59498
G01 X-14.77378 Y-20.85530
G01 X-14.75654 Y-20.84814
G01 X-14.77378 Y-20.85530
G01 X-14.77378 Y-23.42893
G01 X-14.89047 Y-23.24809
G01 X-15.00055 Y-23.09693
G01 X-15.00055 Y-20.94923
G01 X-14.98328 Y-20.94207
G01 X-15.00055 Y-20.94923
G01 X-16.14272 Y-19.80705
G01 X-16.13837 Y-19.79925
G01 X-16.14272 Y-19.80705
G01 X-16.14650 Y-19.80646
G01 X-16.31008 Y-19.77169
G01 X-16.44764 Y-19.73483
G01 X-16.58061 Y-19.68378
G01 X-16.73339 Y-19.61576
G01 X-16.86029 Y-19.55112
G01 X-16.93659 Y-19.50156
G01 X-16.93659 Y-19.22460
G01 X-16.93659 Y-19.56280
G01 X-16.60967 Y-19.81797
G01 X-16.41259 Y-19.97865
G01 X-16.25531 Y-20.01515
G01 X-16.25089 Y-20.00720
G01 X-16.25531 Y-20.01515
G01 X-15.22730 Y-21.04314
G01 X-15.21005 Y-21.03600
G01 X-15.22730 Y-21.04314
G01 X-15.22730 Y-22.80110
G01 X-15.45407 Y-22.54674
G01 X-15.45407 Y-21.13707
G01 X-15.43680 Y-21.12993
G01 X-15.45407 Y-21.13707
G01 X-15.92994 Y-20.66120
G01 X-16.07416 Y-20.39089
G01 X-16.25956 Y-20.10143
G01 X-16.25724 Y-20.09935
G01 X-16.25956 Y-20.10143
G01 X-16.41259 Y-19.97865
G01 X-16.25956 Y-20.10143
G01 X-16.07416 Y-20.39089
G01 X-15.88681 Y-20.74230
G01 X-15.76413 Y-21.01403
G01 X-15.66875 Y-21.24992
G01 X-15.66431 Y-21.24903
G01 X-15.66875 Y-21.24992
G01 X-15.66657 Y-22.31741
G01 X-15.61229 Y-22.37191
G01 X-15.25425 Y-22.76782
G01 X-15.11536 Y-22.93958
G01 X-14.89047 Y-23.24809
G01 X-14.78171 Y-23.41524
G01 X-14.63482 Y-23.66907
G01 X-14.54930 Y-23.83615
G01 X-14.45466 Y-24.04890
G01 X-14.39850 Y-24.20056
G01 X-14.39418 Y-24.19970
G01 X-14.39850 Y-24.20056
G01 X-14.39659 Y-25.30437
G01 X-14.32524 Y-25.37770
G01 X-14.25077 Y-25.46421
G01 X-14.32524 Y-25.37770
G01 X-14.39659 Y-25.30437
G01 X-14.39850 Y-24.20056
G01 X-14.45466 Y-24.04890
G01 X-14.54704 Y-23.84171
G01 X-14.54704 Y-20.76138
G01 X-14.52977 Y-20.75421
G01 X-14.54704 Y-20.76138
G01 X-15.92918 Y-19.37923
G01 X-15.92412 Y-19.36956
G01 X-15.92918 Y-19.37923
G01 X-15.95841 Y-19.37771
G01 X-16.05219 Y-19.36285
G01 X-16.21579 Y-19.32808
G01 X-16.30751 Y-19.30352
G01 X-16.39613 Y-19.26948
G01 X-16.54894 Y-19.20146
G01 X-16.63352 Y-19.15836
G01 X-16.71315 Y-19.10664
G01 X-16.84846 Y-19.00834
G01 X-16.92224 Y-18.94858
G01 X-16.93659 Y-18.93425
G01 X-16.93659 Y-18.60072
G01 X-16.82087 Y-18.72973
G01 X-16.77050 Y-18.78007
G01 X-16.71518 Y-18.82488
G01 X-16.57988 Y-18.92320
G01 X-16.52013 Y-18.96199
G01 X-16.45669 Y-18.99430
G01 X-16.30390 Y-19.06232
G01 X-16.23743 Y-19.08785
G01 X-16.16865 Y-19.10629
G01 X-16.00505 Y-19.14106
G01 X-15.93472 Y-19.15218
G01 X-15.83182 Y-19.15592
G01 X-15.82565 Y-19.14266
G01 X-15.83182 Y-19.15592
G01 X-14.32029 Y-20.66745
G01 X-14.30302 Y-20.66028
G01 X-14.32029 Y-20.66745
G01 X-14.32029 Y-24.29403
G01 X-14.30533 Y-24.29975
G01 X-14.32029 Y-24.29403
G01 X-14.39659 Y-24.37925
G01 X-14.39659 Y-24.81986
G01 X-14.36362 Y-24.74783
G01 X-14.25412 Y-24.56317
G01 X-14.09352 Y-24.38316
G01 X-14.07864 Y-24.38883
G01 X-14.09352 Y-24.38316
G01 X-14.09352 Y-20.57352
G01 X-14.07627 Y-20.56638
G01 X-14.09352 Y-20.57352
G01 X-15.73789 Y-18.92917
G01 X-15.73091 Y-18.91261
G01 X-15.73789 Y-18.92917
G01 X-15.91102 Y-18.92668
G01 X-16.12151 Y-18.88447
G01 X-16.21168 Y-18.85518
G01 X-16.40677 Y-18.76560
G01 X-16.61879 Y-18.61157
G01 X-16.76425 Y-18.45371
G01 X-16.81998 Y-18.37700
G01 X-16.90362 Y-18.23215
G01 X-16.93659 Y-18.16011
G01 X-18.39440 Y-19.15592
G01 X-16.38031 Y-22.86000
G01 X-16.30164 Y-22.76312
G01 X-16.10586 Y-22.54677
G01 X-16.10586 Y-21.05998
G01 X-16.11460 Y-20.88215
G01 X-16.12918 Y-20.76953
G01 X-16.27025 Y-20.50512
G01 X-16.42864 Y-20.25485
G01 X-16.83807 Y-19.92658
G01 X-17.09641 Y-19.72523
G01 X-17.40131 Y-19.68424
G01 X-17.55485 Y-19.65592
G01 X-17.40131 Y-19.68424
G01 X-17.17548 Y-19.71462
G01 X-17.07505 Y-19.81505
G01 X-16.98539 Y-19.91398
G01 X-16.93563 Y-19.97459
G01 X-16.78744 Y-20.19635
G01 X-16.69339 Y-20.38622
G01 X-16.62565 Y-20.58698
G01 X-16.57363 Y-20.84857
G01 X-16.55938 Y-21.05998
G01 X-16.55938 Y-23.09693
G01 X-16.66954 Y-23.24819
G01 X-16.78114 Y-23.42035
G01 X-16.92217 Y-23.66371
G01 X-17.01282 Y-23.84156
G01 X-17.01289 Y-21.05998
G01 X-17.02496 Y-20.89302
G01 X-17.05963 Y-20.71863
G01 X-17.08239 Y-20.64357
G01 X-17.11239 Y-20.55978
G01 X-17.18742 Y-20.41014
G01 X-17.28620 Y-20.26229
G01 X-17.33596 Y-20.20169
G01 X-17.39572 Y-20.13572
G01 X-17.97939 Y-19.55206
G01 X-18.07395 Y-19.52389
G01 X-18.27406 Y-19.45330
G01 X-18.49107 Y-19.36105
G01 X-17.55607 Y-20.29607
G01 X-17.51124 Y-20.34553
G01 X-17.46148 Y-20.40616
G01 X-17.38739 Y-20.51703
G01 X-17.32189 Y-20.64654
G01 X-17.27662 Y-20.78444
G01 X-17.25061 Y-20.91525
G01 X-17.23964 Y-21.05998
G01 X-17.23964 Y-24.29408
G01 X-17.25460 Y-24.29980
G01 X-17.23964 Y-24.29408
G01 X-17.16334 Y-24.37930
G01 X-17.16334 Y-24.81997
G01 X-17.19636 Y-24.74783
G01 X-17.30583 Y-24.56317
G01 X-17.46641 Y-24.38319
G01 X-17.48130 Y-24.38888
G01 X-17.46641 Y-24.38319
G01 X-17.46641 Y-21.05998
G01 X-17.47627 Y-20.93747
G01 X-17.49361 Y-20.85028
G01 X-17.53138 Y-20.73333
G01 X-17.55041 Y-20.69308
G01 X-17.58737 Y-20.62394
G01 X-17.63677 Y-20.55000
G01 X-17.71640 Y-20.45640
G01 X-20.44875 Y-17.72407
G01 X-20.46216 Y-17.73029
G01 X-20.44875 Y-17.72407
G01 X-20.44644 Y-17.67997
G01 X-20.47382 Y-17.41935
G01 X-20.55480 Y-17.17012
G01 X-20.68584 Y-16.94317
G01 X-20.84642 Y-16.76319
G01 X-20.86041 Y-16.76870
G01 X-20.84642 Y-16.76319
G01 X-20.84642 Y-16.37998
G01 X-20.85627 Y-16.25747
G01 X-20.87362 Y-16.17028
G01 X-20.89640 Y-16.09522
G01 X-20.91139 Y-16.05333
G01 X-20.96737 Y-15.94394
G01 X-21.01677 Y-15.87000
G01 X-21.09640 Y-15.77640
G01 X-22.24875 Y-14.62408
G01 X-22.26600 Y-14.63124
G01 X-22.24875 Y-14.62408
G01 X-22.24644 Y-14.57998
G01 X-22.24875 Y-14.53586
G01 X-22.26572 Y-14.52888
G01 X-22.24875 Y-14.53586
G01 X-21.24240 Y-13.52954
G01 X-21.16277 Y-13.43594
G01 X-21.11337 Y-13.36200
G01 X-21.05739 Y-13.25260
G01 X-21.01962 Y-13.13564
G01 X-21.00227 Y-13.04846
G01 X-20.99241 Y-12.92598
G01 X-20.99241 Y-3.73487
G01 X-21.00146 Y-3.61953
G01 X-21.06785 Y-3.55313
G01 X-21.00146 Y-3.61953
G01 X-17.70703 Y-3.61953
G01 X-17.82892 Y-3.69011
G01 X-17.97210 Y-3.78363
G01 X-18.14426 Y-3.90891
G01 X-18.34502 Y-4.07304
G01 X-20.53890 Y-4.07304
G01 X-20.60532 Y-4.00662
G01 X-20.53890 Y-4.07304
G01 X-20.53890 Y-12.92598
G01 X-20.55096 Y-13.09289
G01 X-20.56402 Y-13.18095
G01 X-20.58563 Y-13.26731
G01 X-20.63839 Y-13.42616
G01 X-20.71342 Y-13.57579
G01 X-20.81220 Y-13.72365
G01 X-20.92173 Y-13.85021
G01 X-21.65149 Y-14.57998
G01 X-21.74542 Y-14.57998
G01 X-21.65149 Y-14.57998
G01 X-20.77573 Y-15.45572
G01 X-20.66620 Y-15.58229
G01 X-20.56742 Y-15.73014
G01 X-20.49239 Y-15.87978
G01 X-20.46239 Y-15.96357
G01 X-20.43963 Y-16.03863
G01 X-20.40496 Y-16.21302
G01 X-20.39290 Y-16.37998
G01 X-20.39290 Y-16.58704
G01 X-20.40313 Y-16.59059
G01 X-20.39290 Y-16.58704
G01 X-20.37870 Y-16.60281
G01 X-20.31893 Y-16.67660
G01 X-20.26722 Y-16.75623
G01 X-20.18360 Y-16.90106
G01 X-20.14050 Y-16.98567
G01 X-20.12335 Y-17.03034
G01 X-20.12335 Y-16.56199
G01 X-20.16615 Y-16.50545
G01 X-20.17634 Y-16.50911
G01 X-20.16615 Y-16.50545
G01 X-20.16615 Y-16.37998
G01 X-20.17928 Y-16.19080
G01 X-20.22264 Y-15.97279
G01 X-20.24540 Y-15.89776
G01 X-20.28289 Y-15.79298
G01 X-20.33046 Y-15.69240
G01 X-20.36742 Y-15.62326
G01 X-20.49092 Y-15.43845
G01 X-20.61538 Y-15.29537
G01 X-21.33079 Y-14.57998
G01 X-21.42396 Y-14.57975
G01 X-21.33079 Y-14.57998
G01 X-20.76138 Y-14.01056
G01 X-20.63692 Y-13.86749
G01 X-20.51342 Y-13.68268
G01 X-20.42889 Y-13.51295
G01 X-20.36864 Y-13.33315
G01 X-20.34162 Y-13.22517
G01 X-20.32528 Y-13.11514
G01 X-20.31215 Y-12.92598
G01 X-20.31215 Y-4.29979
G01 X-20.37855 Y-4.23339
G01 X-20.31215 Y-4.29979
G01 X-18.84525 Y-4.29979
G01 X-18.38526 Y-4.10926
G01 X-19.39270 Y-4.52656
G01 X-20.08538 Y-4.52656
G01 X-20.15180 Y-4.46014
G01 X-20.08538 Y-4.52656
G01 X-20.08538 Y-5.63910
G04 P0 ( dwell for no time -- G64 should not smooth over this point )
G00 Z2.00000 ( retract )

G00 X-34.55901 Y-16.36784 ( rapid move to begin. )
G01 F60.00000
( Mill infeed pass 1/2 )
G01 Z-0.05000
G04 P0 ( dwell for no time -- G64 should not smooth over this point )
G01 F120.00000
G01 X-34.55901 Y-16.36784
G01 X-34.45520 Y-16.44744
G01 X-34.33216 Y-16.55252
G01 X-34.22099 Y-16.65801
G01 X-34.08335 Y-16.80456
G01 X-34.08335 Y-17.68452
G01 X-34.16109 Y-17.76484
G01 X-34.22924 Y-17.84469
G01 X-34.24177 Y-17.91640
G01 X-34.30196 Y-18.09763
G01 X-34.39635 Y-18.26362
G01 X-34.42424 Y-18.30197
G01 X-34.53613 Y-18.42625
G01 X-34.57138 Y-18.45798
G01 X-34.72658 Y-18.56923
G01 X-34.92269 Y-18.65653
G01 X-35.13264 Y-18.70116
G01 X-35.34141 Y-18.70149
G01 X-35.43178 Y-18.74731
G01 X-35.50778 Y-18.70606
G01 X-35.63475 Y-18.62341
G01 X-35.57946 Y-18.64802
G01 X-35.53435 Y-18.66268
G01 X-35.34141 Y-18.70149
G01 X-35.55728 Y-18.65653
G01 X-35.73224 Y-18.58000
G01 X-35.77331 Y-18.55630
G01 X-35.90859 Y-18.45798
G01 X-35.94384 Y-18.42625
G01 X-36.05576 Y-18.30197
G01 X-36.08362 Y-18.26362
G01 X-36.16724 Y-18.11879
G01 X-36.18835 Y-18.06981
G01 X-36.28893 Y-17.90814
G01 X-36.32721 Y-17.83748
G01 X-36.37727 Y-17.73192
G01 X-36.44476 Y-17.66481
G01 X-36.47625 Y-17.58897
G01 X-36.57011 Y-17.39626
G01 X-36.47625 Y-17.58897
G01 X-36.44476 Y-17.66481
G01 X-36.37882 Y-17.73306
G01 X-36.28893 Y-17.90814
G01 X-36.18835 Y-18.06981
G01 X-36.24435 Y-17.89346
G01 X-36.26571 Y-17.70065
G01 X-37.49294 Y-16.47342
G01 X-37.64765 Y-16.39463
G01 X-37.76281 Y-16.34678
G01 X-38.38989 Y-15.72278
G01 X-38.38793 Y-15.72001
G01 X-38.38989 Y-15.72278
G01 X-38.53751 Y-15.65928
G01 X-38.67876 Y-15.58724
G01 X-38.53751 Y-15.65928
G01 X-38.38989 Y-15.72278
G01 X-37.76281 Y-16.34678
G01 X-37.64765 Y-16.39463
G01 X-37.49294 Y-16.47342
G01 X-38.36899 Y-15.59740
G01 X-38.41636 Y-15.60241
G01 X-38.60731 Y-15.60116
G01 X-38.81730 Y-15.55653
G01 X-39.01338 Y-15.46921
G01 X-39.16860 Y-15.35798
G01 X-39.20383 Y-15.32626
G01 X-39.33068 Y-15.18354
G01 X-39.43802 Y-14.99763
G01 X-39.50434 Y-14.79347
G01 X-39.52634 Y-14.57160
G01 X-39.50434 Y-14.36649
G01 X-39.43802 Y-14.16235
G01 X-39.33068 Y-13.97645
G01 X-39.20383 Y-13.83370
G01 X-39.16860 Y-13.80198
G01 X-39.12679 Y-13.77160
G01 X-39.12679 Y-8.42000
G01 X-39.11559 Y-8.30448
G01 X-39.08994 Y-8.20958
G01 X-39.06594 Y-8.15160
G01 X-39.01697 Y-8.06638
G01 X-38.94320 Y-7.97677
G01 X-35.51456 Y-4.54815
G01 X-35.52678 Y-4.41998
G01 X-35.50806 Y-4.22994
G01 X-35.49820 Y-4.18358
G01 X-35.43800 Y-4.00235
G01 X-35.33069 Y-3.81645
G01 X-35.18705 Y-3.65691
G01 X-35.12241 Y-3.60843
G01 X-35.28543 Y-3.66583
G01 X-35.44722 Y-3.73786
G01 X-35.54555 Y-3.78813
G01 X-35.70765 Y-3.88173
G01 X-35.84113 Y-3.96875
G01 X-36.00356 Y-4.08676
G01 X-36.18812 Y-4.23690
G01 X-36.26208 Y-4.30454
G01 X-36.47834 Y-4.39326
G01 X-36.55525 Y-4.57845
G01 X-36.63165 Y-4.73860
G01 X-36.59932 Y-4.67086
G01 X-36.19604 Y-4.26756
G01 X-36.18357 Y-4.27350
G01 X-36.19604 Y-4.26756
G01 X-36.19330 Y-4.24157
G01 X-36.00356 Y-4.08676
G01 X-35.92507 Y-4.02976
G01 X-35.94796 Y-4.11221
G01 X-35.95908 Y-4.18254
G01 X-35.97768 Y-4.36987
G01 X-35.96498 Y-4.37589
G01 X-35.97768 Y-4.36987
G01 X-38.86413 Y-7.25635
G01 X-39.08991 Y-7.80280
G01 X-35.75124 Y-4.46413
G01 X-35.73783 Y-4.47032
G01 X-35.75124 Y-4.46413
G01 X-35.75355 Y-4.41998
G01 X-35.72614 Y-4.15935
G01 X-35.64517 Y-3.91013
G01 X-35.59365 Y-3.81592
G01 X-35.44722 Y-3.73786
G01 X-35.28543 Y-3.66583
G01 X-35.12241 Y-3.60843
G01 X-35.01339 Y-3.53075
G01 X-34.81728 Y-3.44345
G01 X-34.60732 Y-3.39882
G01 X-34.41636 Y-3.39758
G01 X-34.36922 Y-3.40253
G01 X-34.18268 Y-3.44345
G01 X-34.00773 Y-3.51998
G01 X-33.96668 Y-3.54368
G01 X-33.83138 Y-3.64198
G01 X-33.79615 Y-3.67370
G01 X-33.66930 Y-3.81645
G01 X-33.56196 Y-4.00235
G01 X-33.50176 Y-4.18358
G01 X-33.49191 Y-4.22994
G01 X-33.47359 Y-4.41223
G01 X-33.49191 Y-4.61002
G01 X-33.50176 Y-4.65640
G01 X-33.56196 Y-4.83763
G01 X-33.66930 Y-5.02354
G01 X-33.79615 Y-5.16626
G01 X-33.83138 Y-5.19798
G01 X-33.98660 Y-5.30921
G01 X-34.16054 Y-5.38803
G01 X-34.20562 Y-5.40268
G01 X-34.39267 Y-5.44116
G01 X-34.58360 Y-5.44241
G01 X-34.63077 Y-5.43745
G01 X-37.87318 Y-8.67961
G01 X-37.87318 Y-13.77160
G01 X-37.83137 Y-13.80198
G01 X-37.79614 Y-13.83370
G01 X-37.66929 Y-13.97645
G01 X-37.56195 Y-14.16235
G01 X-37.50178 Y-14.34358
G01 X-37.49192 Y-14.38994
G01 X-37.47318 Y-14.57998
G01 X-37.48540 Y-14.70812
G01 X-35.50290 Y-16.69062
G01 X-35.34733 Y-16.65882
G01 X-35.15637 Y-16.65757
G01 X-35.10920 Y-16.66253
G01 X-34.92269 Y-16.70345
G01 X-34.74773 Y-16.77998
G01 X-34.70669 Y-16.80367
G01 X-34.55292 Y-16.91693
G01 X-34.42424 Y-17.05801
G01 X-34.39635 Y-17.09636
G01 X-34.30196 Y-17.26235
G01 X-34.23562 Y-17.46651
G01 X-34.21319 Y-17.67997
G01 X-34.22924 Y-17.84469
G01 X-34.16109 Y-17.76484
G01 X-34.08335 Y-17.68452
G01 X-34.08335 Y-17.19997
G01 X-34.11637 Y-17.12783
G01 X-34.19998 Y-16.98297
G01 X-34.25571 Y-16.90627
G01 X-34.40120 Y-16.74840
G01 X-34.57339 Y-16.62024
G01 X-34.65551 Y-16.57281
G01 X-34.85261 Y-16.48777
G01 X-35.06206 Y-16.44073
G01 X-35.15637 Y-16.43080
G01 X-35.37102 Y-16.43329
G01 X-35.42962 Y-16.44322
G01 X-35.43788 Y-16.46700
G01 X-35.42962 Y-16.44322
G01 X-37.24874 Y-14.62410
G01 X-37.26216 Y-14.63030
G01 X-37.24874 Y-14.62410
G01 X-37.24643 Y-14.57998
G01 X-37.27381 Y-14.31935
G01 X-37.35481 Y-14.07013
G01 X-37.48583 Y-13.84315
G01 X-37.64643 Y-13.66317
G01 X-37.66132 Y-13.66886
G01 X-37.64643 Y-13.66317
G01 X-37.64643 Y-8.77354
G01 X-37.66368 Y-8.76640
G01 X-37.64643 Y-8.77354
G01 X-34.54204 Y-5.66915
G01 X-34.54905 Y-5.65262
G01 X-34.54204 Y-5.66915
G01 X-34.41636 Y-5.66915
G01 X-34.32205 Y-5.65925
G01 X-34.11261 Y-5.61218
G01 X-33.89752 Y-5.51797
G01 X-33.80092 Y-5.33174
G01 X-33.76303 Y-5.24690
G01 X-33.68838 Y-5.04660
G01 X-33.76303 Y-5.24690
G01 X-33.80092 Y-5.33174
G01 X-33.88345 Y-5.49369
G01 X-33.94972 Y-5.60807
G01 X-34.05508 Y-5.77030
G01 X-34.16938 Y-5.92699
G01 X-34.38842 Y-6.19166
G01 X-35.49632 Y-8.86821
G01 X-36.05914 Y-9.43102
G01 X-36.07638 Y-9.42388
G01 X-36.05914 Y-9.43102
G01 X-36.05914 Y-11.98662
G01 X-36.18555 Y-12.20513
G01 X-36.28588 Y-12.40582
G01 X-36.28588 Y-9.33709
G01 X-36.30315 Y-9.32995
G01 X-36.28588 Y-9.33709
G01 X-35.26955 Y-8.32079
G01 X-35.77770 Y-9.54758
G01 X-35.78197 Y-9.54672
G01 X-35.77770 Y-9.54758
G01 X-35.78634 Y-9.59096
G01 X-35.78634 Y-11.54163
G01 X-35.92330 Y-11.75220
G01 X-36.18263 Y-12.19977
G01 X-36.27079 Y-12.37237
G01 X-36.44765 Y-12.76830
G01 X-36.51347 Y-12.94000
G01 X-36.60742 Y-13.21920
G01 X-36.61336 Y-13.25540
G01 X-36.61613 Y-13.25496
G01 X-36.61336 Y-13.25540
G01 X-36.61336 Y-14.28252
G01 X-36.60686 Y-14.32037
G01 X-36.60991 Y-14.32100
G01 X-36.60686 Y-14.32037
G01 X-36.54174 Y-14.50378
G01 X-36.44501 Y-14.73843
G01 X-36.36571 Y-14.90365
G01 X-36.26604 Y-15.08757
G01 X-36.17349 Y-15.23964
G01 X-36.06503 Y-15.39720
G01 X-35.95906 Y-15.53609
G01 X-35.83856 Y-15.67675
G01 X-35.72360 Y-15.79832
G01 X-35.59523 Y-15.91991
G01 X-35.46343 Y-16.03304
G01 X-35.34771 Y-16.12354
G01 X-35.31857 Y-16.14007
G01 X-35.32053 Y-16.14432
G01 X-35.31857 Y-16.14007
G01 X-35.18131 Y-16.17109
G01 X-34.65670 Y-16.29888
G01 X-34.55901 Y-16.36784
G01 X-34.71606 Y-16.29766
G01 X-34.78256 Y-16.27213
G01 X-34.85134 Y-16.25369
G01 X-35.01492 Y-16.21892
G01 X-35.08525 Y-16.20779
G01 X-35.15637 Y-16.20406
G01 X-35.32360 Y-16.20406
G01 X-35.34687 Y-16.20528
G01 X-35.35355 Y-16.22054
G01 X-35.34687 Y-16.20528
G01 X-37.02230 Y-14.52984
G01 X-37.03434 Y-14.53566
G01 X-37.02230 Y-14.52984
G01 X-37.02340 Y-14.50889
G01 X-37.04087 Y-14.34254
G01 X-37.05202 Y-14.27221
G01 X-37.07046 Y-14.20343
G01 X-37.12213 Y-14.04437
G01 X-37.14765 Y-13.97790
G01 X-37.17999 Y-13.91445
G01 X-37.26360 Y-13.76959
G01 X-37.30239 Y-13.70988
G01 X-37.41966 Y-13.57406
G01 X-37.43391 Y-13.57935
G01 X-37.41966 Y-13.57406
G01 X-37.41966 Y-8.86747
G01 X-37.43693 Y-8.86031
G01 X-37.41966 Y-8.86747
G01 X-34.44812 Y-5.89592
G01 X-34.45487 Y-5.88043
G01 X-34.44812 Y-5.89592
G01 X-34.34524 Y-5.89219
G01 X-34.27491 Y-5.88107
G01 X-34.11029 Y-5.84604
G01 X-34.16938 Y-5.92699
G01 X-34.32500 Y-6.11789
G01 X-34.35076 Y-6.11924
G01 X-34.35731 Y-6.10451
G01 X-34.35076 Y-6.11924
G01 X-37.19292 Y-8.96140
G01 X-37.21019 Y-8.95424
G01 X-37.19292 Y-8.96140
G01 X-37.19292 Y-13.48702
G01 X-37.20440 Y-13.49080
G01 X-37.19292 Y-13.48702
G01 X-37.11892 Y-13.57660
G01 X-37.06724 Y-13.65623
G01 X-36.98359 Y-13.80106
G01 X-36.94049 Y-13.88565
G01 X-36.90648 Y-13.97429
G01 X-36.85479 Y-14.13335
G01 X-36.83023 Y-14.22507
G01 X-36.81537 Y-14.31884
G01 X-36.80394 Y-14.42753
G01 X-36.81542 Y-14.43317
G01 X-36.80394 Y-14.42753
G01 X-36.40059 Y-14.83088
G01 X-36.44720 Y-14.73276
G01 X-36.54174 Y-14.50378
G01 X-36.60686 Y-14.32037
G01 X-36.61336 Y-14.28252
G01 X-36.61336 Y-14.15948
G01 X-36.63914 Y-14.06329
G01 X-36.69081 Y-13.90421
G01 X-36.73335 Y-13.79342
G01 X-36.78723 Y-13.68768
G01 X-36.87084 Y-13.54285
G01 X-36.93549 Y-13.44331
G01 X-36.96617 Y-13.40543
G01 X-36.97651 Y-13.40866
G01 X-36.96617 Y-13.40543
G01 X-36.96617 Y-9.05533
G01 X-36.98342 Y-9.04817
G01 X-36.96617 Y-9.05533
G01 X-34.58929 Y-6.67847
G01 X-34.81606 Y-7.22589
G01 X-36.73940 Y-9.14923
G01 X-36.75667 Y-9.14209
G01 X-36.73940 Y-9.14923
G01 X-36.73940 Y-13.32949
G01 X-36.74791 Y-13.33188
G01 X-36.73940 Y-13.32949
G01 X-36.67448 Y-13.42946
G01 X-36.61336 Y-13.53533
G01 X-36.61186 Y-13.23706
G01 X-36.51265 Y-12.93774
G01 X-36.51265 Y-9.24316
G01 X-36.52990 Y-9.23602
G01 X-36.51265 Y-9.24316
G01 X-35.04281 Y-7.77337
G01 X-35.72307 Y-9.41565
G01 X-35.83236 Y-9.52495
G01 X-35.84964 Y-9.51779
G01 X-35.83236 Y-9.52495
G01 X-35.83236 Y-11.61194
( Mill infeed pass 2/2 )
G00 Z2.00000 ( retract )
G00 X-34.55901 Y-16.36784 ( rapid move to begin. )
G01 Z-0.10000
G04 P0 ( dwell for no time -- G64 should not smooth over this point )
G01 F120.00000
G01 X-34.55901 Y-16.36784
G01 X-34.45520 Y-16.44744
G01 X-34.33216 Y-16.55252
G01 X-34.22099 Y-16.65801
G01 X-34.08335 Y-16.80456
G01 X-34.08335 Y-17.68452
G01 X-34.16109 Y-17.76484
G01 X-34.22924 Y-17.84469
G01 X-34.24177 Y-17.91640
G01 X-34.30196 Y-18.09763
G01 X-34.39635 Y-18.26362
G01 X-34.42424 Y-18.30197
G01 X-34.53613 Y-18.42625
G01 X-34.57138 Y-18.45798
G01 X-34.72658 Y-18.56923
G01 X-34.92269 Y-18.65653
G01 X-35.13264 Y-18.70116
G01 X-35.34141 Y-18.70149
G01 X-35.43178 Y-18.74731
G01 X-35.50778 Y-18.70606
G01 X-35.63475 Y-18.62341
G01 X-35.57946 Y-18.64802
G01 X-35.53435 Y-18.66268
G01 X-35.34141 Y-18.70149
G01 X-35.55728 Y-18.65653
G01 X-35.73224 Y-18.58000
G01 X-35.77331 Y-18.55630
G01 X-35.90859 Y-18.45798
G01 X-35.94384 Y-18.42625
G01 X-36.05576 Y-18.30197
G01 X-36.08362 Y-18.26362
G01 X-36.16724 Y-18.11879
G01 X-36.18835 Y-18.06981
G01 X-36.28893 Y-17.90814
G01 X-36.32721 Y-17.83748
G01 X-36.37727 Y-17.73192
G01 X-36.44476 Y-17.66481
G01 X-36.47625 Y-17.58897
G01 X-36.57011 Y-17.39626
G01 X-36.47625 Y-17.58897
G01 X-36.44476 Y-17.66481
G01 X-36.37882 Y-17.73306
G01 X-36.28893 Y-17.90814
G01 X-36.18835 Y-18.06981
G01 X-36.24435 Y-17.89346
G01 X-36.26571 Y-17.70065
G01 X-37.49294 Y-16.47342
G01 X-37.64765 Y-16.39463
G01 X-37.76281 Y-16.34678
G01 X-38.38989 Y-15.72278
G01 X-38.38793 Y-15.72001
G01 X-38.38989 Y-15.72278
G01 X-38.53751 Y-15.65928
G01 X-38.67876 Y-15.58724
G01 X-38.53751 Y-15.65928
G01 X-38.38989 Y-15.72278
G01 X-37.76281 Y-16.34678
G01 X-37.64765 Y-16.39463
G01 X-37.49294 Y-16.47342
G01 X-38.36899 Y-15.59740
G01 X-38.41636 Y-15.60241
G01 X-38.60731 Y-15.60116
G01 X-38.81730 Y-15.55653
G01 X-39.01338 Y-15.46921
G01 X-39.16860 Y-15.35798
G01 X-39.20383 Y-15.32626
G01 X-39.33068 Y-15.18354
G01 X-39.43802 Y-14.99763
G01 X-39.50434 Y-14.79347
G01 X-39.52634 Y-14.57160
G01 X-39.50434 Y-14.36649
G01 X-39.43802 Y-14.16235
G01 X-39.33068 Y-13.97645
G01 X-39.20383 Y-13.83370
G01 X-39.16860 Y-13.80198
G01 X-39.12679 Y-13.77160
G01 X-39.12679 Y-8.42000
G01 X-39.11559 Y-8.30448
G01 X-39.08994 Y-8.20958
G01 X-39.06594 Y-8.15160
G01 X-39.01697 Y-8.06638
G01 X-38.94320 Y-7.97677
G01 X-35.51456 Y-4.54815
G01 X-35.52678 Y-4.41998
G01 X-35.50806 Y-4.22994
G01 X-35.49820 Y-4.18358
G01 X-35.43800 Y-4.00235
G01 X-35.33069 Y-3.81645
G01 X-35.18705 Y-3.65691
G01 X-35.12241 Y-3.60843
G01 X-35.28543 Y-3.66583
G01 X-35.44722 Y-3.73786
G01 X-35.54555 Y-3.78813
G01 X-35.70765 Y-3.88173
G01 X-35.84113 Y-3.96875
G01 X-36.00356 Y-4.08676
G01 X-36.18812 Y-4.23690
G01 X-36.26208 Y-4.30454
G01 X-36.47834 Y-4.39326
G01 X-36.55525 Y-4.57845
G01 X-36.63165 Y-4.73860
G01 X-36.59932 Y-4.67086
G01 X-36.19604 Y-4.26756
G01 X-36.18357 Y-4.27350
G01 X-36.19604 Y-4.26756
G01 X-36.19330 Y-4.24157
G01 X-36.00356 Y-4.08676
G01 X-35.92507 Y-4.02976
G01 X-35.94796 Y-4.11221
G01 X-35.95908 Y-4.18254
G01 X-35.97768 Y-4.36987
G01 X-35.96498 Y-4.37589
G01 X-35.97768 Y-4.36987
G01 X-38.86413 Y-7.25635
G01 X-39.08991 Y-7.80280
G01 X-35.75124 Y-4.46413
G01 X-35.73783 Y-4.47032
G01 X-35.75124 Y-4.46413
G01 X-35.75355 Y-4.41998
G01 X-35.72614 Y-4.15935
G01 X-35.64517 Y-3.91013
G01 X-35.59365 Y-3.81592
G01 X-35.44722 Y-3.73786
G01 X-35.28543 Y-3.66583
G01 X-35.12241 Y-3.60843
G01 X-35.01339 Y-3.53075
G01 X-34.81728 Y-3.44345
G01 X-34.60732 Y-3.39882
G01 X-34.41636 Y-3.39758
G01 X-34.36922 Y-3.40253
G01 X-34.18268 Y-3.44345
G01 X-34.00773 Y-3.51998
G01 X-33.96668 Y-3.54368
G01 X-33.83138 Y-3.64198
G01 X-33.79615 Y-3.67370
G01 X-33.66930 Y-3.81645
G01 X-33.56196 Y-4.00235
G01 X-33.50176 Y-4.18358
G01 X-33.49191 Y-4.22994
G01 X-33.47359 Y-4.41223
G01 X-33.49191 Y-4.61002
G01 X-33.50176 Y-4.65640
G01 X-33.56196 Y-4.83763
G01 X-33.66930 Y-5.02354
G01 X-33.79615 Y-5.16626
G01 X-33.83138 Y-5.19798
G01 X-33.98660 Y-5.30921
G01 X-34.16054 Y-5.38803
G01 X-34.20562 Y-5.40268
G01 X-34.39267 Y-5.44116
G01 X-34.58360 Y-5.44241
G01 X-34.63077 Y-5.43745
G01 X-37.87318 Y-8.67961
G01 X-37.87318 Y-13.77160
G01 X-37.83137 Y-13.80198
G01 X-37.79614 Y-13.83370
G01 X-37.66929 Y-13.97645
G01 X-37.56195 Y-14.16235
G01 X-37.50178 Y-14.34358
G01 X-37.49192 Y-14.38994
G01 X-37.47318 Y-14.57998
G01 X-37.48540 Y-14.70812
G01 X-35.50290 Y-16.69062
G01 X-35.34733 Y-16.65882
G01 X-35.15637 Y-16.65757
G01 X-35.10920 Y-16.66253
G01 X-34.92269 Y-16.70345
G01 X-34.74773 Y-16.77998
G01 X-34.70669 Y-16.80367
G01 X-34.55292 Y-16.91693
G01 X-34.42424 Y-17.05801
G01 X-34.39635 Y-17.09636
G01 X-34.30196 Y-17.26235
G01 X-34.23562 Y-17.46651
G01 X-34.21319 Y-17.67997
G01 X-34.22924 Y-17.84469
G01 X-34.16109 Y-17.76484
G01 X-34.08335 Y-17.68452
G01 X-34.08335 Y-17.19997
G01 X-34.11637 Y-17.12783
G01 X-34.19998 Y-16.98297
G01 X-34.25571 Y-16.90627
G01 X-34.40120 Y-16.74840
G01 X-34.57339 Y-16.62024
G01 X-34.65551 Y-16.57281
G01 X-34.85261 Y-16.48777
G01 X-35.06206 Y-16.44073
G01 X-35.15637 Y-16.43080
G01 X-35.37102 Y-16.43329
G01 X-35.42962 Y-16.44322
G01 X-35.43788 Y-16.46700
G01 X-35.42962 Y-16.44322
G01 X-37.24874 Y-14.62410
G01 X-37.26216 Y-14.63030
G01 X-37.24874 Y-14.62410
G01 X-37.24643 Y-14.57998
G01 X-37.27381 Y-14.31935
G01 X-37.35481 Y-14.07013
G01 X-37.48583 Y-13.84315
G01 X-37.64643 Y-13.66317
G01 X-37.66132 Y-13.66886
G01 X-37.64643 Y-13.66317
G01 X-37.64643 Y-8.77354
G01 X-37.66368 Y-8.76640
G01 X-37.64643 Y-8.77354
G01 X-34.54204 Y-5.66915
G01 X-34.54905 Y-5.65262
G01 X-34.54204 Y-5.66915
G01 X-34.41636 Y-5.66915
G01 X-34.32205 Y-5.65925
G01 X-34.11261 Y-5.61218
G01 X-33.89752 Y-5.51797
G01 X-33.80092 Y-5.33174
G01 X-33.76303 Y-5.24690
G01 X-33.68838 Y-5.04660
G01 X-33.76303 Y-5.24690
G01 X-33.80092 Y-5.33174
G01 X-33.88345 Y-5.49369
G01 X-33.94972 Y-5.60807
G01 X-34.05508 Y-5.77030
G01 X-34.16938 Y-5.92699
G01 X-34.38842 Y-6.19166
G01 X-35.49632 Y-8.86821
G01 X-36.05914 Y-9.43102
G01 X-36.07638 Y-9.42388
G01 X-36.05914 Y-9.43102
G01 X-36.05914 Y-11.98662
G01 X-36.18555 Y-12.20513
G01 X-36.28588 Y-12.40582
G01 X-36.28588 Y-9.33709
G01 X-36.30315 Y-9.32995
G01 X-36.28588 Y-9.33709
G01 X-35.26955 Y-8.32079
G01 X-35.77770 Y-9.54758
G01 X-35.78197 Y-9.54672
G01 X-35.77770 Y-9.54758
G01 X-35.78634 Y-9.59096
G01 X-35.78634 Y-11.54163
G01 X-35.92330 Y-11.75220
G01 X-36.18263 Y-12.19977
G01 X-36.27079 Y-12.37237
G01 X-36.44765 Y-12.76830
G01 X-36.51347 Y-12.94000
G01 X-36.60742 Y-13.21920
G01 X-36.61336 Y-13.25540
G01 X-36.61613 Y-13.25496
G01 X-36.61336 Y-13.25540
G01 X-36.61336 Y-14.28252
G01 X-36.60686 Y-14.32037
G01 X-36.60991 Y-14.32100
G01 X-36.60686 Y-14.32037
G01 X-36.54174 Y-14.50378
G01 X-36.44501 Y-14.73843
G01 X-36.36571 Y-14.90365
G01 X-36.26604 Y-15.08757
G01 X-36.17349 Y-15.23964
G01 X-36.06503 Y-15.39720
G01 X-35.95906 Y-15.53609
G01 X-35.83856 Y-15.67675
G01 X-35.72360 Y-15.79832
G01 X-35.59523 Y-15.91991
G01 X-35.46343 Y-16.03304
G01 X-35.34771 Y-16.12354
G01 X-35.31857 Y-16.14007
G01 X-35.32053 Y-16.14432
G01 X-35.31857 Y-16.14007
G01 X-35.18131 Y-16.17109
G01 X-34.65670 Y-16.29888
G01 X-34.55901 Y-16.36784
G01 X-34.71606 Y-16.29766
G01 X-34.78256 Y-16.27213
G01 X-34.85134 Y-16.25369
G01 X-35.01492 Y-16.21892
G01 X-35.08525 Y-16.20779
G01 X-35.15637 Y-16.20406
