( pcb2gcode 2.5.0 )
( Software-independent Gcode )

G94 ( Millimeters per minute feed rate. )
G21 ( Units == Millimeters. )

G90 ( Absolute coordinates. )
G00 S13000 ( RPM spindle speed. )
G01 F120.00000 ( Feedrate. )


G00 Z15.00000 (Retract to tool change height)
T0
M5      (Spindle stop.)
G04 P1.00000 (Wait for spindle to stop)
(MSG, Change tool bit to mill diameter 0.45360mm)
M6      (Tool change.)
M0      (Temporary machine stop.)
M3 ( Spindle on clockwise. )
G04 P1.00000 (Wait for spindle to get up to speed)
G04 P0 ( dwell for no time -- G64 should not smooth over this point )
G00 Z2.00000 ( retract )

G00 X-4.46728 Y-4.51615 ( rapid move to begin. )
G01 F60.00000
( Mill infeed pass 1/1 )
G01 Z-0.10000
G04 P0 ( dwell for no time -- G64 should not smooth over this point )
G01 F120.00000
G01 X-4.46728 Y-4.51615
G01 X-4.47591 Y-4.52740
G01 X-4.48828 Y-4.53453
G01 X-4.48231 Y-4.55219
G01 X-4.48828 Y-4.53453
G01 X-4.50243 Y-4.53636
G01 X-4.51607 Y-4.53271
G01 X-4.52432 Y-4.54942
G01 X-4.51607 Y-4.53271
G01 X-4.52740 Y-4.52402
G01 X-4.53453 Y-4.51165
G01 X-4.55229 Y-4.51767
G01 X-4.53453 Y-4.51165
G01 X-4.53636 Y-4.49753
G01 X-4.53268 Y-4.48381
G01 X-4.54939 Y-4.47553
G01 X-4.53268 Y-4.48381
G01 X-4.52402 Y-4.47253
G01 X-4.51170 Y-4.46545
G01 X-4.51769 Y-4.44777
G01 X-4.51170 Y-4.46545
G01 X-4.49753 Y-4.46359
G01 X-4.48386 Y-4.46725
G01 X-4.47561 Y-4.45054
G01 X-4.48386 Y-4.46725
G01 X-4.47253 Y-4.47594
G01 X-4.46545 Y-4.48821
G01 X-4.44772 Y-4.48219
G01 X-4.46545 Y-4.48821
G01 X-4.46359 Y-4.50248
G01 X-4.46728 Y-4.51615
G01 X-4.45049 Y-4.52445
G01 X-4.23682 Y-4.51734
G01 X-4.25026 Y-4.58475
G01 X-4.24604 Y-4.58617
G01 X-4.25026 Y-4.58475
G01 X-4.28069 Y-4.64650
G01 X-4.30169 Y-4.67385
G01 X-4.29834 Y-4.67680
G01 X-4.30169 Y-4.67385
G01 X-4.35343 Y-4.71924
G01 X-4.38333 Y-4.73652
G01 X-4.38137 Y-4.74048
G01 X-4.38333 Y-4.73652
G01 X-4.41523 Y-4.74972
G01 X-4.48269 Y-4.76313
G01 X-4.48239 Y-4.76755
G01 X-4.48269 Y-4.76313
G01 X-4.55145 Y-4.75864
G01 X-4.58467 Y-4.74972
G01 X-4.58610 Y-4.75394
G01 X-4.58467 Y-4.74972
G01 X-4.61660 Y-4.73652
G01 X-4.67385 Y-4.69824
G01 X-4.67678 Y-4.70159
G01 X-4.67385 Y-4.69824
G01 X-4.71927 Y-4.64647
G01 X-4.73652 Y-4.61660
G01 X-4.74048 Y-4.61856
G01 X-4.73652 Y-4.61660
G01 X-4.75864 Y-4.55145
G01 X-4.76313 Y-4.51726
G01 X-4.76755 Y-4.51757
G01 X-4.76313 Y-4.51726
G01 X-4.76313 Y-4.48269
G01 X-4.74972 Y-4.41523
G01 X-4.75394 Y-4.41381
G01 X-4.74972 Y-4.41523
G01 X-4.73649 Y-4.38330
G01 X-4.69824 Y-4.32608
G01 X-4.70159 Y-4.32316
G01 X-4.69824 Y-4.32608
G01 X-4.64650 Y-4.28069
G01 X-4.61665 Y-4.26347
G01 X-4.61863 Y-4.25948
G01 X-4.61665 Y-4.26347
G01 X-4.55145 Y-4.24132
G01 X-4.51726 Y-4.23682
G01 X-4.51757 Y-4.23240
G01 X-4.51726 Y-4.23682
G01 X-4.48269 Y-4.23682
G01 X-4.41523 Y-4.25023
G01 X-4.41381 Y-4.24602
G01 X-4.41523 Y-4.25023
G01 X-4.38333 Y-4.26344
G01 X-4.32608 Y-4.30172
G01 X-4.32316 Y-4.29837
G01 X-4.32608 Y-4.30172
G01 X-4.28066 Y-4.35348
G01 X-4.26347 Y-4.38328
G01 X-4.25948 Y-4.38132
G01 X-4.26347 Y-4.38328
G01 X-4.24132 Y-4.44851
G01 X-4.23682 Y-4.48269
G01 X-4.23240 Y-4.48239
G01 X-4.23682 Y-4.48269
G01 X-4.23682 Y-4.51734
G01 X-4.01008 Y-4.53222
G01 X-4.01843 Y-4.59575
G01 X-4.03507 Y-4.65780
G01 X-4.05966 Y-4.71716
G01 X-4.05567 Y-4.71912
G01 X-4.05966 Y-4.71716
G01 X-4.09174 Y-4.77274
G01 X-4.13083 Y-4.82369
G01 X-4.17624 Y-4.86910
G01 X-4.17332 Y-4.87243
G01 X-4.17624 Y-4.86910
G01 X-4.22719 Y-4.90819
G01 X-4.28282 Y-4.94030
G01 X-4.34218 Y-4.96489
G01 X-4.34076 Y-4.96910
G01 X-4.34218 Y-4.96489
G01 X-4.40416 Y-4.98150
G01 X-4.46783 Y-4.98988
G01 X-4.53212 Y-4.98988
G01 X-4.53243 Y-4.99433
G01 X-4.53212 Y-4.98988
G01 X-4.59577 Y-4.98150
G01 X-4.65773 Y-4.96491
G01 X-4.71711 Y-4.94030
G01 X-4.71907 Y-4.94429
G01 X-4.71711 Y-4.94030
G01 X-4.77274 Y-4.90819
G01 X-4.82369 Y-4.86910
G01 X-4.86910 Y-4.82369
G01 X-4.87243 Y-4.82661
G01 X-4.86910 Y-4.82369
G01 X-4.90822 Y-4.77271
G01 X-4.94030 Y-4.71711
G01 X-4.96489 Y-4.65775
G01 X-4.96910 Y-4.65917
G01 X-4.96489 Y-4.65775
G01 X-4.98150 Y-4.59577
G01 X-4.98988 Y-4.53212
G01 X-4.98988 Y-4.46783
G01 X-4.99433 Y-4.46753
G01 X-4.98988 Y-4.46783
G01 X-4.98150 Y-4.40416
G01 X-4.96489 Y-4.34218
G01 X-4.94030 Y-4.28280
G01 X-4.94429 Y-4.28084
G01 X-4.94030 Y-4.28280
G01 X-4.90822 Y-4.22725
G01 X-4.86910 Y-4.17624
G01 X-4.82369 Y-4.13083
G01 X-4.82661 Y-4.12750
G01 X-4.82369 Y-4.13083
G01 X-4.77274 Y-4.09174
G01 X-4.71716 Y-4.05966
G01 X-4.65780 Y-4.03507
G01 X-4.65922 Y-4.03085
G01 X-4.65780 Y-4.03507
G01 X-4.59577 Y-4.01846
G01 X-4.53212 Y-4.01008
G01 X-4.46783 Y-4.01008
G01 X-4.46753 Y-4.00563
G01 X-4.46783 Y-4.01008
G01 X-4.40416 Y-4.01846
G01 X-4.34218 Y-4.03507
G01 X-4.28282 Y-4.05966
G01 X-4.28087 Y-4.05567
G01 X-4.28282 Y-4.05966
G01 X-4.22719 Y-4.09176
G01 X-4.17624 Y-4.13085
G01 X-4.13083 Y-4.17627
G01 X-4.12750 Y-4.17335
G01 X-4.13083 Y-4.17627
G01 X-4.09171 Y-4.22725
G01 X-4.05966 Y-4.28280
G01 X-4.03507 Y-4.34213
G01 X-4.03088 Y-4.34071
G01 X-4.03507 Y-4.34213
G01 X-4.01846 Y-4.40418
G01 X-4.01008 Y-4.46783
G01 X-4.01008 Y-4.53222
G01 X-3.78330 Y-4.54713
G01 X-3.79557 Y-4.64007
G01 X-3.81884 Y-4.73116
G01 X-3.85488 Y-4.81818
G01 X-3.90279 Y-4.89900
G01 X-3.95851 Y-4.97482
G01 X-4.02641 Y-5.03994
G01 X-4.10030 Y-5.09803
G01 X-4.18188 Y-5.14513
G01 X-4.26913 Y-5.18008
G01 X-4.35958 Y-5.20545
G01 X-4.45295 Y-5.21713
G01 X-4.54708 Y-5.21774
G01 X-4.64012 Y-5.20438
G01 X-4.73141 Y-5.18193
G01 X-4.81762 Y-5.14411
G01 X-4.89958 Y-5.09806
G01 X-4.97385 Y-5.04033
G01 X-5.04078 Y-4.97421
G01 X-5.09714 Y-4.89897
G01 X-5.14586 Y-4.81848
G01 X-5.18008 Y-4.73080
G01 X-5.20545 Y-4.64035
G01 X-5.21713 Y-4.54701
G01 X-5.21774 Y-4.45287
G01 X-5.20438 Y-4.35983
G01 X-5.18193 Y-4.26850
G01 X-5.14411 Y-4.18229
G01 X-5.09811 Y-4.10042
G01 X-5.04033 Y-4.02608
G01 X-4.97421 Y-3.95915
G01 X-4.89900 Y-3.90279
G01 X-4.81853 Y-3.85409
G01 X-4.73083 Y-3.81988
G01 X-4.64035 Y-3.79451
G01 X-4.54701 Y-3.78282
G01 X-4.45287 Y-3.78221
G01 X-4.35983 Y-3.79557
G01 X-4.26850 Y-3.81803
G01 X-4.18231 Y-3.85585
G01 X-4.10035 Y-3.90190
G01 X-4.02608 Y-3.95963
G01 X-3.95915 Y-4.02575
G01 X-3.90279 Y-4.10098
G01 X-3.85409 Y-4.18142
G01 X-3.81988 Y-4.26910
G01 X-3.79451 Y-4.35961
G01 X-3.78282 Y-4.45295
G01 X-3.78330 Y-4.54713
G01 X-3.32981 Y-4.57685
G01 X-3.34980 Y-4.72874
G01 X-3.38846 Y-4.87723
G01 X-3.44724 Y-5.01917
G01 X-3.52491 Y-5.15148
G01 X-3.61681 Y-5.27446
G01 X-3.72674 Y-5.38165
G01 X-3.84780 Y-5.47594
G01 X-3.98087 Y-5.55274
G01 X-4.12303 Y-5.61045
G01 X-4.27093 Y-5.65122
G01 X-4.42323 Y-5.67126
G01 X-4.57670 Y-5.67014
G01 X-4.72895 Y-5.65122
G01 X-4.87728 Y-5.61147
G01 X-5.01863 Y-5.55173
G01 X-5.15206 Y-5.47596
G01 X-5.27350 Y-5.38201
G01 X-5.38249 Y-5.27388
G01 X-5.47505 Y-5.15148
G01 X-5.55348 Y-5.01952
G01 X-5.61045 Y-4.87690
G01 X-5.65122 Y-4.72902
G01 X-5.67126 Y-4.57672
G01 X-5.67014 Y-4.42326
G01 X-5.65122 Y-4.27098
G01 X-5.61144 Y-4.12265
G01 X-5.55173 Y-3.98130
G01 X-5.48236 Y-3.85910
G01 X-5.38254 Y-3.72593
G01 X-5.27319 Y-3.61828
G01 X-5.15214 Y-3.52400
G01 X-5.01912 Y-3.44721
G01 X-4.87693 Y-3.38953
G01 X-4.72902 Y-3.34874
G01 X-4.57672 Y-3.32870
G01 X-4.42326 Y-3.32981
G01 X-4.27098 Y-3.34874
G01 X-4.12265 Y-3.38849
G01 X-3.98130 Y-3.44823
G01 X-3.84787 Y-3.52400
G01 X-3.72643 Y-3.61795
G01 X-3.61744 Y-3.72608
G01 X-3.52488 Y-3.84848
G01 X-3.44645 Y-3.98041
G01 X-3.38953 Y-4.12303
G01 X-3.34874 Y-4.27093
G01 X-3.32930 Y-4.42323
G01 X-3.32981 Y-4.57685
G01 X-3.10304 Y-4.59166
G01 X-3.12646 Y-4.77319
G01 X-3.17388 Y-4.95013
G01 X-3.24396 Y-5.11937
G01 X-3.33555 Y-5.27799
G01 X-3.44706 Y-5.42333
G01 X-3.57660 Y-5.55287
G01 X-3.72194 Y-5.66438
G01 X-3.88059 Y-5.75597
G01 X-4.04983 Y-5.82610
G01 X-4.22674 Y-5.87350
G01 X-4.40837 Y-5.89740
G01 X-4.59158 Y-5.89740
G01 X-4.77319 Y-5.87350
G01 X-4.95010 Y-5.82610
G01 X-5.11934 Y-5.75597
G01 X-5.27799 Y-5.66438
G01 X-5.42333 Y-5.55287
G01 X-5.55287 Y-5.42333
G01 X-5.66438 Y-5.27799
G01 X-5.75597 Y-5.11937
G01 X-5.82610 Y-4.95010
G01 X-5.87350 Y-4.77319
G01 X-5.89740 Y-4.59158
G01 X-5.89740 Y-4.40837
G01 X-5.87350 Y-4.22674
G01 X-5.82610 Y-4.04983
G01 X-5.75597 Y-3.88056
G01 X-5.66440 Y-3.72196
G01 X-5.55287 Y-3.57660
G01 X-5.42333 Y-3.44706
G01 X-5.27799 Y-3.33555
G01 X-5.11937 Y-3.24396
G01 X-4.95013 Y-3.17388
G01 X-4.77319 Y-3.12646
G01 X-4.59158 Y-3.10256
G01 X-4.40837 Y-3.10256
G01 X-4.22674 Y-3.12646
G01 X-4.04983 Y-3.17386
G01 X-3.88059 Y-3.24399
G01 X-3.72194 Y-3.33558
G01 X-3.57660 Y-3.44708
G01 X-3.44706 Y-3.57662
G01 X-3.33555 Y-3.72196
G01 X-3.24396 Y-3.88056
G01 X-3.17388 Y-4.04983
G01 X-3.12646 Y-4.22676
G01 X-3.10256 Y-4.40837
G01 X-3.10304 Y-4.59166
G01 X-2.87769 Y-4.61714
G01 X-2.90406 Y-4.81744
G01 X-2.95915 Y-5.02300
G01 X-3.04058 Y-5.21965
G01 X-3.14701 Y-5.40398
G01 X-3.27657 Y-5.57284
G01 X-3.42709 Y-5.72336
G01 X-3.59595 Y-5.85292
G01 X-3.78028 Y-5.95935
G01 X-3.97693 Y-6.04081
G01 X-4.18252 Y-6.09590
G01 X-4.39354 Y-6.12366
G01 X-4.60642 Y-6.12366
G01 X-4.81744 Y-6.09590
G01 X-5.02300 Y-6.04081
G01 X-5.21965 Y-5.95935
G01 X-5.40398 Y-5.85292
G01 X-5.57284 Y-5.72336
G01 X-5.72336 Y-5.57284
G01 X-5.85292 Y-5.40398
G01 X-5.95935 Y-5.21967
G01 X-6.04081 Y-5.02300
G01 X-6.09590 Y-4.81744
G01 X-6.12366 Y-4.60642
G01 X-6.12366 Y-4.39354
G01 X-6.09590 Y-4.18252
G01 X-6.04081 Y-3.97693
G01 X-5.95935 Y-3.78028
G01 X-5.85295 Y-3.59595
G01 X-5.72336 Y-3.42709
G01 X-5.57284 Y-3.27657
G01 X-5.40398 Y-3.14701
G01 X-5.21965 Y-3.04058
G01 X-5.02300 Y-2.95915
G01 X-4.81744 Y-2.90406
G01 X-4.60642 Y-2.87630
G01 X-4.39354 Y-2.87630
G01 X-4.18252 Y-2.90406
G01 X-3.97693 Y-2.95915
G01 X-3.78028 Y-3.04061
G01 X-3.59595 Y-3.14703
G01 X-3.42709 Y-3.27660
G01 X-3.27657 Y-3.42712
G01 X-3.14701 Y-3.59598
G01 X-3.04058 Y-3.78028
G01 X-2.95915 Y-3.97695
G01 X-2.90406 Y-4.18252
G01 X-2.87630 Y-4.39354
G01 X-2.87769 Y-4.61714
G04 P0 ( dwell for no time -- G64 should not smooth over this point )
G00 Z2.00000 ( retract )

G00 X-3.62679 Y-9.42320 ( rapid move to begin. )
G01 F60.00000
( Mill infeed pass 1/1 )
G01 Z-0.10000
G04 P0 ( dwell for no time -- G64 should not smooth over this point )
G01 F120.00000
G01 X-3.62679 Y-9.42320
G01 X-3.62679 Y-9.27679
G01 X-3.87441 Y-9.27679
G01 X-3.94741 Y-9.28639
G01 X-4.03819 Y-9.32398
G01 X-4.11617 Y-9.38380
G01 X-4.14952 Y-9.42729
G01 X-4.18109 Y-9.46074
G01 X-4.25458 Y-9.52429
G01 X-4.29087 Y-9.54994
G01 X-4.33146 Y-9.56800
G01 X-4.45239 Y-9.60610
G01 X-4.51155 Y-9.60956
G01 X-4.60845 Y-9.60252
G01 X-4.65224 Y-9.59498
G01 X-4.69372 Y-9.57905
G01 X-4.78056 Y-9.53549
G01 X-4.81818 Y-9.51174
G01 X-4.86865 Y-9.47245
G01 X-4.91317 Y-9.44834
G01 X-4.91317 Y-9.63016
G01 X-4.81947 Y-9.69978
G01 X-4.66486 Y-9.87316
G01 X-4.07678 Y-9.87316
G01 X-4.07678 Y-9.64999
G01 X-4.07243 Y-9.60575
G01 X-4.05953 Y-9.56320
G01 X-4.03857 Y-9.52398
G01 X-4.01036 Y-9.48962
G01 X-3.97599 Y-9.46140
G01 X-3.93677 Y-9.44044
G01 X-3.89423 Y-9.42754
G01 X-3.84998 Y-9.42320
G01 X-3.62679 Y-9.42320
G04 P0 ( dwell for no time -- G64 should not smooth over this point )
G00 Z2.00000 ( retract )

G00 X-3.62679 Y-11.72317 ( rapid move to begin. )
G01 F60.00000
( Mill infeed pass 1/1 )
G01 Z-0.10000
G04 P0 ( dwell for no time -- G64 should not smooth over this point )
G01 F120.00000
G01 X-3.62679 Y-11.72317
G01 X-3.62679 Y-11.57679
G01 X-3.84998 Y-11.57679
G01 X-3.89423 Y-11.57242
G01 X-3.93677 Y-11.55951
G01 X-3.97599 Y-11.53856
G01 X-4.01036 Y-11.51037
G01 X-4.03857 Y-11.47600
G01 X-4.05953 Y-11.43678
G01 X-4.07243 Y-11.39424
G01 X-4.07678 Y-11.34999
G01 X-4.07678 Y-11.12677
G01 X-4.66484 Y-11.12677
G01 X-4.81947 Y-11.30021
G01 X-4.91317 Y-11.36983
G01 X-4.91317 Y-11.55162
G01 X-4.86867 Y-11.52751
G01 X-4.79796 Y-11.47394
G01 X-4.69064 Y-11.41974
G01 X-4.64906 Y-11.40412
G01 X-4.60525 Y-11.39688
G01 X-4.50830 Y-11.39050
G01 X-4.44917 Y-11.39436
G01 X-4.32849 Y-11.43330
G01 X-4.28803 Y-11.45164
G01 X-4.25188 Y-11.47752
G01 X-4.17883 Y-11.54158
G01 X-4.11615 Y-11.61616
G01 X-4.03817 Y-11.67597
G01 X-3.94741 Y-11.71357
G01 X-3.87441 Y-11.72317
G01 X-3.62679 Y-11.72317
G04 P0 ( dwell for no time -- G64 should not smooth over this point )
G00 Z2.00000 ( retract )

G00 X-6.16679 Y-11.55159 ( rapid move to begin. )
G01 F60.00000
( Mill infeed pass 1/1 )
G01 Z-0.10000
G04 P0 ( dwell for no time -- G64 should not smooth over this point )
G01 F120.00000
G01 X-6.16679 Y-11.55159
G01 X-6.16679 Y-11.36983
G01 X-6.26052 Y-11.30021
G01 X-6.41513 Y-11.12677
G01 X-7.20484 Y-11.12677
G01 X-7.35947 Y-11.30021
G01 X-7.45317 Y-11.36983
G01 X-7.45317 Y-11.55162
G01 X-7.40865 Y-11.52751
G01 X-7.24822 Y-11.40264
G01 X-7.12206 Y-11.27006
G01 X-7.01375 Y-11.20153
G01 X-6.97375 Y-11.18222
G01 X-6.93072 Y-11.17110
G01 X-6.83473 Y-11.15609
G01 X-6.77553 Y-11.15464
G01 X-6.65185 Y-11.18263
G01 X-6.60989 Y-11.19726
G01 X-6.57159 Y-11.21981
G01 X-6.47578 Y-11.29106
G01 X-6.37123 Y-11.40300
G01 X-6.21129 Y-11.52751
G01 X-6.16679 Y-11.55159
G04 P0 ( dwell for no time -- G64 should not smooth over this point )
G00 Z2.00000 ( retract )

G00 X-6.16679 Y-9.63013 ( rapid move to begin. )
G01 F60.00000
( Mill infeed pass 1/1 )
G01 Z-0.10000
G04 P0 ( dwell for no time -- G64 should not smooth over this point )
G01 F120.00000
G01 X-6.16679 Y-9.63013
G01 X-6.16679 Y-9.44834
G01 X-6.21129 Y-9.47242
G01 X-6.37172 Y-9.59729
G01 X-6.49788 Y-9.72988
G01 X-6.60616 Y-9.79843
G01 X-6.66034 Y-9.82238
G01 X-6.68929 Y-9.82889
G01 X-6.78528 Y-9.84387
G01 X-6.82965 Y-9.84639
G01 X-6.87365 Y-9.84021
G01 X-6.99638 Y-9.80849
G01 X-7.04837 Y-9.78012
G01 X-7.12686 Y-9.72284
G01 X-7.16003 Y-9.69325
G01 X-7.24868 Y-9.59698
G01 X-7.40865 Y-9.47245
G01 X-7.45317 Y-9.44834
G01 X-7.45317 Y-9.63016
G01 X-7.35947 Y-9.69978
G01 X-7.20486 Y-9.87316
G01 X-6.41507 Y-9.87316
G01 X-6.26052 Y-9.69978
G01 X-6.16679 Y-9.63013
G04 P0 ( dwell for no time -- G64 should not smooth over this point )
G00 Z2.00000 ( retract )

G00 X-8.70679 Y-11.55159 ( rapid move to begin. )
G01 F60.00000
( Mill infeed pass 1/1 )
G01 Z-0.10000
G04 P0 ( dwell for no time -- G64 should not smooth over this point )
G01 F120.00000
G01 X-8.70679 Y-11.55159
G01 X-8.70679 Y-11.36983
G01 X-8.80052 Y-11.30021
G01 X-8.95513 Y-11.12677
G01 X-9.74484 Y-11.12677
G01 X-9.89947 Y-11.30021
G01 X-9.99317 Y-11.36983
G01 X-9.99317 Y-11.55162
G01 X-9.94865 Y-11.52751
G01 X-9.78822 Y-11.40264
G01 X-9.66206 Y-11.27006
G01 X-9.55375 Y-11.20153
G01 X-9.51375 Y-11.18222
G01 X-9.47072 Y-11.17110
G01 X-9.37473 Y-11.15609
G01 X-9.31553 Y-11.15464
G01 X-9.19185 Y-11.18263
G01 X-9.14989 Y-11.19726
G01 X-9.11159 Y-11.21981
G01 X-9.01578 Y-11.29106
G01 X-8.91126 Y-11.40300
G01 X-8.75129 Y-11.52751
G01 X-8.70679 Y-11.55159
G04 P0 ( dwell for no time -- G64 should not smooth over this point )
G00 Z2.00000 ( retract )

G00 X-8.70679 Y-9.63013 ( rapid move to begin. )
G01 F60.00000
( Mill infeed pass 1/1 )
G01 Z-0.10000
G04 P0 ( dwell for no time -- G64 should not smooth over this point )
G01 F120.00000
G01 X-8.70679 Y-9.63013
G01 X-8.70679 Y-9.44834
G01 X-8.75129 Y-9.47242
G01 X-8.91172 Y-9.59729
G01 X-9.03788 Y-9.72988
G01 X-9.14618 Y-9.79843
G01 X-9.20034 Y-9.82238
G01 X-9.22929 Y-9.82889
G01 X-9.32528 Y-9.84387
G01 X-9.36965 Y-9.84639
G01 X-9.41365 Y-9.84021
G01 X-9.53638 Y-9.80849
G01 X-9.58837 Y-9.78012
G01 X-9.66686 Y-9.72284
G01 X-9.70003 Y-9.69325
G01 X-9.78868 Y-9.59698
G01 X-9.94865 Y-9.47245
G01 X-9.99317 Y-9.44834
G01 X-9.99317 Y-9.63016
G01 X-9.89947 Y-9.69978
G01 X-9.74486 Y-9.87316
G01 X-8.95510 Y-9.87316
G01 X-8.80052 Y-9.69978
G01 X-8.70679 Y-9.63013
G04 P0 ( dwell for no time -- G64 should not smooth over this point )
G00 Z2.00000 ( retract )

G00 X-11.24679 Y-11.55159 ( rapid move to begin. )
G01 F60.00000
( Mill infeed pass 1/1 )
G01 Z-0.10000
G04 P0 ( dwell for no time -- G64 should not smooth over this point )
G01 F120.00000
G01 X-11.24679 Y-11.55159
G01 X-11.24679 Y-11.36983
G01 X-11.34052 Y-11.30021
G01 X-11.49513 Y-11.12677
G01 X-11.67160 Y-11.12677
G01 X-11.58855 Y-11.25385
G01 X-11.45126 Y-11.40300
G01 X-11.29129 Y-11.52751
G01 X-11.24679 Y-11.55159
G04 P0 ( dwell for no time -- G64 should not smooth over this point )
G00 Z2.00000 ( retract )

G00 X-11.24679 Y-9.63013 ( rapid move to begin. )
G01 F60.00000
( Mill infeed pass 1/1 )
G01 Z-0.10000
G04 P0 ( dwell for no time -- G64 should not smooth over this point )
G01 F120.00000
G01 X-11.24679 Y-9.63013
G01 X-11.24679 Y-9.44834
G01 X-11.29129 Y-9.47242
G01 X-11.45126 Y-9.59693
G01 X-11.58855 Y-9.74611
G01 X-11.67158 Y-9.87316
G01 X-11.49510 Y-9.87316
G01 X-11.34052 Y-9.69978
G01 X-11.24679 Y-9.63013
G04 P0 ( dwell for no time -- G64 should not smooth over this point )
G00 Z2.00000 ( retract )

G00 X-15.24033 Y-13.43388 ( rapid move to begin. )
G01 F60.00000
( Mill infeed pass 1/1 )
G01 Z-0.10000
G04 P0 ( dwell for no time -- G64 should not smooth over this point )
G01 F120.00000
G01 X-15.24033 Y-13.43388
G01 X-15.36901 Y-13.56256
G01 X-15.41635 Y-13.55758
G01 X-15.58361 Y-13.55758
G01 X-15.63075 Y-13.56253
G01 X-15.75963 Y-13.43388
G01 X-15.59717 Y-13.40678
G01 X-15.40279 Y-13.40678
G01 X-15.24033 Y-13.43388
G04 P0 ( dwell for no time -- G64 should not smooth over this point )
G00 Z2.00000 ( retract )

G00 X-14.32276 Y-14.57998 ( rapid move to begin. )
G01 F60.00000
( Mill infeed pass 1/1 )
G01 Z-0.10000
G04 P0 ( dwell for no time -- G64 should not smooth over this point )
G01 F120.00000
G01 X-14.32276 Y-14.57998
G01 X-14.33881 Y-14.77373
G01 X-14.35517 Y-14.83835
G01 X-14.48542 Y-14.70812
G01 X-14.47320 Y-14.57998
G01 X-14.48542 Y-14.45184
G01 X-14.35517 Y-14.32161
G01 X-14.33881 Y-14.38620
G01 X-14.32276 Y-14.57998
G04 P0 ( dwell for no time -- G64 should not smooth over this point )
G00 Z2.00000 ( retract )

G00 X-14.20810 Y-18.30680 ( rapid move to begin. )
G01 F60.00000
( Mill infeed pass 1/1 )
G01 Z-0.10000
G04 P0 ( dwell for no time -- G64 should not smooth over this point )
G01 F120.00000
G01 X-14.20810 Y-18.30680
G01 X-14.27096 Y-18.40301
G01 X-14.40266 Y-18.54609
G01 X-14.49532 Y-18.61820
G01 X-14.57317 Y-18.54035
G01 X-14.57317 Y-18.48836
G01 X-14.51292 Y-18.44304
G01 X-14.38857 Y-18.30680
G01 X-14.20810 Y-18.30680
G04 P0 ( dwell for no time -- G64 should not smooth over this point )
G00 Z2.00000 ( retract )

G00 X-12.77877 Y-19.58965 ( rapid move to begin. )
G01 F60.00000
( Mill infeed pass 1/1 )
G01 Z-0.10000
G04 P0 ( dwell for no time -- G64 should not smooth over this point )
G01 F120.00000
G01 X-12.77877 Y-19.58965
G01 X-12.77315 Y-19.58840
G01 X-12.73269 Y-19.68503
G01 X-12.67671 Y-19.79214
G01 X-12.56182 Y-19.96171
G01 X-12.57633 Y-20.20687
G01 X-12.57285 Y-20.24014
G01 X-12.57943 Y-20.24149
G01 X-12.57285 Y-20.24014
G01 X-12.57897 Y-20.24136
G01 X-12.57285 Y-20.24014
G01 X-12.52713 Y-20.35104
G01 X-12.44364 Y-20.52655
G01 X-12.39987 Y-20.60799
G01 X-12.30104 Y-20.76887
G01 X-12.18098 Y-20.93255
G01 X-11.44034 Y-21.67319
G01 X-10.22749 Y-21.67319
G01 X-10.18324 Y-21.67755
G01 X-10.14070 Y-21.69046
G01 X-10.10148 Y-21.71141
G01 X-10.06711 Y-21.73961
G01 X-10.03892 Y-21.77397
G01 X-10.01796 Y-21.81319
G01 X-10.00503 Y-21.85573
G01 X-10.00069 Y-21.89998
G01 X-10.00069 Y-23.58382
G01 X-10.01095 Y-23.57849
G01 X-10.00069 Y-23.58382
G01 X-10.00069 Y-23.46305
G01 X-10.00379 Y-23.46358
G01 X-10.00069 Y-23.46305
G01 X-9.96963 Y-23.55317
G01 X-10.00069 Y-23.58382
G01 X-10.00503 Y-23.64422
G01 X-10.01796 Y-23.68677
G01 X-10.03892 Y-23.72599
G01 X-10.06711 Y-23.76035
G01 X-10.10148 Y-23.78857
G01 X-10.14070 Y-23.80953
G01 X-10.18324 Y-23.82243
G01 X-10.22749 Y-23.82677
G01 X-11.92748 Y-23.82677
G01 X-11.97173 Y-23.82243
G01 X-12.01428 Y-23.80953
G01 X-12.05349 Y-23.78857
G01 X-12.08786 Y-23.76035
G01 X-12.11605 Y-23.72599
G01 X-12.13703 Y-23.68677
G01 X-12.14994 Y-23.64422
G01 X-12.15428 Y-23.59998
G01 X-12.15428 Y-22.73211
G01 X-12.13726 Y-22.72500
G01 X-12.15428 Y-22.73211
G01 X-13.65961 Y-21.22678
G01 X-13.65247 Y-21.20951
G01 X-13.65961 Y-21.22678
G01 X-16.59049 Y-21.22678
G01 X-16.63471 Y-21.22241
G01 X-16.72999 Y-21.20346
G01 X-16.77253 Y-21.19056
G01 X-16.81173 Y-21.16960
G01 X-16.90030 Y-21.10969
G01 X-16.85701 Y-21.13935
G01 X-16.85557 Y-21.13318
G01 X-16.85701 Y-21.13935
G01 X-16.88788 Y-21.13935
G01 X-16.90030 Y-21.10969
G01 X-16.93705 Y-21.07659
G01 X-16.95513 Y-21.05307
G01 X-17.02394 Y-20.94659
G01 X-17.04297 Y-20.89051
G01 X-17.06192 Y-20.79521
G01 X-17.06629 Y-20.75099
G01 X-17.06527 Y-20.15353
G01 X-17.09110 Y-20.02312
G01 X-17.14198 Y-19.90034
G01 X-17.21584 Y-19.78983
G01 X-17.53403 Y-19.47316
G01 X-17.60903 Y-19.37205
G01 X-17.62984 Y-19.33557
G01 X-17.64355 Y-19.29587
G01 X-17.66664 Y-19.20151
G01 X-17.67291 Y-19.15749
G01 X-17.67050 Y-19.11309
G01 X-17.65572 Y-19.01706
G01 X-17.64467 Y-18.97400
G01 X-17.60484 Y-18.90001
G01 X-17.64467 Y-18.97400
G01 X-17.65572 Y-19.01706
G01 X-17.66921 Y-19.10481
G01 X-17.66413 Y-19.10410
G01 X-17.66921 Y-19.10481
G01 X-17.69173 Y-19.05312
G01 X-17.72018 Y-18.96621
G01 X-17.60484 Y-18.90001
G01 X-17.60113 Y-18.90408
G01 X-17.60484 Y-18.90001
G01 X-17.57505 Y-18.85086
G01 X-17.53796 Y-18.80466
G01 X-17.43687 Y-18.72816
G01 X-17.39864 Y-18.70553
G01 X-17.20070 Y-18.61398
G01 X-17.04660 Y-18.50616
G01 X-16.80545 Y-18.26722
G01 X-16.75275 Y-18.23730
G01 X-16.66260 Y-18.20106
G01 X-16.61993 Y-18.18858
G01 X-16.57566 Y-18.18470
G01 X-16.44891 Y-18.18792
G01 X-16.39186 Y-18.20385
G01 X-16.27604 Y-18.25534
G01 X-16.22946 Y-18.29186
G01 X-16.16146 Y-18.36128
G01 X-16.12895 Y-18.40306
G01 X-15.99728 Y-18.54609
G01 X-15.84386 Y-18.66552
G01 X-15.82679 Y-18.67474
G01 X-15.82679 Y-18.48838
G01 X-15.86860 Y-18.45798
G01 X-15.90383 Y-18.42625
G01 X-16.03068 Y-18.28353
G01 X-16.13802 Y-18.09763
G01 X-16.20436 Y-17.89346
G01 X-16.22555 Y-17.70370
G01 X-16.22555 Y-17.65628
G01 X-16.20807 Y-17.48996
G01 X-16.19821 Y-17.44358
G01 X-16.13802 Y-17.26235
G01 X-16.04361 Y-17.09636
G01 X-16.01574 Y-17.05801
G01 X-15.88704 Y-16.91693
G01 X-15.71338 Y-16.79075
G01 X-15.51729 Y-16.70345
G01 X-15.33075 Y-16.66253
G01 X-15.28361 Y-16.65757
G01 X-15.11635 Y-16.65757
G01 X-15.06921 Y-16.66253
G01 X-14.88270 Y-16.70345
G01 X-14.68658 Y-16.79075
G01 X-14.51292 Y-16.91693
G01 X-14.38859 Y-17.05315
G01 X-14.20810 Y-17.05315
G01 X-14.27096 Y-16.95691
G01 X-14.40266 Y-16.81389
G01 X-14.55610 Y-16.69443
G01 X-14.72664 Y-16.60215
G01 X-14.97584 Y-16.51475
G01 X-15.06174 Y-16.46939
G01 X-15.09883 Y-16.44490
G01 X-15.13040 Y-16.41363
G01 X-15.19243 Y-16.33885
G01 X-15.22397 Y-16.28872
G01 X-15.26324 Y-16.16817
G01 X-15.27213 Y-16.12461
G01 X-15.27236 Y-16.08018
G01 X-15.25867 Y-15.95415
G01 X-15.23809 Y-15.89862
G01 X-15.17719 Y-15.78917
G01 X-15.36898 Y-15.59740
G01 X-15.41635 Y-15.60241
G01 X-15.58361 Y-15.60241
G01 X-15.63075 Y-15.59745
G01 X-15.76268 Y-15.72910
G01 X-15.72415 Y-15.74518
G01 X-15.63822 Y-15.79054
G01 X-15.60114 Y-15.81506
G01 X-15.56954 Y-15.84632
G01 X-15.50751 Y-15.92110
G01 X-15.47597 Y-15.97122
G01 X-15.43670 Y-16.09176
G01 X-15.42781 Y-16.13530
G01 X-15.42758 Y-16.17975
G01 X-15.43660 Y-16.27650
G01 X-15.44975 Y-16.33426
G01 X-15.52275 Y-16.47254
G01 X-15.56301 Y-16.51597
G01 X-15.63779 Y-16.57797
G01 X-15.67462 Y-16.60286
G01 X-15.84386 Y-16.69443
G01 X-15.99728 Y-16.81386
G01 X-16.12895 Y-16.95689
G01 X-16.16055 Y-16.99776
G01 X-16.22618 Y-17.06552
G01 X-16.25956 Y-17.09387
G01 X-16.29773 Y-17.11531
G01 X-16.38666 Y-17.15445
G01 X-16.44353 Y-17.17103
G01 X-16.57025 Y-17.17573
G01 X-16.61927 Y-17.17101
G01 X-16.49618 Y-17.27713
G01 X-16.38539 Y-17.36435
G01 X-16.36403 Y-17.39943
G01 X-16.35658 Y-17.43984
G01 X-16.35658 Y-17.91962
G01 X-16.36339 Y-17.95833
G01 X-16.37172 Y-17.97621
G01 X-16.39694 Y-18.00636
G01 X-16.50345 Y-18.08838
G01 X-16.61777 Y-18.19062
G01 X-16.50345 Y-18.08838
G01 X-16.38303 Y-17.99239
G01 X-16.37635 Y-17.99709
G01 X-16.38303 Y-17.99239
G01 X-16.36339 Y-17.95833
G01 X-16.35658 Y-17.91962
G01 X-16.35315 Y-17.92023
G01 X-16.35658 Y-17.91962
G01 X-16.35448 Y-17.43956
G01 X-16.36403 Y-17.39943
G01 X-16.37312 Y-17.38092
G01 X-16.36443 Y-17.37538
G01 X-16.37312 Y-17.38092
G01 X-16.40048 Y-17.35026
G01 X-16.49618 Y-17.27713
G01 X-16.61671 Y-17.17360
G01 X-16.61754 Y-17.16804
G01 X-16.61927 Y-17.17101
G01 X-16.65735 Y-17.16037
G01 X-16.74790 Y-17.12516
G01 X-16.80169 Y-17.09529
G01 X-16.92590 Y-16.97558
G01 X-16.95513 Y-16.94023
G01 X-17.02394 Y-16.83375
G01 X-17.04297 Y-16.77767
G01 X-17.06192 Y-16.68239
G01 X-17.06629 Y-16.63817
G01 X-17.06629 Y-15.45694
G01 X-17.06192 Y-15.41269
G01 X-17.03530 Y-15.28874
G01 X-17.00911 Y-15.23561
G01 X-16.95513 Y-15.15483
G01 X-16.92692 Y-15.12049
G01 X-16.51457 Y-14.70812
G01 X-16.52679 Y-14.57998
G01 X-16.51457 Y-14.45181
G01 X-16.90251 Y-14.06385
G01 X-16.71505 Y-14.51803
G01 X-16.70642 Y-14.56141
G01 X-16.70860 Y-14.62062
G01 X-16.71505 Y-14.64188
G01 X-16.90251 Y-15.09611
G01 X-16.71505 Y-14.64188
G01 X-16.70642 Y-14.59850
G01 X-16.69974 Y-14.59941
G01 X-16.70642 Y-14.59850
G01 X-16.70738 Y-14.54663
G01 X-16.71282 Y-14.51747
G01 X-16.90251 Y-14.06385
G01 X-16.95513 Y-14.00510
G01 X-17.00911 Y-13.92433
G01 X-17.03530 Y-13.87122
G01 X-17.06192 Y-13.74727
G01 X-17.06629 Y-13.70305
G01 X-17.06629 Y-7.13613
G01 X-17.06192 Y-7.09188
G01 X-17.04297 Y-6.99658
G01 X-17.02394 Y-6.94050
G01 X-16.95513 Y-6.83402
G01 X-16.92692 Y-6.79968
G01 X-15.75946 Y-5.63222
G01 X-15.73319 Y-5.60967
G01 X-15.63832 Y-5.54439
G01 X-15.60152 Y-5.53009
G01 X-15.48656 Y-5.49770
G01 X-15.31267 Y-5.48221
G01 X-15.13103 Y-5.43359
G01 X-14.96063 Y-5.35414
G01 X-14.80663 Y-5.24629
G01 X-14.67368 Y-5.11332
G01 X-14.56581 Y-4.95930
G01 X-14.48636 Y-4.78889
G01 X-14.43769 Y-4.60728
G01 X-14.42131 Y-4.41998
G01 X-14.43769 Y-4.23268
G01 X-14.48636 Y-4.05105
G01 X-14.56581 Y-3.88064
G01 X-14.67368 Y-3.72661
G01 X-14.80663 Y-3.59367
G01 X-14.96063 Y-3.48582
G01 X-15.13103 Y-3.40634
G01 X-15.31267 Y-3.35770
G01 X-15.49997 Y-3.34132
G01 X-15.68727 Y-3.35770
G01 X-15.86890 Y-3.40634
G01 X-16.03934 Y-3.48579
G01 X-16.19280 Y-3.59435
G01 X-16.23972 Y-3.63512
G01 X-16.34620 Y-3.70393
G01 X-16.40228 Y-3.72295
G01 X-16.49755 Y-3.74190
G01 X-16.54180 Y-3.74627
G01 X-19.45815 Y-3.74627
G01 X-19.50237 Y-3.74190
G01 X-19.59767 Y-3.72295
G01 X-19.65376 Y-3.70393
G01 X-19.76023 Y-3.63512
G01 X-19.80717 Y-3.59433
G01 X-19.96062 Y-3.48579
G01 X-20.13105 Y-3.40634
G01 X-20.31266 Y-3.35770
G01 X-20.49996 Y-3.34132
G01 X-20.68726 Y-3.35770
G01 X-20.86892 Y-3.40634
G01 X-21.03930 Y-3.48582
G01 X-21.19333 Y-3.59367
G01 X-21.32627 Y-3.72661
G01 X-21.43412 Y-3.88064
G01 X-21.51360 Y-4.05107
G01 X-21.56226 Y-4.23266
G01 X-21.57862 Y-4.41998
G01 X-21.56226 Y-4.60728
G01 X-21.51360 Y-4.78889
G01 X-21.43415 Y-4.95930
G01 X-21.32627 Y-5.11332
G01 X-21.19333 Y-5.24627
G01 X-21.03930 Y-5.35414
G01 X-20.86889 Y-5.43359
G01 X-20.68728 Y-5.48226
G01 X-20.49998 Y-5.49864
G01 X-20.31266 Y-5.48226
G01 X-20.13105 Y-5.43359
G01 X-19.96062 Y-5.35417
G01 X-19.80717 Y-5.24561
G01 X-19.76023 Y-5.20482
G01 X-19.65376 Y-5.13601
G01 X-19.59767 Y-5.11698
G01 X-19.50237 Y-5.09803
G01 X-19.45815 Y-5.09367
G01 X-18.27512 Y-5.09367
G01 X-18.23088 Y-5.09803
G01 X-18.13560 Y-5.11698
G01 X-18.09305 Y-5.12989
G01 X-18.05386 Y-5.15084
G01 X-17.97307 Y-5.20482
G01 X-17.92851 Y-5.24386
G01 X-17.85648 Y-5.34822
G01 X-17.83552 Y-5.38742
G01 X-17.82262 Y-5.42996
G01 X-17.80263 Y-5.53557
G01 X-17.80548 Y-5.53509
G01 X-17.80263 Y-5.53557
G01 X-17.80367 Y-5.52524
G01 X-17.82262 Y-5.42996
G01 X-17.83552 Y-5.38742
G01 X-17.85648 Y-5.34822
G01 X-17.91045 Y-5.26743
G01 X-17.91642 Y-5.25965
G01 X-17.91802 Y-5.26191
G01 X-17.91642 Y-5.25965
G01 X-17.84124 Y-5.29112
G01 X-17.73822 Y-5.34708
G01 X-17.77152 Y-5.45955
G01 X-17.80263 Y-5.53557
G01 X-17.79930 Y-5.56946
G01 X-17.80367 Y-5.61370
G01 X-17.82262 Y-5.70901
G01 X-17.84165 Y-5.76509
G01 X-17.91045 Y-5.87157
G01 X-17.93867 Y-5.90593
G01 X-18.26412 Y-6.22981
G01 X-18.33799 Y-6.34032
G01 X-18.38884 Y-6.46313
G01 X-18.41475 Y-6.59346
G01 X-18.41365 Y-16.63817
G01 X-18.41802 Y-16.68244
G01 X-18.43700 Y-16.77772
G01 X-18.44993 Y-16.82026
G01 X-18.47085 Y-16.85945
G01 X-18.52483 Y-16.94023
G01 X-18.56560 Y-16.98714
G01 X-18.62018 Y-17.06514
G01 X-18.70682 Y-17.15663
G01 X-18.73910 Y-17.18340
G01 X-18.77578 Y-17.20380
G01 X-18.86471 Y-17.24294
G01 X-18.92158 Y-17.25953
G01 X-19.04830 Y-17.26423
G01 X-19.09260 Y-17.26082
G01 X-19.12968 Y-17.25046
G01 X-19.12724 Y-17.24668
G01 X-19.12968 Y-17.25046
G01 X-19.09260 Y-17.26082
G01 X-19.04830 Y-17.26423
G01 X-18.92158 Y-17.25953
G01 X-18.89183 Y-17.25285
G01 X-18.89371 Y-17.25005
G01 X-18.89183 Y-17.25285
G01 X-18.90278 Y-17.26494
G01 X-19.01063 Y-17.36745
G01 X-19.12968 Y-17.25046
G01 X-19.25284 Y-17.20111
G01 X-19.30060 Y-17.16611
G01 X-19.37078 Y-17.09892
G01 X-19.39973 Y-17.06517
G01 X-19.45437 Y-16.98714
G01 X-19.49513 Y-16.94023
G01 X-19.54911 Y-16.85945
G01 X-19.57530 Y-16.80634
G01 X-19.60519 Y-16.66037
G01 X-19.60606 Y-15.29860
G01 X-19.59953 Y-15.24467
G01 X-19.57641 Y-15.15031
G01 X-19.56168 Y-15.10843
G01 X-19.48652 Y-14.94884
G01 X-19.43768 Y-14.76728
G01 X-19.42132 Y-14.57998
G01 X-19.43768 Y-14.39268
G01 X-19.48635 Y-14.21105
G01 X-19.56580 Y-14.04064
G01 X-19.67367 Y-13.88661
G01 X-19.80662 Y-13.75367
G01 X-19.96064 Y-13.64582
G01 X-20.13105 Y-13.56634
G01 X-20.31266 Y-13.51770
G01 X-20.49996 Y-13.50132
G01 X-20.68726 Y-13.51770
G01 X-20.86892 Y-13.56634
G01 X-21.03930 Y-13.64582
G01 X-21.19333 Y-13.75367
G01 X-21.32627 Y-13.88661
G01 X-21.43412 Y-14.04064
G01 X-21.51360 Y-14.21107
G01 X-21.56226 Y-14.39266
G01 X-21.57862 Y-14.57998
G01 X-21.56226 Y-14.76728
G01 X-21.51360 Y-14.94889
G01 X-21.43415 Y-15.11930
G01 X-21.32653 Y-15.27353
G01 X-21.18992 Y-15.40848
G01 X-21.08853 Y-15.48895
G01 X-21.06483 Y-15.51864
G01 X-21.01085 Y-15.59941
G01 X-20.98990 Y-15.63863
G01 X-20.97700 Y-15.68115
G01 X-20.95802 Y-15.77645
G01 X-20.95365 Y-15.82075
G01 X-20.95475 Y-16.66042
G01 X-20.97700 Y-16.77772
G01 X-20.98992 Y-16.82026
G01 X-21.01085 Y-16.85945
G01 X-21.06483 Y-16.94023
G01 X-21.10560 Y-16.98714
G01 X-21.18566 Y-17.09550
G01 X-21.24682 Y-17.15663
G01 X-21.27910 Y-17.18340
G01 X-21.31578 Y-17.20380
G01 X-21.40471 Y-17.24294
G01 X-21.46158 Y-17.25953
G01 X-21.58830 Y-17.26423
G01 X-21.63260 Y-17.26082
G01 X-21.66968 Y-17.25046
G01 X-21.66724 Y-17.24668
G01 X-21.66968 Y-17.25046
G01 X-21.63260 Y-17.26082
G01 X-21.58830 Y-17.26423
G01 X-21.49117 Y-17.26212
G01 X-21.46158 Y-17.25953
G01 X-21.43323 Y-17.25089
G01 X-21.44278 Y-17.26494
G01 X-21.49447 Y-17.31655
G01 X-21.55063 Y-17.36745
G01 X-21.66968 Y-17.25046
G01 X-21.79284 Y-17.20111
G01 X-21.84060 Y-17.16611
G01 X-21.91078 Y-17.09892
G01 X-21.93973 Y-17.06517
G01 X-21.99434 Y-16.98719
G01 X-22.12632 Y-16.85331
G01 X-22.28063 Y-16.74581
G01 X-22.45103 Y-16.66636
G01 X-22.63267 Y-16.61770
G01 X-22.81997 Y-16.60131
G01 X-23.00727 Y-16.61770
G01 X-23.18890 Y-16.66636
G01 X-23.35931 Y-16.74581
G01 X-23.51331 Y-16.85366
G01 X-23.64628 Y-16.98663
G01 X-23.75413 Y-17.14063
G01 X-23.83361 Y-17.31104
G01 X-23.88225 Y-17.49268
G01 X-23.89863 Y-17.67997
G01 X-23.88225 Y-17.86727
G01 X-23.83361 Y-18.04891
G01 X-23.75413 Y-18.21932
G01 X-23.64628 Y-18.37332
G01 X-23.51334 Y-18.50626
G01 X-23.35931 Y-18.61414
G01 X-23.18890 Y-18.69359
G01 X-23.00729 Y-18.74225
G01 X-22.81997 Y-18.75864
G01 X-22.63267 Y-18.74225
G01 X-22.45103 Y-18.69359
G01 X-22.28063 Y-18.61414
G01 X-22.12624 Y-18.50667
G01 X-21.99434 Y-18.37276
G01 X-21.91428 Y-18.26445
G01 X-21.85312 Y-18.20332
G01 X-21.82084 Y-18.17654
G01 X-21.78416 Y-18.15615
G01 X-21.69523 Y-18.11701
G01 X-21.63836 Y-18.10042
G01 X-21.51164 Y-18.09572
G01 X-21.46734 Y-18.09913
G01 X-21.43026 Y-18.10951
G01 X-21.46734 Y-18.09913
G01 X-21.51164 Y-18.09572
G01 X-21.60877 Y-18.09783
G01 X-21.63836 Y-18.10042
G01 X-21.66673 Y-18.10906
G01 X-21.65716 Y-18.09501
G01 X-21.60549 Y-18.04342
G01 X-21.54931 Y-17.99250
G01 X-21.46145 Y-18.07647
G01 X-21.43026 Y-18.10951
G01 X-21.43272 Y-18.11327
G01 X-21.43026 Y-18.10951
G01 X-21.42454 Y-18.11109
G01 X-21.33399 Y-18.14629
G01 X-21.28208 Y-18.17477
G01 X-21.25934 Y-18.19384
G01 X-21.17385 Y-18.27720
G01 X-21.10562 Y-18.37276
G01 X-20.97367 Y-18.50662
G01 X-20.81931 Y-18.61414
G01 X-20.64890 Y-18.69359
G01 X-20.46727 Y-18.74213
G01 X-20.31545 Y-18.75467
G01 X-20.20781 Y-18.77830
G01 X-20.17032 Y-18.79100
G01 X-20.05485 Y-18.86400
G01 X-20.02051 Y-18.89222
G01 X-18.53809 Y-20.37616
G01 X-18.47085 Y-20.47486
G01 X-18.44990 Y-20.51403
G01 X-18.43700 Y-20.55655
G01 X-18.41475 Y-20.67385
G01 X-18.41365 Y-20.75099
G01 X-18.41802 Y-20.79526
G01 X-18.43700 Y-20.89056
G01 X-18.44990 Y-20.93308
G01 X-18.47085 Y-20.97230
G01 X-18.52483 Y-21.05307
G01 X-18.55305 Y-21.08741
G01 X-18.58739 Y-21.11563
G01 X-18.69387 Y-21.18444
G01 X-18.74995 Y-21.20346
G01 X-18.84525 Y-21.22241
G01 X-18.88950 Y-21.22678
G01 X-21.27316 Y-21.22678
G01 X-21.27316 Y-24.04397
G01 X-21.28416 Y-24.14046
G01 X-21.29221 Y-24.17702
G01 X-21.34974 Y-24.29858
G01 X-21.36475 Y-24.32418
G01 X-21.40412 Y-24.36843
G01 X-21.47760 Y-24.43198
G01 X-21.51390 Y-24.45763
G01 X-21.55452 Y-24.47569
G01 X-21.67547 Y-24.51379
G01 X-21.73460 Y-24.51725
G01 X-21.83150 Y-24.51021
G01 X-21.87529 Y-24.50267
G01 X-21.91677 Y-24.48674
G01 X-22.02302 Y-24.43223
G01 X-22.17610 Y-24.31443
G01 X-22.19317 Y-24.30518
G01 X-22.19317 Y-24.49162
G01 X-22.15137 Y-24.52200
G01 X-22.11614 Y-24.55372
G01 X-21.98929 Y-24.69645
G01 X-21.88195 Y-24.88235
G01 X-21.82177 Y-25.06358
G01 X-21.81192 Y-25.10996
G01 X-21.79317 Y-25.29997
G01 X-21.81192 Y-25.49002
G01 X-21.83320 Y-25.57160
G01 X-21.83902 Y-25.56794
G01 X-21.83320 Y-25.57160
G01 X-21.76381 Y-25.50104
G01 X-21.66336 Y-25.40945
G01 X-21.66336 Y-24.82436
G01 X-21.66120 Y-24.80229
G01 X-21.64433 Y-24.76149
G01 X-21.41093 Y-24.53051
G01 X-21.34227 Y-24.45525
G01 X-21.24100 Y-24.33434
G01 X-21.08258 Y-24.11865
G01 X-20.90006 Y-23.84057
G01 X-20.78274 Y-23.68004
G01 X-20.64327 Y-23.50806
G01 X-20.44766 Y-23.29190
G01 X-20.27652 Y-23.12055
G01 X-19.93336 Y-22.81324
G01 X-19.93336 Y-22.67996
G01 X-19.92473 Y-22.63658
G01 X-19.91263 Y-22.61499
G01 X-19.91263 Y-22.58731
G01 X-19.95249 Y-22.53755
G01 X-19.91263 Y-22.58731
G01 X-19.91263 Y-22.61499
G01 X-19.92473 Y-22.63658
G01 X-19.93473 Y-22.67981
G01 X-19.93336 Y-22.81324
G01 X-20.27652 Y-23.12055
G01 X-20.44766 Y-23.29190
G01 X-20.64327 Y-23.50806
G01 X-20.78304 Y-23.67981
G01 X-20.90006 Y-23.84057
G01 X-21.04776 Y-24.06442
G01 X-20.90354 Y-23.84565
G01 X-20.81964 Y-23.73038
G01 X-20.81964 Y-21.68030
G01 X-20.88606 Y-21.61388
G01 X-20.81964 Y-21.68030
G01 X-18.98063 Y-21.68030
G01 X-19.66092 Y-22.36056
G01 X-19.43415 Y-22.13379
G01 X-20.36615 Y-22.13379
G01 X-20.43255 Y-22.06739
G01 X-20.36615 Y-22.13379
G01 X-20.36615 Y-23.21019
G01 X-20.27194 Y-23.11624
G01 X-20.13938 Y-22.99762
G01 X-20.13938 Y-22.36056
G01 X-20.20580 Y-22.29414
G01 X-20.13938 Y-22.36056
G01 X-19.66092 Y-22.36056
G01 X-19.88767 Y-22.58731
G01 X-19.91263 Y-22.58731
G01 X-19.91423 Y-22.61697
G01 X-19.90207 Y-22.59838
G01 X-18.97154 Y-21.67118
G01 X-18.85297 Y-21.54095
G01 X-18.77837 Y-21.45005
G01 X-18.65772 Y-21.27199
G01 X-18.61111 Y-21.18479
G01 X-18.57936 Y-21.10905
G01 X-18.61111 Y-21.18479
G01 X-18.65772 Y-21.27199
G01 X-18.77075 Y-21.43879
G01 X-18.80103 Y-21.44481
G01 X-18.88950 Y-21.45353
G01 X-21.04641 Y-21.45353
G01 X-21.11276 Y-21.38716
G01 X-21.04641 Y-21.45353
G01 X-21.04776 Y-24.06442
G01 X-21.17740 Y-24.25151
G01 X-21.24100 Y-24.33434
G01 X-21.34227 Y-24.45525
G01 X-21.52071 Y-24.64214
G01 X-21.61888 Y-24.73289
G01 X-21.69869 Y-24.74379
G01 X-21.83442 Y-24.66950
G01 X-21.69869 Y-24.74379
G01 X-21.67481 Y-24.79012
G01 X-21.66336 Y-24.82436
G01 X-21.67481 Y-24.79012
G01 X-21.69869 Y-24.74379
G01 X-21.61888 Y-24.73289
G01 X-21.64433 Y-24.76149
G01 X-21.65050 Y-24.75779
G01 X-21.64433 Y-24.76149
G01 X-21.65477 Y-24.78105
G01 X-21.66579 Y-24.82400
G01 X-21.66336 Y-25.40945
G01 X-21.76381 Y-25.50104
G01 X-21.83320 Y-25.57160
G01 X-21.88195 Y-25.71763
G01 X-21.97636 Y-25.88362
G01 X-22.00422 Y-25.92197
G01 X-22.11614 Y-26.04625
G01 X-22.15137 Y-26.07795
G01 X-22.30658 Y-26.18923
G01 X-22.48052 Y-26.26799
G01 X-22.52561 Y-26.28268
G01 X-22.68921 Y-26.31742
G01 X-22.73635 Y-26.32240
G01 X-22.92731 Y-26.32113
G01 X-23.11436 Y-26.28268
G01 X-23.15944 Y-26.26799
G01 X-23.31225 Y-26.20000
G01 X-23.35329 Y-26.17627
G01 X-23.50704 Y-26.06302
G01 X-23.63142 Y-25.92680
G01 X-23.62289 Y-25.90749
G01 X-23.63142 Y-25.92680
G01 X-23.96515 Y-25.92680
G01 X-23.97991 Y-25.89952
G01 X-23.96515 Y-25.92680
G01 X-23.98819 Y-25.97229
G01 X-24.04217 Y-26.05306
G01 X-24.07039 Y-26.08740
G01 X-24.10473 Y-26.11559
G01 X-24.18550 Y-26.16959
G01 X-24.22472 Y-26.19052
G01 X-24.26724 Y-26.20345
G01 X-24.38458 Y-26.22570
G01 X-24.75098 Y-26.22680
G01 X-24.79525 Y-26.22240
G01 X-24.89055 Y-26.20345
G01 X-24.93307 Y-26.19052
G01 X-24.97229 Y-26.16959
G01 X-25.05306 Y-26.11559
G01 X-25.08740 Y-26.08740
G01 X-25.11562 Y-26.05306
G01 X-25.18443 Y-25.94658
G01 X-25.20345 Y-25.89050
G01 X-25.22240 Y-25.79520
G01 X-25.22677 Y-25.75098
G01 X-25.22677 Y-24.09731
G01 X-25.22677 Y-25.75098
G01 X-25.22240 Y-25.79520
G01 X-25.20345 Y-25.89050
G01 X-25.19578 Y-25.91915
G01 X-25.17915 Y-25.95573
G01 X-25.17491 Y-25.95100
G01 X-25.17915 Y-25.95573
G01 X-25.32814 Y-25.87539
G01 X-25.33660 Y-25.74818
G01 X-25.33635 Y-24.49995
G01 X-25.35192 Y-24.34372
G01 X-25.31654 Y-24.28588
G01 X-25.24267 Y-24.13787
G01 X-25.22677 Y-24.09731
G01 X-25.22052 Y-24.09878
G01 X-25.22677 Y-24.09731
G01 X-25.22677 Y-21.22678
G01 X-25.31532 Y-21.22678
G01 X-25.31153 Y-21.21530
G01 X-25.31532 Y-21.22678
G01 X-25.28237 Y-21.24045
G01 X-25.26599 Y-21.25188
G01 X-25.24044 Y-21.28238
G01 X-25.22677 Y-21.31532
G01 X-25.22238 Y-21.31446
G01 X-25.22677 Y-21.31532
G01 X-25.24044 Y-21.28238
G01 X-25.23378 Y-21.27717
G01 X-25.24044 Y-21.28238
G01 X-25.25187 Y-21.26600
G01 X-25.24547 Y-21.26010
G01 X-25.25187 Y-21.26600
G01 X-25.28237 Y-21.24045
G01 X-25.31532 Y-21.22678
G01 X-28.09050 Y-21.22678
G01 X-28.13472 Y-21.22241
G01 X-28.22999 Y-21.20346
G01 X-28.27254 Y-21.19056
G01 X-28.31173 Y-21.16960
G01 X-28.40030 Y-21.10969
G01 X-28.35702 Y-21.13935
G01 X-28.35557 Y-21.13318
G01 X-28.35702 Y-21.13935
G01 X-28.38788 Y-21.13935
G01 X-28.40030 Y-21.10969
G01 X-28.43705 Y-21.07659
G01 X-28.45514 Y-21.05307
G01 X-28.52395 Y-20.94659
G01 X-28.54297 Y-20.89051
G01 X-28.56192 Y-20.79521
G01 X-28.56629 Y-20.75099
G01 X-28.56527 Y-20.15353
G01 X-28.59110 Y-20.02312
G01 X-28.64198 Y-19.90034
G01 X-28.71584 Y-19.78983
G01 X-29.03403 Y-19.47316
G01 X-29.10903 Y-19.37205
G01 X-29.12984 Y-19.33557
G01 X-29.14355 Y-19.29587
G01 X-29.16664 Y-19.20151
G01 X-29.17292 Y-19.15749
G01 X-29.17050 Y-19.11309
G01 X-29.15572 Y-19.01706
G01 X-29.14467 Y-18.97400
G01 X-29.10484 Y-18.90001
G01 X-29.14467 Y-18.97400
G01 X-29.15572 Y-19.01706
G01 X-29.16921 Y-19.10481
G01 X-29.16413 Y-19.10410
G01 X-29.16921 Y-19.10481
G01 X-29.19174 Y-19.05312
G01 X-29.22019 Y-18.96621
G01 X-29.10484 Y-18.90001
G01 X-29.10114 Y-18.90408
G01 X-29.10484 Y-18.90001
G01 X-29.07505 Y-18.85086
G01 X-29.03797 Y-18.80466
G01 X-28.93687 Y-18.72816
G01 X-28.89865 Y-18.70553
G01 X-28.70070 Y-18.61398
G01 X-28.54660 Y-18.50616
G01 X-28.30546 Y-18.26722
G01 X-28.25275 Y-18.23730
G01 X-28.16261 Y-18.20106
G01 X-28.11993 Y-18.18858
G01 X-28.07566 Y-18.18470
G01 X-27.94894 Y-18.18792
G01 X-27.89189 Y-18.20382
G01 X-27.77602 Y-18.25534
G01 X-27.72938 Y-18.29191
G01 X-27.66141 Y-18.36133
G01 X-27.62895 Y-18.40306
G01 X-27.49728 Y-18.54609
G01 X-27.34386 Y-18.66552
G01 X-27.32679 Y-18.67474
G01 X-27.32679 Y-18.48838
G01 X-27.36860 Y-18.45798
G01 X-27.40383 Y-18.42625
G01 X-27.53068 Y-18.28353
G01 X-27.63802 Y-18.09763
G01 X-27.70434 Y-17.89346
G01 X-27.72555 Y-17.70370
G01 X-27.72555 Y-17.65628
G01 X-27.70807 Y-17.48996
G01 X-27.69822 Y-17.44358
G01 X-27.63802 Y-17.26235
G01 X-27.54361 Y-17.09636
G01 X-27.51574 Y-17.05801
G01 X-27.38704 Y-16.91693
G01 X-27.21338 Y-16.79075
G01 X-27.01729 Y-16.70345
G01 X-26.83076 Y-16.66253
G01 X-26.78361 Y-16.65757
G01 X-26.61633 Y-16.65757
G01 X-26.56921 Y-16.66253
G01 X-26.38270 Y-16.70345
G01 X-26.18659 Y-16.79075
G01 X-26.01290 Y-16.91693
G01 X-25.88859 Y-17.05315
G01 X-25.70808 Y-17.05315
G01 X-25.77097 Y-16.95691
G01 X-25.90267 Y-16.81389
G01 X-26.05608 Y-16.69443
G01 X-26.22664 Y-16.60215
G01 X-26.47584 Y-16.51475
G01 X-26.56175 Y-16.46939
G01 X-26.59883 Y-16.44490
G01 X-26.63040 Y-16.41363
G01 X-26.69243 Y-16.33885
G01 X-26.72397 Y-16.28872
G01 X-26.76324 Y-16.16817
G01 X-26.77213 Y-16.12461
G01 X-26.77236 Y-16.08018
G01 X-26.75867 Y-15.95415
G01 X-26.73810 Y-15.89862
G01 X-26.67719 Y-15.78917
G01 X-26.86896 Y-15.59740
G01 X-26.91635 Y-15.60241
G01 X-27.08361 Y-15.60241
G01 X-27.13076 Y-15.59745
G01 X-27.26268 Y-15.72910
G01 X-27.22415 Y-15.74518
G01 X-27.13822 Y-15.79054
G01 X-27.10114 Y-15.81506
G01 X-27.06954 Y-15.84632
G01 X-27.00752 Y-15.92110
G01 X-26.97597 Y-15.97122
G01 X-26.93670 Y-16.09176
G01 X-26.92781 Y-16.13530
G01 X-26.92758 Y-16.17975
G01 X-26.93660 Y-16.27650
G01 X-26.94976 Y-16.33426
G01 X-27.02276 Y-16.47254
G01 X-27.06301 Y-16.51597
G01 X-27.13779 Y-16.57797
G01 X-27.17460 Y-16.60284
G01 X-27.34384 Y-16.69443
G01 X-27.49728 Y-16.81389
G01 X-27.62895 Y-16.95689
G01 X-27.66055 Y-16.99776
G01 X-27.72618 Y-17.06552
G01 X-27.75956 Y-17.09387
G01 X-27.79773 Y-17.11531
G01 X-27.88666 Y-17.15445
G01 X-27.94353 Y-17.17103
G01 X-28.07025 Y-17.17573
G01 X-28.11927 Y-17.17101
G01 X-27.99618 Y-17.27713
G01 X-27.88539 Y-17.36435
G01 X-27.86403 Y-17.39943
G01 X-27.85659 Y-17.43984
G01 X-27.85659 Y-17.91962
G01 X-27.86339 Y-17.95833
G01 X-27.87172 Y-17.97621
G01 X-27.89695 Y-18.00636
G01 X-28.00345 Y-18.08838
G01 X-28.11777 Y-18.19062
G01 X-28.00345 Y-18.08838
G01 X-27.88303 Y-17.99239
G01 X-27.87635 Y-17.99709
G01 X-27.88303 Y-17.99239
G01 X-27.86339 Y-17.95833
G01 X-27.85659 Y-17.91962
G01 X-27.85316 Y-17.92023
G01 X-27.85659 Y-17.91962
G01 X-27.85448 Y-17.43956
G01 X-27.86403 Y-17.39943
G01 X-27.87312 Y-17.38092
G01 X-27.86443 Y-17.37538
G01 X-27.87312 Y-17.38092
G01 X-27.90048 Y-17.35026
G01 X-27.99618 Y-17.27713
G01 X-28.11671 Y-17.17360
G01 X-28.11755 Y-17.16804
G01 X-28.11927 Y-17.17101
G01 X-28.15735 Y-17.16037
G01 X-28.24790 Y-17.12516
G01 X-28.30170 Y-17.09529
G01 X-28.42590 Y-16.97558
G01 X-28.45514 Y-16.94023
G01 X-28.52395 Y-16.83375
G01 X-28.54297 Y-16.77767
G01 X-28.56192 Y-16.68239
G01 X-28.56629 Y-16.63817
G01 X-28.56629 Y-15.45694
G01 X-28.56192 Y-15.41269
G01 X-28.53530 Y-15.28874
G01 X-28.50911 Y-15.23561
G01 X-28.45514 Y-15.15483
G01 X-28.42692 Y-15.12049
G01 X-28.01457 Y-14.70812
G01 X-28.02679 Y-14.57998
G01 X-28.01457 Y-14.45181
G01 X-28.42692 Y-14.03944
G01 X-28.45514 Y-14.00510
G01 X-28.50911 Y-13.92433
G01 X-28.53530 Y-13.87122
G01 X-28.56192 Y-13.74727
G01 X-28.56629 Y-13.70305
G01 X-28.56629 Y-7.13613
G01 X-28.56192 Y-7.09188
G01 X-28.54297 Y-6.99658
G01 X-28.52395 Y-6.94050
G01 X-28.50911 Y-6.91479
G01 X-28.45514 Y-6.83402
G01 X-28.42692 Y-6.79968
G01 X-27.25946 Y-5.63222
G01 X-27.23319 Y-5.60967
G01 X-27.13833 Y-5.54439
G01 X-27.10150 Y-5.53006
G01 X-26.98653 Y-5.49768
G01 X-26.81267 Y-5.48221
G01 X-26.63101 Y-5.43359
G01 X-26.46063 Y-5.35414
G01 X-26.30660 Y-5.24629
G01 X-26.17366 Y-5.11332
G01 X-26.06581 Y-4.95930
G01 X-25.98636 Y-4.78889
G01 X-25.93769 Y-4.60728
G01 X-25.92131 Y-4.41998
G01 X-25.93769 Y-4.23268
G01 X-25.98636 Y-4.05105
G01 X-26.06581 Y-3.88064
G01 X-26.17366 Y-3.72661
G01 X-26.30660 Y-3.59367
G01 X-26.46063 Y-3.48582
G01 X-26.63101 Y-3.40634
G01 X-26.81267 Y-3.35770
G01 X-26.99997 Y-3.34132
G01 X-27.18727 Y-3.35770
G01 X-27.36891 Y-3.40634
G01 X-27.53934 Y-3.48579
G01 X-27.69281 Y-3.59435
G01 X-27.73972 Y-3.63512
G01 X-27.84620 Y-3.70393
G01 X-27.90228 Y-3.72295
G01 X-27.99756 Y-3.74190
G01 X-28.04180 Y-3.74627
G01 X-30.95815 Y-3.74627
G01 X-31.00238 Y-3.74190
G01 X-31.09768 Y-3.72295
G01 X-31.15376 Y-3.70393
G01 X-31.26024 Y-3.63512
G01 X-31.30718 Y-3.59433
G01 X-31.46062 Y-3.48579
G01 X-31.63105 Y-3.40634
G01 X-31.81266 Y-3.35770
G01 X-31.99996 Y-3.34132
G01 X-32.18726 Y-3.35770
G01 X-32.36892 Y-3.40634
G01 X-32.53930 Y-3.48582
G01 X-32.69333 Y-3.59367
G01 X-32.82627 Y-3.72661
G01 X-32.93412 Y-3.88064
G01 X-33.01360 Y-4.05107
G01 X-33.06227 Y-4.23266
G01 X-33.07862 Y-4.41998
G01 X-33.06227 Y-4.60728
G01 X-33.01360 Y-4.78889
G01 X-32.93415 Y-4.95930
G01 X-32.82627 Y-5.11332
G01 X-32.69333 Y-5.24627
G01 X-32.53930 Y-5.35414
G01 X-32.36890 Y-5.43359
G01 X-32.18729 Y-5.48226
G01 X-31.98020 Y-5.49951
G01 X-31.99999 Y-5.72546
G01 X-32.01975 Y-5.49951
G01 X-31.98020 Y-5.49951
G01 X-32.01975 Y-5.49951
G01 X-31.81266 Y-5.48226
G01 X-31.63105 Y-5.43359
G01 X-31.46062 Y-5.35417
G01 X-31.30718 Y-5.24561
G01 X-31.26024 Y-5.20482
G01 X-31.15376 Y-5.13601
G01 X-31.09768 Y-5.11698
G01 X-31.00238 Y-5.09803
G01 X-30.95815 Y-5.09367
G01 X-29.77512 Y-5.09367
G01 X-29.73088 Y-5.09803
G01 X-29.63560 Y-5.11698
G01 X-29.59306 Y-5.12989
G01 X-29.55387 Y-5.15084
G01 X-29.47307 Y-5.20482
G01 X-29.42852 Y-5.24386
G01 X-29.35648 Y-5.34822
G01 X-29.33553 Y-5.38742
G01 X-29.32262 Y-5.42996
G01 X-29.30263 Y-5.53557
G01 X-29.30548 Y-5.53509
G01 X-29.30263 Y-5.53557
G01 X-29.30368 Y-5.52524
G01 X-29.32262 Y-5.42996
G01 X-29.33553 Y-5.38742
G01 X-29.35648 Y-5.34822
G01 X-29.41046 Y-5.26743
G01 X-29.41643 Y-5.25965
G01 X-29.41803 Y-5.26191
G01 X-29.41643 Y-5.25965
G01 X-29.34124 Y-5.29112
G01 X-29.23822 Y-5.34708
G01 X-29.27152 Y-5.45955
G01 X-29.30263 Y-5.53557
G01 X-29.29931 Y-5.56946
G01 X-29.30368 Y-5.61370
G01 X-29.32262 Y-5.70901
G01 X-29.34165 Y-5.76509
G01 X-29.41046 Y-5.87157
G01 X-29.43868 Y-5.90593
G01 X-29.76413 Y-6.22981
G01 X-29.83796 Y-6.34032
G01 X-29.88884 Y-6.46316
G01 X-29.91475 Y-6.59346
G01 X-29.91366 Y-16.63817
G01 X-29.91803 Y-16.68244
G01 X-29.93700 Y-16.77772
G01 X-29.94993 Y-16.82026
G01 X-29.97086 Y-16.85945
G01 X-30.02483 Y-16.94023
G01 X-30.06560 Y-16.98714
G01 X-30.14566 Y-17.09550
G01 X-30.20682 Y-17.15663
G01 X-30.23911 Y-17.18340
G01 X-30.27578 Y-17.20380
G01 X-30.36471 Y-17.24294
G01 X-30.42158 Y-17.25953
G01 X-30.54830 Y-17.26423
G01 X-30.59260 Y-17.26082
G01 X-30.62968 Y-17.25046
G01 X-30.62724 Y-17.24668
G01 X-30.62968 Y-17.25046
G01 X-30.59260 Y-17.26082
G01 X-30.54830 Y-17.26423
G01 X-30.42158 Y-17.25953
G01 X-30.39184 Y-17.25285
G01 X-30.39372 Y-17.25005
G01 X-30.39184 Y-17.25285
G01 X-30.40278 Y-17.26494
G01 X-30.51063 Y-17.36745
G01 X-30.62968 Y-17.25046
G01 X-30.75285 Y-17.20111
G01 X-30.80060 Y-17.16611
G01 X-30.87078 Y-17.09892
G01 X-30.89973 Y-17.06517
G01 X-30.95437 Y-16.98714
G01 X-30.99514 Y-16.94023
G01 X-31.04911 Y-16.85945
G01 X-31.07530 Y-16.80634
G01 X-31.10520 Y-16.66037
G01 X-31.10606 Y-15.29860
G01 X-31.09953 Y-15.24467
G01 X-31.07642 Y-15.15031
G01 X-31.06169 Y-15.10843
G01 X-30.98653 Y-14.94884
G01 X-30.93768 Y-14.76728
G01 X-30.92132 Y-14.57998
G01 X-30.93768 Y-14.39268
G01 X-30.98635 Y-14.21105
G01 X-31.06580 Y-14.04064
G01 X-31.17367 Y-13.88661
G01 X-31.30662 Y-13.75367
G01 X-31.46064 Y-13.64582
G01 X-31.63105 Y-13.56634
G01 X-31.81266 Y-13.51770
G01 X-31.99996 Y-13.50132
G01 X-32.18726 Y-13.51770
G01 X-32.36892 Y-13.56634
G01 X-32.53930 Y-13.64582
G01 X-32.69333 Y-13.75367
G01 X-32.82627 Y-13.88661
G01 X-32.93412 Y-14.04064
G01 X-33.01360 Y-14.21107
G01 X-33.06227 Y-14.39266
G01 X-33.07862 Y-14.57998
G01 X-33.06227 Y-14.76728
G01 X-33.01360 Y-14.94889
G01 X-32.93415 Y-15.11930
G01 X-32.82653 Y-15.27353
G01 X-32.68993 Y-15.40848
G01 X-32.58853 Y-15.48895
G01 X-32.56483 Y-15.51864
G01 X-32.51086 Y-15.59941
G01 X-32.48990 Y-15.63863
G01 X-32.47700 Y-15.68115
G01 X-32.45802 Y-15.77645
G01 X-32.45366 Y-15.82075
G01 X-32.45475 Y-16.66042
G01 X-32.47700 Y-16.77772
G01 X-32.48993 Y-16.82026
G01 X-32.51086 Y-16.85945
G01 X-32.56483 Y-16.94023
G01 X-32.60560 Y-16.98714
G01 X-32.68566 Y-17.09550
G01 X-32.74682 Y-17.15663
G01 X-32.77911 Y-17.18340
G01 X-32.81578 Y-17.20380
G01 X-32.90471 Y-17.24294
G01 X-32.96158 Y-17.25953
G01 X-33.08830 Y-17.26423
G01 X-33.13260 Y-17.26082
G01 X-33.16968 Y-17.25046
G01 X-33.16724 Y-17.24668
G01 X-33.16968 Y-17.25046
G01 X-33.13260 Y-17.26082
G01 X-33.08830 Y-17.26423
G01 X-32.99117 Y-17.26212
G01 X-32.96158 Y-17.25953
G01 X-32.93323 Y-17.25089
G01 X-32.94278 Y-17.26494
G01 X-32.99447 Y-17.31655
G01 X-33.05063 Y-17.36745
G01 X-33.16968 Y-17.25046
G01 X-33.29285 Y-17.20111
G01 X-33.34060 Y-17.16611
G01 X-33.41078 Y-17.09892
G01 X-33.43973 Y-17.06517
G01 X-33.49435 Y-16.98719
G01 X-33.62632 Y-16.85331
G01 X-33.78063 Y-16.74581
G01 X-33.95104 Y-16.66636
G01 X-34.13267 Y-16.61770
G01 X-34.31997 Y-16.60131
G01 X-34.50727 Y-16.61770
G01 X-34.68891 Y-16.66636
G01 X-34.85932 Y-16.74581
G01 X-35.01332 Y-16.85366
G01 X-35.14628 Y-16.98663
G01 X-35.25413 Y-17.14063
G01 X-35.33358 Y-17.31104
G01 X-35.38225 Y-17.49268
G01 X-35.39863 Y-17.67997
G01 X-35.38225 Y-17.86727
G01 X-35.33358 Y-18.04891
G01 X-35.25413 Y-18.21932
G01 X-35.14628 Y-18.37332
G01 X-35.01334 Y-18.50626
G01 X-34.85932 Y-18.61414
G01 X-34.68891 Y-18.69359
G01 X-34.50727 Y-18.74225
G01 X-34.31997 Y-18.75864
G01 X-34.13267 Y-18.74225
G01 X-33.95104 Y-18.69359
G01 X-33.78063 Y-18.61414
G01 X-33.62625 Y-18.50667
G01 X-33.49435 Y-18.37276
G01 X-33.41428 Y-18.26445
G01 X-33.35312 Y-18.20332
G01 X-33.32084 Y-18.17654
G01 X-33.28416 Y-18.15615
G01 X-33.19523 Y-18.11701
G01 X-33.13836 Y-18.10042
G01 X-33.01164 Y-18.09572
G01 X-32.96735 Y-18.09913
G01 X-32.93026 Y-18.10951
G01 X-32.96735 Y-18.09913
G01 X-33.01164 Y-18.09572
G01 X-33.10877 Y-18.09783
G01 X-33.13836 Y-18.10042
G01 X-33.16674 Y-18.10906
G01 X-33.15716 Y-18.09501
G01 X-33.10550 Y-18.04342
G01 X-33.04931 Y-17.99250
G01 X-32.96145 Y-18.07647
G01 X-32.93026 Y-18.10951
G01 X-32.93273 Y-18.11327
G01 X-32.93026 Y-18.10951
G01 X-32.92455 Y-18.11109
G01 X-32.83400 Y-18.14629
G01 X-32.78208 Y-18.17477
G01 X-32.75935 Y-18.19384
G01 X-32.67385 Y-18.27720
G01 X-32.60562 Y-18.37276
G01 X-32.47367 Y-18.50662
G01 X-32.31932 Y-18.61414
G01 X-32.14891 Y-18.69359
G01 X-31.96720 Y-18.74180
G01 X-31.81546 Y-18.75467
G01 X-31.70781 Y-18.77830
G01 X-31.67035 Y-18.79100
G01 X-31.63567 Y-18.81002
G01 X-31.53697 Y-18.87725
G01 X-30.03809 Y-20.37616
G01 X-29.97086 Y-20.47486
G01 X-29.94990 Y-20.51403
G01 X-29.93700 Y-20.55655
G01 X-29.91475 Y-20.67385
G01 X-29.91366 Y-20.75099
G01 X-29.91803 Y-20.79526
G01 X-29.93700 Y-20.89056
G01 X-29.94990 Y-20.93308
G01 X-29.97086 Y-20.97230
G01 X-30.02483 Y-21.05307
G01 X-30.05305 Y-21.08741
G01 X-30.08739 Y-21.11563
G01 X-30.19387 Y-21.18444
G01 X-30.24995 Y-21.20346
G01 X-30.34525 Y-21.22241
G01 X-30.38950 Y-21.22678
G01 X-32.77316 Y-21.22678
G01 X-32.77316 Y-24.04397
G01 X-32.78416 Y-24.14046
G01 X-32.79221 Y-24.17702
G01 X-32.84974 Y-24.29858
G01 X-32.86476 Y-24.32418
G01 X-32.90413 Y-24.36843
G01 X-32.97761 Y-24.43198
G01 X-33.01390 Y-24.45763
G01 X-33.05452 Y-24.47569
G01 X-33.17547 Y-24.51379
G01 X-33.23460 Y-24.51725
G01 X-33.33151 Y-24.51021
G01 X-33.37532 Y-24.50267
G01 X-33.41680 Y-24.48672
G01 X-33.50362 Y-24.44316
G01 X-33.54121 Y-24.41943
G01 X-33.67611 Y-24.31443
G01 X-33.69318 Y-24.30518
G01 X-33.69318 Y-24.49162
G01 X-33.65137 Y-24.52200
G01 X-33.61614 Y-24.55372
G01 X-33.48929 Y-24.69645
G01 X-33.38195 Y-24.88235
G01 X-33.32178 Y-25.06358
G01 X-33.31192 Y-25.10996
G01 X-33.29318 Y-25.29997
G01 X-33.31192 Y-25.49002
G01 X-33.33321 Y-25.57160
G01 X-33.33902 Y-25.56794
G01 X-33.33321 Y-25.57160
G01 X-33.26381 Y-25.50104
G01 X-33.16336 Y-25.40945
G01 X-33.16336 Y-24.82436
G01 X-33.16120 Y-24.80229
G01 X-33.14433 Y-24.76149
G01 X-32.91091 Y-24.53051
G01 X-32.84230 Y-24.45527
G01 X-32.74103 Y-24.33442
G01 X-32.58259 Y-24.11865
G01 X-32.40001 Y-23.84052
G01 X-32.28274 Y-23.68004
G01 X-32.14329 Y-23.50808
G01 X-31.94378 Y-23.28781
G01 X-31.77652 Y-23.12055
G01 X-31.43336 Y-22.81324
G01 X-31.43336 Y-22.67996
G01 X-31.42473 Y-22.63658
G01 X-31.41264 Y-22.61499
G01 X-31.41264 Y-22.58731
G01 X-31.45249 Y-22.53755
G01 X-31.41264 Y-22.58731
G01 X-31.41264 Y-22.61499
G01 X-31.42473 Y-22.63658
G01 X-31.43474 Y-22.67981
G01 X-31.43336 Y-22.81324
G01 X-31.77652 Y-23.12055
G01 X-31.94378 Y-23.28781
G01 X-32.14329 Y-23.50808
G01 X-32.28304 Y-23.67981
G01 X-32.40001 Y-23.84052
G01 X-32.54776 Y-24.06442
G01 X-32.40349 Y-23.84560
G01 X-32.31965 Y-23.73038
G01 X-32.31965 Y-21.68030
G01 X-32.38607 Y-21.61388
G01 X-32.31965 Y-21.68030
G01 X-30.48063 Y-21.68030
G01 X-31.16092 Y-22.36056
G01 X-30.93415 Y-22.13379
G01 X-31.86615 Y-22.13379
G01 X-31.93255 Y-22.06739
G01 X-31.86615 Y-22.13379
G01 X-31.86615 Y-23.21019
G01 X-31.77195 Y-23.11624
G01 X-31.63938 Y-22.99762
G01 X-31.63938 Y-22.36056
G01 X-31.70580 Y-22.29414
G01 X-31.63938 Y-22.36056
G01 X-31.16092 Y-22.36056
G01 X-31.38767 Y-22.58731
G01 X-31.41264 Y-22.58731
G01 X-31.41424 Y-22.61697
G01 X-31.40215 Y-22.59830
G01 X-30.47154 Y-21.67118
G01 X-30.35297 Y-21.54095
G01 X-30.27837 Y-21.45005
G01 X-30.15772 Y-21.27199
G01 X-30.11112 Y-21.18479
G01 X-30.07937 Y-21.10905
G01 X-30.11112 Y-21.18479
G01 X-30.15772 Y-21.27199
G01 X-30.27075 Y-21.43879
G01 X-30.30103 Y-21.44481
G01 X-30.38950 Y-21.45353
G01 X-32.54642 Y-21.45353
G01 X-32.61276 Y-21.38716
G01 X-32.54642 Y-21.45353
G01 X-32.54776 Y-24.06442
G01 X-32.67740 Y-24.25151
G01 X-32.74103 Y-24.33442
G01 X-32.84230 Y-24.45527
G01 X-33.02066 Y-24.64209
G01 X-33.11888 Y-24.73289
G01 X-33.19869 Y-24.74379
G01 X-33.33443 Y-24.66950
G01 X-33.19869 Y-24.74379
G01 X-33.17481 Y-24.79012
G01 X-33.16336 Y-24.82436
G01 X-33.17481 Y-24.79012
G01 X-33.19869 Y-24.74379
G01 X-33.11888 Y-24.73289
G01 X-33.14433 Y-24.76149
G01 X-33.15051 Y-24.75779
G01 X-33.14433 Y-24.76149
G01 X-33.15477 Y-24.78105
G01 X-33.16580 Y-24.82400
G01 X-33.16336 Y-25.40945
G01 X-33.26381 Y-25.50104
G01 X-33.33321 Y-25.57160
G01 X-33.38195 Y-25.71763
G01 X-33.47636 Y-25.88362
G01 X-33.50423 Y-25.92197
G01 X-33.63293 Y-26.06302
G01 X-33.80659 Y-26.18923
G01 X-34.00270 Y-26.27650
G01 X-34.21266 Y-26.32113
G01 X-34.42731 Y-26.32113
G01 X-34.63729 Y-26.27650
G01 X-34.83338 Y-26.18923
G01 X-35.00704 Y-26.06302
G01 X-35.13140 Y-25.92680
G01 X-35.12289 Y-25.90749
G01 X-35.13140 Y-25.92680
G01 X-35.46516 Y-25.92680
G01 X-35.47991 Y-25.89952
G01 X-35.46516 Y-25.92680
G01 X-35.47336 Y-25.94658
G01 X-35.54217 Y-26.05306
G01 X-35.57039 Y-26.08740
G01 X-35.60473 Y-26.11559
G01 X-35.68550 Y-26.16959
G01 X-35.72472 Y-26.19052
G01 X-35.76724 Y-26.20345
G01 X-35.86254 Y-26.22240
G01 X-35.90684 Y-26.22680
G01 X-36.27321 Y-26.22570
G01 X-36.39055 Y-26.20345
G01 X-36.43307 Y-26.19052
G01 X-36.47229 Y-26.16959
G01 X-36.55306 Y-26.11559
G01 X-36.58740 Y-26.08740
G01 X-36.61562 Y-26.05306
G01 X-36.68443 Y-25.94658
G01 X-36.70346 Y-25.89050
G01 X-36.72241 Y-25.79520
G01 X-36.72677 Y-25.75098
G01 X-36.72677 Y-24.09731
G01 X-36.74267 Y-24.13787
G01 X-36.81654 Y-24.28588
G01 X-36.85192 Y-24.34369
G01 X-36.83658 Y-24.49995
G01 X-36.83658 Y-25.74818
G01 X-36.83249 Y-25.83122
G01 X-36.82815 Y-25.87539
G01 X-36.67915 Y-25.95573
G01 X-36.67491 Y-25.95100
G01 X-36.67915 Y-25.95573
G01 X-36.82815 Y-25.87539
G01 X-36.83658 Y-25.74818
G01 X-36.83632 Y-24.49995
G01 X-36.85192 Y-24.34369
G01 X-36.81654 Y-24.28588
G01 X-36.74267 Y-24.13787
G01 X-36.72677 Y-24.09731
G01 X-36.72053 Y-24.09878
G01 X-36.72677 Y-24.09731
G01 X-36.72677 Y-21.22678
G01 X-36.81534 Y-21.22678
G01 X-36.81156 Y-21.21530
G01 X-36.81534 Y-21.22678
G01 X-36.78238 Y-21.24047
G01 X-36.75189 Y-21.26600
G01 X-36.74046 Y-21.28238
G01 X-36.72677 Y-21.31535
G01 X-36.72238 Y-21.31449
G01 X-36.72677 Y-21.31535
G01 X-36.74046 Y-21.28238
G01 X-36.73378 Y-21.27717
G01 X-36.74046 Y-21.28238
G01 X-36.76602 Y-21.25190
G01 X-36.78238 Y-21.24047
G01 X-36.81534 Y-21.22678
G01 X-39.59050 Y-21.22678
G01 X-39.63472 Y-21.22241
G01 X-39.75867 Y-21.19579
G01 X-39.81178 Y-21.16960
G01 X-39.90056 Y-21.10905
G01 X-39.85704 Y-21.13935
G01 X-39.85499 Y-21.13171
G01 X-39.85704 Y-21.13935
G01 X-39.88788 Y-21.13935
G01 X-39.90056 Y-21.10905
G01 X-39.92689 Y-21.08744
G01 X-39.95509 Y-21.05309
G01 X-40.02392 Y-20.94662
G01 X-40.04297 Y-20.89051
G01 X-40.06192 Y-20.79521
G01 X-40.06629 Y-20.75099
G01 X-40.06527 Y-20.15353
G01 X-40.09111 Y-20.02312
G01 X-40.14198 Y-19.90034
G01 X-40.21585 Y-19.78983
G01 X-40.53403 Y-19.47316
G01 X-40.60904 Y-19.37205
G01 X-40.62984 Y-19.33557
G01 X-40.64356 Y-19.29587
G01 X-40.66664 Y-19.20151
G01 X-40.67292 Y-19.15749
G01 X-40.67051 Y-19.11309
G01 X-40.65572 Y-19.01706
G01 X-40.64467 Y-18.97400
G01 X-40.60485 Y-18.90001
G01 X-40.64467 Y-18.97400
G01 X-40.65572 Y-19.01706
G01 X-40.66921 Y-19.10481
G01 X-40.66413 Y-19.10410
G01 X-40.66921 Y-19.10481
G01 X-40.69174 Y-19.05312
G01 X-40.72019 Y-18.96621
G01 X-40.60485 Y-18.90001
G01 X-40.60114 Y-18.90408
G01 X-40.60485 Y-18.90001
G01 X-40.57505 Y-18.85086
G01 X-40.53797 Y-18.80466
G01 X-40.43688 Y-18.72816
G01 X-40.39865 Y-18.70553
G01 X-40.20071 Y-18.61398
G01 X-40.04658 Y-18.50616
G01 X-39.80543 Y-18.26722
G01 X-39.75273 Y-18.23730
G01 X-39.66261 Y-18.20106
G01 X-39.61996 Y-18.18861
G01 X-39.57566 Y-18.18470
G01 X-39.44894 Y-18.18792
G01 X-39.39189 Y-18.20382
G01 X-39.27602 Y-18.25534
G01 X-39.22939 Y-18.29191
G01 X-39.16142 Y-18.36133
G01 X-39.12900 Y-18.40301
G01 X-38.99728 Y-18.54609
G01 X-38.84384 Y-18.66552
G01 X-38.82680 Y-18.67474
G01 X-38.82680 Y-18.48838
G01 X-38.86860 Y-18.45798
G01 X-38.90383 Y-18.42625
G01 X-39.03068 Y-18.28353
G01 X-39.13802 Y-18.09763
G01 X-39.20434 Y-17.89346
G01 X-39.22555 Y-17.70370
G01 X-39.22555 Y-17.65628
G01 X-39.20434 Y-17.46651
G01 X-39.14653 Y-17.28452
G01 X-39.12723 Y-17.24119
G01 X-39.04361 Y-17.09636
G01 X-39.01575 Y-17.05801
G01 X-38.88704 Y-16.91693
G01 X-38.71338 Y-16.79075
G01 X-38.51730 Y-16.70345
G01 X-38.33076 Y-16.66253
G01 X-38.28362 Y-16.65757
G01 X-38.11636 Y-16.65757
G01 X-38.06922 Y-16.66253
G01 X-37.88268 Y-16.70345
G01 X-37.68659 Y-16.79075
G01 X-37.51293 Y-16.91693
G01 X-37.38857 Y-17.05315
G01 X-37.20808 Y-17.05315
G01 X-37.27097 Y-16.95691
G01 X-37.40267 Y-16.81389
G01 X-37.55611 Y-16.69443
G01 X-37.72667 Y-16.60215
G01 X-37.97579 Y-16.51478
G01 X-38.06172 Y-16.46941
G01 X-38.09881 Y-16.44490
G01 X-38.13040 Y-16.41363
G01 X-38.19243 Y-16.33885
G01 X-38.22398 Y-16.28872
G01 X-38.26325 Y-16.16817
G01 X-38.27214 Y-16.12461
G01 X-38.27236 Y-16.08018
G01 X-38.25867 Y-15.95415
G01 X-38.23810 Y-15.89862
G01 X-38.17719 Y-15.78917
G01 X-38.36896 Y-15.59740
G01 X-38.41636 Y-15.60241
G01 X-38.58362 Y-15.60241
G01 X-38.63076 Y-15.59745
G01 X-38.76269 Y-15.72910
G01 X-38.72415 Y-15.74518
G01 X-38.63823 Y-15.79054
G01 X-38.60114 Y-15.81506
G01 X-38.56954 Y-15.84632
G01 X-38.50752 Y-15.92110
G01 X-38.47597 Y-15.97122
G01 X-38.43670 Y-16.09176
G01 X-38.42781 Y-16.13530
G01 X-38.42758 Y-16.17975
G01 X-38.43660 Y-16.27650
G01 X-38.44976 Y-16.33426
G01 X-38.52276 Y-16.47254
G01 X-38.56302 Y-16.51597
G01 X-38.63779 Y-16.57797
G01 X-38.67460 Y-16.60284
G01 X-38.84384 Y-16.69443
G01 X-38.99728 Y-16.81386
G01 X-39.12900 Y-16.95694
G01 X-39.16055 Y-16.99776
G01 X-39.22619 Y-17.06552
G01 X-39.25956 Y-17.09387
G01 X-39.29774 Y-17.11531
G01 X-39.38666 Y-17.15445
G01 X-39.44353 Y-17.17103
G01 X-39.57025 Y-17.17573
G01 X-39.61925 Y-17.17103
G01 X-39.49619 Y-17.27713
G01 X-39.38539 Y-17.36435
G01 X-39.36403 Y-17.39946
G01 X-39.35659 Y-17.43984
G01 X-39.35659 Y-17.91962
G01 X-39.36340 Y-17.95833
G01 X-39.37173 Y-17.97621
G01 X-39.39695 Y-18.00636
G01 X-39.50345 Y-18.08838
G01 X-39.61778 Y-18.19062
G01 X-39.50345 Y-18.08838
G01 X-39.38303 Y-17.99239
G01 X-39.37635 Y-17.99709
G01 X-39.38303 Y-17.99239
G01 X-39.36340 Y-17.95833
G01 X-39.35659 Y-17.91962
G01 X-39.35316 Y-17.92023
G01 X-39.35659 Y-17.91962
G01 X-39.35448 Y-17.43956
G01 X-39.36403 Y-17.39946
G01 X-39.37312 Y-17.38092
G01 X-39.36444 Y-17.37538
G01 X-39.37312 Y-17.38092
G01 X-39.40048 Y-17.35028
G01 X-39.49619 Y-17.27713
G01 X-39.61671 Y-17.17357
G01 X-39.61755 Y-17.16804
G01 X-39.61925 Y-17.17103
G01 X-39.65735 Y-17.16037
G01 X-39.74790 Y-17.12516
G01 X-39.80170 Y-17.09529
G01 X-39.92590 Y-16.97558
G01 X-39.95514 Y-16.94023
G01 X-40.02395 Y-16.83375
G01 X-40.04297 Y-16.77767
G01 X-40.06192 Y-16.68239
G01 X-40.06629 Y-16.63817
G01 X-40.06629 Y-15.45694
G01 X-40.06192 Y-15.41269
G01 X-40.03530 Y-15.28872
G01 X-40.00909 Y-15.23558
G01 X-39.95509 Y-15.15481
G01 X-39.92689 Y-15.12049
G01 X-39.51458 Y-14.70812
G01 X-39.52679 Y-14.57998
G01 X-39.51458 Y-14.45181
G01 X-39.92689 Y-14.03944
G01 X-39.95509 Y-14.00513
G01 X-40.00909 Y-13.92436
G01 X-40.03530 Y-13.87122
G01 X-40.06192 Y-13.74727
G01 X-40.06629 Y-13.70305
G01 X-40.06629 Y-7.13613
G01 X-40.06192 Y-7.09188
G01 X-40.04297 Y-6.99658
G01 X-40.03530 Y-6.96791
G01 X-40.00909 Y-6.91477
G01 X-39.95509 Y-6.83400
G01 X-39.92689 Y-6.79968
G01 X-38.75946 Y-5.63222
G01 X-38.73315 Y-5.60964
G01 X-38.63828 Y-5.54439
G01 X-38.60150 Y-5.53009
G01 X-38.48654 Y-5.49770
G01 X-38.31267 Y-5.48221
G01 X-38.13104 Y-5.43359
G01 X-37.96063 Y-5.35414
G01 X-37.80663 Y-5.24629
G01 X-37.67369 Y-5.11332
G01 X-37.56581 Y-4.95930
G01 X-37.48636 Y-4.78889
G01 X-37.43769 Y-4.60728
G01 X-37.42131 Y-4.41998
G01 X-37.43769 Y-4.23268
G01 X-37.48636 Y-4.05105
G01 X-37.56584 Y-3.88064
G01 X-37.67366 Y-3.72661
G01 X-37.80663 Y-3.59367
G01 X-37.96063 Y-3.48582
G01 X-38.13104 Y-3.40634
G01 X-38.31267 Y-3.35770
G01 X-38.49997 Y-3.34132
G01 X-38.68727 Y-3.35770
G01 X-38.86888 Y-3.40634
G01 X-39.03927 Y-3.48585
G01 X-39.19276 Y-3.59433
G01 X-39.23975 Y-3.63512
G01 X-39.32055 Y-3.68910
G01 X-39.35974 Y-3.71005
G01 X-39.40228 Y-3.72295
G01 X-39.49756 Y-3.74190
G01 X-39.54181 Y-3.74627
G01 X-42.45816 Y-3.74627
G01 X-42.50238 Y-3.74190
G01 X-42.59768 Y-3.72295
G01 X-42.65376 Y-3.70393
G01 X-42.76024 Y-3.63512
G01 X-42.80718 Y-3.59433
G01 X-42.96059 Y-3.48579
G01 X-43.13103 Y-3.40634
G01 X-43.31266 Y-3.35770
G01 X-43.49996 Y-3.34132
G01 X-43.68726 Y-3.35770
G01 X-43.86892 Y-3.40634
G01 X-44.03931 Y-3.48582
G01 X-44.19333 Y-3.59367
G01 X-44.32628 Y-3.72661
G01 X-44.43412 Y-3.88064
G01 X-44.51360 Y-4.05105
G01 X-44.56204 Y-4.23151
G01 X-44.57741 Y-4.43294
G01 X-44.56224 Y-4.60728
G01 X-44.51360 Y-4.78889
G01 X-44.43412 Y-4.95930
G01 X-44.32628 Y-5.11332
G01 X-44.19333 Y-5.24627
G01 X-44.03931 Y-5.35414
G01 X-43.86890 Y-5.43359
G01 X-43.68729 Y-5.48226
G01 X-43.48020 Y-5.49951
G01 X-43.49999 Y-5.72546
G01 X-43.51975 Y-5.49951
G01 X-43.31266 Y-5.48226
G01 X-43.13103 Y-5.43359
G01 X-42.96059 Y-5.35417
G01 X-42.80718 Y-5.24563
G01 X-42.76024 Y-5.20482
G01 X-42.65376 Y-5.13601
G01 X-42.59768 Y-5.11698
G01 X-42.50238 Y-5.09803
G01 X-42.45816 Y-5.09367
G01 X-41.27513 Y-5.09367
G01 X-41.23088 Y-5.09803
G01 X-41.13558 Y-5.11698
G01 X-41.07950 Y-5.13601
G01 X-41.05379 Y-5.15084
G01 X-40.97302 Y-5.20482
G01 X-40.92852 Y-5.24388
G01 X-40.85648 Y-5.34822
G01 X-40.83553 Y-5.38742
G01 X-40.82263 Y-5.42996
G01 X-40.80264 Y-5.53557
G01 X-40.80548 Y-5.53509
G01 X-40.80264 Y-5.53557
G01 X-40.80368 Y-5.52524
G01 X-40.82263 Y-5.42996
G01 X-40.83553 Y-5.38742
G01 X-40.85648 Y-5.34822
G01 X-40.91699 Y-5.26052
G01 X-40.84124 Y-5.29112
G01 X-40.73822 Y-5.34708
G01 X-40.77152 Y-5.45955
G01 X-40.80264 Y-5.53557
G01 X-40.79931 Y-5.56946
G01 X-40.80368 Y-5.61370
G01 X-40.82263 Y-5.70901
G01 X-40.84165 Y-5.76509
G01 X-40.91046 Y-5.87157
G01 X-40.93868 Y-5.90591
G01 X-41.26410 Y-6.22981
G01 X-41.33797 Y-6.34035
G01 X-41.38884 Y-6.46316
G01 X-41.41475 Y-6.59346
G01 X-41.41366 Y-16.63817
G01 X-41.41803 Y-16.68239
G01 X-41.43698 Y-16.77767
G01 X-41.45600 Y-16.83375
G01 X-41.52481 Y-16.94023
G01 X-41.56558 Y-16.98714
G01 X-41.64566 Y-17.09550
G01 X-41.70683 Y-17.15663
G01 X-41.73911 Y-17.18340
G01 X-41.77579 Y-17.20380
G01 X-41.86471 Y-17.24294
G01 X-41.92158 Y-17.25953
G01 X-42.04830 Y-17.26423
G01 X-42.09260 Y-17.26082
G01 X-42.12966 Y-17.25046
G01 X-42.12722 Y-17.24668
G01 X-42.12966 Y-17.25046
G01 X-42.09260 Y-17.26082
G01 X-42.04830 Y-17.26423
G01 X-41.92158 Y-17.25953
G01 X-41.89184 Y-17.25285
G01 X-41.89372 Y-17.25005
G01 X-41.89184 Y-17.25285
G01 X-41.90279 Y-17.26494
G01 X-42.01063 Y-17.36745
G01 X-42.12966 Y-17.25046
G01 X-42.25285 Y-17.20111
G01 X-42.30060 Y-17.16611
G01 X-42.37078 Y-17.09892
G01 X-42.39974 Y-17.06517
G01 X-42.45437 Y-16.98714
G01 X-42.49514 Y-16.94023
G01 X-42.54911 Y-16.85945
G01 X-42.57530 Y-16.80634
G01 X-42.60520 Y-16.66037
G01 X-42.60604 Y-15.29860
G01 X-42.59953 Y-15.24472
G01 X-42.57645 Y-15.15036
G01 X-42.56169 Y-15.10843
G01 X-42.48653 Y-14.94884
G01 X-42.43768 Y-14.76728
G01 X-42.42133 Y-14.57998
G01 X-42.43768 Y-14.39268
G01 X-42.48635 Y-14.21105
G01 X-42.56580 Y-14.04064
G01 X-42.67368 Y-13.88661
G01 X-42.80662 Y-13.75367
G01 X-42.96062 Y-13.64582
G01 X-43.13103 Y-13.56634
G01 X-43.31266 Y-13.51770
G01 X-43.49996 Y-13.50132
G01 X-43.68726 Y-13.51770
G01 X-43.86892 Y-13.56634
G01 X-44.03931 Y-13.64582
G01 X-44.19333 Y-13.75367
G01 X-44.32628 Y-13.88661
G01 X-44.43412 Y-14.04064
G01 X-44.51360 Y-14.21105
G01 X-44.56224 Y-14.39266
G01 X-44.57863 Y-14.57998
G01 X-44.56224 Y-14.76728
G01 X-44.51360 Y-14.94889
G01 X-44.43412 Y-15.11930
G01 X-44.32651 Y-15.27355
G01 X-44.18993 Y-15.40848
G01 X-44.08853 Y-15.48892
G01 X-44.06486 Y-15.51861
G01 X-44.01086 Y-15.59938
G01 X-43.98465 Y-15.65252
G01 X-43.95803 Y-15.77650
G01 X-43.95366 Y-15.82075
G01 X-43.95366 Y-16.63817
G01 X-43.95803 Y-16.68239
G01 X-43.98465 Y-16.80634
G01 X-44.01083 Y-16.85945
G01 X-44.06481 Y-16.94023
G01 X-44.10558 Y-16.98714
G01 X-44.18566 Y-17.09550
G01 X-44.24683 Y-17.15663
G01 X-44.27911 Y-17.18340
G01 X-44.31579 Y-17.20380
G01 X-44.40471 Y-17.24294
G01 X-44.46158 Y-17.25953
G01 X-44.58830 Y-17.26423
G01 X-44.63260 Y-17.26082
G01 X-44.66966 Y-17.25046
G01 X-44.66722 Y-17.24668
G01 X-44.66966 Y-17.25046
G01 X-44.63260 Y-17.26082
G01 X-44.58830 Y-17.26423
G01 X-44.49117 Y-17.26212
G01 X-44.46158 Y-17.25953
G01 X-44.43324 Y-17.25089
G01 X-44.44279 Y-17.26494
G01 X-44.49448 Y-17.31655
G01 X-44.55063 Y-17.36745
G01 X-44.66966 Y-17.25046
G01 X-44.79285 Y-17.20111
G01 X-44.84060 Y-17.16611
G01 X-44.92610 Y-17.08274
G01 X-44.99432 Y-16.98719
G01 X-45.12630 Y-16.85331
G01 X-45.28063 Y-16.74581
G01 X-45.45104 Y-16.66636
G01 X-45.63267 Y-16.61770
G01 X-45.81997 Y-16.60131
G01 X-46.00727 Y-16.61770
G01 X-46.18888 Y-16.66636
G01 X-46.35929 Y-16.74584
G01 X-46.51332 Y-16.85366
G01 X-46.64626 Y-16.98663
G01 X-46.75414 Y-17.14063
G01 X-46.83359 Y-17.31104
G01 X-46.88225 Y-17.49268
G01 X-46.89864 Y-17.67997
G01 X-46.88225 Y-17.86727
G01 X-46.83359 Y-18.04891
G01 X-46.75414 Y-18.21932
G01 X-46.64629 Y-18.37332
G01 X-46.51332 Y-18.50629
G01 X-46.35932 Y-18.61414
G01 X-46.18891 Y-18.69359
G01 X-46.00727 Y-18.74225
G01 X-45.81997 Y-18.75864
G01 X-45.63267 Y-18.74225
G01 X-45.45104 Y-18.69359
G01 X-45.28063 Y-18.61414
G01 X-45.12625 Y-18.50667
G01 X-44.99435 Y-18.37276
G01 X-44.91429 Y-18.26445
G01 X-44.85312 Y-18.20332
G01 X-44.82084 Y-18.17654
G01 X-44.78416 Y-18.15615
G01 X-44.69524 Y-18.11701
G01 X-44.63837 Y-18.10042
G01 X-44.51165 Y-18.09572
G01 X-44.46735 Y-18.09913
G01 X-44.43026 Y-18.10951
G01 X-44.46735 Y-18.09913
G01 X-44.51165 Y-18.09572
G01 X-44.60878 Y-18.09783
G01 X-44.63837 Y-18.10042
G01 X-44.66671 Y-18.10906
G01 X-44.65716 Y-18.09501
G01 X-44.60547 Y-18.04340
G01 X-44.54931 Y-17.99250
G01 X-44.46146 Y-18.07647
G01 X-44.43026 Y-18.10951
G01 X-44.43273 Y-18.11327
G01 X-44.43026 Y-18.10951
G01 X-44.42455 Y-18.11109
G01 X-44.33400 Y-18.14629
G01 X-44.28208 Y-18.17477
G01 X-44.25935 Y-18.19384
G01 X-44.18917 Y-18.26103
G01 X-44.16021 Y-18.29478
G01 X-44.10560 Y-18.37276
G01 X-43.97362 Y-18.50662
G01 X-43.81932 Y-18.61414
G01 X-43.64891 Y-18.69359
G01 X-43.46720 Y-18.74180
G01 X-43.31543 Y-18.75467
G01 X-43.20779 Y-18.77830
G01 X-43.17035 Y-18.79100
G01 X-43.13568 Y-18.81002
G01 X-43.03697 Y-18.87725
G01 X-41.55305 Y-20.35967
G01 X-41.52486 Y-20.39402
G01 X-41.47086 Y-20.47481
G01 X-41.44465 Y-20.52792
G01 X-41.41803 Y-20.65188
G01 X-41.41366 Y-20.69612
G01 X-41.41803 Y-20.79521
G01 X-41.43698 Y-20.89051
G01 X-41.45603 Y-20.94662
G01 X-41.52486 Y-21.05309
G01 X-41.55305 Y-21.08744
G01 X-41.58739 Y-21.11563
G01 X-41.69387 Y-21.18444
G01 X-41.74995 Y-21.20346
G01 X-41.84523 Y-21.22241
G01 X-41.88948 Y-21.22678
G01 X-44.27317 Y-21.22678
G01 X-44.27317 Y-24.04397
G01 X-44.28416 Y-24.14046
G01 X-44.29222 Y-24.17702
G01 X-44.34975 Y-24.29858
G01 X-44.36476 Y-24.32418
G01 X-44.40413 Y-24.36843
G01 X-44.47761 Y-24.43198
G01 X-44.51391 Y-24.45763
G01 X-44.55452 Y-24.47569
G01 X-44.67548 Y-24.51379
G01 X-44.73461 Y-24.51725
G01 X-44.83151 Y-24.51021
G01 X-44.87532 Y-24.50267
G01 X-44.91680 Y-24.48672
G01 X-45.00362 Y-24.44316
G01 X-45.04121 Y-24.41943
G01 X-45.17611 Y-24.31443
G01 X-45.19315 Y-24.30521
G01 X-45.19315 Y-24.49162
G01 X-45.15137 Y-24.52200
G01 X-45.11614 Y-24.55372
G01 X-44.98929 Y-24.69645
G01 X-44.88195 Y-24.88235
G01 X-44.82178 Y-25.06358
G01 X-44.81190 Y-25.10996
G01 X-44.79318 Y-25.29997
G01 X-44.81190 Y-25.49002
G01 X-44.83321 Y-25.57160
G01 X-44.83903 Y-25.56794
G01 X-44.83321 Y-25.57160
G01 X-44.76377 Y-25.50099
G01 X-44.66336 Y-25.40945
G01 X-44.66336 Y-24.82433
G01 X-44.65477 Y-24.78105
G01 X-44.64434 Y-24.76149
G01 X-44.61157 Y-24.72553
G01 X-44.61888 Y-24.73287
G01 X-44.63278 Y-24.73650
G01 X-44.69869 Y-24.74379
G01 X-44.83443 Y-24.66952
G01 X-44.69869 Y-24.74379
G01 X-44.69168 Y-24.74384
G01 X-44.61888 Y-24.73287
G01 X-44.52066 Y-24.64209
G01 X-44.34225 Y-24.45522
G01 X-44.24098 Y-24.33434
G01 X-44.08261 Y-24.11870
G01 X-43.90001 Y-23.84052
G01 X-43.78274 Y-23.68004
G01 X-43.64330 Y-23.50808
G01 X-43.44378 Y-23.28781
G01 X-43.27652 Y-23.12055
G01 X-42.93337 Y-22.81324
G01 X-42.93337 Y-22.67996
G01 X-42.92473 Y-22.63658
G01 X-42.91264 Y-22.61499
G01 X-42.91264 Y-22.58731
G01 X-42.95249 Y-22.53755
G01 X-42.91264 Y-22.58731
G01 X-42.91264 Y-22.61499
G01 X-42.92473 Y-22.63658
G01 X-42.93474 Y-22.67981
G01 X-42.93337 Y-22.81324
G01 X-43.27652 Y-23.12055
G01 X-43.44378 Y-23.28781
G01 X-43.64330 Y-23.50808
G01 X-43.78305 Y-23.67981
G01 X-43.90001 Y-23.84052
G01 X-44.04777 Y-24.06442
G01 X-43.90349 Y-23.84560
G01 X-43.81965 Y-23.73038
G01 X-43.81965 Y-21.68030
G01 X-43.88607 Y-21.61388
G01 X-43.81965 Y-21.68030
G01 X-41.98064 Y-21.68030
G01 X-42.66093 Y-22.36056
G01 X-42.43415 Y-22.13379
G01 X-43.36616 Y-22.13379
G01 X-43.43255 Y-22.06739
G01 X-43.36616 Y-22.13379
G01 X-43.36616 Y-23.21019
G01 X-43.27195 Y-23.11624
G01 X-43.13939 Y-22.99762
G01 X-43.13939 Y-22.36056
G01 X-43.20581 Y-22.29414
G01 X-43.13939 Y-22.36056
G01 X-42.66093 Y-22.36056
G01 X-42.88767 Y-22.58731
G01 X-42.91264 Y-22.58731
G01 X-42.91424 Y-22.61697
G01 X-42.90215 Y-22.59830
G01 X-41.97152 Y-21.67115
G01 X-41.85293 Y-21.54090
G01 X-41.77835 Y-21.45002
G01 X-41.65773 Y-21.27199
G01 X-41.61112 Y-21.18479
G01 X-41.57937 Y-21.10905
G01 X-41.61112 Y-21.18479
G01 X-41.65773 Y-21.27199
G01 X-41.77076 Y-21.43879
G01 X-41.80098 Y-21.44481
G01 X-41.88948 Y-21.45353
G01 X-44.04642 Y-21.45353
G01 X-44.11276 Y-21.38716
G01 X-44.04642 Y-21.45353
G01 X-44.04777 Y-24.06442
G01 X-44.17738 Y-24.25151
G01 X-44.24098 Y-24.33434
G01 X-44.34225 Y-24.45522
G01 X-44.52066 Y-24.64209
G01 X-44.60857 Y-24.72263
G01 X-44.64434 Y-24.76149
G01 X-44.65048 Y-24.75779
G01 X-44.64434 Y-24.76149
G01 X-44.65477 Y-24.78105
G01 X-44.66300 Y-24.82085
G01 X-44.69869 Y-24.74379
G01 X-44.66300 Y-24.82085
G01 X-44.66580 Y-24.82398
G01 X-44.66336 Y-25.40945
G01 X-44.76377 Y-25.50099
G01 X-44.83321 Y-25.57160
G01 X-44.88195 Y-25.71763
G01 X-44.97636 Y-25.88362
G01 X-45.00423 Y-25.92197
G01 X-45.13293 Y-26.06302
G01 X-45.30659 Y-26.18923
G01 X-45.50268 Y-26.27650
G01 X-45.71266 Y-26.32113
G01 X-45.92731 Y-26.32113
G01 X-46.13730 Y-26.27650
G01 X-46.33338 Y-26.18923
G01 X-46.50704 Y-26.06302
G01 X-46.63140 Y-25.92680
G01 X-46.62289 Y-25.90749
G01 X-46.63140 Y-25.92680
G01 X-46.96534 Y-25.92680
G01 X-46.98012 Y-25.89949
G01 X-46.96534 Y-25.92680
G01 X-46.96724 Y-25.93307
G01 X-46.98820 Y-25.97229
G01 X-47.04217 Y-26.05306
G01 X-47.07039 Y-26.08740
G01 X-47.10473 Y-26.11559
G01 X-47.18550 Y-26.16959
G01 X-47.22472 Y-26.19052
G01 X-47.26724 Y-26.20345
G01 X-47.36254 Y-26.22240
G01 X-47.40684 Y-26.22680
G01 X-47.77321 Y-26.22570
G01 X-47.89056 Y-26.20345
G01 X-47.93308 Y-26.19052
G01 X-47.97229 Y-26.16959
G01 X-48.05307 Y-26.11559
G01 X-48.08741 Y-26.08740
G01 X-48.11563 Y-26.05306
G01 X-48.16960 Y-25.97229
G01 X-48.18443 Y-25.94658
G01 X-48.20346 Y-25.89050
G01 X-48.22241 Y-25.79520
G01 X-48.22678 Y-25.75098
G01 X-48.22678 Y-21.22678
G01 X-48.31535 Y-21.22678
G01 X-48.31288 Y-21.21814
G01 X-48.31535 Y-21.22678
G01 X-48.28238 Y-21.24047
G01 X-48.25190 Y-21.26600
G01 X-48.24047 Y-21.28238
G01 X-48.22678 Y-21.31535
G01 X-48.22050 Y-21.31385
G01 X-48.22678 Y-21.31535
G01 X-48.24047 Y-21.28238
G01 X-48.25190 Y-21.26600
G01 X-48.24547 Y-21.26010
G01 X-48.25190 Y-21.26600
G01 X-48.28238 Y-21.24047
G01 X-48.31535 Y-21.22678
G01 X-51.77559 Y-21.22678
G01 X-51.81981 Y-21.22241
G01 X-51.91511 Y-21.20346
G01 X-51.95766 Y-21.19056
G01 X-51.99685 Y-21.16960
G01 X-52.10119 Y-21.09757
G01 X-52.14026 Y-21.05307
G01 X-52.20906 Y-20.94659
G01 X-52.22806 Y-20.89051
G01 X-52.24704 Y-20.79521
G01 X-52.25138 Y-20.75099
G01 X-52.25138 Y-4.50700
G01 X-52.23256 Y-4.16098
G01 X-52.17952 Y-3.82730
G01 X-52.09189 Y-3.50124
G01 X-51.97069 Y-3.18615
G01 X-51.83071 Y-2.90888
G01 X-51.64958 Y-2.62517
G01 X-51.42116 Y-2.34097
G01 X-51.16474 Y-2.08643
G01 X-50.92261 Y-1.89187
G01 X-50.66012 Y-1.71976
G01 X-50.33589 Y-1.55306
G01 X-49.99807 Y-1.42484
G01 X-49.69779 Y-1.34554
G01 X-49.38799 Y-1.29510
G01 X-49.04445 Y-1.27439
G01 X-4.50652 Y-1.27366
G01 X-4.18782 Y-1.28971
G01 X-3.85468 Y-1.33982
G01 X-3.50223 Y-1.43289
G01 X-3.16537 Y-1.56365
G01 X-2.88831 Y-1.70619
G01 X-2.60325 Y-1.89133
G01 X-2.32334 Y-2.11976
G01 X-2.10447 Y-2.34020
G01 X-1.90589 Y-2.58328
G01 X-1.70619 Y-2.88831
G01 X-1.56365 Y-3.16537
G01 X-1.44056 Y-3.47873
G01 X-1.35059 Y-3.80411
G01 X-1.29510 Y-4.13710
G01 X-1.27366 Y-4.50652
G01 X-1.27366 Y-8.89693
G01 X-1.27803 Y-8.94116
G01 X-1.29697 Y-9.03643
G01 X-1.31600 Y-9.09251
G01 X-1.38486 Y-9.19902
G01 X-1.41305 Y-9.23338
G01 X-1.44739 Y-9.26158
G01 X-1.52817 Y-9.31555
G01 X-1.58128 Y-9.34174
G01 X-1.70523 Y-9.36836
G01 X-1.74945 Y-9.37273
G01 X-1.79370 Y-9.36836
G01 X-1.91059 Y-9.34400
G01 X-2.05255 Y-9.28639
G01 X-2.12552 Y-9.27679
G01 X-2.37317 Y-9.27679
G01 X-2.37317 Y-9.42320
G01 X-2.14998 Y-9.42320
G01 X-2.10574 Y-9.42754
G01 X-2.06319 Y-9.44044
G01 X-2.02397 Y-9.46140
G01 X-1.98961 Y-9.48962
G01 X-1.96141 Y-9.52398
G01 X-1.94046 Y-9.56320
G01 X-1.92756 Y-9.60575
G01 X-1.92319 Y-9.64999
G01 X-1.92319 Y-11.34999
G01 X-1.92756 Y-11.39424
G01 X-1.94046 Y-11.43678
G01 X-1.96141 Y-11.47600
G01 X-1.98961 Y-11.51037
G01 X-2.02397 Y-11.53856
G01 X-2.06319 Y-11.55951
G01 X-2.10574 Y-11.57242
G01 X-2.14998 Y-11.57679
G01 X-2.37317 Y-11.57679
G01 X-2.37317 Y-11.72317
G01 X-2.12552 Y-11.72317
G01 X-2.05255 Y-11.71357
G01 X-1.91059 Y-11.65596
G01 X-1.79370 Y-11.63160
G01 X-1.74945 Y-11.62723
G01 X-1.70523 Y-11.63160
G01 X-1.58128 Y-11.65822
G01 X-1.52817 Y-11.68441
G01 X-1.44739 Y-11.73838
G01 X-1.41305 Y-11.76660
G01 X-1.38483 Y-11.80094
G01 X-1.33086 Y-11.88171
G01 X-1.30990 Y-11.92093
G01 X-1.29700 Y-11.96345
G01 X-1.27475 Y-12.08080
G01 X-1.27366 Y-12.25098
G01 X-1.27803 Y-12.29525
G01 X-1.29700 Y-12.39055
G01 X-1.30990 Y-12.43307
G01 X-1.33086 Y-12.47229
G01 X-1.38483 Y-12.55306
G01 X-1.41305 Y-12.58740
G01 X-1.48288 Y-12.63934
G01 X-1.48496 Y-12.63170
G01 X-1.48288 Y-12.63934
G01 X-1.16977 Y-12.63934
G01 X-1.14234 Y-12.59827
G01 X-1.10043 Y-12.51989
G01 X-1.07462 Y-12.43482
G01 X-1.04910 Y-12.29545
G01 X-1.04910 Y-12.05855
G01 X-1.07462 Y-11.91918
G01 X-1.10043 Y-11.83411
G01 X-1.14234 Y-11.75573
G01 X-1.19631 Y-11.67496
G01 X-1.25270 Y-11.60625
G01 X-1.32141 Y-11.54986
G01 X-1.40218 Y-11.49589
G01 X-1.45357 Y-11.46622
G01 X-1.50840 Y-11.44351
G01 X-1.66098 Y-11.40920
G01 X-1.70188 Y-11.40516
G01 X-1.75339 Y-11.44750
G01 X-1.70188 Y-11.40516
G01 X-1.69644 Y-11.34999
G01 X-1.69644 Y-9.64999
G01 X-1.70188 Y-9.59480
G01 X-1.75544 Y-9.54949
G01 X-1.70188 Y-9.59480
G01 X-1.66098 Y-9.59076
G01 X-1.56571 Y-9.57181
G01 X-1.50840 Y-9.55645
G01 X-1.45357 Y-9.53374
G01 X-1.32141 Y-9.45010
G01 X-1.25270 Y-9.39371
G01 X-1.19631 Y-9.32503
G01 X-1.11265 Y-9.19282
G01 X-1.08994 Y-9.13801
G01 X-1.05562 Y-8.98540
G01 X-1.04691 Y-8.89693
G01 X-1.04691 Y-4.50652
G01 X-1.07127 Y-4.10063
G01 X-1.13180 Y-3.74447
G01 X-1.22923 Y-3.39654
G01 X-1.34300 Y-3.10396
G01 X-1.49228 Y-2.80594
G01 X-1.70117 Y-2.47973
G01 X-1.92888 Y-2.19674
G01 X-2.19674 Y-1.92888
G01 X-2.47973 Y-1.70117
G01 X-2.80594 Y-1.49228
G01 X-3.10396 Y-1.34300
G01 X-3.39654 Y-1.22923
G01 X-3.77182 Y-1.12588
G01 X-4.13042 Y-1.06794
G01 X-4.50652 Y-1.04691
G01 X-49.03163 Y-1.04727
G01 X-49.37719 Y-1.06614
G01 X-49.73422 Y-1.12174
G01 X-50.05677 Y-1.20579
G01 X-50.39363 Y-1.33099
G01 X-50.74168 Y-1.50531
G01 X-50.78446 Y-1.53012
G01 X-51.08369 Y-1.72905
G01 X-51.34135 Y-1.94061
G01 X-51.56424 Y-2.16162
G01 X-51.81133 Y-2.46243
G01 X-51.84031 Y-2.50251
G01 X-52.03276 Y-2.80596
G01 X-52.18204 Y-3.10396
G01 X-52.29581 Y-3.39649
G01 X-52.40332 Y-3.79087
G01 X-52.45895 Y-4.14843
G01 X-52.47815 Y-4.50700
G01 X-52.47815 Y-20.75099
G01 X-52.46944 Y-20.83943
G01 X-52.43515 Y-20.99206
G01 X-52.41244 Y-21.04687
G01 X-52.35532 Y-21.13935
G01 X-52.04211 Y-21.13935
G01 X-52.03980 Y-21.13100
G01 X-52.04211 Y-21.13935
G01 X-52.52512 Y-21.13935
G01 X-52.52512 Y-4.49999
G01 X-52.45786 Y-3.81716
G01 X-52.25870 Y-3.16060
G01 X-51.93525 Y-2.55549
G01 X-51.50000 Y-2.02512
G01 X-50.96962 Y-1.58979
G01 X-50.36452 Y-1.26642
G01 X-49.70793 Y-1.06723
G01 X-49.02512 Y-1.00000
G01 X-4.49999 Y-1.00000
G01 X-3.81716 Y-1.06723
G01 X-3.16060 Y-1.26642
G01 X-2.55549 Y-1.58979
G01 X-2.02512 Y-2.02512
G01 X-1.58979 Y-2.55549
G01 X-1.26642 Y-3.16060
G01 X-1.06723 Y-3.81716
G01 X-1.00000 Y-4.49999
G01 X-1.00000 Y-11.56063
G01 X-1.00000 Y-10.94646
G01 X-1.01615 Y-10.93567
G01 X-1.00000 Y-10.94646
G01 X-1.01615 Y-10.93567
G01 X-1.04292 Y-10.94997
G01 X-1.01615 Y-10.93567
G01 X-1.01615 Y-10.06429
G01 X-1.00000 Y-10.05350
G01 X-1.01615 Y-10.06429
G01 X-1.04292 Y-10.04999
G01 X-1.01615 Y-10.06429
G01 X-1.00000 Y-10.05350
G01 X-1.00000 Y-9.43933
G01 X-1.09238 Y-9.55406
G01 X-1.19543 Y-9.63864
G01 X-1.27620 Y-9.69261
G01 X-1.35329 Y-9.73712
G01 X-1.43551 Y-9.77118
G01 X-1.46967 Y-9.78035
G01 X-1.51026 Y-9.75210
G01 X-1.46967 Y-9.78035
G01 X-1.46967 Y-11.21961
G01 X-1.51026 Y-11.24786
G01 X-1.46967 Y-11.21961
G01 X-1.43551 Y-11.22878
G01 X-1.35329 Y-11.26284
G01 X-1.27620 Y-11.30734
G01 X-1.19543 Y-11.36132
G01 X-1.09235 Y-11.44590
G01 X-1.00000 Y-11.56063
G01 X-1.00000 Y-12.63934
G01 X-1.48288 Y-12.63934
G01 X-1.55387 Y-12.68443
G01 X-1.58128 Y-12.69578
G01 X-1.70523 Y-12.72240
G01 X-1.74948 Y-12.72677
G01 X-7.28017 Y-12.72677
G01 X-7.27875 Y-12.72068
G01 X-7.28017 Y-12.72677
G01 X-7.19872 Y-12.76114
G01 X-7.04212 Y-12.84590
G01 X-6.93593 Y-12.91628
G01 X-6.88800 Y-12.95352
G01 X-5.84855 Y-12.95352
G01 X-5.65600 Y-12.82377
G01 X-5.54919 Y-12.76721
G01 X-5.45254 Y-12.72677
G01 X-5.45381 Y-12.72118
G01 X-5.45254 Y-12.72677
G01 X-5.54919 Y-12.76721
G01 X-5.66659 Y-12.82916
G01 X-5.85478 Y-12.95773
G01 X-5.93728 Y-13.02489
G01 X-6.04830 Y-13.01336
G01 X-6.18454 Y-13.00637
G01 X-6.55635 Y-13.00650
G01 X-6.68665 Y-13.01336
G01 X-6.79737 Y-13.02484
G01 X-6.92879 Y-12.92144
G01 X-7.03268 Y-12.85065
G01 X-7.19872 Y-12.76114
G01 X-7.28017 Y-12.72677
G01 X-12.77315 Y-12.72677
G01 X-12.77315 Y-12.81527
G01 X-12.77943 Y-12.81379
G01 X-12.77315 Y-12.81527
G01 X-12.75946 Y-12.78237
G01 X-12.73393 Y-12.75187
G01 X-12.71755 Y-12.74044
G01 X-12.68463 Y-12.72677
G01 X-12.68710 Y-12.71808
G01 X-12.68463 Y-12.72677
G01 X-12.71755 Y-12.74044
G01 X-12.73393 Y-12.75187
G01 X-12.73853 Y-12.74658
G01 X-12.73393 Y-12.75187
G01 X-12.74806 Y-12.76599
G01 X-12.75446 Y-12.76005
G01 X-12.74806 Y-12.76599
G01 X-12.76787 Y-12.80051
G01 X-12.77315 Y-12.79883
G01 X-12.76787 Y-12.80051
G01 X-12.77315 Y-12.81527
G01 X-12.77318 Y-20.34035
G01 X-11.75316 Y-21.36209
G01 X-11.55868 Y-21.49828
G01 X-11.41509 Y-21.58126
G01 X-11.41717 Y-21.58695
G01 X-11.41509 Y-21.58126
G01 X-11.37285 Y-21.59439
G01 X-11.37412 Y-21.59881
G01 X-11.37285 Y-21.59439
G01 X-11.17232 Y-21.61141
G01 X-10.98862 Y-21.61103
G01 X-10.89805 Y-21.60697
G01 X-10.71448 Y-21.58728
G01 X-10.61227 Y-21.57156
G01 X-10.43457 Y-21.53374
G01 X-10.32050 Y-21.50262
G01 X-10.19365 Y-21.46143
G01 X-9.98918 Y-21.43730
G01 X-10.02274 Y-21.41306
G01 X-10.19365 Y-21.46143
G01 X-10.16439 Y-21.45266
G01 X-10.13899 Y-21.45515
G01 X-10.05393 Y-21.48096
G01 X-9.97549 Y-21.52287
G01 X-9.90676 Y-21.57928
G01 X-9.87039 Y-21.62363
G01 X-9.88624 Y-21.69970
G01 X-9.91596 Y-21.79975
G01 X-10.00069 Y-22.03691
G01 X-10.00333 Y-22.03651
G01 X-10.00069 Y-22.03691
G01 X-9.91596 Y-21.79975
G01 X-9.88624 Y-21.69970
G01 X-9.85370 Y-21.54357
G01 X-9.93087 Y-21.47938
G01 X-9.98918 Y-21.43730
G01 X-9.56015 Y-21.38660
G01 X-9.61509 Y-21.35304
G01 X-9.79574 Y-21.21873
G01 X-9.88710 Y-21.12096
G01 X-9.88710 Y-20.72526
G01 X-9.88710 Y-21.23130
G01 X-9.78886 Y-21.30255
G01 X-9.68781 Y-21.38660
G01 X-8.83877 Y-21.38660
G01 X-8.65685 Y-21.28942
G01 X-8.81093 Y-21.32089
G01 X-9.01233 Y-21.32213
G01 X-9.05949 Y-21.31718
G01 X-9.25624 Y-21.27407
G01 X-9.44072 Y-21.19330
G01 X-9.48179 Y-21.16960
G01 X-9.64400 Y-21.05020
G01 X-9.79465 Y-20.88291
G01 X-9.89642 Y-20.70910
G01 X-9.91570 Y-20.66580
G01 X-9.97676 Y-20.47387
G01 X-9.99904 Y-20.27370
G01 X-9.99904 Y-20.22627
G01 X-9.97676 Y-20.02610
G01 X-9.90719 Y-19.81203
G01 X-9.86003 Y-19.72785
G01 X-9.89642 Y-19.79087
G01 X-9.88710 Y-19.77471
G01 X-9.88710 Y-19.74609
G01 X-9.86003 Y-19.72785
G01 X-9.80757 Y-19.63697
G01 X-9.77969 Y-19.59861
G01 X-9.64400 Y-19.44977
G01 X-9.46188 Y-19.31746
G01 X-9.27839 Y-19.23440
G01 X-9.23331 Y-19.21975
G01 X-9.05949 Y-19.18279
G01 X-9.01233 Y-19.17784
G01 X-8.81093 Y-19.17908
G01 X-8.61367 Y-19.21975
G01 X-8.56856 Y-19.23440
G01 X-8.40623 Y-19.30667
G01 X-8.36519 Y-19.33039
G01 X-8.20296 Y-19.44977
G01 X-8.05233 Y-19.61706
G01 X-7.93979 Y-19.81203
G01 X-7.87636 Y-20.00319
G01 X-7.86651 Y-20.04957
G01 X-7.84669 Y-20.25000
G01 X-7.86651 Y-20.45043
G01 X-7.87636 Y-20.49681
G01 X-7.93979 Y-20.68797
G01 X-8.05233 Y-20.88291
G01 X-8.20296 Y-21.05020
G01 X-8.36519 Y-21.16960
G01 X-8.40623 Y-21.19330
G01 X-8.56856 Y-21.26557
G01 X-8.65685 Y-21.28942
G04 P0 ( dwell for no time -- G64 should not smooth over this point )
G00 Z2.00000 ( retract )

G00 X-5.37566 Y-17.35821 ( rapid move to begin. )
G01 F60.00000
( Mill infeed pass 1/1 )
G01 Z-0.10000
G04 P0 ( dwell for no time -- G64 should not smooth over this point )
G01 F120.00000
G01 X-5.37566 Y-17.35821
G01 X-5.49082 Y-17.24304
G01 X-5.75663 Y-17.36004
G01 X-6.16085 Y-17.44596
G01 X-6.55041 Y-17.44721
G01 X-6.59757 Y-17.44226
G01 X-6.97835 Y-17.36004
G01 X-7.24413 Y-17.24307
G01 X-7.35927 Y-17.35821
G01 X-7.18172 Y-17.44576
G01 X-6.91820 Y-17.53522
G01 X-6.64520 Y-17.58953
G01 X-6.36748 Y-17.60771
G01 X-6.08973 Y-17.58953
G01 X-5.81675 Y-17.53522
G01 X-5.55320 Y-17.44576
G01 X-5.37566 Y-17.35821
G04 P0 ( dwell for no time -- G64 should not smooth over this point )
G00 Z2.00000 ( retract )

G00 X-4.23972 Y-15.47998 ( rapid move to begin. )
G01 F60.00000
( Mill infeed pass 1/1 )
G01 Z-0.10000
G04 P0 ( dwell for no time -- G64 should not smooth over this point )
G01 F120.00000
G01 X-4.23972 Y-15.47998
G01 X-4.25790 Y-15.75768
G01 X-4.31223 Y-16.03068
G01 X-4.40169 Y-16.29423
G01 X-4.48925 Y-16.47177
G01 X-4.60294 Y-16.35811
G01 X-4.57236 Y-16.30517
G01 X-4.55308 Y-16.26187
G01 X-4.43387 Y-15.89098
G01 X-4.39194 Y-15.50370
G01 X-4.39194 Y-15.45628
G01 X-4.43387 Y-15.06898
G01 X-4.55308 Y-14.69812
G01 X-4.57236 Y-14.65481
G01 X-4.60294 Y-14.60185
G01 X-4.48925 Y-14.48819
G01 X-4.40169 Y-14.66573
G01 X-4.31223 Y-14.92928
G01 X-4.25790 Y-15.20226
G01 X-4.23972 Y-15.47998
G04 P0 ( dwell for no time -- G64 should not smooth over this point )
G00 Z2.00000 ( retract )

G00 X-8.13204 Y-16.35811 ( rapid move to begin. )
G01 F60.00000
( Mill infeed pass 1/1 )
G01 Z-0.10000
G04 P0 ( dwell for no time -- G64 should not smooth over this point )
G01 F120.00000
G01 X-8.13204 Y-16.35811
G01 X-8.24570 Y-16.47180
G01 X-8.33326 Y-16.29425
G01 X-8.42272 Y-16.03070
G01 X-8.47702 Y-15.75768
G01 X-8.49523 Y-15.47998
G01 X-8.47702 Y-15.20226
G01 X-8.42272 Y-14.92926
G01 X-8.33326 Y-14.66571
G01 X-8.24570 Y-14.48816
G01 X-8.13204 Y-14.60185
G01 X-8.16259 Y-14.65481
G01 X-8.18190 Y-14.69812
G01 X-8.30110 Y-15.06898
G01 X-8.34304 Y-15.45628
G01 X-8.34304 Y-15.50370
G01 X-8.30110 Y-15.89098
G01 X-8.18190 Y-16.26187
G01 X-8.16259 Y-16.30517
G01 X-8.13204 Y-16.35811
G04 P0 ( dwell for no time -- G64 should not smooth over this point )
G00 Z2.00000 ( retract )

G00 X-12.05951 Y-19.80872 ( rapid move to begin. )
G01 F60.00000
( Mill infeed pass 1/1 )
G01 Z-0.10000
G04 P0 ( dwell for no time -- G64 should not smooth over this point )
G01 F120.00000
G01 X-12.05951 Y-19.80872
G01 X-11.96157 Y-19.63697
G01 X-11.93371 Y-19.59861
G01 X-11.79800 Y-19.44977
G01 X-11.63579 Y-19.33039
G01 X-11.59474 Y-19.30667
G01 X-11.41024 Y-19.22589
G01 X-11.21349 Y-19.18279
G01 X-11.16635 Y-19.17784
G01 X-10.96493 Y-19.17908
G01 X-10.76767 Y-19.21975
G01 X-10.72258 Y-19.23440
G01 X-10.53909 Y-19.31746
G01 X-10.37542 Y-19.43484
G01 X-10.34019 Y-19.46656
G01 X-10.20633 Y-19.61706
G01 X-10.14092 Y-19.72785
G01 X-10.11385 Y-19.74609
G01 X-10.11385 Y-19.77476
G01 X-10.14092 Y-19.72785
G01 X-10.09378 Y-19.81203
G01 X-10.02421 Y-20.02610
G01 X-10.00194 Y-20.22627
G01 X-10.00194 Y-20.27370
G01 X-10.02421 Y-20.47387
G01 X-10.08527 Y-20.66580
G01 X-10.11385 Y-20.72521
G01 X-10.11385 Y-21.12094
G01 X-10.17166 Y-21.18515
G01 X-10.22370 Y-21.23369
G01 X-10.17166 Y-21.18515
G01 X-10.11385 Y-21.12094
G01 X-10.11385 Y-21.20298
G01 X-10.48476 Y-21.31212
G01 X-10.65662 Y-21.34865
G01 X-10.74115 Y-21.36206
G01 X-10.91296 Y-21.38015
G01 X-10.99162 Y-21.38426
G01 X-11.16335 Y-21.38426
G01 X-11.32672 Y-21.37123
G01 X-11.43244 Y-21.30925
G01 X-11.63579 Y-21.16960
G01 X-11.79800 Y-21.05020
G01 X-11.94864 Y-20.88291
G01 X-12.06119 Y-20.68797
G01 X-12.13076 Y-20.47387
G01 X-12.15428 Y-20.25000
G01 X-12.13076 Y-20.02610
G01 X-12.05951 Y-19.80872
G01 X-12.15403 Y-19.88010
G01 X-12.27409 Y-19.96115
G01 X-12.33749 Y-19.99859
G01 X-12.34859 Y-20.19140
G01 X-12.24257 Y-20.42091
G01 X-12.20137 Y-20.49696
G01 X-12.10899 Y-20.64771
G01 X-12.00122 Y-20.79434
G01 X-11.94864 Y-20.88291
G01 X-11.79800 Y-21.05020
G01 X-11.63579 Y-21.16960
G01 X-11.59474 Y-21.19330
G01 X-11.41024 Y-21.27407
G01 X-11.19005 Y-21.32089
G01 X-10.96493 Y-21.32089
G01 X-10.74473 Y-21.27407
G01 X-10.53909 Y-21.18253
G01 X-10.35698 Y-21.05020
G01 X-10.20633 Y-20.88291
G01 X-10.11385 Y-20.72521
G04 P0 ( dwell for no time -- G64 should not smooth over this point )
G00 Z2.00000 ( retract )

G00 X-7.69607 Y-22.74997 ( rapid move to begin. )
G01 F60.00000
( Mill infeed pass 1/1 )
G01 Z-0.10000
G04 P0 ( dwell for no time -- G64 should not smooth over this point )
G01 F120.00000
G01 X-7.69607 Y-22.74997
G01 X-7.71281 Y-22.95200
G01 X-7.73753 Y-23.04951
G01 X-7.86366 Y-22.92335
G01 X-7.84669 Y-22.74999
G01 X-7.86366 Y-22.57659
G01 X-7.73750 Y-22.45042
G01 X-7.71281 Y-22.54794
G01 X-7.69607 Y-22.74997
G04 P0 ( dwell for no time -- G64 should not smooth over this point )
G00 Z2.00000 ( retract )

G00 X-5.37566 Y-25.64173 ( rapid move to begin. )
G01 F60.00000
( Mill infeed pass 1/1 )
G01 Z-0.10000
G04 P0 ( dwell for no time -- G64 should not smooth over this point )
G01 F120.00000
G01 X-5.37566 Y-25.64173
G01 X-5.49085 Y-25.75692
G01 X-5.75663 Y-25.63993
G01 X-6.16085 Y-25.55403
G01 X-6.55041 Y-25.55278
G01 X-6.59757 Y-25.55773
G01 X-6.97835 Y-25.63993
G01 X-7.24413 Y-25.75690
G01 X-7.35927 Y-25.64173
G01 X-7.18172 Y-25.55418
G01 X-6.91817 Y-25.46472
G01 X-6.64520 Y-25.41041
G01 X-6.36748 Y-25.39223
G01 X-6.08973 Y-25.41041
G01 X-5.81678 Y-25.46472
G01 X-5.55320 Y-25.55418
G01 X-5.37566 Y-25.64173
G04 P0 ( dwell for no time -- G64 should not smooth over this point )
G00 Z2.00000 ( retract )

G00 X-8.13204 Y-28.39811 ( rapid move to begin. )
G01 F60.00000
( Mill infeed pass 1/1 )
G01 Z-0.10000
G04 P0 ( dwell for no time -- G64 should not smooth over this point )
G01 F120.00000
G01 X-8.13204 Y-28.39811
G01 X-8.24570 Y-28.51178
G01 X-8.33326 Y-28.33423
G01 X-8.42272 Y-28.07071
G01 X-8.47702 Y-27.79768
G01 X-8.49523 Y-27.51999
G01 X-8.47702 Y-27.24226
G01 X-8.42272 Y-26.96924
G01 X-8.33326 Y-26.70571
G01 X-8.24570 Y-26.52817
G01 X-8.13204 Y-26.64186
G01 X-8.16259 Y-26.69479
G01 X-8.18190 Y-26.73812
G01 X-8.30110 Y-27.10899
G01 X-8.34304 Y-27.49629
G01 X-8.34304 Y-27.54368
G01 X-8.30110 Y-27.93098
G01 X-8.18190 Y-28.30187
G01 X-8.16259 Y-28.34518
G01 X-8.13204 Y-28.39811
G04 P0 ( dwell for no time -- G64 should not smooth over this point )
G00 Z2.00000 ( retract )

G00 X-14.02679 Y-24.67315 ( rapid move to begin. )
G01 F60.00000
( Mill infeed pass 1/1 )
G01 Z-0.10000
G04 P0 ( dwell for no time -- G64 should not smooth over this point )
G01 F120.00000
G01 X-14.02679 Y-24.67315
G01 X-14.17317 Y-24.67315
G01 X-14.17317 Y-24.49998
G01 X-14.17754 Y-24.45573
G01 X-14.19045 Y-24.41318
G01 X-14.21140 Y-24.37399
G01 X-14.23962 Y-24.33963
G01 X-14.27399 Y-24.31141
G01 X-14.31320 Y-24.29045
G01 X-14.35575 Y-24.27755
G01 X-14.40000 Y-24.27318
G01 X-14.57317 Y-24.27318
G01 X-14.57317 Y-24.12677
G01 X-14.37551 Y-24.12677
G01 X-14.30256 Y-24.13638
G01 X-14.21178 Y-24.17399
G01 X-14.13380 Y-24.23381
G01 X-14.07399 Y-24.31174
G01 X-14.03640 Y-24.40254
G01 X-14.02679 Y-24.47552
G01 X-14.02679 Y-24.67315
G04 P0 ( dwell for no time -- G64 should not smooth over this point )
G00 Z2.00000 ( retract )

G00 X-14.02679 Y-26.12443 ( rapid move to begin. )
G01 F60.00000
( Mill infeed pass 1/1 )
G01 Z-0.10000
G04 P0 ( dwell for no time -- G64 should not smooth over this point )
G01 F120.00000
G01 X-14.02679 Y-26.12443
G01 X-14.03640 Y-26.19738
G01 X-14.07399 Y-26.28819
G01 X-14.13380 Y-26.36614
G01 X-14.21178 Y-26.42596
G01 X-14.30256 Y-26.46357
G01 X-14.37551 Y-26.47318
G01 X-14.57317 Y-26.47318
G01 X-14.57317 Y-26.32680
G01 X-14.40000 Y-26.32680
G01 X-14.35575 Y-26.32243
G01 X-14.31320 Y-26.30952
G01 X-14.27399 Y-26.28857
G01 X-14.23962 Y-26.26032
G01 X-14.21140 Y-26.22598
G01 X-14.19045 Y-26.18676
G01 X-14.17754 Y-26.14425
G01 X-14.17317 Y-26.09997
G01 X-14.17317 Y-25.92680
G01 X-14.02679 Y-25.92680
G01 X-14.02679 Y-26.12443
G04 P0 ( dwell for no time -- G64 should not smooth over this point )
G00 Z2.00000 ( retract )

G00 X-17.11317 Y-24.32035 ( rapid move to begin. )
G01 F60.00000
( Mill infeed pass 1/1 )
G01 Z-0.10000
G04 P0 ( dwell for no time -- G64 should not smooth over this point )
G01 F120.00000
G01 X-17.11317 Y-24.32035
G01 X-17.07131 Y-24.41900
G01 X-17.04002 Y-24.47541
G01 X-17.01950 Y-24.49721
G01 X-17.02463 Y-24.50181
G01 X-17.01950 Y-24.49721
G01 X-16.97159 Y-24.53597
G01 X-16.83568 Y-24.63157
G01 X-16.64688 Y-24.75027
G01 X-16.62874 Y-24.83543
G01 X-16.60317 Y-24.99680
G01 X-16.59311 Y-25.09241
G01 X-16.58465 Y-25.25367
G01 X-16.58465 Y-25.34623
G01 X-16.59311 Y-25.50754
G01 X-16.60317 Y-25.60315
G01 X-16.62874 Y-25.76452
G01 X-16.64678 Y-25.84917
G01 X-16.74937 Y-25.91079
G01 X-16.90949 Y-26.01727
G01 X-17.02105 Y-26.10165
G01 X-17.02620 Y-26.09700
G01 X-17.02105 Y-26.10165
G01 X-17.05224 Y-26.14117
G01 X-17.11317 Y-26.27506
G01 X-17.11317 Y-29.47319
G01 X-17.03568 Y-29.47319
G01 X-17.06047 Y-29.46243
G01 X-17.09097 Y-29.43687
G01 X-17.11317 Y-29.39565
G01 X-17.09097 Y-29.43687
G01 X-17.09623 Y-29.44170
G01 X-17.09097 Y-29.43687
G01 X-17.06047 Y-29.46243
G01 X-17.03568 Y-29.47319
G01 X-16.19999 Y-29.47319
G01 X-16.15575 Y-29.47754
G01 X-16.11320 Y-29.49044
G01 X-16.07398 Y-29.51142
G01 X-16.03962 Y-29.53962
G01 X-16.01140 Y-29.57398
G01 X-15.99044 Y-29.61320
G01 X-15.97754 Y-29.65574
G01 X-15.97320 Y-29.69999
G01 X-15.97320 Y-30.20822
G01 X-15.86222 Y-30.47733
G01 X-15.86222 Y-30.52260
G01 X-15.97320 Y-30.79173
G01 X-15.97320 Y-30.20822
G01 X-15.97320 Y-31.29999
G01 X-15.97754 Y-31.34423
G01 X-15.99044 Y-31.38678
G01 X-16.01140 Y-31.42600
G01 X-16.03962 Y-31.46036
G01 X-16.07398 Y-31.48856
G01 X-16.11320 Y-31.50951
G01 X-16.15575 Y-31.52244
G01 X-16.19999 Y-31.52678
G01 X-17.79999 Y-31.52678
G01 X-17.84424 Y-31.52244
G01 X-17.88678 Y-31.50951
G01 X-17.92600 Y-31.48856
G01 X-17.96037 Y-31.46036
G01 X-17.98856 Y-31.42600
G01 X-18.00951 Y-31.38678
G01 X-18.02242 Y-31.34423
G01 X-18.02679 Y-31.29999
G01 X-18.02679 Y-30.35960
G01 X-18.18320 Y-30.20319
G01 X-18.24789 Y-30.12608
G01 X-18.27258 Y-30.08912
G01 X-18.31906 Y-29.99984
G01 X-18.34934 Y-29.90385
G01 X-18.35800 Y-29.86024
G01 X-18.36570 Y-29.78221
G01 X-18.36679 Y-26.10838
G01 X-18.40860 Y-26.07795
G01 X-18.44383 Y-26.04625
G01 X-18.57068 Y-25.90353
G01 X-18.67802 Y-25.71763
G01 X-18.74436 Y-25.51346
G01 X-18.76679 Y-25.29997
G01 X-18.74436 Y-25.08651
G01 X-18.67802 Y-24.88235
G01 X-18.57068 Y-24.69645
G01 X-18.44383 Y-24.55372
G01 X-18.40860 Y-24.52197
G01 X-18.36679 Y-24.49159
G01 X-18.36679 Y-21.18843
G01 X-18.40860 Y-21.28698
G01 X-18.46054 Y-21.38413
G01 X-18.59354 Y-21.58157
G01 X-18.59354 Y-24.38316
G01 X-18.57865 Y-24.38885
G01 X-18.59354 Y-24.38316
G01 X-18.75414 Y-24.56317
G01 X-18.86361 Y-24.74783
G01 X-18.89658 Y-24.81986
G01 X-18.89658 Y-24.37928
G01 X-18.82031 Y-24.29406
G01 X-18.80535 Y-24.29977
G01 X-18.82031 Y-24.29406
G01 X-18.82031 Y-21.84065
G01 X-19.04705 Y-22.06739
G01 X-19.04705 Y-23.84171
G01 X-18.95467 Y-24.04890
G01 X-18.89851 Y-24.20056
G01 X-18.89658 Y-25.40813
G01 X-18.79920 Y-25.49837
G01 X-18.72640 Y-25.57275
G01 X-18.79920 Y-25.49837
G01 X-18.89658 Y-25.40813
G01 X-18.89851 Y-24.20056
G01 X-18.89420 Y-24.19970
G01 X-18.89851 Y-24.20056
G01 X-18.95467 Y-24.04890
G01 X-19.04931 Y-23.83615
G01 X-19.13778 Y-23.66368
G01 X-19.28167 Y-23.41535
G01 X-19.39392 Y-23.24311
G01 X-19.61535 Y-22.93960
G01 X-19.70659 Y-22.82668
G01 X-19.70659 Y-22.72693
G01 X-19.27380 Y-22.29414
G01 X-19.50057 Y-22.52091
G01 X-19.50057 Y-23.09691
G01 X-19.39041 Y-23.24819
G01 X-19.27380 Y-23.42893
G01 X-19.27380 Y-22.29414
G01 X-18.80931 Y-21.82965
G01 X-18.67954 Y-21.68705
G01 X-18.59354 Y-21.58157
G01 X-18.46666 Y-21.39429
G01 X-18.40860 Y-21.28698
G01 X-18.36679 Y-21.18843
G01 X-18.36679 Y-20.47959
G01 X-20.14898 Y-18.69740
G01 X-20.19635 Y-18.70240
G01 X-20.38731 Y-18.70116
G01 X-20.59729 Y-18.65653
G01 X-20.79338 Y-18.56923
G01 X-20.94860 Y-18.45798
G01 X-20.98383 Y-18.42625
G01 X-21.11068 Y-18.28353
G01 X-21.20725 Y-18.11879
G01 X-21.22653 Y-18.07545
G01 X-21.27821 Y-17.91640
G01 X-21.28807 Y-17.87002
G01 X-21.30679 Y-17.67997
G01 X-21.28807 Y-17.48996
G01 X-21.26676 Y-17.40835
G01 X-21.28807 Y-17.48996
G01 X-21.30679 Y-17.67997
G01 X-21.28807 Y-17.87002
G01 X-21.26640 Y-17.95275
G01 X-21.33666 Y-17.88084
G01 X-21.43658 Y-17.78813
G01 X-21.43658 Y-17.57050
G01 X-21.34014 Y-17.48272
G01 X-21.26676 Y-17.40835
G01 X-21.21802 Y-17.26235
G01 X-21.11068 Y-17.07645
G01 X-20.98383 Y-16.93372
G01 X-20.94860 Y-16.90197
G01 X-20.90679 Y-16.87159
G01 X-20.90679 Y-15.51805
G01 X-21.01339 Y-15.46921
G01 X-21.18705 Y-15.34305
G01 X-21.33069 Y-15.18354
G01 X-21.42724 Y-15.01877
G01 X-21.44652 Y-14.97546
G01 X-21.49820 Y-14.81640
G01 X-21.50806 Y-14.77002
G01 X-21.52678 Y-14.57998
G01 X-21.50806 Y-14.38994
G01 X-21.49820 Y-14.34358
G01 X-21.43801 Y-14.16235
G01 X-21.34362 Y-13.99637
G01 X-21.31576 Y-13.95801
G01 X-21.18705 Y-13.81691
G01 X-21.03331 Y-13.70368
G01 X-20.99224 Y-13.67998
G01 X-20.81728 Y-13.60345
G01 X-20.60732 Y-13.55882
G01 X-20.41637 Y-13.55758
G01 X-20.36920 Y-13.56253
G01 X-20.20562 Y-13.59731
G01 X-20.16051 Y-13.61196
G01 X-19.98660 Y-13.69075
G01 X-19.81291 Y-13.81691
G01 X-19.66928 Y-13.97645
G01 X-19.57273 Y-14.14120
G01 X-19.55345 Y-14.18450
G01 X-19.49562 Y-14.36649
G01 X-19.47319 Y-14.57998
G01 X-19.49191 Y-14.77002
G01 X-19.50176 Y-14.81640
G01 X-19.56196 Y-14.99763
G01 X-19.65317 Y-15.15811
G01 X-19.65317 Y-16.87162
G01 X-19.61137 Y-16.90200
G01 X-19.57614 Y-16.93372
G01 X-19.44929 Y-17.07645
G01 X-19.34195 Y-17.26235
G01 X-19.28177 Y-17.44358
G01 X-19.27192 Y-17.48996
G01 X-19.25317 Y-17.67997
G01 X-19.26539 Y-17.80812
G01 X-18.87517 Y-18.19834
G01 X-18.98686 Y-18.01879
G01 X-19.03059 Y-17.93776
G01 X-19.11233 Y-17.76623
G01 X-19.12336 Y-17.71747
G01 X-19.12336 Y-17.57182
G01 X-19.22333 Y-17.47906
G01 X-19.29361 Y-17.40715
G01 X-19.22333 Y-17.47906
G01 X-19.12336 Y-17.57182
G01 X-19.12336 Y-17.71747
G01 X-19.11233 Y-17.76623
G01 X-19.11690 Y-17.76743
G01 X-19.11233 Y-17.76623
G01 X-19.03059 Y-17.93776
G01 X-18.98708 Y-18.01891
G01 X-18.87517 Y-18.19834
G01 X-17.87632 Y-19.19719
G01 X-18.26334 Y-18.81017
G01 X-18.12364 Y-18.90100
G01 X-17.94787 Y-18.99587
G01 X-17.90558 Y-19.12877
G01 X-17.87632 Y-19.19719
G01 X-17.28183 Y-19.79323
G01 X-17.23207 Y-19.85386
G01 X-17.20738 Y-19.89082
G01 X-17.17040 Y-19.95998
G01 X-17.15341 Y-20.00105
G01 X-17.13062 Y-20.07608
G01 X-17.12196 Y-20.11970
G01 X-17.11317 Y-20.21997
G01 X-17.11317 Y-21.31705
G01 X-17.11317 Y-21.18840
G01 X-17.08622 Y-21.25271
G01 X-17.11317 Y-21.31705
G01 X-17.11317 Y-24.49162
G01 X-17.07137 Y-24.52200
G01 X-17.03614 Y-24.55372
G01 X-16.90929 Y-24.69645
G01 X-16.80195 Y-24.88235
G01 X-16.73563 Y-25.08651
G01 X-16.71317 Y-25.29997
G01 X-16.73563 Y-25.51346
G01 X-16.80195 Y-25.71763
G01 X-16.90929 Y-25.90353
G01 X-17.03614 Y-26.04625
G01 X-17.07137 Y-26.07795
G01 X-17.11317 Y-26.10833
G01 X-17.11317 Y-26.27506
G04 P0 ( dwell for no time -- G64 should not smooth over this point )
G00 Z2.00000 ( retract )

G00 X-14.24031 Y-29.35389 ( rapid move to begin. )
G01 F60.00000
( Mill infeed pass 1/1 )
G01 Z-0.10000
G04 P0 ( dwell for no time -- G64 should not smooth over this point )
G01 F120.00000
G01 X-14.24031 Y-29.35389
G01 X-14.40274 Y-29.32679
G01 X-14.59720 Y-29.32679
G01 X-14.75966 Y-29.35389
G01 X-14.63076 Y-29.48252
G01 X-14.58361 Y-29.47756
G01 X-14.41635 Y-29.47756
G01 X-14.36898 Y-29.48257
G01 X-14.24031 Y-29.35389
G04 P0 ( dwell for no time -- G64 should not smooth over this point )
G00 Z2.00000 ( retract )

G00 X-13.32276 Y-30.49999 ( rapid move to begin. )
G01 F60.00000
( Mill infeed pass 1/1 )
G01 Z-0.10000
G04 P0 ( dwell for no time -- G64 should not smooth over this point )
G01 F120.00000
G01 X-13.32276 Y-30.49999
G01 X-13.33881 Y-30.69374
G01 X-13.35517 Y-30.75836
G01 X-13.48539 Y-30.62811
G01 X-13.47318 Y-30.49999
G01 X-13.48542 Y-30.37185
G01 X-13.35517 Y-30.24160
G01 X-13.33881 Y-30.30621
G01 X-13.32276 Y-30.49999
G04 P0 ( dwell for no time -- G64 should not smooth over this point )
G00 Z2.00000 ( retract )

G00 X-14.24031 Y-31.64606 ( rapid move to begin. )
G01 F60.00000
( Mill infeed pass 1/1 )
G01 Z-0.10000
G04 P0 ( dwell for no time -- G64 should not smooth over this point )
G01 F120.00000
G01 X-14.24031 Y-31.64606
G01 X-14.36898 Y-31.51739
G01 X-14.41635 Y-31.52242
G01 X-14.58361 Y-31.52242
G01 X-14.63076 Y-31.51744
G01 X-14.75966 Y-31.64606
G01 X-14.59720 Y-31.67316
G01 X-14.40274 Y-31.67316
G01 X-14.24031 Y-31.64606
G04 P0 ( dwell for no time -- G64 should not smooth over this point )
G00 Z2.00000 ( retract )

G00 X-11.24679 Y-31.63014 ( rapid move to begin. )
G01 F60.00000
( Mill infeed pass 1/1 )
G01 Z-0.10000
G04 P0 ( dwell for no time -- G64 should not smooth over this point )
G01 F120.00000
G01 X-11.24679 Y-31.63014
G01 X-11.34052 Y-31.69976
G01 X-11.49510 Y-31.87316
G01 X-11.67158 Y-31.87316
G01 X-11.58855 Y-31.74609
G01 X-11.45126 Y-31.59694
G01 X-11.29129 Y-31.47243
G01 X-11.24679 Y-31.44835
G01 X-11.24679 Y-31.63014
G04 P0 ( dwell for no time -- G64 should not smooth over this point )
G00 Z2.00000 ( retract )

G00 X-11.24679 Y-33.55160 ( rapid move to begin. )
G01 F60.00000
( Mill infeed pass 1/1 )
G01 Z-0.10000
G04 P0 ( dwell for no time -- G64 should not smooth over this point )
G01 F120.00000
G01 X-11.24679 Y-33.55160
G01 X-11.29129 Y-33.52752
G01 X-11.45126 Y-33.40301
G01 X-11.58855 Y-33.25386
G01 X-11.67160 Y-33.12678
G01 X-11.49513 Y-33.12678
G01 X-11.34052 Y-33.30021
G01 X-11.24679 Y-33.36983
G01 X-11.24679 Y-33.55160
G04 P0 ( dwell for no time -- G64 should not smooth over this point )
G00 Z2.00000 ( retract )

G00 X-8.70679 Y-31.63014 ( rapid move to begin. )
G01 F60.00000
( Mill infeed pass 1/1 )
G01 Z-0.10000
G04 P0 ( dwell for no time -- G64 should not smooth over this point )
G01 F120.00000
G01 X-8.70679 Y-31.63014
G01 X-8.80052 Y-31.69976
G01 X-8.95510 Y-31.87316
G01 X-9.74486 Y-31.87316
G01 X-9.89947 Y-31.69976
G01 X-9.99317 Y-31.63014
G01 X-9.99317 Y-31.44832
G01 X-9.94865 Y-31.47243
G01 X-9.78868 Y-31.59694
G01 X-9.68418 Y-31.70885
G01 X-9.58837 Y-31.78012
G01 X-9.53638 Y-31.80850
G01 X-9.41365 Y-31.84022
G01 X-9.36965 Y-31.84639
G01 X-9.32528 Y-31.84388
G01 X-9.22929 Y-31.82889
G01 X-9.20034 Y-31.82239
G01 X-9.14618 Y-31.79844
G01 X-9.03788 Y-31.72988
G01 X-8.91172 Y-31.59730
G01 X-8.75129 Y-31.47243
G01 X-8.70679 Y-31.44835
G01 X-8.70679 Y-31.63014
G04 P0 ( dwell for no time -- G64 should not smooth over this point )
G00 Z2.00000 ( retract )

G00 X-8.70679 Y-33.55160 ( rapid move to begin. )
G01 F60.00000
( Mill infeed pass 1/1 )
