( pcb2gcode 2.5.0 )
( Software-independent Gcode )

( This file uses 4 drill bit sizes. )
( Bit sizes: [0.8mm] [0.9mm] [1mm] [2.3mm] )

G94       (Millimeters per minute feed rate.)
G21       (Units == Millimeters.)
G91.1     (Incremental arc distance mode.)
G90       (Absolute coordinates.)
G00 S13000     (RPM spindle speed.)

G00 Z15.00000 (Retract)
T1
M5      (Spindle stop.)
G04 P1.00000
(MSG, Change tool bit to drill size 0.8mm)
M6      (Tool change.)
M0      (Temporary machine stop.)
M3      (Spindle on clockwise.)
G0 Z2.00000
G04 P1.00000

G1 F120.00000
G0 X-15.49908 Y-4.41960
G1 Z-2.50000
G1 Z2.00000
G0 X-20.50034 Y-4.41960
G1 Z-2.50000
G1 Z2.00000
G0 X-27.00020 Y-4.41960
G1 Z-2.50000
G1 Z2.00000
G0 X-31.99892 Y-4.41960
G1 Z-2.50000
G1 Z2.00000
G0 X-38.49878 Y-4.41960
G1 Z-2.50000
G1 Z2.00000
G0 X-43.50004 Y-4.41960
G1 Z-2.50000
G1 Z2.00000
G0 X-43.50004 Y-14.57960
G1 Z-2.50000
G1 Z2.00000
G0 X-45.81906 Y-17.68094
G1 Z-2.50000
G1 Z2.00000
G0 X-43.27906 Y-17.68094
G1 Z-2.50000
G1 Z2.00000
G0 X-40.73906 Y-17.68094
G1 Z-2.50000
G1 Z2.00000
G0 X-38.19906 Y-17.68094
G1 Z-2.50000
G1 Z2.00000
G0 X-38.49878 Y-14.57960
G1 Z-2.50000
G1 Z2.00000
G0 X-34.32048 Y-17.68094
G1 Z-2.50000
G1 Z2.00000
G0 X-31.78048 Y-17.68094
G1 Z-2.50000
G1 Z2.00000
G0 X-31.99892 Y-14.57960
G1 Z-2.50000
G1 Z2.00000
G0 X-29.24048 Y-17.68094
G1 Z-2.50000
G1 Z2.00000
G0 X-26.70048 Y-17.68094
G1 Z-2.50000
G1 Z2.00000
G0 X-27.00020 Y-14.57960
G1 Z-2.50000
G1 Z2.00000
G0 X-20.50034 Y-14.57960
G1 Z-2.50000
G1 Z2.00000
G0 X-15.49908 Y-14.57960
G1 Z-2.50000
G1 Z2.00000
G0 X-15.19936 Y-17.68094
G1 Z-2.50000
G1 Z2.00000
G0 X-17.73936 Y-17.68094
G1 Z-2.50000
G1 Z2.00000
G0 X-20.27936 Y-17.68094
G1 Z-2.50000
G1 Z2.00000
G0 X-22.81936 Y-17.68094
G1 Z-2.50000
G1 Z2.00000
G0 X-15.19936 Y-25.30094
G1 Z-2.50000
G1 Z2.00000
G0 X-17.73936 Y-25.30094
G1 Z-2.50000
G1 Z2.00000
G0 X-20.27936 Y-25.30094
G1 Z-2.50000
G1 Z2.00000
G0 X-22.81936 Y-25.30094
G1 Z-2.50000
G1 Z2.00000
G0 X-21.00072 Y-28.42006
G1 Z-2.50000
G1 Z2.00000
G0 X-17.00022 Y-30.50032
G1 Z-2.50000
G1 Z2.00000
G0 X-14.50086 Y-30.50032
G1 Z-2.50000
G1 Z2.00000
G0 X-21.00072 Y-38.58006
G1 Z-2.50000
G1 Z2.00000
G0 X-25.99944 Y-30.50032
G1 Z-2.50000
G1 Z2.00000
G0 X-28.49880 Y-30.50032
G1 Z-2.50000
G1 Z2.00000
G0 X-32.49930 Y-28.42006
G1 Z-2.50000
G1 Z2.00000
G0 X-26.70048 Y-25.30094
G1 Z-2.50000
G1 Z2.00000
G0 X-29.24048 Y-25.30094
G1 Z-2.50000
G1 Z2.00000
G0 X-31.78048 Y-25.30094
G1 Z-2.50000
G1 Z2.00000
G0 X-34.32048 Y-25.30094
G1 Z-2.50000
G1 Z2.00000
G0 X-38.19906 Y-25.30094
G1 Z-2.50000
G1 Z2.00000
G0 X-40.73906 Y-25.30094
G1 Z-2.50000
G1 Z2.00000
G0 X-43.27906 Y-25.30094
G1 Z-2.50000
G1 Z2.00000
G0 X-45.81906 Y-25.30094
G1 Z-2.50000
G1 Z2.00000
G0 X-44.00042 Y-28.42006
G1 Z-2.50000
G1 Z2.00000
G0 X-39.99992 Y-30.50032
G1 Z-2.50000
G1 Z2.00000
G0 X-37.50056 Y-30.50032
G1 Z-2.50000
G1 Z2.00000
G0 X-32.49930 Y-38.58006
G1 Z-2.50000
G1 Z2.00000
G0 X-44.00042 Y-38.58006
G1 Z-2.50000
G1 Z2.00000

G00 Z15.00000 (Retract)
T2
M5      (Spindle stop.)
G04 P1.00000
(MSG, Change tool bit to drill size 0.9mm)
M6      (Tool change.)
M0      (Temporary machine stop.)
M3      (Spindle on clockwise.)
G0 Z2.00000
G04 P1.00000

G1 F120.00000
G0 X-8.92302 Y-20.24888
G1 Z-2.50000
G1 Z2.00000
G0 X-11.07694 Y-20.24888
G1 Z-2.50000
G1 Z2.00000
G0 X-8.92302 Y-22.75078
G1 Z-2.50000
G1 Z2.00000
G0 X-11.07694 Y-22.75078
G1 Z-2.50000
G1 Z2.00000
G0 X-14.46022 Y-37.50056
G1 Z-2.50000
G1 Z2.00000
G0 X-17.00022 Y-37.50056
G1 Z-2.50000
G1 Z2.00000
G0 X-25.95880 Y-37.50056
G1 Z-2.50000
G1 Z2.00000
G0 X-28.49880 Y-37.50056
G1 Z-2.50000
G1 Z2.00000
G0 X-37.45992 Y-37.50056
G1 Z-2.50000
G1 Z2.00000
G0 X-39.99992 Y-37.50056
G1 Z-2.50000
G1 Z2.00000

G00 Z15.00000 (Retract)
T4
M5      (Spindle stop.)
G04 P1.00000
(MSG, Change tool bit to drill size 1mm)
M6      (Tool change.)
M0      (Temporary machine stop.)
M3      (Spindle on clockwise.)
G0 Z2.00000
G04 P1.00000

G1 F120.00000
G0 X-2.99974 Y-10.50036
G1 Z-2.50000
G1 Z2.00000
G0 X-5.53974 Y-10.50036
G1 Z-2.50000
G1 Z2.00000
G0 X-8.07974 Y-10.50036
G1 Z-2.50000
G1 Z2.00000
G0 X-10.61974 Y-10.50036
G1 Z-2.50000
G1 Z2.00000
G0 X-2.99974 Y-32.49930
G1 Z-2.50000
G1 Z2.00000
G0 X-5.53974 Y-32.49930
G1 Z-2.50000
G1 Z2.00000
G0 X-8.07974 Y-32.49930
G1 Z-2.50000
G1 Z2.00000
G0 X-10.61974 Y-32.49930
G1 Z-2.50000
G1 Z2.00000

G00 Z15.00000 (Retract)
T5
M5      (Spindle stop.)
G04 P1.00000
(MSG, Change tool bit to drill size 2.3mm)
M6      (Tool change.)
M0      (Temporary machine stop.)
M3      (Spindle on clockwise.)
G0 Z2.00000
G04 P1.00000

G1 F120.00000
G0 X-6.36778 Y-15.47876
G1 Z-2.50000
G1 Z2.00000
G0 X-6.36778 Y-27.52090
G1 Z-2.50000
G1 Z2.00000

G00 Z15.000 ( All done -- retract )

M5      (Spindle off.)
G04 P1.000000
M9      (Coolant off.)
M2      (Program end.)

