( pcb2gcode 2.5.0 )
( Software-independent Gcode )

( This file uses 3 drill bit sizes. )
( Bit sizes: [0.8mm] [0.9mm] [1mm] )

G94       (Millimeters per minute feed rate.)
G21       (Units == Millimeters.)
G91.1     (Incremental arc distance mode.)
G90       (Absolute coordinates.)
G00 S13000     (RPM spindle speed.)

G00 Z15.00000 (Retract)
T1
M5      (Spindle stop.)
G04 P1.00000
(MSG, Change tool bit to drill size 0.8mm)
M6      (Tool change.)
M0      (Temporary machine stop.)
M3      (Spindle on clockwise.)
G0 Z2.00000
G04 P1.00000

G1 F120.00000
G0 X-12.49934 Y-4.41960
G1 Z-2.50000
G1 Z2.00000
G0 X-16.49984 Y-4.41960
G1 Z-2.50000
G1 Z2.00000
G0 X-23.50008 Y-4.41960
G1 Z-2.50000
G1 Z2.00000
G0 X-27.50058 Y-4.41960
G1 Z-2.50000
G1 Z2.00000
G0 X-34.50082 Y-4.41960
G1 Z-2.50000
G1 Z2.00000
G0 X-38.49878 Y-4.41960
G1 Z-2.50000
G1 Z2.00000
G0 X-38.49878 Y-14.57960
G1 Z-2.50000
G1 Z2.00000
G0 X-40.31996 Y-17.68094
G1 Z-2.50000
G1 Z2.00000
G0 X-37.77996 Y-17.68094
G1 Z-2.50000
G1 Z2.00000
G0 X-35.23996 Y-17.68094
G1 Z-2.50000
G1 Z2.00000
G0 X-34.50082 Y-14.57960
G1 Z-2.50000
G1 Z2.00000
G0 X-32.69996 Y-17.68094
G1 Z-2.50000
G1 Z2.00000
G0 X-29.31922 Y-17.68094
G1 Z-2.50000
G1 Z2.00000
G0 X-27.50058 Y-14.57960
G1 Z-2.50000
G1 Z2.00000
G0 X-26.77922 Y-17.68094
G1 Z-2.50000
G1 Z2.00000
G0 X-24.23922 Y-17.68094
G1 Z-2.50000
G1 Z2.00000
G0 X-23.50008 Y-14.57960
G1 Z-2.50000
G1 Z2.00000
G0 X-21.69922 Y-17.68094
G1 Z-2.50000
G1 Z2.00000
G0 X-16.49984 Y-14.57960
G1 Z-2.50000
G1 Z2.00000
G0 X-12.49934 Y-14.57960
G1 Z-2.50000
G1 Z2.00000
G0 X-10.70102 Y-17.68094
G1 Z-2.50000
G1 Z2.00000
G0 X-13.24102 Y-17.68094
G1 Z-2.50000
G1 Z2.00000
G0 X-15.78102 Y-17.68094
G1 Z-2.50000
G1 Z2.00000
G0 X-18.32102 Y-17.68094
G1 Z-2.50000
G1 Z2.00000
G0 X-10.70102 Y-25.30094
G1 Z-2.50000
G1 Z2.00000
G0 X-13.24102 Y-25.30094
G1 Z-2.50000
G1 Z2.00000
G0 X-15.78102 Y-25.30094
G1 Z-2.50000
G1 Z2.00000
G0 X-18.32102 Y-25.30094
G1 Z-2.50000
G1 Z2.00000
G0 X-16.49984 Y-28.42006
G1 Z-2.50000
G1 Z2.00000
G0 X-12.49934 Y-30.50032
G1 Z-2.50000
G1 Z2.00000
G0 X-9.99998 Y-30.50032
G1 Z-2.50000
G1 Z2.00000
G0 X-16.49984 Y-38.58006
G1 Z-2.50000
G1 Z2.00000
G0 X-21.00072 Y-30.50032
G1 Z-2.50000
G1 Z2.00000
G0 X-23.50008 Y-30.50032
G1 Z-2.50000
G1 Z2.00000
G0 X-21.69922 Y-25.30094
G1 Z-2.50000
G1 Z2.00000
G0 X-24.23922 Y-25.30094
G1 Z-2.50000
G1 Z2.00000
G0 X-26.77922 Y-25.30094
G1 Z-2.50000
G1 Z2.00000
G0 X-27.50058 Y-28.42006
G1 Z-2.50000
G1 Z2.00000
G0 X-29.31922 Y-25.30094
G1 Z-2.50000
G1 Z2.00000
G0 X-32.69996 Y-25.30094
G1 Z-2.50000
G1 Z2.00000
G0 X-35.23996 Y-25.30094
G1 Z-2.50000
G1 Z2.00000
G0 X-37.77996 Y-25.30094
G1 Z-2.50000
G1 Z2.00000
G0 X-40.31996 Y-25.30094
G1 Z-2.50000
G1 Z2.00000
G0 X-38.49878 Y-28.42006
G1 Z-2.50000
G1 Z2.00000
G0 X-34.50082 Y-30.50032
G1 Z-2.50000
G1 Z2.00000
G0 X-31.99892 Y-30.50032
G1 Z-2.50000
G1 Z2.00000
G0 X-27.50058 Y-38.58006
G1 Z-2.50000
G1 Z2.00000
G0 X-38.49878 Y-38.58006
G1 Z-2.50000
G1 Z2.00000

G00 Z15.00000 (Retract)
T2
M5      (Spindle stop.)
G04 P1.00000
(MSG, Change tool bit to drill size 0.9mm)
M6      (Tool change.)
M0      (Temporary machine stop.)
M3      (Spindle on clockwise.)
G0 Z2.00000
G04 P1.00000

G1 F120.00000
G0 X-9.95934 Y-37.50056
G1 Z-2.50000
G1 Z2.00000
G0 X-12.49934 Y-37.50056
G1 Z-2.50000
G1 Z2.00000
G0 X-20.96008 Y-37.50056
G1 Z-2.50000
G1 Z2.00000
G0 X-23.50008 Y-37.50056
G1 Z-2.50000
G1 Z2.00000
G0 X-31.96082 Y-37.50056
G1 Z-2.50000
G1 Z2.00000
G0 X-34.50082 Y-37.50056
G1 Z-2.50000
G1 Z2.00000

G00 Z15.00000 (Retract)
T3
M5      (Spindle stop.)
G04 P1.00000
(MSG, Change tool bit to drill size 1mm)
M6      (Tool change.)
M0      (Temporary machine stop.)
M3      (Spindle on clockwise.)
G0 Z2.00000
G04 P1.00000

G1 F120.00000
G0 X-4.50088 Y-10.87882
G1 Z-2.50000
G1 Z2.00000
G0 X-4.50088 Y-13.41882
G1 Z-2.50000
G1 Z2.00000
G0 X-4.50088 Y-15.95882
G1 Z-2.50000
G1 Z2.00000
G0 X-4.50088 Y-18.49882
G1 Z-2.50000
G1 Z2.00000
G0 X-4.50088 Y-24.50084
G1 Z-2.50000
G1 Z2.00000
G0 X-4.50088 Y-27.04084
G1 Z-2.50000
G1 Z2.00000
G0 X-4.50088 Y-29.58084
G1 Z-2.50000
G1 Z2.00000
G0 X-4.50088 Y-32.12084
G1 Z-2.50000
G1 Z2.00000

G00 Z15.000 ( All done -- retract )

M5      (Spindle off.)
G04 P1.000000
M9      (Coolant off.)
M2      (Program end.)

