( pcb2gcode 2.5.0 )
( Software-independent Gcode )

G94 ( Millimeters per minute feed rate. )
G21 ( Units == Millimeters. )

G90 ( Absolute coordinates. )
G00 S13000 ( RPM spindle speed. )
G01 F120.00000 ( Feedrate. )


G00 Z15.00000 (Retract to tool change height)
T0
M5      (Spindle stop.)
G04 P1.00000 (Wait for spindle to stop)
(MSG, Change tool bit to cutter diameter 1.00000mm)
M6      (Tool change.)
M0      (Temporary machine stop.)
M3 ( Spindle on clockwise. )
G04 P1.00000 (Wait for spindle to get up to speed)
G04 P0 ( dwell for no time -- G64 should not smooth over this point )
G00 Z2.00000 ( retract )

G00 X-0.49997 Y-38.50000 ( rapid move to begin. )
G01 Z-0.50000 F60.00000 ( plunge. )
G04 P0 ( dwell for no time -- G64 should not smooth over this point )
G01 F120.00000
G01 X-0.49997 Y-4.49999
G01 X-0.57683 Y-3.71960
G01 X-0.78793 Y-3.01544
G01 X-0.82545 Y-2.92489
G01 X-1.14887 Y-2.31978
G01 X-1.20332 Y-2.23827
G01 X-1.63860 Y-1.70790
G01 X-1.70790 Y-1.63860
G01 X-2.23827 Y-1.20332
G01 X-2.31978 Y-1.14887
G01 X-2.92489 Y-0.82545
G01 X-3.01544 Y-0.78793
G01 X-3.71960 Y-0.57683
G01 X-4.49999 Y-0.49997
G01 X-44.49999 Y-0.49997
G01 X-45.28035 Y-0.57683
G01 X-45.98452 Y-0.78793
G01 X-46.07507 Y-0.82545
G01 X-46.68017 Y-1.14887
G01 X-46.76168 Y-1.20332
G01 X-47.29206 Y-1.63860
G01 X-47.36135 Y-1.70790
G01 X-47.79663 Y-2.23827
G01 X-47.85109 Y-2.31978
G01 X-48.17450 Y-2.92489
G01 X-48.21202 Y-3.01544
G01 X-48.42312 Y-3.71960
G01 X-48.49998 Y-4.49999
G01 X-48.49998 Y-38.50000
G01 X-48.42312 Y-39.28034
G01 X-48.21202 Y-39.98453
G01 X-48.17450 Y-40.07508
G01 X-47.85109 Y-40.68016
G01 X-47.79663 Y-40.76164
G01 X-47.36135 Y-41.29204
G01 X-47.29203 Y-41.36136
G01 X-46.76165 Y-41.79661
G01 X-46.68017 Y-41.85107
G01 X-46.07507 Y-42.17452
G01 X-45.98452 Y-42.21203
G01 X-45.32795 Y-42.41119
G01 X-45.23181 Y-42.43032
G01 X-44.49999 Y-42.49999
G01 X-4.45097 Y-42.49758
G01 X-3.76814 Y-42.43032
G01 X-3.67200 Y-42.41119
G01 X-2.96923 Y-42.19550
G01 X-2.31978 Y-41.85107
G01 X-2.23830 Y-41.79661
G01 X-1.67155 Y-41.32842
G01 X-1.20332 Y-40.76164
G01 X-1.14887 Y-40.68016
G01 X-0.82545 Y-40.07508
G01 X-0.78793 Y-39.98453
G01 X-0.57683 Y-39.28034
G01 X-0.49997 Y-38.50000
G01 Z-1.00000 F60.00000 ( plunge. )
G04 P0 ( dwell for no time -- G64 should not smooth over this point )
G01 F120.00000
G01 X-0.49997 Y-4.49999
G01 X-0.57683 Y-3.71960
G01 X-0.78793 Y-3.01544
G01 X-0.82545 Y-2.92489
G01 X-1.14887 Y-2.31978
G01 X-1.20332 Y-2.23827
G01 X-1.63860 Y-1.70790
G01 X-1.70790 Y-1.63860
G01 X-2.23827 Y-1.20332
G01 X-2.31978 Y-1.14887
G01 X-2.92489 Y-0.82545
G01 X-3.01544 Y-0.78793
G01 X-3.71960 Y-0.57683
G01 X-4.49999 Y-0.49997
G01 X-44.49999 Y-0.49997
G01 X-45.28035 Y-0.57683
G01 X-45.98452 Y-0.78793
G01 X-46.07507 Y-0.82545
G01 X-46.68017 Y-1.14887
G01 X-46.76168 Y-1.20332
G01 X-47.29206 Y-1.63860
G01 X-47.36135 Y-1.70790
G01 X-47.79663 Y-2.23827
G01 X-47.85109 Y-2.31978
G01 X-48.17450 Y-2.92489
G01 X-48.21202 Y-3.01544
G01 X-48.42312 Y-3.71960
G01 X-48.49998 Y-4.49999
G01 X-48.49998 Y-38.50000
G01 X-48.42312 Y-39.28034
G01 X-48.21202 Y-39.98453
G01 X-48.17450 Y-40.07508
G01 X-47.85109 Y-40.68016
G01 X-47.79663 Y-40.76164
G01 X-47.36135 Y-41.29204
G01 X-47.29203 Y-41.36136
G01 X-46.76165 Y-41.79661
G01 X-46.68017 Y-41.85107
G01 X-46.07507 Y-42.17452
G01 X-45.98452 Y-42.21203
G01 X-45.32795 Y-42.41119
G01 X-45.23181 Y-42.43032
G01 X-44.49999 Y-42.49999
G01 X-4.45097 Y-42.49758
G01 X-3.76814 Y-42.43032
G01 X-3.67200 Y-42.41119
G01 X-2.96923 Y-42.19550
G01 X-2.31978 Y-41.85107
G01 X-2.23830 Y-41.79661
G01 X-1.67155 Y-41.32842
G01 X-1.20332 Y-40.76164
G01 X-1.14887 Y-40.68016
G01 X-0.82545 Y-40.07508
G01 X-0.78793 Y-39.98453
G01 X-0.57683 Y-39.28034
G01 X-0.49997 Y-38.50000
G01 Z-1.50000 F60.00000 ( plunge. )
G04 P0 ( dwell for no time -- G64 should not smooth over this point )
G01 F120.00000
G01 X-0.49997 Y-4.49999
G01 X-0.57683 Y-3.71960
G01 X-0.78793 Y-3.01544
G01 X-0.82545 Y-2.92489
G01 X-1.14887 Y-2.31978
G01 X-1.20332 Y-2.23827
G01 X-1.63860 Y-1.70790
G01 X-1.70790 Y-1.63860
G01 X-2.23827 Y-1.20332
G01 X-2.31978 Y-1.14887
G01 X-2.92489 Y-0.82545
G01 X-3.01544 Y-0.78793
G01 X-3.71960 Y-0.57683
G01 X-4.49999 Y-0.49997
G01 X-44.49999 Y-0.49997
G01 X-45.28035 Y-0.57683
G01 X-45.98452 Y-0.78793
G01 X-46.07507 Y-0.82545
G01 X-46.68017 Y-1.14887
G01 X-46.76168 Y-1.20332
G01 X-47.29206 Y-1.63860
G01 X-47.36135 Y-1.70790
G01 X-47.79663 Y-2.23827
G01 X-47.85109 Y-2.31978
G01 X-48.17450 Y-2.92489
G01 X-48.21202 Y-3.01544
G01 X-48.42312 Y-3.71960
G01 X-48.49998 Y-4.49999
G01 X-48.49998 Y-38.50000
G01 X-48.42312 Y-39.28034
G01 X-48.21202 Y-39.98453
G01 X-48.17450 Y-40.07508
G01 X-47.85109 Y-40.68016
G01 X-47.79663 Y-40.76164
G01 X-47.36135 Y-41.29204
G01 X-47.29203 Y-41.36136
G01 X-46.76165 Y-41.79661
G01 X-46.68017 Y-41.85107
G01 X-46.07507 Y-42.17452
G01 X-45.98452 Y-42.21203
G01 X-45.32795 Y-42.41119
G01 X-45.23181 Y-42.43032
G01 X-44.49999 Y-42.49999
G01 X-4.45097 Y-42.49758
G01 X-3.76814 Y-42.43032
G01 X-3.67200 Y-42.41119
G01 X-2.96923 Y-42.19550
G01 X-2.31978 Y-41.85107
G01 X-2.23830 Y-41.79661
G01 X-1.67155 Y-41.32842
G01 X-1.20332 Y-40.76164
G01 X-1.14887 Y-40.68016
G01 X-0.82545 Y-40.07508
G01 X-0.78793 Y-39.98453
G01 X-0.57683 Y-39.28034
G01 X-0.49997 Y-38.50000
G01 Z-2.00000 F60.00000 ( plunge. )
G04 P0 ( dwell for no time -- G64 should not smooth over this point )
G01 F120.00000
G01 X-0.49997 Y-4.49999
G01 X-0.57683 Y-3.71960
G01 X-0.78793 Y-3.01544
G01 X-0.82545 Y-2.92489
G01 X-1.14887 Y-2.31978
G01 X-1.20332 Y-2.23827
G01 X-1.63860 Y-1.70790
G01 X-1.70790 Y-1.63860
G01 X-2.23827 Y-1.20332
G01 X-2.31978 Y-1.14887
G01 X-2.92489 Y-0.82545
G01 X-3.01544 Y-0.78793
G01 X-3.71960 Y-0.57683
G01 X-4.49999 Y-0.49997
G01 X-44.49999 Y-0.49997
G01 X-45.28035 Y-0.57683
G01 X-45.98452 Y-0.78793
G01 X-46.07507 Y-0.82545
G01 X-46.68017 Y-1.14887
G01 X-46.76168 Y-1.20332
G01 X-47.29206 Y-1.63860
G01 X-47.36135 Y-1.70790
G01 X-47.79663 Y-2.23827
G01 X-47.85109 Y-2.31978
G01 X-48.17450 Y-2.92489
G01 X-48.21202 Y-3.01544
G01 X-48.42312 Y-3.71960
G01 X-48.49998 Y-4.49999
G01 X-48.49998 Y-38.50000
G01 X-48.42312 Y-39.28034
G01 X-48.21202 Y-39.98453
G01 X-48.17450 Y-40.07508
G01 X-47.85109 Y-40.68016
G01 X-47.79663 Y-40.76164
G01 X-47.36135 Y-41.29204
G01 X-47.29203 Y-41.36136
G01 X-46.76165 Y-41.79661
G01 X-46.68017 Y-41.85107
G01 X-46.07507 Y-42.17452
G01 X-45.98452 Y-42.21203
G01 X-45.32795 Y-42.41119
G01 X-45.23181 Y-42.43032
G01 X-44.49999 Y-42.49999
G01 X-4.45097 Y-42.49758
G01 X-3.76814 Y-42.43032
G01 X-3.67200 Y-42.41119
G01 X-2.96923 Y-42.19550
G01 X-2.31978 Y-41.85107
G01 X-2.23830 Y-41.79661
G01 X-1.67155 Y-41.32842
G01 X-1.20332 Y-40.76164
G01 X-1.14887 Y-40.68016
G01 X-0.82545 Y-40.07508
G01 X-0.78793 Y-39.98453
G01 X-0.57683 Y-39.28034
G01 X-0.49997 Y-38.50000
G01 Z-2.50000 F60.00000 ( plunge. )
G04 P0 ( dwell for no time -- G64 should not smooth over this point )
G01 F120.00000
G01 X-0.49997 Y-4.49999
G01 X-0.57683 Y-3.71960
G01 X-0.78793 Y-3.01544
G01 X-0.82545 Y-2.92489
G01 X-1.14887 Y-2.31978
G01 X-1.20332 Y-2.23827
G01 X-1.63860 Y-1.70790
G01 X-1.70790 Y-1.63860
G01 X-2.23827 Y-1.20332
G01 X-2.31978 Y-1.14887
G01 X-2.92489 Y-0.82545
G01 X-3.01544 Y-0.78793
G01 X-3.71960 Y-0.57683
G01 X-4.49999 Y-0.49997
G01 X-44.49999 Y-0.49997
G01 X-45.28035 Y-0.57683
G01 X-45.98452 Y-0.78793
G01 X-46.07507 Y-0.82545
G01 X-46.68017 Y-1.14887
G01 X-46.76168 Y-1.20332
G01 X-47.29206 Y-1.63860
G01 X-47.36135 Y-1.70790
G01 X-47.79663 Y-2.23827
G01 X-47.85109 Y-2.31978
G01 X-48.17450 Y-2.92489
G01 X-48.21202 Y-3.01544
G01 X-48.42312 Y-3.71960
G01 X-48.49998 Y-4.49999
G01 X-48.49998 Y-38.50000
G01 X-48.42312 Y-39.28034
G01 X-48.21202 Y-39.98453
G01 X-48.17450 Y-40.07508
G01 X-47.85109 Y-40.68016
G01 X-47.79663 Y-40.76164
G01 X-47.36135 Y-41.29204
G01 X-47.29203 Y-41.36136
G01 X-46.76165 Y-41.79661
G01 X-46.68017 Y-41.85107
G01 X-46.07507 Y-42.17452
G01 X-45.98452 Y-42.21203
G01 X-45.32795 Y-42.41119
G01 X-45.23181 Y-42.43032
G01 X-44.49999 Y-42.49999
G01 X-4.45097 Y-42.49758
G01 X-3.76814 Y-42.43032
G01 X-3.67200 Y-42.41119
G01 X-2.96923 Y-42.19550
G01 X-2.31978 Y-41.85107
G01 X-2.23830 Y-41.79661
G01 X-1.67155 Y-41.32842
G01 X-1.20332 Y-40.76164
G01 X-1.14887 Y-40.68016
G01 X-0.82545 Y-40.07508
G01 X-0.78793 Y-39.98453
G01 X-0.57683 Y-39.28034
G01 X-0.49997 Y-38.50000

G04 P0 ( dwell for no time -- G64 should not smooth over this point )
G00 Z15.000000 ( retract )

M5 ( Spindle off. )
G04 P1.000000
M9 ( Coolant off. )
M2 ( Program end. )

