( pcb2gcode 2.5.0 )
( Software-independent Gcode )

G94 ( Millimeters per minute feed rate. )
G21 ( Units == Millimeters. )

G90 ( Absolute coordinates. )
G00 S13000 ( RPM spindle speed. )
G01 F120.00000 ( Feedrate. )


G00 Z15.00000 (Retract to tool change height)
T1
M5      (Spindle stop.)
G04 P1.00000 (Wait for spindle to stop)
(MSG, Change tool bit to mill diameter 0.45360mm)
M6      (Tool change.)
M0      (Temporary machine stop.)
M3 ( Spindle on clockwise. )
G04 P1.00000 (Wait for spindle to get up to speed)
G04 P0 ( dwell for no time -- G64 should not smooth over this point )
G00 Z2.00000 ( retract )

G00 X-3.37629 Y-7.25640 ( rapid move to begin. )
G01 F60.00000
( Mill infeed pass 1/1 )
G01 Z-0.10000
G04 P0 ( dwell for no time -- G64 should not smooth over this point )
G01 F120.00000
G01 X-3.37629 Y-7.25640
G01 X-3.37629 Y-7.04355
G01 X-3.40406 Y-6.83252
G01 X-3.45915 Y-6.62696
G01 X-3.54058 Y-6.43029
G01 X-3.64703 Y-6.24596
G01 X-3.77657 Y-6.07710
G01 X-3.92709 Y-5.92658
G01 X-4.09595 Y-5.79702
G01 X-4.28028 Y-5.69059
G01 X-4.47693 Y-5.60916
G01 X-4.68252 Y-5.55407
G01 X-4.89356 Y-5.52628
G01 X-5.10639 Y-5.52628
G01 X-5.31744 Y-5.55407
G01 X-5.52300 Y-5.60913
G01 X-5.71965 Y-5.69059
G01 X-5.90398 Y-5.79702
G01 X-6.07284 Y-5.92658
G01 X-6.22336 Y-6.07710
G01 X-6.35290 Y-6.24596
G01 X-6.45935 Y-6.43031
G01 X-6.54080 Y-6.62694
G01 X-6.59590 Y-6.83252
G01 X-6.62366 Y-7.04355
G01 X-6.62366 Y-7.25640
G01 X-6.59590 Y-7.46742
G01 X-6.54080 Y-7.67301
G01 X-6.45935 Y-7.86966
G01 X-6.35290 Y-8.05398
G01 X-6.22336 Y-8.22284
G01 X-6.07284 Y-8.37336
G01 X-5.90398 Y-8.50293
G01 X-5.71965 Y-8.60936
G01 X-5.52300 Y-8.69081
G01 X-5.31744 Y-8.74588
G01 X-5.10639 Y-8.77367
G01 X-4.89356 Y-8.77367
G01 X-4.68252 Y-8.74588
G01 X-4.47693 Y-8.69081
G01 X-4.28028 Y-8.60936
G01 X-4.09595 Y-8.50293
G01 X-3.92709 Y-8.37336
G01 X-3.77657 Y-8.22287
G01 X-3.64703 Y-8.05398
G01 X-3.54058 Y-7.86966
G01 X-3.45915 Y-7.67298
G01 X-3.40406 Y-7.46742
G01 X-3.37629 Y-7.25640
G01 X-3.60304 Y-7.24157
G01 X-3.60256 Y-7.05836
G01 X-3.62646 Y-6.87677
G01 X-3.67388 Y-6.69983
G01 X-3.74396 Y-6.53059
G01 X-3.83555 Y-6.37192
G01 X-3.94708 Y-6.22661
G01 X-4.07660 Y-6.09707
G01 X-4.22194 Y-5.98556
G01 X-4.38056 Y-5.89397
G01 X-4.54980 Y-5.82389
G01 X-4.72676 Y-5.77647
G01 X-4.90840 Y-5.75254
G01 X-5.09156 Y-5.75254
G01 X-5.27319 Y-5.77647
G01 X-5.45013 Y-5.82386
G01 X-5.61934 Y-5.89397
G01 X-5.77799 Y-5.98556
G01 X-5.92333 Y-6.09707
G01 X-6.05287 Y-6.22661
G01 X-6.16458 Y-6.37182
G01 X-6.25554 Y-6.53082
G01 X-6.32607 Y-6.69983
G01 X-6.37350 Y-6.87677
G01 X-6.39737 Y-7.05836
G01 X-6.39737 Y-7.24159
G01 X-6.37350 Y-7.42318
G01 X-6.32610 Y-7.60011
G01 X-6.25597 Y-7.76935
G01 X-6.16438 Y-7.92800
G01 X-6.05287 Y-8.07334
G01 X-5.92333 Y-8.20288
G01 X-5.77799 Y-8.31439
G01 X-5.61934 Y-8.40598
G01 X-5.45013 Y-8.47608
G01 X-5.27319 Y-8.52348
G01 X-5.09156 Y-8.54740
G01 X-4.90840 Y-8.54740
G01 X-4.72674 Y-8.52348
G01 X-4.54980 Y-8.47608
G01 X-4.38059 Y-8.40598
G01 X-4.22194 Y-8.31439
G01 X-4.07660 Y-8.20288
G01 X-3.94708 Y-8.07336
G01 X-3.83558 Y-7.92800
G01 X-3.74396 Y-7.76935
G01 X-3.67388 Y-7.60011
G01 X-3.62646 Y-7.42318
G01 X-3.60304 Y-7.24157
G01 X-3.82981 Y-7.22671
G01 X-3.82869 Y-7.07321
G01 X-3.84873 Y-6.92094
G01 X-3.88953 Y-6.77304
G01 X-3.94645 Y-6.63044
G01 X-4.02491 Y-6.49846
G01 X-4.11744 Y-6.37606
G01 X-4.22608 Y-6.26742
G01 X-4.34845 Y-6.17492
G01 X-4.48076 Y-6.09724
G01 X-4.62267 Y-6.03847
G01 X-4.77121 Y-5.99981
G01 X-4.92318 Y-5.97870
G01 X-5.07677 Y-5.97870
G01 X-5.22877 Y-5.99981
G01 X-5.37723 Y-6.03844
G01 X-5.51884 Y-6.09778
G01 X-5.65213 Y-6.17400
G01 X-5.77319 Y-6.26829
G01 X-5.88244 Y-6.37601
G01 X-5.97596 Y-6.49788
G01 X-6.05175 Y-6.63130
G01 X-6.11147 Y-6.77266
G01 X-6.15122 Y-6.92102
G01 X-6.17014 Y-7.07324
G01 X-6.17126 Y-7.22673
G01 X-6.15122 Y-7.37900
G01 X-6.11045 Y-7.52691
G01 X-6.05274 Y-7.66907
G01 X-5.97593 Y-7.80214
G01 X-5.88165 Y-7.92320
G01 X-5.77393 Y-8.03245
G01 X-5.65206 Y-8.12597
G01 X-5.51863 Y-8.20174
G01 X-5.37756 Y-8.26229
G01 X-5.22877 Y-8.30014
G01 X-5.07677 Y-8.32124
G01 X-4.92318 Y-8.32124
G01 X-4.77116 Y-8.30014
G01 X-4.62267 Y-8.26150
G01 X-4.48109 Y-8.20217
G01 X-4.34779 Y-8.12594
G01 X-4.22674 Y-8.03166
G01 X-4.11683 Y-7.92450
G01 X-4.02491 Y-7.80148
G01 X-3.94724 Y-7.66917
G01 X-3.88907 Y-7.52706
G01 X-3.84873 Y-7.37893
G01 X-3.82981 Y-7.22671
G01 X-4.05656 Y-7.21185
G01 X-4.05547 Y-7.08807
G01 X-4.07162 Y-6.96529
G01 X-4.10472 Y-6.84606
G01 X-4.15026 Y-6.73095
G01 X-4.21386 Y-6.62473
G01 X-4.28831 Y-6.52590
G01 X-4.37591 Y-6.43826
G01 X-4.47469 Y-6.36387
G01 X-4.58127 Y-6.30105
G01 X-4.69588 Y-6.25424
G01 X-4.81536 Y-6.22160
G01 X-4.93817 Y-6.20654
G01 X-5.06192 Y-6.20458
G01 X-5.18444 Y-6.22270
G01 X-5.30421 Y-6.25363
G01 X-5.41833 Y-6.30159
G01 X-5.52587 Y-6.36295
G01 X-5.62336 Y-6.43910
G01 X-5.71160 Y-6.52584
G01 X-5.78701 Y-6.62412
G01 X-5.84794 Y-6.73184
G01 X-5.89628 Y-6.84568
G01 X-5.92833 Y-6.96534
G01 X-5.94340 Y-7.08810
G01 X-5.94449 Y-7.21187
G01 X-5.92833 Y-7.33468
G01 X-5.89526 Y-7.45386
G01 X-5.84893 Y-7.56856
G01 X-5.78698 Y-7.67588
G01 X-5.71081 Y-7.77337
G01 X-5.62409 Y-7.86160
G01 X-5.52582 Y-7.93702
G01 X-5.41812 Y-7.99793
G01 X-5.30451 Y-8.04710
G01 X-5.18444 Y-8.07725
G01 X-5.06189 Y-8.09450
G01 X-4.93806 Y-8.09450
G01 X-4.81551 Y-8.07725
G01 X-4.69572 Y-8.04631
G01 X-4.58160 Y-7.99836
G01 X-4.47406 Y-7.93699
G01 X-4.37657 Y-7.86082
G01 X-4.28770 Y-7.77469
G01 X-4.21386 Y-7.67525
G01 X-4.15105 Y-7.56867
G01 X-4.10423 Y-7.45404
G01 X-4.07159 Y-7.33461
G01 X-4.05656 Y-7.21185
G01 X-4.28330 Y-7.19699
G01 X-4.28221 Y-7.10293
G01 X-4.29451 Y-7.00961
G01 X-4.31988 Y-6.91911
G01 X-4.35407 Y-6.83146
G01 X-4.40279 Y-6.75099
G01 X-4.45917 Y-6.67570
G01 X-4.52575 Y-6.60911
G01 X-4.60093 Y-6.55279
G01 X-4.68175 Y-6.50489
G01 X-4.76893 Y-6.46941
G01 X-4.85971 Y-6.44449
G01 X-4.95303 Y-6.43326
G01 X-5.04706 Y-6.43136
G01 X-5.14012 Y-6.44558
G01 X-5.23116 Y-6.46882
G01 X-5.31782 Y-6.50535
G01 X-5.39963 Y-6.55188
G01 X-5.47352 Y-6.60999
G01 X-5.54076 Y-6.67568
G01 X-5.59806 Y-6.75035
G01 X-5.64413 Y-6.83237
G01 X-5.68193 Y-6.91850
G01 X-5.70438 Y-7.00984
G01 X-5.71774 Y-7.10286
G01 X-5.71774 Y-7.19709
G01 X-5.70438 Y-7.29010
G01 X-5.68114 Y-7.38111
G01 X-5.64457 Y-7.46783
G01 X-5.59803 Y-7.54964
G01 X-5.53994 Y-7.62353
G01 X-5.47426 Y-7.69076
G01 X-5.39958 Y-7.74807
G01 X-5.31762 Y-7.79412
G01 X-5.23146 Y-7.83194
G01 X-5.14012 Y-7.85437
G01 X-5.04703 Y-7.86775
G01 X-4.95292 Y-7.86775
G01 X-4.85983 Y-7.85437
G01 X-4.76877 Y-7.83112
G01 X-4.68211 Y-7.79457
G01 X-4.60030 Y-7.74804
G01 X-4.52641 Y-7.68995
G01 X-4.45854 Y-7.62485
G01 X-4.40281 Y-7.54901
G01 X-4.35486 Y-7.46816
G01 X-4.31942 Y-7.38099
G01 X-4.29448 Y-7.29026
G01 X-4.28330 Y-7.19699
G01 X-4.51007 Y-7.18213
G01 X-4.51007 Y-7.11782
G01 X-4.50563 Y-7.11754
G01 X-4.51007 Y-7.11782
G01 X-4.51846 Y-7.05419
G01 X-4.53507 Y-6.99214
G01 X-4.55963 Y-6.93283
G01 X-4.55567 Y-6.93085
G01 X-4.55963 Y-6.93283
G01 X-4.59174 Y-6.87723
G01 X-4.63088 Y-6.82622
G01 X-4.67629 Y-6.78081
G01 X-4.67335 Y-6.77748
G01 X-4.67629 Y-6.78081
G01 X-4.72719 Y-6.74174
G01 X-4.78277 Y-6.70966
G01 X-4.84213 Y-6.68508
G01 X-4.84071 Y-6.68089
G01 X-4.84213 Y-6.68508
G01 X-4.90423 Y-6.66844
G01 X-4.96788 Y-6.66006
G01 X-5.03207 Y-6.66006
G01 X-5.03235 Y-6.65561
G01 X-5.03207 Y-6.66006
G01 X-5.09577 Y-6.66844
G01 X-5.15780 Y-6.68505
G01 X-5.21711 Y-6.70964
G01 X-5.21906 Y-6.70565
G01 X-5.21711 Y-6.70964
G01 X-5.27274 Y-6.74174
G01 X-5.32369 Y-6.78083
G01 X-5.36910 Y-6.82625
G01 X-5.37243 Y-6.82333
G01 X-5.36910 Y-6.82625
G01 X-5.40819 Y-6.87720
G01 X-5.44032 Y-6.93288
G01 X-5.46489 Y-6.99216
G01 X-5.46910 Y-6.99074
G01 X-5.46489 Y-6.99216
G01 X-5.48150 Y-7.05416
G01 X-5.48988 Y-7.11782
G01 X-5.48988 Y-7.18213
G01 X-5.49432 Y-7.18241
G01 X-5.48988 Y-7.18213
G01 X-5.48150 Y-7.24578
G01 X-5.46489 Y-7.30776
G01 X-5.44030 Y-7.36712
G01 X-5.44429 Y-7.36907
G01 X-5.44030 Y-7.36712
G01 X-5.40819 Y-7.42274
G01 X-5.36910 Y-7.47370
G01 X-5.32369 Y-7.51911
G01 X-5.32661 Y-7.52244
G01 X-5.32369 Y-7.51911
G01 X-5.27274 Y-7.55820
G01 X-5.21711 Y-7.59031
G01 X-5.15780 Y-7.61489
G01 X-5.15922 Y-7.61909
G01 X-5.15780 Y-7.61489
G01 X-5.09577 Y-7.63151
G01 X-5.03207 Y-7.63989
G01 X-4.96788 Y-7.63989
G01 X-4.96760 Y-7.64433
G01 X-4.96788 Y-7.63989
G01 X-4.90416 Y-7.63151
G01 X-4.84213 Y-7.61487
G01 X-4.78282 Y-7.59031
G01 X-4.78086 Y-7.59430
G01 X-4.78282 Y-7.59031
G01 X-4.72719 Y-7.55820
G01 X-4.67624 Y-7.51911
G01 X-4.63088 Y-7.47375
G01 X-4.62752 Y-7.47667
G01 X-4.63088 Y-7.47375
G01 X-4.59176 Y-7.42274
G01 X-4.55963 Y-7.36712
G01 X-4.53507 Y-7.30781
G01 X-4.53088 Y-7.30923
G01 X-4.53507 Y-7.30781
G01 X-4.51846 Y-7.24576
G01 X-4.51007 Y-7.18213
G01 X-4.73682 Y-7.16727
G01 X-4.73682 Y-7.13268
G01 X-4.73240 Y-7.13240
G01 X-4.73682 Y-7.13268
G01 X-4.74132 Y-7.09851
G01 X-4.76347 Y-7.03331
G01 X-4.75948 Y-7.03135
G01 X-4.76347 Y-7.03331
G01 X-4.78069 Y-7.00349
G01 X-4.82613 Y-6.95165
G01 X-4.82318 Y-6.94832
G01 X-4.82613 Y-6.95165
G01 X-4.85343 Y-6.93069
G01 X-4.91515 Y-6.90027
G01 X-4.91373 Y-6.89607
G01 X-4.91515 Y-6.90027
G01 X-4.98277 Y-6.88680
G01 X-5.01719 Y-6.88680
G01 X-5.01749 Y-6.88238
G01 X-5.01719 Y-6.88680
G01 X-5.08475 Y-6.90024
G01 X-5.11660 Y-6.91342
G01 X-5.11856 Y-6.90946
G01 X-5.11660 Y-6.91342
G01 X-5.14650 Y-6.93069
G01 X-5.19824 Y-6.97608
G01 X-5.20159 Y-6.97316
G01 X-5.19824 Y-6.97608
G01 X-5.21924 Y-7.00344
G01 X-5.24970 Y-7.06521
G01 X-5.25391 Y-7.06379
G01 X-5.24970 Y-7.06521
G01 X-5.25864 Y-7.09851
G01 X-5.26313 Y-7.16727
G01 X-5.26755 Y-7.16755
G01 X-5.26313 Y-7.16727
G01 X-5.24972 Y-7.23471
G01 X-5.23651 Y-7.26661
G01 X-5.24048 Y-7.26857
G01 X-5.23651 Y-7.26661
G01 X-5.21924 Y-7.29651
G01 X-5.17385 Y-7.34825
G01 X-5.17677 Y-7.35160
G01 X-5.17385 Y-7.34825
G01 X-5.11660 Y-7.38652
G01 X-5.08475 Y-7.39971
G01 X-5.08617 Y-7.40390
G01 X-5.08475 Y-7.39971
G01 X-5.01719 Y-7.41314
G01 X-4.98277 Y-7.41314
G01 X-4.98246 Y-7.41756
G01 X-4.98277 Y-7.41314
G01 X-4.91515 Y-7.39971
G01 X-4.88333 Y-7.38652
G01 X-4.88137 Y-7.39049
G01 X-4.88333 Y-7.38652
G01 X-4.85343 Y-7.36925
G01 X-4.80174 Y-7.32391
G01 X-4.79839 Y-7.32683
G01 X-4.80174 Y-7.32391
G01 X-4.78071 Y-7.29651
G01 X-4.75026 Y-7.23476
G01 X-4.74604 Y-7.23618
G01 X-4.75026 Y-7.23476
G01 X-4.73682 Y-7.16727
G01 X-4.94492 Y-7.14629
G01 X-4.96359 Y-7.14753
G01 X-4.96545 Y-7.16173
G01 X-4.97258 Y-7.17408
G01 X-4.95846 Y-7.18650
G01 X-4.97258 Y-7.17408
G01 X-4.98386 Y-7.18271
G01 X-4.99763 Y-7.18637
G01 X-4.99643 Y-7.20496
G01 X-4.99763 Y-7.18637
G01 X-5.01170 Y-7.18452
G01 X-5.02402 Y-7.17741
G01 X-5.03629 Y-7.19140
G01 X-5.02402 Y-7.17741
G01 X-5.03271 Y-7.16608
G01 X-5.03636 Y-7.15241
G01 X-5.05501 Y-7.15366
G01 X-5.03636 Y-7.15241
G01 X-5.03453 Y-7.13826
G01 X-5.02740 Y-7.12592
G01 X-5.04149 Y-7.11355
G01 X-5.02740 Y-7.12592
G01 X-5.01607 Y-7.11723
G01 X-5.00233 Y-7.11357
G01 X-5.00355 Y-7.09498
G01 X-5.00233 Y-7.11357
G01 X-4.98820 Y-7.11545
G01 X-4.97596 Y-7.12252
G01 X-4.96367 Y-7.10847
G01 X-4.97596 Y-7.12252
G01 X-4.96727 Y-7.13382
G01 X-4.96359 Y-7.14753
G04 P0 ( dwell for no time -- G64 should not smooth over this point )
G00 Z2.00000 ( retract )

G00 X-9.28215 Y-4.16997 ( rapid move to begin. )
G01 F60.00000
( Mill infeed pass 1/1 )
G01 Z-0.10000
G04 P0 ( dwell for no time -- G64 should not smooth over this point )
G01 F120.00000
G01 X-9.28215 Y-4.16997
G01 X-9.42556 Y-4.30670
G01 X-11.33470 Y-4.30649
G01 X-11.47762 Y-4.17002
G01 X-11.55583 Y-4.15331
G01 X-11.63792 Y-4.11686
G01 X-11.67069 Y-4.09669
G01 X-11.73310 Y-4.04630
G01 X-11.75972 Y-4.01853
G01 X-11.81263 Y-3.94594
G01 X-11.85642 Y-3.84510
G01 X-11.86655 Y-3.80403
G01 X-11.87658 Y-3.72003
G01 X-11.87407 Y-2.54079
G01 X-11.85012 Y-2.43449
G01 X-11.80094 Y-2.33505
G01 X-11.72733 Y-2.24775
G01 X-11.63764 Y-2.18247
G01 X-11.52761 Y-2.13825
G01 X-11.41959 Y-2.12339
G01 X-9.33016 Y-2.12362
G01 X-9.21329 Y-2.14366
G01 X-9.12205 Y-2.18310
G01 X-9.08929 Y-2.20327
G01 X-9.03425 Y-2.24747
G01 X-8.99475 Y-2.28788
G01 X-9.06460 Y-1.51958
G01 X-9.72878 Y-1.33942
G01 X-10.27405 Y-1.20327
G01 X-10.28230 Y-1.21628
G01 X-10.22172 Y-1.21628
G01 X-10.28230 Y-1.21628
G01 X-10.30247 Y-1.24694
G01 X-10.52909 Y-1.53660
G01 X-10.63762 Y-1.65905
G01 X-10.89807 Y-1.90475
G01 X-11.00384 Y-1.98465
G01 X-11.16327 Y-2.08430
G01 X-11.24148 Y-2.12321
G01 X-11.16327 Y-2.08430
G01 X-11.00358 Y-1.98501
G01 X-10.88842 Y-1.89649
G01 X-9.31090 Y-1.89756
G01 X-9.19272 Y-1.91536
G01 X-9.13191 Y-1.93170
G01 X-9.02259 Y-1.97935
G01 X-9.02157 Y-1.99992
G01 X-9.02482 Y-1.93363
G01 X-9.06460 Y-1.51958
G01 X-9.34151 Y-1.44313
G01 X-10.45586 Y-1.44305
G01 X-10.53341 Y-1.54181
G01 X-10.64890 Y-1.66975
G01 X-9.31875 Y-1.67020
G01 X-9.25596 Y-1.67508
G01 X-9.15469 Y-1.69177
G01 X-9.04509 Y-1.72194
G01 X-8.99475 Y-2.28788
G01 X-8.96389 Y-2.32837
G01 X-8.92523 Y-2.39738
G01 X-8.89541 Y-2.48415
G01 X-8.88350 Y-2.57805
G01 X-8.88406 Y-3.73052
G01 X-8.88817 Y-3.77340
G01 X-8.90971 Y-3.86392
G01 X-8.95772 Y-3.96283
G01 X-9.01367 Y-4.03309
G01 X-9.04905 Y-4.06560
G01 X-9.10595 Y-4.10741
G01 X-9.14837 Y-4.12996
G01 X-9.23237 Y-4.16171
G01 X-9.32119 Y-4.17495
G01 X-11.42020 Y-4.17657
G01 X-11.47762 Y-4.17002
G04 P0 ( dwell for no time -- G64 should not smooth over this point )
G00 Z2.00000 ( retract )

G00 X-11.47778 Y-4.67002 ( rapid move to begin. )
G01 F60.00000
( Mill infeed pass 1/1 )
G01 Z-0.10000
G04 P0 ( dwell for no time -- G64 should not smooth over this point )
G01 F120.00000
G01 X-11.47778 Y-4.67002
G01 X-11.33442 Y-4.53326
G01 X-9.42525 Y-4.53344
G01 X-9.29264 Y-4.65948
G01 X-9.29513 Y-4.66347
G01 X-9.29264 Y-4.65948
G01 X-9.28228 Y-4.66997
G01 X-9.20415 Y-4.68666
G01 X-9.12205 Y-4.72310
G01 X-9.08167 Y-4.74916
G01 X-9.01050 Y-4.80962
G01 X-8.97004 Y-4.85894
G01 X-8.92523 Y-4.93738
G01 X-8.89541 Y-5.02415
G01 X-8.88446 Y-5.10596
G01 X-8.88406 Y-6.27052
G01 X-8.88639 Y-6.30276
G01 X-8.90283 Y-6.38388
G01 X-8.94311 Y-6.47794
G01 X-8.96328 Y-6.51068
G01 X-9.00747 Y-6.56575
G01 X-9.04905 Y-6.60560
G01 X-9.12233 Y-6.65749
G01 X-9.20496 Y-6.69270
G01 X-9.25119 Y-6.70578
G01 X-9.34037 Y-6.71657
G01 X-11.42020 Y-6.71657
G01 X-11.47762 Y-6.71002
G01 X-11.42020 Y-6.71657
G01 X-9.35002 Y-6.71678
G01 X-9.28215 Y-6.70997
G01 X-9.42556 Y-6.84670
G01 X-11.33470 Y-6.84649
G01 X-11.47762 Y-6.71002
G01 X-11.52804 Y-6.70118
G01 X-11.56482 Y-6.68990
G01 X-11.63792 Y-6.65686
G01 X-11.67069 Y-6.63669
G01 X-11.74699 Y-6.57296
G01 X-11.81263 Y-6.48594
G01 X-11.82619 Y-6.46046
G01 X-11.85967 Y-6.37502
G01 X-11.87407 Y-6.29374
G01 X-11.87511 Y-5.09031
G01 X-11.85575 Y-4.99288
G01 X-11.84295 Y-4.95661
G01 X-11.80094 Y-4.87505
G01 X-11.74946 Y-4.81053
G01 X-11.71928 Y-4.78086
G01 X-11.63764 Y-4.72247
G01 X-11.54603 Y-4.68389
G01 X-11.50879 Y-4.67418
G01 X-11.40996 Y-4.66319
G01 X-9.33978 Y-4.66341
G01 X-9.28228 Y-4.66997
G04 P0 ( dwell for no time -- G64 should not smooth over this point )
G00 Z2.00000 ( retract )

G00 X-9.28228 Y-7.20997 ( rapid move to begin. )
G01 F60.00000
( Mill infeed pass 1/1 )
G01 Z-0.10000
G04 P0 ( dwell for no time -- G64 should not smooth over this point )
G01 F120.00000
G01 X-9.28228 Y-7.20997
G01 X-9.33978 Y-7.20341
G01 X-11.40996 Y-7.20319
G01 X-11.50879 Y-7.21418
G01 X-11.54603 Y-7.22389
G01 X-11.63764 Y-7.26247
G01 X-11.71928 Y-7.32086
G01 X-11.74946 Y-7.35053
G01 X-11.80094 Y-7.41505
G01 X-11.84295 Y-7.49661
G01 X-11.85575 Y-7.53288
G01 X-11.87511 Y-7.63031
G01 X-11.87407 Y-8.83374
G01 X-11.85967 Y-8.91502
G01 X-11.82619 Y-9.00046
G01 X-11.81263 Y-9.02594
G01 X-11.74699 Y-9.11299
G01 X-11.67069 Y-9.17669
G01 X-11.63792 Y-9.19686
G01 X-11.56482 Y-9.22990
G01 X-11.52804 Y-9.24118
G01 X-11.47762 Y-9.25002
G01 X-11.33470 Y-9.38649
G01 X-9.42556 Y-9.38670
G01 X-9.28215 Y-9.24997
G01 X-9.35002 Y-9.25678
G01 X-11.42020 Y-9.25657
G01 X-11.47762 Y-9.25002
G01 X-11.42020 Y-9.25657
G01 X-9.34037 Y-9.25657
G01 X-9.25119 Y-9.24578
G01 X-9.20496 Y-9.23270
G01 X-9.12233 Y-9.19752
G01 X-9.04905 Y-9.14560
G01 X-9.00747 Y-9.10575
G01 X-8.96328 Y-9.05068
G01 X-8.94311 Y-9.01794
G01 X-8.90283 Y-8.92391
G01 X-8.88639 Y-8.84276
G01 X-8.88406 Y-8.81052
G01 X-8.88446 Y-7.64596
G01 X-8.89541 Y-7.56415
G01 X-8.92523 Y-7.47738
G01 X-8.97004 Y-7.39894
G01 X-9.01050 Y-7.34962
G01 X-9.08167 Y-7.28916
G01 X-9.12205 Y-7.26310
G01 X-9.20415 Y-7.22666
G01 X-9.28228 Y-7.20997
G01 X-9.29264 Y-7.19948
G01 X-9.29513 Y-7.20347
G01 X-9.29264 Y-7.19948
G01 X-9.42525 Y-7.07344
G01 X-11.33442 Y-7.07326
G01 X-11.47778 Y-7.21002
G04 P0 ( dwell for no time -- G64 should not smooth over this point )
G00 Z2.00000 ( retract )

G00 X-9.28228 Y-9.74997 ( rapid move to begin. )
G01 F60.00000
( Mill infeed pass 1/1 )
G01 Z-0.10000
G04 P0 ( dwell for no time -- G64 should not smooth over this point )
G01 F120.00000
G01 X-9.28228 Y-9.74997
G01 X-9.33978 Y-9.74341
G01 X-11.40996 Y-9.74319
G01 X-11.50879 Y-9.75418
G01 X-11.54603 Y-9.76389
G01 X-11.63764 Y-9.80247
G01 X-11.71928 Y-9.86086
G01 X-11.74946 Y-9.89053
G01 X-11.80094 Y-9.95505
G01 X-11.84295 Y-10.03661
G01 X-11.85575 Y-10.07288
G01 X-11.87511 Y-10.17031
G01 X-11.87407 Y-11.37374
G01 X-11.85967 Y-11.45502
G01 X-11.82619 Y-11.54046
G01 X-11.81263 Y-11.56594
G01 X-11.74699 Y-11.65299
G01 X-11.67069 Y-11.71669
G01 X-11.63792 Y-11.73686
G01 X-11.56482 Y-11.76990
G01 X-11.52804 Y-11.78118
G01 X-11.47762 Y-11.79002
G01 X-11.33470 Y-11.92649
G01 X-9.42556 Y-11.92670
G01 X-9.28215 Y-11.78997
G01 X-9.35002 Y-11.79678
G01 X-11.42020 Y-11.79657
G01 X-11.47762 Y-11.79002
G01 X-11.42020 Y-11.79657
G01 X-9.34037 Y-11.79657
G01 X-9.25119 Y-11.78578
G01 X-9.20496 Y-11.77270
G01 X-9.12233 Y-11.73752
G01 X-9.04905 Y-11.68560
G01 X-9.00747 Y-11.64575
G01 X-8.96328 Y-11.59068
G01 X-8.94311 Y-11.55794
G01 X-8.90283 Y-11.46391
G01 X-8.88639 Y-11.38276
G01 X-8.88406 Y-11.35052
G01 X-8.88446 Y-10.18596
G01 X-8.89541 Y-10.10415
G01 X-8.92523 Y-10.01738
G01 X-8.97004 Y-9.93894
G01 X-9.01050 Y-9.88962
G01 X-9.08167 Y-9.82916
G01 X-9.12205 Y-9.80310
G01 X-9.20415 Y-9.76666
G01 X-9.28228 Y-9.74997
G01 X-9.29264 Y-9.73948
G01 X-9.29513 Y-9.74347
G01 X-9.29264 Y-9.73948
G01 X-9.42525 Y-9.61344
G01 X-11.33442 Y-9.61327
G01 X-11.47778 Y-9.75002
G04 P0 ( dwell for no time -- G64 should not smooth over this point )
G00 Z2.00000 ( retract )

G00 X-9.28228 Y-12.28997 ( rapid move to begin. )
G01 F60.00000
( Mill infeed pass 1/1 )
G01 Z-0.10000
G04 P0 ( dwell for no time -- G64 should not smooth over this point )
G01 F120.00000
G01 X-9.28228 Y-12.28997
G01 X-9.33978 Y-12.28341
G01 X-11.40996 Y-12.28319
G01 X-11.50879 Y-12.29418
G01 X-11.54603 Y-12.30389
G01 X-11.63764 Y-12.34247
G01 X-11.71928 Y-12.40086
G01 X-11.74946 Y-12.43053
G01 X-11.80094 Y-12.49505
G01 X-11.84295 Y-12.57661
G01 X-11.85575 Y-12.61288
G01 X-11.87511 Y-12.71031
G01 X-11.87407 Y-13.91374
G01 X-11.85967 Y-13.99502
G01 X-11.82619 Y-14.08046
G01 X-11.81263 Y-14.10594
G01 X-11.74699 Y-14.19299
G01 X-11.67069 Y-14.25669
G01 X-11.63792 Y-14.27686
G01 X-11.56482 Y-14.30990
G01 X-11.52804 Y-14.32118
G01 X-11.47762 Y-14.33002
G01 X-11.33470 Y-14.46649
G01 X-9.42556 Y-14.46670
G01 X-9.28215 Y-14.32997
G01 X-9.35002 Y-14.33678
G01 X-11.42020 Y-14.33657
G01 X-11.47762 Y-14.33002
G01 X-11.42020 Y-14.33657
G01 X-9.34037 Y-14.33657
G01 X-9.25119 Y-14.32578
G01 X-9.20496 Y-14.31270
G01 X-9.12233 Y-14.27752
G01 X-9.04905 Y-14.22560
G01 X-9.00747 Y-14.18575
G01 X-8.96328 Y-14.13068
G01 X-8.94311 Y-14.09794
G01 X-8.90283 Y-14.00391
G01 X-8.88639 Y-13.92276
G01 X-8.88406 Y-13.89052
G01 X-8.88446 Y-12.72593
G01 X-8.89541 Y-12.64415
G01 X-8.92523 Y-12.55738
G01 X-8.97004 Y-12.47894
G01 X-9.01050 Y-12.42962
G01 X-9.08167 Y-12.36916
G01 X-9.12205 Y-12.34310
G01 X-9.20415 Y-12.30666
G01 X-9.28228 Y-12.28997
G01 X-9.29264 Y-12.27948
G01 X-9.29513 Y-12.28347
G01 X-9.29264 Y-12.27948
G01 X-9.42525 Y-12.15344
G01 X-11.33442 Y-12.15326
G01 X-11.47778 Y-12.29002
G04 P0 ( dwell for no time -- G64 should not smooth over this point )
G00 Z2.00000 ( retract )

G00 X-9.28228 Y-14.82997 ( rapid move to begin. )
G01 F60.00000
( Mill infeed pass 1/1 )
G01 Z-0.10000
G04 P0 ( dwell for no time -- G64 should not smooth over this point )
G01 F120.00000
G01 X-9.28228 Y-14.82997
G01 X-9.33978 Y-14.82341
G01 X-11.40996 Y-14.82319
G01 X-11.50879 Y-14.83418
G01 X-11.54603 Y-14.84389
G01 X-11.63764 Y-14.88247
G01 X-11.71928 Y-14.94086
G01 X-11.74946 Y-14.97053
G01 X-11.80094 Y-15.03505
G01 X-11.84295 Y-15.11661
G01 X-11.85575 Y-15.15288
G01 X-11.87511 Y-15.25031
G01 X-11.87407 Y-16.45374
G01 X-11.85967 Y-16.53502
G01 X-11.82619 Y-16.62046
G01 X-11.81263 Y-16.64594
G01 X-11.74699 Y-16.73299
G01 X-11.67069 Y-16.79669
G01 X-11.63792 Y-16.81686
G01 X-11.56482 Y-16.84990
G01 X-11.52804 Y-16.86118
G01 X-11.47762 Y-16.87002
G01 X-11.33470 Y-17.00649
G01 X-9.42556 Y-17.00670
G01 X-9.28215 Y-16.86997
G01 X-9.35002 Y-16.87678
G01 X-11.42020 Y-16.87657
G01 X-11.47762 Y-16.87002
G01 X-11.42020 Y-16.87657
G01 X-9.34037 Y-16.87657
G01 X-9.25119 Y-16.86578
G01 X-9.20496 Y-16.85270
G01 X-9.12233 Y-16.81752
G01 X-9.04905 Y-16.76560
G01 X-9.00747 Y-16.72575
G01 X-8.96328 Y-16.67068
G01 X-8.94311 Y-16.63794
G01 X-8.90283 Y-16.54391
G01 X-8.88639 Y-16.46276
G01 X-8.88406 Y-16.43052
G01 X-8.88446 Y-15.26596
G01 X-8.89541 Y-15.18415
G01 X-8.92523 Y-15.09738
G01 X-8.97004 Y-15.01894
G01 X-9.01050 Y-14.96962
G01 X-9.08167 Y-14.90916
G01 X-9.12205 Y-14.88310
G01 X-9.20415 Y-14.84666
G01 X-9.28228 Y-14.82997
G01 X-9.29264 Y-14.81948
G01 X-9.29513 Y-14.82347
G01 X-9.29264 Y-14.81948
G01 X-9.42525 Y-14.69344
G01 X-11.33442 Y-14.69326
G01 X-11.47778 Y-14.83002
G04 P0 ( dwell for no time -- G64 should not smooth over this point )
G00 Z2.00000 ( retract )

G00 X-9.28215 Y-19.40997 ( rapid move to begin. )
G01 F60.00000
( Mill infeed pass 1/1 )
G01 Z-0.10000
G04 P0 ( dwell for no time -- G64 should not smooth over this point )
G01 F120.00000
G01 X-9.28215 Y-19.40997
G01 X-9.22310 Y-19.39910
G01 X-9.13084 Y-19.36201
G01 X-9.09808 Y-19.34185
G01 X-9.02018 Y-19.28020
G01 X-8.96328 Y-19.21068
G01 X-8.93895 Y-19.16923
G01 X-8.90283 Y-19.08391
G01 X-8.88510 Y-18.99206
G01 X-8.88319 Y-17.83017
G01 X-8.89122 Y-17.74490
G01 X-8.89823 Y-17.71393
G01 X-8.92523 Y-17.63738
G01 X-8.97004 Y-17.55894
G01 X-9.01807 Y-17.50184
G01 X-9.08929 Y-17.44327
G01 X-9.12205 Y-17.42310
G01 X-9.19516 Y-17.39006
G01 X-9.23193 Y-17.37881
G01 X-9.28228 Y-17.36997
G01 X-9.29264 Y-17.35948
G01 X-9.29513 Y-17.36347
G01 X-9.29264 Y-17.35948
G01 X-9.42525 Y-17.23344
G01 X-11.33442 Y-17.23326
G01 X-11.47778 Y-17.37002
G01 X-11.40996 Y-17.36319
G01 X-9.33978 Y-17.36341
G01 X-9.28228 Y-17.36997
G01 X-9.33978 Y-17.36341
G01 X-11.42921 Y-17.36400
G01 X-11.52761 Y-17.37825
G01 X-11.63764 Y-17.42247
G01 X-11.72733 Y-17.48775
G01 X-11.78885 Y-17.55765
G01 X-11.81136 Y-17.59349
G01 X-11.85012 Y-17.67449
G01 X-11.87084 Y-17.76186
G01 X-11.87572 Y-17.79991
G01 X-11.87630 Y-18.97131
G01 X-11.85967 Y-19.07502
G01 X-11.81750 Y-19.17763
G01 X-11.74699 Y-19.27299
G01 X-11.67069 Y-19.33669
G01 X-11.63792 Y-19.35686
G01 X-11.55583 Y-19.39331
G01 X-11.51860 Y-19.40301
G01 X-11.42982 Y-19.41637
G01 X-9.35002 Y-19.41678
G01 X-9.28215 Y-19.40997
G01 X-9.42556 Y-19.54670
G01 X-11.33470 Y-19.54649
G01 X-11.47762 Y-19.41002
G01 X-11.47778 Y-19.91002
G01 X-11.53688 Y-19.92086
G01 X-11.62914 Y-19.95795
G01 X-11.71092 Y-20.01436
G01 X-11.74245 Y-20.04258
G01 X-11.80094 Y-20.11505
G01 X-11.84295 Y-20.19661
G01 X-11.85575 Y-20.23288
G01 X-11.87511 Y-20.33031
G01 X-11.87547 Y-21.52256
G01 X-11.85967 Y-21.61502
G01 X-11.82619 Y-21.70046
G01 X-11.80186 Y-21.74189
G01 X-11.74018 Y-21.81979
G01 X-11.65474 Y-21.88748
G01 X-11.57369 Y-21.92614
G01 X-11.52804 Y-21.94118
G01 X-11.42020 Y-21.95657
G01 X-9.34037 Y-21.95657
G01 X-9.25119 Y-21.94578
G01 X-9.20496 Y-21.93270
G01 X-9.12233 Y-21.89752
G01 X-9.04143 Y-21.83971
G01 X-9.00747 Y-21.80575
G01 X-8.96328 Y-21.75068
G01 X-8.94311 Y-21.71794
G01 X-8.90283 Y-21.62391
G01 X-8.88510 Y-21.53206
G01 X-8.88319 Y-20.37017
G01 X-8.89541 Y-20.26415
G01 X-8.93318 Y-20.15983
G01 X-8.97004 Y-20.09894
G01 X-9.00333 Y-20.05772
G01 X-9.02597 Y-20.03448
G01 X-9.08167 Y-19.98916
G01 X-9.12205 Y-19.96310
G01 X-9.20415 Y-19.92666
G01 X-9.24138 Y-19.91698
G01 X-9.33016 Y-19.90362
G01 X-11.40996 Y-19.90319
G01 X-11.47778 Y-19.91002
G01 X-11.33442 Y-19.77326
G01 X-9.42525 Y-19.77344
G01 X-9.29264 Y-19.89948
G01 X-9.29513 Y-19.90347
G01 X-9.29264 Y-19.89948
G01 X-9.28228 Y-19.90997
G04 P0 ( dwell for no time -- G64 should not smooth over this point )
G00 Z2.00000 ( retract )

G00 X-3.37629 Y-28.60639 ( rapid move to begin. )
G01 F60.00000
( Mill infeed pass 1/1 )
G01 Z-0.10000
G04 P0 ( dwell for no time -- G64 should not smooth over this point )
G01 F120.00000
G01 X-3.37629 Y-28.60639
G01 X-3.37629 Y-28.39354
G01 X-3.40406 Y-28.18252
G01 X-3.45915 Y-27.97696
G01 X-3.54058 Y-27.78028
G01 X-3.64703 Y-27.59598
G01 X-3.77657 Y-27.42710
G01 X-3.92709 Y-27.27660
G01 X-4.09595 Y-27.14704
G01 X-4.28028 Y-27.04061
G01 X-4.47693 Y-26.95915
G01 X-4.68252 Y-26.90406
G01 X-4.89356 Y-26.87627
G01 X-5.10639 Y-26.87627
G01 X-5.31741 Y-26.90406
G01 X-5.52300 Y-26.95915
G01 X-5.71965 Y-27.04059
G01 X-5.90398 Y-27.14701
G01 X-6.07284 Y-27.27658
G01 X-6.22336 Y-27.42710
G01 X-6.35290 Y-27.59596
G01 X-6.45935 Y-27.78028
G01 X-6.54080 Y-27.97693
G01 X-6.59590 Y-28.18252
G01 X-6.62366 Y-28.39354
G01 X-6.62366 Y-28.60639
G01 X-6.59590 Y-28.81742
G01 X-6.54080 Y-29.02301
G01 X-6.45935 Y-29.21968
G01 X-6.35290 Y-29.40398
G01 X-6.22336 Y-29.57284
G01 X-6.07284 Y-29.72336
G01 X-5.90398 Y-29.85292
G01 X-5.71965 Y-29.95935
G01 X-5.52300 Y-30.04081
G01 X-5.31744 Y-30.09590
G01 X-5.10642 Y-30.12366
G01 X-4.89354 Y-30.12366
G01 X-4.68252 Y-30.09590
G01 X-4.47693 Y-30.04081
G01 X-4.28028 Y-29.95935
G01 X-4.09595 Y-29.85292
G01 X-3.92709 Y-29.72336
G01 X-3.77657 Y-29.57286
G01 X-3.64703 Y-29.40398
G01 X-3.54058 Y-29.21965
G01 X-3.45915 Y-29.02301
G01 X-3.40406 Y-28.81742
G01 X-3.37629 Y-28.60639
G01 X-3.60304 Y-28.59156
G01 X-3.60256 Y-28.40838
G01 X-3.62646 Y-28.22677
G01 X-3.67388 Y-28.04983
G01 X-3.74396 Y-27.88059
G01 X-3.83555 Y-27.72197
G01 X-3.94708 Y-27.57660
G01 X-4.07660 Y-27.44709
G01 X-4.22194 Y-27.33558
G01 X-4.38059 Y-27.24399
G01 X-4.54983 Y-27.17386
G01 X-4.72676 Y-27.12646
G01 X-4.90840 Y-27.10254
G01 X-5.09156 Y-27.10254
G01 X-5.27317 Y-27.12646
G01 X-5.45013 Y-27.17389
G01 X-5.61937 Y-27.24396
G01 X-5.77799 Y-27.33556
G01 X-5.92333 Y-27.44706
G01 X-6.05287 Y-27.57660
G01 X-6.16438 Y-27.72194
G01 X-6.25597 Y-27.88059
G01 X-6.32610 Y-28.04983
G01 X-6.37350 Y-28.22674
G01 X-6.39737 Y-28.40838
G01 X-6.39737 Y-28.59159
G01 X-6.37350 Y-28.77317
G01 X-6.32607 Y-28.95011
G01 X-6.25597 Y-29.11937
G01 X-6.16438 Y-29.27800
G01 X-6.05287 Y-29.42333
G01 X-5.92333 Y-29.55287
G01 X-5.77799 Y-29.66438
G01 X-5.61934 Y-29.75597
G01 X-5.45010 Y-29.82610
G01 X-5.27319 Y-29.87350
G01 X-5.09158 Y-29.89740
G01 X-4.90837 Y-29.89740
G01 X-4.72674 Y-29.87350
G01 X-4.54983 Y-29.82610
G01 X-4.38059 Y-29.75597
G01 X-4.22194 Y-29.66438
G01 X-4.07660 Y-29.55287
G01 X-3.94708 Y-29.42336
G01 X-3.83558 Y-29.27800
G01 X-3.74396 Y-29.11935
G01 X-3.67388 Y-28.95013
G01 X-3.62646 Y-28.77317
G01 X-3.60304 Y-28.59156
G01 X-3.82981 Y-28.57670
G01 X-3.82869 Y-28.42323
G01 X-3.84873 Y-28.27094
G01 X-3.88953 Y-28.12303
G01 X-3.94645 Y-27.98044
G01 X-4.02491 Y-27.84848
G01 X-4.11744 Y-27.72606
G01 X-4.22643 Y-27.61795
G01 X-4.34787 Y-27.52400
G01 X-4.48130 Y-27.44823
G01 X-4.62239 Y-27.38765
G01 X-4.77121 Y-27.34981
G01 X-4.92318 Y-27.32870
G01 X-5.07670 Y-27.32928
G01 X-5.22900 Y-27.34874
G01 X-5.37693 Y-27.38953
G01 X-5.51912 Y-27.44721
G01 X-5.65213 Y-27.52400
G01 X-5.77319 Y-27.61828
G01 X-5.88244 Y-27.72600
G01 X-5.97596 Y-27.84787
G01 X-6.05173 Y-27.98130
G01 X-6.11147 Y-28.12265
G01 X-6.15122 Y-28.27099
G01 X-6.17014 Y-28.42326
G01 X-6.17126 Y-28.57673
G01 X-6.15122 Y-28.72900
G01 X-6.11045 Y-28.87690
G01 X-6.05348 Y-29.01953
G01 X-5.97505 Y-29.15148
G01 X-5.88249 Y-29.27388
G01 X-5.77350 Y-29.38201
G01 X-5.65206 Y-29.47596
G01 X-5.51863 Y-29.55173
G01 X-5.37728 Y-29.61147
G01 X-5.22895 Y-29.65122
G01 X-5.07670 Y-29.67015
G01 X-4.92323 Y-29.67126
G01 X-4.77093 Y-29.65122
G01 X-4.62303 Y-29.61046
G01 X-4.48086 Y-29.55275
G01 X-4.34779 Y-29.47594
G01 X-4.22674 Y-29.38165
G01 X-4.11683 Y-29.27449
G01 X-4.02491 Y-29.15148
G01 X-3.94724 Y-29.01914
G01 X-3.88907 Y-28.87708
G01 X-3.84873 Y-28.72892
G01 X-3.82981 Y-28.57670
G01 X-4.05656 Y-28.56184
G01 X-4.05547 Y-28.43809
G01 X-4.07162 Y-28.31526
G01 X-4.10472 Y-28.19606
G01 X-4.15026 Y-28.08097
G01 X-4.21386 Y-27.97475
G01 X-4.28831 Y-27.87589
G01 X-4.37627 Y-27.78879
G01 X-4.47411 Y-27.71295
G01 X-4.58180 Y-27.65204
G01 X-4.69544 Y-27.60284
G01 X-4.81554 Y-27.57269
G01 X-4.93806 Y-27.55544
G01 X-5.06181 Y-27.55605
G01 X-5.18465 Y-27.57162
G01 X-5.30388 Y-27.60469
G01 X-5.41901 Y-27.65026
G01 X-5.52524 Y-27.71386
G01 X-5.62404 Y-27.78829
G01 X-5.71116 Y-27.87627
G01 X-5.78701 Y-27.97411
G01 X-5.84792 Y-28.08181
G01 X-5.89628 Y-28.19570
G01 X-5.92833 Y-28.31534
G01 X-5.94340 Y-28.43812
G01 X-5.94449 Y-28.56187
G01 X-5.92833 Y-28.68468
G01 X-5.89526 Y-28.80388
G01 X-5.84967 Y-28.91899
G01 X-5.78609 Y-29.02521
G01 X-5.71165 Y-29.12405
G01 X-5.62366 Y-29.21117
G01 X-5.52582 Y-29.28701
G01 X-5.41812 Y-29.34792
G01 X-5.30423 Y-29.39631
G01 X-5.18462 Y-29.42836
G01 X-5.06184 Y-29.44340
G01 X-4.93809 Y-29.44449
G01 X-4.81526 Y-29.42834
G01 X-4.69608 Y-29.39527
G01 X-4.58137 Y-29.34894
G01 X-4.47406 Y-29.28699
G01 X-4.37657 Y-29.21081
G01 X-4.28770 Y-29.12468
G01 X-4.21386 Y-29.02524
G01 X-4.15105 Y-28.91864
G01 X-4.10423 Y-28.80406
G01 X-4.07162 Y-28.68460
G01 X-4.05656 Y-28.56184
G01 X-4.28330 Y-28.54698
G01 X-4.28221 Y-28.45293
G01 X-4.29451 Y-28.35961
G01 X-4.31988 Y-28.26911
G01 X-4.35407 Y-28.18148
G01 X-4.40279 Y-28.10099
G01 X-4.45917 Y-28.02570
G01 X-4.52608 Y-27.95963
G01 X-4.60035 Y-27.90190
G01 X-4.68231 Y-27.85585
G01 X-4.76875 Y-27.81884
G01 X-4.85971 Y-27.79448
G01 X-4.95303 Y-27.78328
G01 X-5.04695 Y-27.78219
G01 X-5.14030 Y-27.79448
G01 X-5.23083 Y-27.81988
G01 X-5.31853 Y-27.85410
G01 X-5.39900 Y-27.90279
G01 X-5.47421 Y-27.95915
G01 X-5.54032 Y-28.02608
G01 X-5.59806 Y-28.10035
G01 X-5.64411 Y-28.18232
G01 X-5.68193 Y-28.26850
G01 X-5.70438 Y-28.35984
G01 X-5.71774 Y-28.45288
G01 X-5.71713 Y-28.54701
G01 X-5.70545 Y-28.64035
G01 X-5.68007 Y-28.73083
G01 X-5.64586 Y-28.81848
G01 X-5.59714 Y-28.89898
G01 X-5.54078 Y-28.97421
G01 X-5.47385 Y-29.04033
G01 X-5.39958 Y-29.09806
G01 X-5.31762 Y-29.14411
G01 X-5.23141 Y-29.18193
G01 X-5.14012 Y-29.20439
G01 X-5.04708 Y-29.21775
G01 X-4.95295 Y-29.21714
G01 X-4.85958 Y-29.20545
G01 X-4.76913 Y-29.18008
G01 X-4.68188 Y-29.14513
G01 X-4.60030 Y-29.09804
G01 X-4.52641 Y-29.03995
G01 X-4.45854 Y-28.97485
G01 X-4.40281 Y-28.89900
G01 X-4.35486 Y-28.81813
G01 X-4.31942 Y-28.73101
G01 X-4.29448 Y-28.64028
G01 X-4.28330 Y-28.54698
G01 X-4.51007 Y-28.53212
G01 X-4.51007 Y-28.46784
G01 X-4.50563 Y-28.46753
G01 X-4.51007 Y-28.46784
G01 X-4.51846 Y-28.40418
G01 X-4.53507 Y-28.34213
G01 X-4.55963 Y-28.28285
G01 X-4.55564 Y-28.28087
G01 X-4.55963 Y-28.28285
G01 X-4.59174 Y-28.22725
G01 X-4.63088 Y-28.17622
G01 X-4.67624 Y-28.13086
G01 X-4.67332 Y-28.12753
G01 X-4.67624 Y-28.13086
G01 X-4.72719 Y-28.09176
G01 X-4.78282 Y-28.05966
G01 X-4.84218 Y-28.03507
G01 X-4.84076 Y-28.03086
G01 X-4.84218 Y-28.03507
G01 X-4.90423 Y-28.01844
G01 X-4.96788 Y-28.01005
G01 X-5.03207 Y-28.01005
G01 X-5.03235 Y-28.00561
G01 X-5.03207 Y-28.01005
G01 X-5.09572 Y-28.01844
G01 X-5.15780 Y-28.03507
G01 X-5.21716 Y-28.05966
G01 X-5.21912 Y-28.05567
G01 X-5.21716 Y-28.05966
G01 X-5.27274 Y-28.09174
G01 X-5.32369 Y-28.13083
G01 X-5.36910 Y-28.17625
G01 X-5.37243 Y-28.17332
G01 X-5.36910 Y-28.17625
G01 X-5.40819 Y-28.22720
G01 X-5.44030 Y-28.28282
G01 X-5.46489 Y-28.34218
G01 X-5.46910 Y-28.34076
G01 X-5.46489 Y-28.34218
G01 X-5.48150 Y-28.40416
G01 X-5.48988 Y-28.46784
G01 X-5.48988 Y-28.53212
G01 X-5.49432 Y-28.53240
G01 X-5.48988 Y-28.53212
G01 X-5.48150 Y-28.59578
G01 X-5.46489 Y-28.65778
G01 X-5.44030 Y-28.71711
G01 X-5.44429 Y-28.71909
G01 X-5.44030 Y-28.71711
G01 X-5.40822 Y-28.77271
G01 X-5.36910 Y-28.82369
G01 X-5.32369 Y-28.86911
G01 X-5.32661 Y-28.87243
G01 X-5.32369 Y-28.86911
G01 X-5.27274 Y-28.90820
G01 X-5.21711 Y-28.94030
G01 X-5.15772 Y-28.96492
G01 X-5.15915 Y-28.96911
G01 X-5.15772 Y-28.96492
G01 X-5.09577 Y-28.98150
G01 X-5.03212 Y-28.98988
G01 X-4.96783 Y-28.98988
G01 X-4.96753 Y-28.99433
G01 X-4.96783 Y-28.98988
G01 X-4.90416 Y-28.98150
G01 X-4.84218 Y-28.96489
G01 X-4.78282 Y-28.94030
G01 X-4.78086 Y-28.94429
G01 X-4.78282 Y-28.94030
G01 X-4.72719 Y-28.90820
G01 X-4.67624 Y-28.86911
G01 X-4.63088 Y-28.82374
G01 X-4.62752 Y-28.82666
G01 X-4.63088 Y-28.82374
G01 X-4.59176 Y-28.77274
G01 X-4.55963 Y-28.71711
G01 X-4.53507 Y-28.65780
G01 X-4.53088 Y-28.65925
G01 X-4.53507 Y-28.65780
G01 X-4.51846 Y-28.59578
G01 X-4.51007 Y-28.53212
G01 X-4.73682 Y-28.51727
G01 X-4.73682 Y-28.48270
G01 X-4.73240 Y-28.48239
G01 X-4.73682 Y-28.48270
G01 X-4.74132 Y-28.44851
G01 X-4.76344 Y-28.38336
G01 X-4.75945 Y-28.38140
G01 X-4.76344 Y-28.38336
G01 X-4.78069 Y-28.35349
G01 X-4.82608 Y-28.30172
G01 X-4.82316 Y-28.29837
G01 X-4.82608 Y-28.30172
G01 X-4.88333 Y-28.26344
G01 X-4.91523 Y-28.25024
G01 X-4.91381 Y-28.24604
G01 X-4.91523 Y-28.25024
G01 X-4.98277 Y-28.23680
G01 X-5.01719 Y-28.23680
G01 X-5.01749 Y-28.23238
G01 X-5.01719 Y-28.23680
G01 X-5.08475 Y-28.25026
G01 X-5.11665 Y-28.26347
G01 X-5.11861 Y-28.25948
G01 X-5.11665 Y-28.26347
G01 X-5.14650 Y-28.28069
G01 X-5.19824 Y-28.32608
G01 X-5.20159 Y-28.32316
G01 X-5.19824 Y-28.32608
G01 X-5.23651 Y-28.38333
G01 X-5.24972 Y-28.41523
G01 X-5.25391 Y-28.41381
G01 X-5.24972 Y-28.41523
G01 X-5.26313 Y-28.48270
G01 X-5.26313 Y-28.51727
G01 X-5.26755 Y-28.51755
G01 X-5.26313 Y-28.51727
G01 X-5.25864 Y-28.55143
G01 X-5.23651 Y-28.61661
G01 X-5.24048 Y-28.61856
G01 X-5.23651 Y-28.61661
G01 X-5.21927 Y-28.64648
G01 X-5.17385 Y-28.69824
G01 X-5.17677 Y-28.70159
G01 X-5.17385 Y-28.69824
G01 X-5.11660 Y-28.73652
G01 X-5.08467 Y-28.74973
G01 X-5.08610 Y-28.75394
G01 X-5.08467 Y-28.74973
G01 X-5.05145 Y-28.75864
G01 X-4.98269 Y-28.76314
G01 X-4.98239 Y-28.76756
G01 X-4.98269 Y-28.76314
G01 X-4.91523 Y-28.74973
G01 X-4.88333 Y-28.73652
G01 X-4.88137 Y-28.74048
G01 X-4.88333 Y-28.73652
G01 X-4.85343 Y-28.71925
G01 X-4.80174 Y-28.67391
G01 X-4.79839 Y-28.67683
G01 X-4.80174 Y-28.67391
G01 X-4.76344 Y-28.61661
G01 X-4.75026 Y-28.58478
G01 X-4.74604 Y-28.58620
G01 X-4.75026 Y-28.58478
G01 X-4.73682 Y-28.51727
G01 X-4.94495 Y-28.49631
G01 X-4.96359 Y-28.49753
G01 X-4.96545 Y-28.51173
G01 X-4.97258 Y-28.52407
G01 X-4.95851 Y-28.53642
G01 X-4.97258 Y-28.52407
G01 X-4.98386 Y-28.53271
G01 X-4.99753 Y-28.53637
G01 X-4.99631 Y-28.55496
G01 X-4.99753 Y-28.53637
G01 X-5.01162 Y-28.53454
G01 X-5.02402 Y-28.52740
G01 X-5.03634 Y-28.54145
G01 X-5.02402 Y-28.52740
G01 X-5.03271 Y-28.51610
G01 X-5.03636 Y-28.50241
G01 X-5.05501 Y-28.50365
G01 X-5.03636 Y-28.50241
G01 X-5.03453 Y-28.48828
G01 X-5.02740 Y-28.47591
G01 X-5.04149 Y-28.46354
G01 X-5.02740 Y-28.47591
G01 X-5.01614 Y-28.46728
G01 X-5.00233 Y-28.46357
G01 X-5.00352 Y-28.44490
G01 X-5.00233 Y-28.46357
G01 X-4.98828 Y-28.46542
G01 X-4.97591 Y-28.47256
G01 X-4.96362 Y-28.45857
G01 X-4.97591 Y-28.47256
G01 X-4.96725 Y-28.48386
G01 X-4.96359 Y-28.49753
G04 P0 ( dwell for no time -- G64 should not smooth over this point )
G00 Z2.00000 ( retract )

G00 X-21.12678 Y-14.17180 ( rapid move to begin. )
G01 F60.00000
( Mill infeed pass 1/1 )
G01 Z-0.10000
G04 P0 ( dwell for no time -- G64 should not smooth over this point )
G01 F120.00000
G01 X-21.12678 Y-14.17180
G01 X-21.12678 Y-14.13535
G01 X-21.21799 Y-14.06070
G01 X-21.38660 Y-13.90348
G01 X-21.38657 Y-12.79649
G01 X-21.31111 Y-12.72995
G01 X-21.29617 Y-12.68534
G01 X-21.26188 Y-12.61090
G01 X-21.24504 Y-12.58326
G01 X-21.16221 Y-12.48964
G01 X-21.07646 Y-12.43178
G01 X-21.02802 Y-12.40826
G01 X-20.93915 Y-12.38214
G01 X-20.90763 Y-12.37681
G01 X-20.12180 Y-12.37442
G01 X-20.06293 Y-12.38120
G01 X-19.98619 Y-12.40221
G01 X-19.87004 Y-12.46403
G01 X-19.78696 Y-12.54095
G01 X-19.73395 Y-12.61890
G01 X-19.71172 Y-12.66370
G01 X-19.67982 Y-12.77069
G01 X-19.67319 Y-12.84999
G01 X-19.67319 Y-13.74999
G01 X-19.67951 Y-13.82746
G01 X-19.69315 Y-13.88511
G01 X-19.73257 Y-13.98003
G01 X-19.78942 Y-14.06180
G01 X-19.83087 Y-14.10414
G01 X-19.87316 Y-14.13723
G01 X-19.87316 Y-15.57604
G01 X-19.83837 Y-15.58056
G01 X-19.79877 Y-15.59215
G01 X-19.73250 Y-15.61927
G01 X-19.69750 Y-15.64112
G01 X-19.65193 Y-15.67782
G01 X-19.61208 Y-15.72278
G01 X-19.56979 Y-15.79542
G01 X-19.55142 Y-15.84355
G01 X-19.53682 Y-15.92102
G01 X-19.53590 Y-16.26014
G01 X-19.54500 Y-16.33154
G01 X-19.55607 Y-16.37111
G01 X-19.54982 Y-16.39562
G01 X-19.58119 Y-16.42875
G01 X-19.55607 Y-16.37111
G01 X-19.58589 Y-16.43774
G01 X-19.62214 Y-16.48940
G01 X-19.65150 Y-16.52125
G01 X-19.71144 Y-16.56857
G01 X-19.87588 Y-16.74688
G01 X-20.05955 Y-16.93723
G01 X-20.20981 Y-16.96390
G01 X-20.30801 Y-16.97632
G01 X-20.48594 Y-16.98587
G01 X-20.59455 Y-16.98335
G01 X-20.66232 Y-16.89849
G01 X-20.80293 Y-16.73484
G01 X-20.85917 Y-16.69509
G01 X-20.97738 Y-16.62679
G01 X-20.85917 Y-16.69509
G01 X-20.80453 Y-16.73669
G01 X-20.62566 Y-16.94411
G01 X-20.57339 Y-16.94970
G01 X-20.45160 Y-16.95201
G01 X-20.39353 Y-16.94602
G01 X-20.26973 Y-16.92181
G01 X-20.16275 Y-16.88409
G01 X-20.10164 Y-16.85354
G01 X-20.10250 Y-16.84922
G01 X-20.10164 Y-16.85354
G01 X-19.97700 Y-16.85354
G01 X-19.71144 Y-16.56857
G01 X-19.78167 Y-16.60246
G01 X-19.83095 Y-16.61747
G01 X-19.90217 Y-16.62656
G01 X-20.16046 Y-16.62679
G01 X-20.25434 Y-16.67660
G01 X-20.35099 Y-16.70865
G01 X-20.45305 Y-16.72501
G01 X-20.57580 Y-16.72214
G01 X-20.71030 Y-16.69042
G01 X-20.80204 Y-16.64833
G01 X-20.83859 Y-16.62679
G01 X-21.09780 Y-16.62656
G01 X-21.16905 Y-16.61747
G01 X-21.21832 Y-16.60246
G01 X-21.29196 Y-16.56636
G01 X-21.36287 Y-16.50718
G01 X-21.41708 Y-16.43240
G01 X-21.45144 Y-16.34614
G01 X-21.46399 Y-16.26159
G01 X-21.46409 Y-15.94030
G01 X-21.45043 Y-15.85145
G01 X-21.43857 Y-15.81348
G01 X-21.39442 Y-15.73144
G01 X-21.35457 Y-15.68442
G01 X-21.32691 Y-15.65966
G01 X-21.27522 Y-15.62339
G01 X-21.21832 Y-15.59753
G01 X-21.17916 Y-15.58460
G01 X-21.12678 Y-15.57645
G01 X-21.12678 Y-14.17180
G01 X-21.14205 Y-14.13495
G01 X-21.15289 Y-14.11928
G01 X-21.15033 Y-14.11737
G01 X-21.15289 Y-14.11928
G01 X-21.18926 Y-14.08499
G01 X-21.22902 Y-14.03861
G01 X-21.27583 Y-13.96431
G01 X-21.31294 Y-13.85893
G01 X-21.32165 Y-13.81923
G01 X-21.32678 Y-13.74999
G01 X-21.32678 Y-12.84999
G01 X-21.31111 Y-12.72995
G04 P0 ( dwell for no time -- G64 should not smooth over this point )
G00 Z2.00000 ( retract )

G00 X-24.52215 Y-9.24997 ( rapid move to begin. )
G01 F60.00000
( Mill infeed pass 1/1 )
G01 Z-0.10000
G04 P0 ( dwell for no time -- G64 should not smooth over this point )
G01 F120.00000
G01 X-24.52215 Y-9.24997
G01 X-24.66556 Y-9.38670
G01 X-26.57470 Y-9.38649
G01 X-26.71762 Y-9.25002
G01 X-26.79583 Y-9.23331
G01 X-26.87792 Y-9.19686
G01 X-26.91069 Y-9.17669
G01 X-26.98699 Y-9.11299
G01 X-27.04742 Y-9.03404
G01 X-27.06619 Y-9.00046
G01 X-27.09967 Y-8.91502
G01 X-27.11547 Y-8.82256
G01 X-27.11592 Y-7.64951
G01 X-27.11265 Y-7.61129
G01 X-27.09799 Y-7.54225
G01 X-27.07879 Y-7.48792
G01 X-27.02885 Y-7.39765
G01 X-26.98245 Y-7.34258
G01 X-26.95092 Y-7.31436
G01 X-26.87765 Y-7.26247
G01 X-26.79502 Y-7.22729
G01 X-26.74879 Y-7.21418
G01 X-26.65959 Y-7.20339
G01 X-24.57978 Y-7.20341
G01 X-24.52253 Y-7.20992
G01 X-24.57978 Y-7.20341
G01 X-26.64996 Y-7.20319
G01 X-26.71757 Y-7.20999
G01 X-26.57417 Y-7.07334
G01 X-24.66556 Y-7.07347
G01 X-24.53320 Y-7.19915
G01 X-24.53569 Y-7.20311
G01 X-24.53320 Y-7.19915
G01 X-24.52253 Y-7.20992
G01 X-24.47193 Y-7.21881
G01 X-24.43516 Y-7.23006
G01 X-24.36205 Y-7.26310
G01 X-24.32929 Y-7.28327
G01 X-24.25807 Y-7.34184
G01 X-24.21004 Y-7.39894
G01 X-24.16523 Y-7.47738
G01 X-24.13823 Y-7.55393
G01 X-24.13122 Y-7.58490
G01 X-24.12319 Y-7.67016
G01 X-24.12431 Y-8.82129
G01 X-24.14008 Y-8.91367
G01 X-24.15385 Y-8.95368
G01 X-24.19248 Y-9.03473
G01 X-24.25367 Y-9.11309
G01 X-24.28143 Y-9.13971
G01 X-24.36233 Y-9.19752
G01 X-24.45395 Y-9.23610
G01 X-24.49119 Y-9.24578
G01 X-24.59002 Y-9.25678
G01 X-26.66020 Y-9.25657
G01 X-26.71762 Y-9.25002
G04 P0 ( dwell for no time -- G64 should not smooth over this point )
G00 Z2.00000 ( retract )

G00 X-29.37629 Y-7.25640 ( rapid move to begin. )
G01 F60.00000
( Mill infeed pass 1/1 )
G01 Z-0.10000
G04 P0 ( dwell for no time -- G64 should not smooth over this point )
G01 F120.00000
G01 X-29.37629 Y-7.25640
G01 X-29.37629 Y-7.04355
G01 X-29.40406 Y-6.83252
G01 X-29.45915 Y-6.62696
G01 X-29.54058 Y-6.43029
G01 X-29.64703 Y-6.24596
G01 X-29.77657 Y-6.07710
G01 X-29.92709 Y-5.92658
G01 X-30.09595 Y-5.79702
G01 X-30.28028 Y-5.69059
G01 X-30.47693 Y-5.60916
G01 X-30.68251 Y-5.55407
G01 X-30.89356 Y-5.52628
G01 X-31.10639 Y-5.52628
G01 X-31.31744 Y-5.55407
G01 X-31.52300 Y-5.60913
G01 X-31.71965 Y-5.69059
G01 X-31.90397 Y-5.79702
G01 X-32.07283 Y-5.92658
G01 X-32.22335 Y-6.07710
G01 X-32.35292 Y-6.24596
G01 X-32.45935 Y-6.43031
G01 X-32.54080 Y-6.62694
G01 X-32.59590 Y-6.83252
G01 X-32.62366 Y-7.04355
G01 X-32.62366 Y-7.25640
G01 X-32.59590 Y-7.46742
G01 X-32.54080 Y-7.67301
G01 X-32.45935 Y-7.86966
G01 X-32.35292 Y-8.05398
G01 X-32.22335 Y-8.22284
G01 X-32.07283 Y-8.37336
G01 X-31.90400 Y-8.50293
G01 X-31.71965 Y-8.60936
G01 X-31.52300 Y-8.69081
G01 X-31.31744 Y-8.74588
G01 X-31.10639 Y-8.77367
G01 X-30.89356 Y-8.77367
G01 X-30.68251 Y-8.74588
G01 X-30.47693 Y-8.69081
G01 X-30.28028 Y-8.60936
G01 X-30.09595 Y-8.50293
G01 X-29.92709 Y-8.37336
G01 X-29.77657 Y-8.22287
G01 X-29.64703 Y-8.05398
G01 X-29.54058 Y-7.86966
G01 X-29.45915 Y-7.67298
G01 X-29.40406 Y-7.46742
G01 X-29.37629 Y-7.25640
G01 X-29.60304 Y-7.24157
G01 X-29.60256 Y-7.05836
G01 X-29.62646 Y-6.87677
G01 X-29.67388 Y-6.69983
G01 X-29.74396 Y-6.53059
G01 X-29.83555 Y-6.37192
G01 X-29.94708 Y-6.22661
G01 X-30.07660 Y-6.09707
G01 X-30.22194 Y-5.98556
G01 X-30.38056 Y-5.89397
G01 X-30.54980 Y-5.82389
G01 X-30.72676 Y-5.77647
G01 X-30.90840 Y-5.75254
G01 X-31.09156 Y-5.75254
G01 X-31.27319 Y-5.77647
G01 X-31.45013 Y-5.82386
G01 X-31.61934 Y-5.89397
G01 X-31.77799 Y-5.98556
G01 X-31.92333 Y-6.09707
G01 X-32.05287 Y-6.22661
G01 X-32.16458 Y-6.37182
G01 X-32.25554 Y-6.53082
G01 X-32.32607 Y-6.69983
G01 X-32.37349 Y-6.87677
G01 X-32.39740 Y-7.05836
G01 X-32.39740 Y-7.24159
G01 X-32.37349 Y-7.42318
G01 X-32.32610 Y-7.60011
G01 X-32.25597 Y-7.76935
G01 X-32.16438 Y-7.92800
G01 X-32.05287 Y-8.07334
G01 X-31.92333 Y-8.20288
G01 X-31.77802 Y-8.31439
G01 X-31.61937 Y-8.40598
G01 X-31.45013 Y-8.47608
G01 X-31.27319 Y-8.52348
G01 X-31.09156 Y-8.54740
G01 X-30.90840 Y-8.54740
G01 X-30.72674 Y-8.52348
G01 X-30.54980 Y-8.47608
G01 X-30.38058 Y-8.40598
G01 X-30.22194 Y-8.31439
G01 X-30.07660 Y-8.20288
G01 X-29.94708 Y-8.07336
G01 X-29.83558 Y-7.92800
G01 X-29.74396 Y-7.76935
G01 X-29.67388 Y-7.60011
G01 X-29.62646 Y-7.42318
G01 X-29.60304 Y-7.24157
G01 X-29.82981 Y-7.22671
G01 X-29.82869 Y-7.07321
G01 X-29.84873 Y-6.92094
G01 X-29.88953 Y-6.77304
G01 X-29.94645 Y-6.63044
G01 X-30.02491 Y-6.49846
G01 X-30.11744 Y-6.37606
G01 X-30.22608 Y-6.26742
G01 X-30.34845 Y-6.17492
G01 X-30.48076 Y-6.09724
G01 X-30.62267 Y-6.03847
G01 X-30.77121 Y-5.99981
G01 X-30.92318 Y-5.97870
G01 X-31.07677 Y-5.97870
G01 X-31.22877 Y-5.99981
G01 X-31.37723 Y-6.03844
G01 X-31.51883 Y-6.09778
G01 X-31.65213 Y-6.17400
G01 X-31.77319 Y-6.26829
G01 X-31.88244 Y-6.37601
G01 X-31.97596 Y-6.49788
G01 X-32.05175 Y-6.63130
G01 X-32.11147 Y-6.77266
G01 X-32.15122 Y-6.92102
G01 X-32.17014 Y-7.07324
G01 X-32.17126 Y-7.22673
G01 X-32.15122 Y-7.37900
G01 X-32.11045 Y-7.52691
G01 X-32.05274 Y-7.66907
G01 X-31.97593 Y-7.80214
G01 X-31.88165 Y-7.92320
G01 X-31.77393 Y-8.03247
G01 X-31.65208 Y-8.12597
G01 X-31.51863 Y-8.20174
G01 X-31.37756 Y-8.26229
G01 X-31.22877 Y-8.30014
G01 X-31.07677 Y-8.32124
G01 X-30.92318 Y-8.32124
G01 X-30.77116 Y-8.30014
G01 X-30.62267 Y-8.26150
G01 X-30.48109 Y-8.20217
G01 X-30.34779 Y-8.12594
G01 X-30.22674 Y-8.03166
G01 X-30.11683 Y-7.92450
G01 X-30.02491 Y-7.80148
G01 X-29.94723 Y-7.66917
G01 X-29.88907 Y-7.52706
G01 X-29.84873 Y-7.37893
G01 X-29.82981 Y-7.22671
G01 X-30.05656 Y-7.21185
G01 X-30.05546 Y-7.08807
G01 X-30.07162 Y-6.96529
G01 X-30.10471 Y-6.84606
G01 X-30.15026 Y-6.73095
G01 X-30.21386 Y-6.62473
G01 X-30.28831 Y-6.52590
G01 X-30.37591 Y-6.43826
G01 X-30.47469 Y-6.36387
G01 X-30.58127 Y-6.30105
G01 X-30.69587 Y-6.25424
G01 X-30.81536 Y-6.22160
G01 X-30.93817 Y-6.20654
G01 X-31.06191 Y-6.20458
G01 X-31.18444 Y-6.22270
G01 X-31.30420 Y-6.25363
G01 X-31.41833 Y-6.30159
G01 X-31.52587 Y-6.36295
G01 X-31.62336 Y-6.43910
G01 X-31.71160 Y-6.52584
G01 X-31.78701 Y-6.62412
G01 X-31.84794 Y-6.73184
G01 X-31.89628 Y-6.84568
G01 X-31.92833 Y-6.96534
G01 X-31.94340 Y-7.08810
G01 X-31.94449 Y-7.21187
G01 X-31.92833 Y-7.33468
G01 X-31.89526 Y-7.45386
G01 X-31.84893 Y-7.56856
G01 X-31.78698 Y-7.67588
G01 X-31.71081 Y-7.77337
G01 X-31.62407 Y-7.86163
G01 X-31.52584 Y-7.93702
G01 X-31.41812 Y-7.99793
G01 X-31.30451 Y-8.04710
G01 X-31.18444 Y-8.07725
G01 X-31.06189 Y-8.09450
G01 X-30.93806 Y-8.09450
G01 X-30.81551 Y-8.07725
G01 X-30.69572 Y-8.04631
G01 X-30.58160 Y-7.99836
G01 X-30.47406 Y-7.93699
G01 X-30.37657 Y-7.86082
G01 X-30.28770 Y-7.77469
G01 X-30.21386 Y-7.67525
G01 X-30.15104 Y-7.56867
G01 X-30.10423 Y-7.45404
G01 X-30.07159 Y-7.33461
G01 X-30.05656 Y-7.21185
G01 X-30.28330 Y-7.19699
G01 X-30.28221 Y-7.10293
G01 X-30.29450 Y-7.00961
G01 X-30.31988 Y-6.91911
G01 X-30.35407 Y-6.83146
G01 X-30.40278 Y-6.75099
G01 X-30.45917 Y-6.67570
G01 X-30.52575 Y-6.60911
G01 X-30.60093 Y-6.55279
G01 X-30.68175 Y-6.50489
G01 X-30.76892 Y-6.46941
G01 X-30.85970 Y-6.44449
G01 X-30.95302 Y-6.43326
G01 X-31.04706 Y-6.43136
G01 X-31.14012 Y-6.44558
G01 X-31.23115 Y-6.46882
G01 X-31.31782 Y-6.50535
G01 X-31.39963 Y-6.55188
G01 X-31.47352 Y-6.60999
G01 X-31.54075 Y-6.67568
G01 X-31.59806 Y-6.75035
G01 X-31.64413 Y-6.83237
G01 X-31.68193 Y-6.91850
G01 X-31.70438 Y-7.00984
G01 X-31.71774 Y-7.10286
G01 X-31.71774 Y-7.19709
G01 X-31.70438 Y-7.29010
G01 X-31.68114 Y-7.38111
G01 X-31.64456 Y-7.46783
G01 X-31.59803 Y-7.54964
G01 X-31.53994 Y-7.62353
G01 X-31.47423 Y-7.69079
G01 X-31.39958 Y-7.74807
G01 X-31.31764 Y-7.79412
G01 X-31.23146 Y-7.83194
G01 X-31.14012 Y-7.85437
G01 X-31.04703 Y-7.86775
G01 X-30.95292 Y-7.86775
G01 X-30.85983 Y-7.85437
G01 X-30.76877 Y-7.83112
G01 X-30.68211 Y-7.79457
G01 X-30.60029 Y-7.74804
G01 X-30.52641 Y-7.68995
G01 X-30.45854 Y-7.62485
G01 X-30.40281 Y-7.54901
G01 X-30.35485 Y-7.46816
G01 X-30.31942 Y-7.38099
G01 X-30.29448 Y-7.29026
G01 X-30.28330 Y-7.19699
G01 X-30.51007 Y-7.18213
G01 X-30.51007 Y-7.11782
G01 X-30.50563 Y-7.11754
G01 X-30.51007 Y-7.11782
G01 X-30.51846 Y-7.05419
G01 X-30.53507 Y-6.99214
G01 X-30.55963 Y-6.93283
G01 X-30.55567 Y-6.93085
G01 X-30.55963 Y-6.93283
G01 X-30.59173 Y-6.87723
G01 X-30.63088 Y-6.82622
G01 X-30.67629 Y-6.78081
G01 X-30.67334 Y-6.77748
G01 X-30.67629 Y-6.78081
G01 X-30.72719 Y-6.74174
G01 X-30.78277 Y-6.70966
G01 X-30.84213 Y-6.68508
G01 X-30.84071 Y-6.68089
G01 X-30.84213 Y-6.68508
G01 X-30.90423 Y-6.66844
G01 X-30.96788 Y-6.66006
G01 X-31.03207 Y-6.66006
G01 X-31.03235 Y-6.65561
G01 X-31.03207 Y-6.66006
G01 X-31.09577 Y-6.66844
G01 X-31.15780 Y-6.68505
G01 X-31.21711 Y-6.70964
G01 X-31.21906 Y-6.70565
G01 X-31.21711 Y-6.70964
G01 X-31.27273 Y-6.74174
G01 X-31.32369 Y-6.78083
G01 X-31.36910 Y-6.82625
G01 X-31.37243 Y-6.82333
G01 X-31.36910 Y-6.82625
G01 X-31.40819 Y-6.87720
G01 X-31.44032 Y-6.93288
G01 X-31.46488 Y-6.99216
G01 X-31.46910 Y-6.99074
G01 X-31.46488 Y-6.99216
G01 X-31.48150 Y-7.05416
G01 X-31.48988 Y-7.11782
G01 X-31.48988 Y-7.18213
G01 X-31.49432 Y-7.18241
G01 X-31.48988 Y-7.18213
G01 X-31.48150 Y-7.24578
G01 X-31.46488 Y-7.30776
G01 X-31.44030 Y-7.36712
G01 X-31.44429 Y-7.36907
G01 X-31.44030 Y-7.36712
G01 X-31.40819 Y-7.42274
G01 X-31.36910 Y-7.47370
G01 X-31.32366 Y-7.51914
G01 X-31.32658 Y-7.52246
G01 X-31.32366 Y-7.51914
G01 X-31.27276 Y-7.55820
G01 X-31.21713 Y-7.59031
G01 X-31.15780 Y-7.61489
G01 X-31.15922 Y-7.61909
G01 X-31.15780 Y-7.61489
G01 X-31.09577 Y-7.63151
G01 X-31.03207 Y-7.63989
G01 X-30.96788 Y-7.63989
G01 X-30.96760 Y-7.64433
G01 X-30.96788 Y-7.63989
G01 X-30.90415 Y-7.63151
G01 X-30.84213 Y-7.61487
G01 X-30.78282 Y-7.59031
G01 X-30.78086 Y-7.59430
G01 X-30.78282 Y-7.59031
G01 X-30.72719 Y-7.55820
G01 X-30.67624 Y-7.51911
G01 X-30.63088 Y-7.47375
G01 X-30.62752 Y-7.47667
G01 X-30.63088 Y-7.47375
G01 X-30.59176 Y-7.42274
G01 X-30.55963 Y-7.36712
G01 X-30.53507 Y-7.30781
G01 X-30.53088 Y-7.30923
G01 X-30.53507 Y-7.30781
G01 X-30.51846 Y-7.24576
G01 X-30.51007 Y-7.18213
G01 X-30.73682 Y-7.16727
G01 X-30.73682 Y-7.13268
G01 X-30.73240 Y-7.13240
G01 X-30.73682 Y-7.13268
G01 X-30.74132 Y-7.09851
G01 X-30.76346 Y-7.03331
G01 X-30.75948 Y-7.03135
G01 X-30.76346 Y-7.03331
G01 X-30.78069 Y-7.00349
G01 X-30.82613 Y-6.95165
G01 X-30.82318 Y-6.94832
G01 X-30.82613 Y-6.95165
G01 X-30.85343 Y-6.93069
G01 X-30.91515 Y-6.90027
G01 X-30.91373 Y-6.89607
G01 X-30.91515 Y-6.90027
G01 X-30.98277 Y-6.88680
G01 X-31.01718 Y-6.88680
G01 X-31.01749 Y-6.88238
G01 X-31.01718 Y-6.88680
G01 X-31.08475 Y-6.90024
G01 X-31.11660 Y-6.91342
G01 X-31.11856 Y-6.90946
G01 X-31.11660 Y-6.91342
G01 X-31.14650 Y-6.93069
G01 X-31.19824 Y-6.97608
G01 X-31.20159 Y-6.97316
G01 X-31.19824 Y-6.97608
G01 X-31.21924 Y-7.00344
G01 X-31.24970 Y-7.06521
G01 X-31.25391 Y-7.06379
G01 X-31.24970 Y-7.06521
G01 X-31.25864 Y-7.09851
G01 X-31.26313 Y-7.16727
G01 X-31.26755 Y-7.16755
G01 X-31.26313 Y-7.16727
G01 X-31.24972 Y-7.23471
G01 X-31.23651 Y-7.26661
G01 X-31.24048 Y-7.26857
G01 X-31.23651 Y-7.26661
G01 X-31.21924 Y-7.29651
G01 X-31.17383 Y-7.34830
G01 X-31.17675 Y-7.35162
G01 X-31.17383 Y-7.34830
G01 X-31.14652 Y-7.36925
G01 X-31.08475 Y-7.39971
G01 X-31.08617 Y-7.40390
G01 X-31.08475 Y-7.39971
G01 X-31.01718 Y-7.41314
G01 X-30.98277 Y-7.41314
G01 X-30.98246 Y-7.41756
G01 X-30.98277 Y-7.41314
G01 X-30.91515 Y-7.39971
G01 X-30.88333 Y-7.38652
G01 X-30.88137 Y-7.39049
G01 X-30.88333 Y-7.38652
G01 X-30.85343 Y-7.36925
G01 X-30.80174 Y-7.32391
G01 X-30.79839 Y-7.32683
G01 X-30.80174 Y-7.32391
G01 X-30.78071 Y-7.29651
G01 X-30.75026 Y-7.23476
G01 X-30.74604 Y-7.23618
G01 X-30.75026 Y-7.23476
G01 X-30.73682 Y-7.16727
G01 X-30.94492 Y-7.14629
G01 X-30.96359 Y-7.14753
G01 X-30.96544 Y-7.16173
G01 X-30.97258 Y-7.17408
G01 X-30.95846 Y-7.18650
G01 X-30.97258 Y-7.17408
G01 X-30.98386 Y-7.18271
G01 X-30.99763 Y-7.18637
G01 X-30.99643 Y-7.20491
G01 X-30.99763 Y-7.18637
G01 X-31.01170 Y-7.18452
G01 X-31.02399 Y-7.17743
G01 X-31.03626 Y-7.19145
G01 X-31.02399 Y-7.17743
G01 X-31.03270 Y-7.16608
G01 X-31.03636 Y-7.15241
G01 X-31.05506 Y-7.15366
G01 X-31.03636 Y-7.15241
G01 X-31.03453 Y-7.13826
G01 X-31.02740 Y-7.12592
G01 X-31.04149 Y-7.11355
G01 X-31.02740 Y-7.12592
G01 X-31.01607 Y-7.11723
G01 X-31.00233 Y-7.11357
G01 X-31.00354 Y-7.09498
G01 X-31.00233 Y-7.11357
G01 X-30.98820 Y-7.11545
G01 X-30.97596 Y-7.12252
G01 X-30.96367 Y-7.10847
G01 X-30.97596 Y-7.12252
G01 X-30.96727 Y-7.13382
G01 X-30.96359 Y-7.14753
G04 P0 ( dwell for no time -- G64 should not smooth over this point )
G00 Z2.00000 ( retract )

G00 X-26.71778 Y-9.75002 ( rapid move to begin. )
G01 F60.00000
( Mill infeed pass 1/1 )
G01 Z-0.10000
G04 P0 ( dwell for no time -- G64 should not smooth over this point )
G01 F120.00000
G01 X-26.71778 Y-9.75002
G01 X-26.57442 Y-9.61327
G01 X-24.66525 Y-9.61344
G01 X-24.53264 Y-9.73948
G01 X-24.53513 Y-9.74347
G01 X-24.53264 Y-9.73948
G01 X-24.52228 Y-9.74997
G01 X-24.44415 Y-9.76666
G01 X-24.36205 Y-9.80310
G01 X-24.32167 Y-9.82916
G01 X-24.25050 Y-9.88962
G01 X-24.21004 Y-9.93894
G01 X-24.16523 Y-10.01738
G01 X-24.13541 Y-10.10415
G01 X-24.12446 Y-10.18596
G01 X-24.12406 Y-11.35052
G01 X-24.12639 Y-11.38276
G01 X-24.14283 Y-11.46391
G01 X-24.18311 Y-11.55794
G01 X-24.20328 Y-11.59068
G01 X-24.24747 Y-11.64575
G01 X-24.28905 Y-11.68560
G01 X-24.36233 Y-11.73752
G01 X-24.44496 Y-11.77270
G01 X-24.49119 Y-11.78578
G01 X-24.58037 Y-11.79657
G01 X-26.66020 Y-11.79657
G01 X-26.71762 Y-11.79002
G01 X-26.66020 Y-11.79657
G01 X-24.59002 Y-11.79678
G01 X-24.52215 Y-11.78997
G01 X-24.66543 Y-11.92660
G01 X-26.57470 Y-11.92649
G01 X-26.71762 Y-11.79002
G01 X-26.76804 Y-11.78118
G01 X-26.80482 Y-11.76990
G01 X-26.87792 Y-11.73686
G01 X-26.91069 Y-11.71669
G01 X-26.98699 Y-11.65299
G01 X-27.05263 Y-11.56594
G01 X-27.06619 Y-11.54046
G01 X-27.09967 Y-11.45502
G01 X-27.11407 Y-11.37374
G01 X-27.11511 Y-10.17031
G01 X-27.09575 Y-10.07288
G01 X-27.08295 Y-10.03661
G01 X-27.04094 Y-9.95505
G01 X-26.98946 Y-9.89053
G01 X-26.95928 Y-9.86086
G01 X-26.87765 Y-9.80247
G01 X-26.78603 Y-9.76389
G01 X-26.74879 Y-9.75418
G01 X-26.64996 Y-9.74319
G01 X-24.57978 Y-9.74341
G01 X-24.52228 Y-9.74997
G04 P0 ( dwell for no time -- G64 should not smooth over this point )
G00 Z2.00000 ( retract )

G00 X-24.52230 Y-14.33002 ( rapid move to begin. )
G01 F60.00000
( Mill infeed pass 1/1 )
G01 Z-0.10000
G04 P0 ( dwell for no time -- G64 should not smooth over this point )
G01 F120.00000
G01 X-24.52230 Y-14.33002
G01 X-24.57986 Y-14.33657
G01 X-26.67041 Y-14.33591
G01 X-26.71646 Y-14.33131
G01 X-26.57478 Y-14.46619
G01 X-24.66536 Y-14.46660
G01 X-24.52230 Y-14.33002
G01 X-24.44415 Y-14.31331
G01 X-24.36205 Y-14.27686
G01 X-24.32929 Y-14.25669
G01 X-24.25979 Y-14.19979
G01 X-24.19812 Y-14.12189
G01 X-24.17625 Y-14.08570
G01 X-24.14438 Y-14.00896
G01 X-24.12809 Y-13.93678
G01 X-23.28868 Y-13.93678
G01 X-23.25535 Y-14.00089
G01 X-23.23762 Y-14.02657
G01 X-23.19216 Y-14.08201
G01 X-23.12995 Y-14.13594
G01 X-23.05947 Y-14.17810
G01 X-22.99259 Y-14.20454
G01 X-22.95510 Y-14.21458
G01 X-22.87996 Y-14.22479
G01 X-22.14999 Y-14.22679
G01 X-22.06897 Y-14.21910
G01 X-22.02604 Y-14.20998
G01 X-21.96127 Y-14.18775
G01 X-21.88213 Y-14.14374
G01 X-21.81131 Y-14.08483
G01 X-21.78906 Y-14.06134
G01 X-21.73069 Y-13.97584
G01 X-21.71510 Y-13.94488
G01 X-21.61334 Y-13.88902
G01 X-21.61334 Y-13.74999
G01 X-21.67319 Y-13.74999
G01 X-21.61334 Y-13.74999
G01 X-21.61332 Y-12.79591
G01 X-21.68830 Y-12.73101
G01 X-21.67319 Y-12.84999
G01 X-21.67339 Y-13.75923
G01 X-21.68180 Y-13.83927
G01 X-21.71510 Y-13.94488
G01 X-21.68180 Y-13.83927
G01 X-21.67339 Y-13.75923
G01 X-21.67319 Y-12.84999
G01 X-21.68378 Y-12.75179
G01 X-21.69389 Y-12.71303
G01 X-21.73346 Y-12.61821
G01 X-21.75048 Y-12.59070
G01 X-21.80138 Y-12.52647
G01 X-21.84839 Y-12.48225
G01 X-21.91563 Y-12.43538
G01 X-21.95408 Y-12.41588
G01 X-22.05208 Y-12.38349
G01 X-22.13966 Y-12.37343
G01 X-22.89299 Y-12.37536
G01 X-22.97049 Y-12.38870
G01 X-23.04445 Y-12.41532
G01 X-23.08093 Y-12.43327
G01 X-23.14849 Y-12.47866
G01 X-23.17890 Y-12.50566
G01 X-23.23153 Y-12.56408
G01 X-23.27753 Y-12.63896
G01 X-23.29531 Y-12.68316
G01 X-24.12883 Y-12.68316
G01 X-24.14295 Y-12.61560
G01 X-24.16901 Y-12.54851
G01 X-24.22192 Y-12.46442
G01 X-24.24877 Y-12.43173
G01 X-24.30856 Y-12.37757
G01 X-24.38560 Y-12.33053
G01 X-24.42472 Y-12.31443
G01 X-24.51110 Y-12.28989
G01 X-24.58999 Y-12.28319
G01 X-26.64998 Y-12.28319
G01 X-26.71648 Y-12.28900
G01 X-26.64998 Y-12.28319
G01 X-24.58999 Y-12.28319
G01 X-24.52461 Y-12.28806
G01 X-24.66543 Y-12.15334
G01 X-26.57442 Y-12.15324
G01 X-26.71648 Y-12.28900
G01 X-26.75654 Y-12.29558
G01 X-26.81503 Y-12.31344
G01 X-26.87792 Y-12.34310
G01 X-26.94074 Y-12.38481
G01 X-26.99499 Y-12.43566
G01 X-27.04112 Y-12.49533
G01 X-27.07536 Y-12.55771
G01 X-27.10251 Y-12.63548
G01 X-27.11458 Y-12.70838
G01 X-27.11679 Y-13.86959
G01 X-27.10525 Y-13.97302
G01 X-27.08732 Y-14.03302
G01 X-27.05750 Y-14.09763
G01 X-27.01318 Y-14.16324
G01 X-26.96548 Y-14.21389
G01 X-26.89474 Y-14.26748
G01 X-26.83142 Y-14.30000
G01 X-26.77071 Y-14.32090
G01 X-26.71646 Y-14.33131
G04 P0 ( dwell for no time -- G64 should not smooth over this point )
G00 Z2.00000 ( retract )

G00 X-26.71778 Y-14.83002 ( rapid move to begin. )
G01 F60.00000
( Mill infeed pass 1/1 )
G01 Z-0.10000
G04 P0 ( dwell for no time -- G64 should not smooth over this point )
G01 F120.00000
G01 X-26.71778 Y-14.83002
G01 X-26.57409 Y-14.69293
G01 X-24.66538 Y-14.69334
G01 X-24.53264 Y-14.81948
G01 X-24.53513 Y-14.82347
G01 X-24.53264 Y-14.81948
G01 X-24.52228 Y-14.82997
G01 X-24.44415 Y-14.84666
G01 X-24.36205 Y-14.88310
G01 X-24.32167 Y-14.90916
G01 X-24.25050 Y-14.96962
G01 X-24.21004 Y-15.01894
G01 X-24.16523 Y-15.09738
G01 X-24.13541 Y-15.18415
G01 X-24.12446 Y-15.26596
G01 X-24.12406 Y-16.43052
G01 X-24.12639 Y-16.46276
G01 X-24.14283 Y-16.54391
G01 X-24.18311 Y-16.63794
G01 X-24.20328 Y-16.67068
G01 X-24.24747 Y-16.72575
G01 X-24.28905 Y-16.76560
G01 X-24.36233 Y-16.81752
G01 X-24.44496 Y-16.85270
G01 X-24.49119 Y-16.86578
G01 X-24.58037 Y-16.87657
G01 X-26.66020 Y-16.87657
G01 X-26.71762 Y-16.87002
G01 X-26.66020 Y-16.87657
G01 X-24.59002 Y-16.87678
G01 X-24.52215 Y-16.86997
G01 X-24.66556 Y-17.00670
G01 X-26.57470 Y-17.00649
G01 X-26.71762 Y-16.87002
G01 X-26.76804 Y-16.86118
G01 X-26.80482 Y-16.84990
G01 X-26.87792 Y-16.81686
G01 X-26.91069 Y-16.79669
G01 X-26.98699 Y-16.73299
G01 X-27.05263 Y-16.64594
G01 X-27.06619 Y-16.62046
G01 X-27.09967 Y-16.53502
G01 X-27.11407 Y-16.45374
G01 X-27.11511 Y-15.25031
G01 X-27.09575 Y-15.15288
G01 X-27.08295 Y-15.11661
G01 X-27.04094 Y-15.03505
G01 X-26.98946 Y-14.97053
G01 X-26.95928 Y-14.94086
G01 X-26.87765 Y-14.88247
G01 X-26.78603 Y-14.84389
G01 X-26.74879 Y-14.83418
G01 X-26.64996 Y-14.82319
G01 X-24.57978 Y-14.82341
G01 X-24.52228 Y-14.82997
G04 P0 ( dwell for no time -- G64 should not smooth over this point )
G00 Z2.00000 ( retract )

G00 X-24.52215 Y-19.40997 ( rapid move to begin. )
G01 F60.00000
( Mill infeed pass 1/1 )
G01 Z-0.10000
G04 P0 ( dwell for no time -- G64 should not smooth over this point )
G01 F120.00000
G01 X-24.52215 Y-19.40997
G01 X-24.46310 Y-19.39910
G01 X-24.37084 Y-19.36201
G01 X-24.33808 Y-19.34185
G01 X-24.26018 Y-19.28020
G01 X-24.20328 Y-19.21068
G01 X-24.17895 Y-19.16923
G01 X-24.14283 Y-19.08391
G01 X-24.12510 Y-18.99206
G01 X-24.12319 Y-17.83017
G01 X-24.13122 Y-17.74490
G01 X-24.13823 Y-17.71393
G01 X-24.16523 Y-17.63738
G01 X-24.21004 Y-17.55894
G01 X-24.25807 Y-17.50184
G01 X-24.32929 Y-17.44327
G01 X-24.36205 Y-17.42310
G01 X-24.43516 Y-17.39006
G01 X-24.47193 Y-17.37881
G01 X-24.52228 Y-17.36997
G01 X-24.53264 Y-17.35948
G01 X-24.53513 Y-17.36347
G01 X-24.53264 Y-17.35948
G01 X-24.66525 Y-17.23344
G01 X-26.57442 Y-17.23326
G01 X-26.71778 Y-17.37002
G01 X-26.64996 Y-17.36319
G01 X-24.57978 Y-17.36341
G01 X-24.52228 Y-17.36997
G01 X-24.57978 Y-17.36341
G01 X-26.66921 Y-17.36400
G01 X-26.76761 Y-17.37825
G01 X-26.87765 Y-17.42247
G01 X-26.96733 Y-17.48775
G01 X-27.02885 Y-17.55765
G01 X-27.05136 Y-17.59349
G01 X-27.09012 Y-17.67449
G01 X-27.11084 Y-17.76186
G01 X-27.11572 Y-17.79991
G01 X-27.11630 Y-18.97131
G01 X-27.09967 Y-19.07502
G01 X-27.05750 Y-19.17763
G01 X-26.98699 Y-19.27299
G01 X-26.91069 Y-19.33669
G01 X-26.87792 Y-19.35686
G01 X-26.79583 Y-19.39331
G01 X-26.75860 Y-19.40301
G01 X-26.66982 Y-19.41637
G01 X-24.59002 Y-19.41678
G01 X-24.52215 Y-19.40997
G01 X-24.66556 Y-19.54670
G01 X-26.57470 Y-19.54649
G01 X-26.71762 Y-19.41002
G01 X-26.71778 Y-19.91002
G01 X-26.77688 Y-19.92086
G01 X-26.86914 Y-19.95795
G01 X-26.95092 Y-20.01436
G01 X-26.98245 Y-20.04258
G01 X-27.04094 Y-20.11505
G01 X-27.08295 Y-20.19661
G01 X-27.09575 Y-20.23288
G01 X-27.11511 Y-20.33031
G01 X-27.11547 Y-21.52256
G01 X-27.09967 Y-21.61502
G01 X-27.06619 Y-21.70046
G01 X-27.04186 Y-21.74189
G01 X-26.98018 Y-21.81979
G01 X-26.89474 Y-21.88748
G01 X-26.81369 Y-21.92614
G01 X-26.76804 Y-21.94118
G01 X-26.66020 Y-21.95657
G01 X-24.58037 Y-21.95657
G01 X-24.49119 Y-21.94578
G01 X-24.44496 Y-21.93270
G01 X-24.36233 Y-21.89752
G01 X-24.28143 Y-21.83971
G01 X-24.24747 Y-21.80575
G01 X-24.20328 Y-21.75068
G01 X-24.18311 Y-21.71794
G01 X-24.14283 Y-21.62391
G01 X-24.12510 Y-21.53206
G01 X-24.12319 Y-20.37017
G01 X-24.13541 Y-20.26415
G01 X-24.17318 Y-20.15983
G01 X-24.21004 Y-20.09894
G01 X-24.24333 Y-20.05772
G01 X-24.26597 Y-20.03448
G01 X-24.32167 Y-19.98916
G01 X-24.36205 Y-19.96310
G01 X-24.44415 Y-19.92666
G01 X-24.48138 Y-19.91698
G01 X-24.57016 Y-19.90362
G01 X-26.64996 Y-19.90319
G01 X-26.71778 Y-19.91002
G01 X-26.57442 Y-19.77326
G01 X-24.66525 Y-19.77344
G01 X-24.53264 Y-19.89948
G01 X-24.53513 Y-19.90347
G01 X-24.53264 Y-19.89948
G01 X-24.52228 Y-19.90997
G04 P0 ( dwell for no time -- G64 should not smooth over this point )
G00 Z2.00000 ( retract )

G00 X-20.97679 Y-18.57317 ( rapid move to begin. )
G01 F60.00000
( Mill infeed pass 1/1 )
G01 Z-0.10000
G04 P0 ( dwell for no time -- G64 should not smooth over this point )
G01 F120.00000
G01 X-20.97679 Y-18.57317
G01 X-20.97679 Y-18.52590
G01 X-21.13821 Y-18.52336
G01 X-21.22510 Y-18.49935
G01 X-21.27453 Y-18.47677
G01 X-21.35919 Y-18.47677
G01 X-21.34890 Y-18.48703
G01 X-21.25688 Y-18.54147
G01 X-21.14901 Y-18.57281
G01 X-20.97679 Y-18.57317
G04 P0 ( dwell for no time -- G64 should not smooth over this point )
G00 Z2.00000 ( retract )

G00 X-17.06397 Y-23.45698 ( rapid move to begin. )
G01 F60.00000
( Mill infeed pass 1/1 )
G01 Z-0.10000
G04 P0 ( dwell for no time -- G64 should not smooth over this point )
G01 F120.00000
G01 X-17.06397 Y-23.45698
G01 X-17.10383 Y-23.55235
G01 X-17.11335 Y-23.59779
G01 X-17.11604 Y-23.59739
G01 X-17.11335 Y-23.59779
G01 X-17.11335 Y-26.08593
G01 X-17.11607 Y-26.08636
G01 X-17.11335 Y-26.08593
G01 X-17.10451 Y-26.12977
G01 X-17.05290 Y-26.25786
G01 X-17.01808 Y-26.35628
G01 X-16.96811 Y-26.52585
G01 X-16.92074 Y-26.74653
G01 X-16.90009 Y-26.90211
G01 X-16.88884 Y-27.11089
G01 X-16.92397 Y-27.09532
G01 X-16.88884 Y-27.11089
G01 X-16.89600 Y-27.31813
G01 X-16.96883 Y-27.44508
G01 X-16.89600 Y-27.31813
G01 X-16.89059 Y-27.22913
G01 X-16.88988 Y-27.06111
G01 X-16.89661 Y-26.94280
G01 X-16.91175 Y-26.80495
G01 X-16.92826 Y-26.70503
G01 X-16.96811 Y-26.52585
G01 X-17.01808 Y-26.35628
G01 X-17.06484 Y-26.22715
G01 X-17.14642 Y-26.15265
G01 X-17.16570 Y-26.16116
G01 X-17.14642 Y-26.15265
G01 X-17.14642 Y-23.52535
G01 X-17.16794 Y-23.51527
G01 X-17.14642 Y-23.52535
G01 X-17.10733 Y-23.49683
G01 X-17.06397 Y-23.45698
G01 X-17.01719 Y-23.32071
G01 X-16.99158 Y-23.21629
G01 X-16.96888 Y-23.06411
G01 X-16.96347 Y-22.95825
G01 X-16.96336 Y-22.25154
G01 X-16.96682 Y-22.16213
G01 X-16.98615 Y-22.01136
G01 X-17.01482 Y-21.88921
G01 X-17.03423 Y-21.82559
G01 X-17.06748 Y-21.73963
G01 X-17.09892 Y-21.71337
G01 X-17.06748 Y-21.73963
G01 X-17.07764 Y-21.71337
G01 X-18.50375 Y-21.71322
G01 X-18.57131 Y-21.78972
G01 X-18.62069 Y-21.80488
G01 X-18.69074 Y-21.83854
G01 X-18.74726 Y-21.87720
G01 X-18.80387 Y-21.93046
G01 X-18.85109 Y-21.99221
G01 X-18.88764 Y-22.06081
G01 X-18.91256 Y-22.13442
G01 X-18.92424 Y-22.20186
G01 X-18.92653 Y-22.96061
G01 X-18.91436 Y-23.05271
G01 X-18.90499 Y-23.09226
G01 X-18.87855 Y-23.15893
G01 X-18.83618 Y-23.22929
G01 X-18.78960 Y-23.28408
G01 X-18.75904 Y-23.31225
G01 X-18.70149 Y-23.35505
G01 X-18.62679 Y-23.39276
G01 X-18.62679 Y-26.26002
G01 X-18.74601 Y-26.35910
G01 X-18.81134 Y-26.42702
G01 X-18.87179 Y-26.50312
G01 X-18.95224 Y-26.63238
G01 X-19.01116 Y-26.76489
G01 X-19.03644 Y-26.84297
G01 X-19.05511 Y-26.92077
G01 X-19.07532 Y-27.07940
G01 X-19.07606 Y-27.17025
G01 X-19.07055 Y-27.25075
G01 X-19.05871 Y-27.33055
G01 X-19.03606 Y-27.42832
G01 X-18.99989 Y-27.53416
G01 X-18.96735 Y-27.60800
G01 X-18.92437 Y-27.68727
G01 X-18.87492 Y-27.76268
G01 X-18.82534 Y-27.82634
G01 X-18.75749 Y-27.90027
G01 X-18.67390 Y-27.97462
G01 X-18.60923 Y-28.02285
G01 X-18.55361 Y-28.05793
G01 X-18.44932 Y-28.24985
G01 X-18.34251 Y-28.26730
G01 X-18.20530 Y-28.28277
G01 X-18.02237 Y-28.29133
G01 X-17.91769 Y-28.28986
G01 X-17.80560 Y-28.23294
G01 X-17.68960 Y-28.16598
G01 X-17.79755 Y-28.19258
G01 X-17.90024 Y-28.20716
G01 X-18.00322 Y-28.21178
G01 X-18.11556 Y-28.20540
G01 X-18.20474 Y-28.19199
G01 X-18.28335 Y-28.17383
G01 X-18.36029 Y-28.14955
G01 X-18.45262 Y-28.11203
G01 X-18.55361 Y-28.05793
G01 X-18.44393 Y-28.11584
G01 X-18.36928 Y-28.14648
G01 X-18.28335 Y-28.17383
G01 X-18.19542 Y-28.19390
G01 X-18.11556 Y-28.20540
G01 X-18.00322 Y-28.21178
G01 X-17.90024 Y-28.20716
G01 X-17.80893 Y-28.19448
G01 X-17.69745 Y-28.16814
G01 X-17.57741 Y-28.12539
G01 X-17.47467 Y-28.07472
G01 X-17.39608 Y-28.02649
G01 X-17.30540 Y-27.95755
G01 X-17.22996 Y-27.88740
G01 X-17.16824 Y-27.81887
G01 X-17.11295 Y-27.74511
G01 X-17.05298 Y-27.64749
G01 X-17.00388 Y-27.54396
G01 X-16.96916 Y-27.44622
G01 X-16.94650 Y-27.35684
G01 X-16.92813 Y-27.23713
G01 X-16.92443 Y-27.08448
G01 X-16.94183 Y-26.93548
G01 X-16.96182 Y-26.84917
G01 X-16.98661 Y-26.77097
G01 X-17.04980 Y-26.62847
G01 X-17.13375 Y-26.49555
G01 X-17.17693 Y-26.44066
G01 X-17.23680 Y-26.37536
G01 X-17.34142 Y-26.28364
G01 X-17.37317 Y-26.26045
G01 X-17.37317 Y-23.39144
G01 X-17.33029 Y-23.37313
G01 X-17.26382 Y-23.33109
G01 X-17.18635 Y-23.25835
G01 X-17.12582 Y-23.16762
G01 X-17.08676 Y-23.06284
G01 X-17.07340 Y-22.96025
G01 X-17.07319 Y-22.25004
G01 X-17.07954 Y-22.17626
G01 X-17.08729 Y-22.13633
G01 X-17.12143 Y-22.04103
G01 X-17.19608 Y-21.93046
G01 X-17.30045 Y-21.84370
G01 X-17.39448 Y-21.80054
G01 X-17.43400 Y-21.78761
G01 X-17.54998 Y-21.77318
G01 X-18.44998 Y-21.77318
G01 X-18.53590 Y-21.78098
G01 X-18.59440 Y-21.79599
G01 X-18.57113 Y-21.41055
G01 X-18.60238 Y-21.40166
G01 X-18.66722 Y-21.37440
G01 X-18.75158 Y-21.31774
G01 X-18.79166 Y-21.28177
G01 X-18.84296 Y-21.21786
G01 X-18.87129 Y-21.17207
G01 X-18.90926 Y-21.07743
G01 X-18.91764 Y-21.03826
G01 X-18.92678 Y-20.95000
G01 X-18.92678 Y-20.25000
G01 X-18.90799 Y-20.11743
G01 X-18.88294 Y-20.05046
G01 X-18.86849 Y-20.02282
G01 X-18.83014 Y-19.96222
G01 X-18.78960 Y-19.91589
G01 X-18.71017 Y-19.85066
G01 X-18.62679 Y-19.80722
G01 X-18.62679 Y-18.18843
G01 X-18.66859 Y-18.08988
G01 X-18.73336 Y-17.96430
G01 X-18.77167 Y-17.92346
G01 X-18.90967 Y-17.83786
G01 X-19.05328 Y-17.76293
G01 X-19.05155 Y-17.75729
G01 X-19.05328 Y-17.76293
G01 X-19.07868 Y-17.75381
G01 X-19.10550 Y-17.75097
G01 X-19.19676 Y-17.75216
G01 X-19.41848 Y-17.51289
G01 X-19.45498 Y-17.48795
G01 X-19.48325 Y-17.46156
G01 X-19.53740 Y-17.39014
G01 X-19.55521 Y-17.35579
G01 X-19.57725 Y-17.28902
G01 X-19.58434 Y-17.26044
G01 X-19.58790 Y-17.22140
G01 X-19.58851 Y-16.88114
G01 X-19.57034 Y-16.78221
G01 X-19.54116 Y-16.71831
G01 X-19.81553 Y-17.01284
G01 X-19.81523 Y-17.08681
G01 X-19.81553 Y-17.01284
G01 X-19.85150 Y-17.04962
G01 X-19.54477 Y-17.37751
G01 X-19.48325 Y-17.46156
G01 X-19.45498 Y-17.48795
G01 X-19.41848 Y-17.51289
G01 X-19.19676 Y-17.75216
G01 X-19.10550 Y-17.75097
G01 X-19.07868 Y-17.75381
G01 X-19.05328 Y-17.76293
G01 X-18.90169 Y-17.84256
G01 X-18.75846 Y-17.93672
G01 X-18.73547 Y-17.96575
G01 X-18.66859 Y-18.08988
G01 X-18.62679 Y-18.18843
G01 X-18.62679 Y-17.93461
G01 X-18.98467 Y-17.57670
G01 X-19.23374 Y-17.57616
G01 X-19.26587 Y-17.57230
G01 X-19.34454 Y-17.55254
G01 X-19.38843 Y-17.53235
G01 X-19.46247 Y-17.48183
G01 X-19.48957 Y-17.45425
G01 X-19.54240 Y-17.38183
G01 X-19.55871 Y-17.34678
G01 X-19.57725 Y-17.28902
G01 X-19.58696 Y-17.24101
G01 X-19.58911 Y-16.89105
G01 X-19.57034 Y-16.78221
G01 X-19.52607 Y-16.69125
G01 X-19.50077 Y-16.65869
G01 X-19.45114 Y-16.60840
G01 X-19.42689 Y-16.59100
G01 X-19.35462 Y-16.55135
G01 X-19.41830 Y-16.58595
G01 X-19.38096 Y-16.54701
G01 X-19.35462 Y-16.55135
G01 X-19.31076 Y-16.53700
G01 X-19.22216 Y-16.52339
G01 X-18.96422 Y-16.52318
G01 X-18.87228 Y-16.47464
G01 X-18.83425 Y-16.45976
G01 X-18.74670 Y-16.43510
G01 X-18.63603 Y-16.42351
G01 X-18.52198 Y-16.43169
G01 X-18.43093 Y-16.45458
G01 X-18.32732 Y-16.49900
G01 X-18.28693 Y-16.52326
G01 X-18.01622 Y-16.52382
G01 X-17.98409 Y-16.52768
G01 X-17.91467 Y-16.54454
G01 X-17.86997 Y-16.56283
G01 X-17.79499 Y-16.61201
G01 X-17.76039 Y-16.64574
G01 X-17.71256 Y-16.70985
G01 X-17.69125 Y-16.75321
G01 X-17.66405 Y-16.84978
G01 X-17.66209 Y-17.12643
G01 X-17.55676 Y-17.23177
G01 X-17.50591 Y-17.28932
G01 X-17.44556 Y-17.38429
G01 X-17.43027 Y-17.41394
G01 X-17.39702 Y-17.50421
G01 X-17.37924 Y-17.58828
G01 X-17.37317 Y-17.67500
G01 X-17.37317 Y-19.80855
G01 X-17.33029 Y-19.82686
G01 X-17.26382 Y-19.86890
G01 X-17.18513 Y-19.94304
G01 X-17.12371 Y-20.03649
G01 X-17.08633 Y-20.13892
G01 X-17.07340 Y-20.23974
G01 X-17.07319 Y-20.94992
G01 X-17.08290 Y-21.04568
G01 X-17.12813 Y-21.17217
G01 X-17.19765 Y-21.27123
G01 X-17.30045 Y-21.35627
G01 X-17.39448 Y-21.39942
G01 X-17.43400 Y-21.41235
G01 X-17.55061 Y-21.42678
G01 X-18.48617 Y-21.42424
G01 X-18.52618 Y-21.42058
G01 X-18.57113 Y-21.41055
G01 X-18.50408 Y-21.48642
G01 X-17.09890 Y-21.48660
G01 X-17.06689 Y-21.45988
G01 X-17.09890 Y-21.48660
G01 X-17.07741 Y-21.48660
G01 X-17.02024 Y-21.33046
G01 X-16.98993 Y-21.20699
G01 X-16.96679 Y-21.03755
G01 X-16.96336 Y-20.94842
G01 X-16.96347 Y-20.24169
G01 X-16.96890 Y-20.13552
G01 X-16.97982 Y-20.04703
G01 X-17.01188 Y-19.89897
G01 X-17.06916 Y-19.72871
G01 X-17.10383 Y-19.64759
G01 X-17.11335 Y-19.60215
G01 X-17.11640 Y-19.60265
G01 X-17.11335 Y-19.60215
G01 X-17.11437 Y-17.62562
G01 X-17.27192 Y-17.50748
G01 X-17.46849 Y-17.34685
G01 X-17.27192 Y-17.50748
G01 X-17.15051 Y-17.59786
G01 X-17.14642 Y-17.67500
G01 X-17.14642 Y-19.67461
G01 X-17.16781 Y-19.68470
G01 X-17.14642 Y-19.67461
G01 X-17.10733 Y-19.70316
G01 X-17.06410 Y-19.74291
G01 X-17.01188 Y-19.89897
G01 X-16.97982 Y-20.04703
G01 X-16.96890 Y-20.13552
G01 X-16.96347 Y-20.24169
G01 X-16.96336 Y-20.94842
G01 X-17.07319 Y-20.94992
G01 X-16.85354 Y-19.65825
G01 X-16.85354 Y-17.55859
G01 X-16.77449 Y-17.45224
G01 X-16.70901 Y-17.34663
G01 X-16.62679 Y-17.17368
G01 X-16.62679 Y-8.25960
G01 X-21.10961 Y-3.77678
G01 X-24.12883 Y-3.77678
G01 X-24.14295 Y-3.84437
G01 X-24.16952 Y-3.91254
G01 X-24.21865 Y-3.99250
G01 X-24.24633 Y-4.02450
G01 X-24.31473 Y-4.08699
G01 X-24.38560 Y-4.12943
G01 X-24.48301 Y-4.16339
G01 X-24.52624 Y-4.17210
G01 X-24.66452 Y-4.30660
G01 X-26.57417 Y-4.30660
G01 X-26.61514 Y-4.26829
G01 X-26.88651 Y-4.28076
G01 X-26.86583 Y-4.38579
G01 X-26.86322 Y-4.42526
G01 X-26.86754 Y-4.46461
G01 X-26.89121 Y-4.57911
G01 X-26.91506 Y-4.63329
G01 X-26.97434 Y-4.72242
G01 X-26.99489 Y-4.74871
G01 X-27.05527 Y-4.80949
G01 X-27.11826 Y-4.91160
G01 X-27.15651 Y-5.02707
G01 X-27.16317 Y-5.09222
G01 X-27.16317 Y-5.21317
G01 X-27.11663 Y-5.21317
G01 X-27.11625 Y-5.10769
G01 X-27.11206 Y-5.06539
G01 X-27.09012 Y-4.97449
G01 X-27.03673 Y-4.86860
G01 X-26.97229 Y-4.79290
G01 X-26.93556 Y-4.76192
G01 X-26.87696 Y-4.72255
G01 X-26.84259 Y-4.70525
G01 X-26.74551 Y-4.67307
G01 X-26.64998 Y-4.66319
G01 X-24.58999 Y-4.66319
G01 X-24.49695 Y-4.67279
G01 X-24.43627 Y-4.68963
G01 X-24.35144 Y-4.72879
G01 X-24.29058 Y-4.77195
G01 X-24.23038 Y-4.83273
G01 X-24.19886 Y-4.87533
G01 X-24.16823 Y-4.93009
G01 X-24.13683 Y-5.01879
G01 X-24.12423 Y-5.10052
G01 X-24.12335 Y-5.21317
G01 X-24.07679 Y-5.21317
G01 X-24.07679 Y-5.09222
G01 X-24.08344 Y-5.02707
G01 X-24.12169 Y-4.91160
G01 X-24.18469 Y-4.80949
G01 X-24.25677 Y-4.73471
G01 X-24.32804 Y-4.62991
G01 X-24.34364 Y-4.59113
G01 X-24.36980 Y-4.48673
G01 X-24.37506 Y-4.45752
G01 X-24.37605 Y-4.41800
G01 X-24.35951 Y-4.30223
G01 X-24.35027 Y-4.26380
G01 X-24.33447 Y-4.22758
G01 X-24.27356 Y-4.12651
G01 X-24.11842 Y-3.95448
G01 X-23.98657 Y-3.86601
G01 X-23.93051 Y-3.84698
G01 X-23.82426 Y-3.82613
G01 X-23.79101 Y-3.82367
G01 X-21.32612 Y-3.82367
G01 X-21.28187 Y-3.82803
G01 X-21.16737 Y-3.85168
G01 X-21.11319 Y-3.87551
G01 X-21.01494 Y-3.94122
G01 X-20.98967 Y-3.96303
G01 X-16.80535 Y-8.14774
G01 X-16.73085 Y-8.25480
G01 X-16.70804 Y-8.29861
G01 X-16.67805 Y-8.43189
G01 X-16.67368 Y-8.47613
G01 X-16.67368 Y-16.73238
G01 X-16.68076 Y-16.80972
G01 X-16.71503 Y-16.92069
G01 X-16.72580 Y-16.94835
G01 X-16.74559 Y-16.98257
G01 X-16.83824 Y-17.09171
G01 X-16.90611 Y-17.23311
G01 X-16.95963 Y-17.32120
G01 X-17.02471 Y-17.40875
G01 X-17.13144 Y-17.32945
G01 X-17.32580 Y-17.17060
G01 X-17.23565 Y-17.19890
G01 X-17.19674 Y-17.20578
G01 X-17.15722 Y-17.20581
G01 X-17.04083 Y-17.19486
G01 X-17.01201 Y-17.18785
G01 X-16.97548 Y-17.17276
G01 X-16.88059 Y-17.12323
G01 X-16.83824 Y-17.09171
G01 X-16.88059 Y-17.12323
G01 X-16.98437 Y-17.17713
G01 X-17.02151 Y-17.19062
G01 X-17.06044 Y-17.19743
G01 X-17.16710 Y-17.20644
G01 X-17.21635 Y-17.20319
G01 X-17.33779 Y-17.16682
G01 X-17.38297 Y-17.14691
G01 X-17.41536 Y-17.12420
G01 X-17.49715 Y-17.05516
G01 X-17.53517 Y-17.00977
G01 X-17.59913 Y-16.88617
G01 X-17.64556 Y-16.73034
G01 X-17.70002 Y-16.63822
G01 X-17.77573 Y-16.56253
G01 X-17.86786 Y-16.50802
G01 X-17.96865 Y-16.47876
G01 X-18.15790 Y-16.47627
G01 X-18.19920 Y-16.47193
G01 X-18.31604 Y-16.44754
G01 X-18.42846 Y-16.40218
G01 X-18.55861 Y-16.37629
G01 X-18.69133 Y-16.37629
G01 X-18.82148 Y-16.40218
G01 X-18.86257 Y-16.41653
G01 X-18.96875 Y-16.43791
G01 X-19.00804 Y-16.44223
G01 X-19.04749 Y-16.43964
G01 X-19.16214 Y-16.41683
G01 X-19.20855 Y-16.39994
G01 X-19.32079 Y-16.32712
G01 X-19.33382 Y-16.32496
G01 X-19.33638 Y-16.31493
G01 X-19.32079 Y-16.32712
G01 X-19.34588 Y-16.30639
G01 X-19.37195 Y-16.27668
G01 X-19.43692 Y-16.17944
G01 X-19.46077 Y-16.12524
G01 X-19.48739 Y-15.99143
G01 X-19.49089 Y-15.88237
G01 X-19.52051 Y-15.78036
G01 X-19.57476 Y-15.68864
G01 X-19.70156 Y-15.56131
G01 X-19.77441 Y-15.45394
G01 X-19.79826 Y-15.39974
G01 X-19.82381 Y-15.27424
G01 X-19.82627 Y-14.35771
G01 X-19.82130 Y-14.28953
G01 X-19.81228 Y-14.24879
G01 X-19.76618 Y-14.12740
G01 X-19.67210 Y-13.97279
G01 X-19.63308 Y-13.85501
G01 X-19.62628 Y-13.78839
G01 X-19.62628 Y-12.81153
G01 X-19.63308 Y-12.74493
G01 X-19.67210 Y-12.62713
G01 X-19.73636 Y-12.52296
G01 X-19.82295 Y-12.43637
G01 X-19.92714 Y-12.37211
G01 X-20.04494 Y-12.33307
G01 X-20.11152 Y-12.32629
G01 X-20.88843 Y-12.32629
G01 X-20.95500 Y-12.33307
G01 X-21.07281 Y-12.37211
G01 X-21.30250 Y-12.51900
G01 X-21.35045 Y-12.53673
G01 X-21.45990 Y-12.55867
G01 X-21.50008 Y-12.59307
G01 X-21.54110 Y-12.55847
G01 X-21.50491 Y-12.56223
G01 X-21.45990 Y-12.55867
G01 X-21.49503 Y-12.56223
G01 X-21.53445 Y-12.55964
G01 X-21.66917 Y-12.53094
G01 X-21.71532 Y-12.50894
G01 X-21.80524 Y-12.44730
G01 X-21.92716 Y-12.37211
G01 X-22.04494 Y-12.33307
G01 X-22.11151 Y-12.32629
G01 X-22.88845 Y-12.32629
G01 X-22.95500 Y-12.33307
G01 X-23.07280 Y-12.37211
G01 X-23.17702 Y-12.43637
G01 X-23.25403 Y-12.51186
G01 X-23.37841 Y-12.59393
G01 X-23.42482 Y-12.61082
G01 X-23.55187 Y-12.63518
G01 X-23.81354 Y-12.63576
G01 X-23.90196 Y-12.62314
G01 X-23.98230 Y-12.59594
G01 X-24.01222 Y-12.58115
G01 X-24.07056 Y-12.54547
G01 X-24.13955 Y-12.48430
G01 X-24.17755 Y-12.43587
G01 X-24.25888 Y-12.35291
G01 X-24.32215 Y-12.25677
G01 X-24.34806 Y-12.19985
G01 X-24.36320 Y-12.12875
G01 X-24.45443 Y-12.03965
G01 X-24.36335 Y-11.95197
G01 X-24.37376 Y-12.00544
G01 X-24.37638 Y-12.04491
G01 X-24.36320 Y-12.12875
G01 X-24.37506 Y-12.06467
G01 X-24.37592 Y-12.02512
G01 X-24.35309 Y-11.90041
G01 X-24.34201 Y-11.86249
G01 X-24.32454 Y-11.82705
G01 X-24.25885 Y-11.72881
G01 X-24.18428 Y-11.65078
G01 X-24.12124 Y-11.54854
G01 X-24.08293 Y-11.43297
G01 X-24.07628 Y-11.36777
G01 X-24.07628 Y-10.17217
G01 X-24.08293 Y-10.10696
G01 X-24.12124 Y-9.99139
G01 X-24.18428 Y-9.88919
G01 X-24.25200 Y-9.81992
G01 X-24.32949 Y-9.70437
G01 X-24.34839 Y-9.65876
G01 X-24.36330 Y-9.58822
G01 X-24.45436 Y-9.49957
G01 X-24.36335 Y-9.41197
G01 X-24.37376 Y-9.46544
G01 X-24.37638 Y-9.50491
G01 X-24.36330 Y-9.58822
G01 X-24.37506 Y-9.52467
G01 X-24.37592 Y-9.48512
G01 X-24.35309 Y-9.36041
G01 X-24.34201 Y-9.32249
G01 X-24.32454 Y-9.28705
G01 X-24.25885 Y-9.18881
G01 X-24.18428 Y-9.11078
G01 X-24.12124 Y-9.00854
G01 X-24.08293 Y-8.89297
G01 X-24.07628 Y-8.82777
G01 X-24.07628 Y-7.63217
G01 X-24.08293 Y-7.56696
G01 X-24.12124 Y-7.45139
G01 X-24.18428 Y-7.34919
G01 X-24.25235 Y-7.27956
G01 X-24.32489 Y-7.17258
G01 X-24.34874 Y-7.11838
G01 X-24.36358 Y-7.04817
G01 X-24.55865 Y-6.86476
G01 X-24.55570 Y-6.85955
G01 X-24.55865 Y-6.86476
G01 X-24.57785 Y-6.85485
G01 X-24.61971 Y-6.84436
G01 X-26.64163 Y-6.84868
G01 X-26.64323 Y-6.84220
G01 X-26.64163 Y-6.84868
G01 X-26.66248 Y-6.85488
G01 X-26.70012 Y-6.87664
G01 X-26.87630 Y-7.04789
G01 X-26.68179 Y-6.86491
G01 X-26.64163 Y-6.84868
G01 X-26.61996 Y-6.84660
G01 X-24.62007 Y-6.84670
G01 X-24.59855 Y-6.84875
G01 X-24.55865 Y-6.86476
G01 X-24.36358 Y-7.04817
G01 X-24.37541 Y-6.98429
G01 X-24.37628 Y-6.94477
G01 X-24.34577 Y-6.79145
G01 X-24.32492 Y-6.74670
G01 X-24.26561 Y-6.65754
G01 X-24.24509 Y-6.63123
G01 X-24.18466 Y-6.57045
G01 X-24.12169 Y-6.46834
G01 X-24.08344 Y-6.35284
G01 X-24.07679 Y-6.28772
G01 X-24.07679 Y-6.16679
G01 X-24.12335 Y-6.16679
G01 X-24.12525 Y-6.28899
G01 X-24.13437 Y-6.35147
G01 X-24.14867 Y-6.40210
G01 X-24.20323 Y-6.51139
G01 X-24.26769 Y-6.58708
G01 X-24.29657 Y-6.61248
G01 X-24.35494 Y-6.65218
G01 X-24.39739 Y-6.67474
G01 X-24.49446 Y-6.70690
G01 X-24.58999 Y-6.71678
G01 X-26.64998 Y-6.71678
G01 X-26.74302 Y-6.70717
G01 X-26.82893 Y-6.68089
G01 X-26.90330 Y-6.64195
G01 X-26.96710 Y-6.59244
G01 X-27.01762 Y-6.53755
G01 X-27.07119 Y-6.45091
G01 X-27.10231 Y-6.36527
G01 X-27.11628 Y-6.27151
G01 X-27.11663 Y-6.16679
G01 X-27.16317 Y-6.16679
G01 X-27.16317 Y-6.28772
G01 X-27.15651 Y-6.35284
G01 X-27.11826 Y-6.46834
G01 X-27.05529 Y-6.57045
G01 X-26.98074 Y-6.64842
G01 X-26.90553 Y-6.76402
G01 X-26.88651 Y-6.82005
G01 X-26.86583 Y-6.92508
G01 X-26.86322 Y-6.96455
G01 X-26.88651 Y-7.09920
G01 X-26.90553 Y-7.15521
G01 X-26.98072 Y-7.27078
G01 X-27.05567 Y-7.34921
G01 X-27.11872 Y-7.45139
G01 X-27.15702 Y-7.56696
G01 X-27.16367 Y-7.63217
G01 X-27.16367 Y-8.82777
G01 X-27.15702 Y-8.89297
G01 X-27.11872 Y-9.00854
G01 X-27.05567 Y-9.11075
G01 X-26.98793 Y-9.18002
G01 X-26.91044 Y-9.29561
G01 X-26.89154 Y-9.34123
G01 X-26.87663 Y-9.41172
G01 X-26.78562 Y-9.50036
G01 X-26.87660 Y-9.58799
G01 X-26.86616 Y-9.53445
G01 X-26.86357 Y-9.49503
G01 X-26.87663 Y-9.41172
G01 X-26.86487 Y-9.47527
G01 X-26.86401 Y-9.51479
G01 X-26.88684 Y-9.63950
G01 X-26.89789 Y-9.67748
G01 X-26.91539 Y-9.71293
G01 X-26.97467 Y-9.80206
G01 X-26.99522 Y-9.82835
G01 X-27.05567 Y-9.88921
G01 X-27.11872 Y-9.99139
G01 X-27.15702 Y-10.10696
G01 X-27.16367 Y-10.17217
G01 X-27.16367 Y-11.36777
G01 X-27.15702 Y-11.43297
G01 X-27.11872 Y-11.54854
G01 X-27.05567 Y-11.65075
G01 X-26.98793 Y-11.72002
G01 X-26.91044 Y-11.83561
G01 X-26.89154 Y-11.88123
G01 X-26.87663 Y-11.95172
G01 X-26.78575 Y-12.04023
G01 X-26.87668 Y-12.12847
G01 X-26.86357 Y-12.04491
G01 X-26.86616 Y-12.00546
G01 X-26.87663 Y-11.95172
G01 X-26.86487 Y-12.01527
G01 X-26.86401 Y-12.05479
G01 X-26.88684 Y-12.17950
G01 X-26.89789 Y-12.21748
G01 X-26.91539 Y-12.25293
G01 X-26.97467 Y-12.34206
G01 X-26.99522 Y-12.36835
G01 X-27.05567 Y-12.42921
G01 X-27.11872 Y-12.53139
G01 X-27.15702 Y-12.64696
G01 X-27.16367 Y-12.71217
G01 X-27.16367 Y-13.90777
G01 X-27.15702 Y-13.97297
G01 X-27.11872 Y-14.08854
G01 X-27.05567 Y-14.19075
G01 X-26.98793 Y-14.26002
G01 X-26.91044 Y-14.37561
G01 X-26.89154 Y-14.42123
G01 X-26.87658 Y-14.49197
G01 X-26.78580 Y-14.58054
G01 X-26.87660 Y-14.66799
G01 X-26.86357 Y-14.58491
G01 X-26.86616 Y-14.54546
G01 X-26.87658 Y-14.49197
G01 X-26.86487 Y-14.55527
G01 X-26.86401 Y-14.59479
G01 X-26.88684 Y-14.71950
G01 X-26.89789 Y-14.75748
G01 X-26.91539 Y-14.79293
G01 X-26.97467 Y-14.88206
G01 X-26.99522 Y-14.90835
G01 X-27.05567 Y-14.96921
G01 X-27.11872 Y-15.07139
G01 X-27.15702 Y-15.18696
G01 X-27.16367 Y-15.25217
G01 X-27.16367 Y-16.44777
G01 X-27.15702 Y-16.51297
G01 X-27.11872 Y-16.62854
G01 X-27.05567 Y-16.73075
G01 X-26.98793 Y-16.80002
G01 X-26.91044 Y-16.91561
G01 X-26.89154 Y-16.96123
G01 X-26.87663 Y-17.03172
G01 X-26.78562 Y-17.12036
G01 X-26.87660 Y-17.20799
G01 X-26.86616 Y-17.15445
G01 X-26.86357 Y-17.11503
G01 X-26.87663 Y-17.03172
G01 X-26.86487 Y-17.09527
G01 X-26.86401 Y-17.13479
G01 X-26.88684 Y-17.25950
G01 X-26.89789 Y-17.29748
G01 X-26.91539 Y-17.33293
G01 X-26.97467 Y-17.42206
G01 X-26.99522 Y-17.44835
G01 X-27.05567 Y-17.50921
G01 X-27.11872 Y-17.61139
G01 X-27.15702 Y-17.72696
G01 X-27.16367 Y-17.79217
G01 X-27.16367 Y-18.98777
G01 X-27.15702 Y-19.05297
G01 X-27.11872 Y-19.16854
G01 X-27.05567 Y-19.27075
G01 X-26.98793 Y-19.34002
G01 X-26.91044 Y-19.45561
G01 X-26.89154 Y-19.50123
G01 X-26.87663 Y-19.57172
G01 X-26.78562 Y-19.66036
G01 X-26.87660 Y-19.74799
G01 X-26.86616 Y-19.69445
G01 X-26.86357 Y-19.65503
G01 X-26.87663 Y-19.57172
G01 X-26.86487 Y-19.63527
G01 X-26.86401 Y-19.67479
G01 X-26.88684 Y-19.79950
G01 X-26.89789 Y-19.83748
G01 X-26.91539 Y-19.87293
G01 X-26.97467 Y-19.96206
G01 X-26.99522 Y-19.98835
G01 X-27.05567 Y-20.04921
G01 X-27.11872 Y-20.15139
G01 X-27.15702 Y-20.26696
G01 X-27.16367 Y-20.33217
G01 X-27.16367 Y-21.52777
G01 X-27.15702 Y-21.59297
G01 X-27.11872 Y-21.70854
G01 X-27.05567 Y-21.81078
G01 X-26.97074 Y-21.89569
G01 X-26.86855 Y-21.95873
G01 X-26.75298 Y-21.99701
G01 X-26.68778 Y-22.00366
G01 X-24.55217 Y-22.00366
G01 X-24.48697 Y-21.99701
G01 X-24.37140 Y-21.95873
G01 X-24.26922 Y-21.89569
G01 X-24.18428 Y-21.81078
G01 X-24.12124 Y-21.70854
G01 X-24.08293 Y-21.59297
G01 X-24.07628 Y-21.52777
G01 X-24.07628 Y-20.33217
G01 X-24.08293 Y-20.26696
G01 X-24.12124 Y-20.15139
G01 X-24.18428 Y-20.04919
G01 X-24.25200 Y-19.97992
G01 X-24.32949 Y-19.86437
G01 X-24.34839 Y-19.81876
G01 X-24.36330 Y-19.74822
G01 X-24.45436 Y-19.65957
G01 X-24.36335 Y-19.57197
G01 X-24.37376 Y-19.62544
G01 X-24.37638 Y-19.66491
G01 X-24.36330 Y-19.74822
G01 X-24.37506 Y-19.68467
G01 X-24.37592 Y-19.64512
G01 X-24.35309 Y-19.52041
G01 X-24.34201 Y-19.48249
G01 X-24.32454 Y-19.44705
G01 X-24.25885 Y-19.34881
G01 X-24.18428 Y-19.27078
G01 X-24.12124 Y-19.16854
G01 X-24.08293 Y-19.05297
G01 X-24.07628 Y-18.98777
G01 X-24.07628 Y-17.79217
G01 X-24.08293 Y-17.72696
G01 X-24.12124 Y-17.61139
G01 X-24.18428 Y-17.50919
G01 X-24.25200 Y-17.43992
G01 X-24.32454 Y-17.33293
G01 X-24.34839 Y-17.27876
G01 X-24.36330 Y-17.20822
G01 X-24.45436 Y-17.11957
G01 X-24.36335 Y-17.03197
G01 X-24.37376 Y-17.08544
G01 X-24.37638 Y-17.12491
G01 X-24.36330 Y-17.20822
G01 X-24.37506 Y-17.14467
G01 X-24.37592 Y-17.10512
G01 X-24.35309 Y-16.98041
G01 X-24.34201 Y-16.94249
G01 X-24.32454 Y-16.90705
G01 X-24.25885 Y-16.80881
G01 X-24.18428 Y-16.73078
G01 X-24.12124 Y-16.62854
G01 X-24.08293 Y-16.51297
G01 X-24.07628 Y-16.44777
G01 X-24.07628 Y-15.25217
G01 X-24.08293 Y-15.18696
G01 X-24.12124 Y-15.07139
G01 X-24.18428 Y-14.96919
G01 X-24.25200 Y-14.89992
G01 X-24.32454 Y-14.79293
G01 X-24.34839 Y-14.73876
G01 X-24.36330 Y-14.66822
G01 X-24.45393 Y-14.57998
G01 X-24.36330 Y-14.49172
G01 X-24.37376 Y-14.54544
G01 X-24.37638 Y-14.58491
G01 X-24.36330 Y-14.66822
G01 X-24.37506 Y-14.60467
G01 X-24.37592 Y-14.56512
G01 X-24.34839 Y-14.42121
G01 X-24.32454 Y-14.36705
G01 X-24.25200 Y-14.26002
G01 X-24.17554 Y-14.18201
G01 X-24.11773 Y-14.11387
G01 X-24.01225 Y-14.04084
G01 X-23.97760 Y-14.02182
G01 X-23.94974 Y-14.01168
G01 X-23.82426 Y-13.98613
G01 X-23.54288 Y-13.98394
G01 X-23.39523 Y-14.01168
G01 X-23.34103 Y-14.03553
G01 X-23.25190 Y-14.09482
G01 X-23.22561 Y-14.11536
G01 X-23.17702 Y-14.16357
G01 X-23.07280 Y-14.22784
G01 X-22.95500 Y-14.26688
G01 X-22.88845 Y-14.27366
G01 X-22.11151 Y-14.27366
G01 X-22.04494 Y-14.26688
G01 X-21.92365 Y-14.22667
G01 X-21.84834 Y-14.18377
G01 X-21.81939 Y-14.17137
G01 X-21.69371 Y-14.14417
G01 X-21.65441 Y-14.13985
G01 X-21.60524 Y-14.14417
G01 X-21.47202 Y-14.17417
G01 X-21.43656 Y-14.19164
G01 X-21.33636 Y-14.25890
G01 X-21.43656 Y-14.19164
G01 X-21.46287 Y-14.17795
G01 X-21.50031 Y-14.16525
G01 X-21.61497 Y-14.14244
G01 X-21.60621 Y-14.14399
G01 X-21.51451 Y-14.09365
G01 X-21.30958 Y-14.28267
G01 X-21.23084 Y-14.39428
G01 X-21.21601 Y-14.41999
G01 X-21.20168 Y-14.45684
G01 X-21.17392 Y-14.60497
G01 X-21.17562 Y-15.27284
G01 X-21.18423 Y-15.33403
G01 X-21.22134 Y-15.44541
G01 X-21.24392 Y-15.48935
G01 X-21.31083 Y-15.57381
G01 X-21.42493 Y-15.68823
G01 X-21.47943 Y-15.78036
G01 X-21.51078 Y-15.88833
G01 X-21.51078 Y-16.31160
G01 X-21.47941 Y-16.41958
G01 X-21.42493 Y-16.51173
G01 X-21.34847 Y-16.58818
G01 X-21.22640 Y-16.66215
G01 X-21.19625 Y-16.68605
G01 X-21.11157 Y-16.77975
G01 X-21.08088 Y-16.82885
G01 X-20.96498 Y-16.89743
G01 X-20.83539 Y-17.04503
G01 X-20.74200 Y-17.16344
G01 X-20.72503 Y-17.18104
G01 X-20.70471 Y-17.19463
G01 X-20.71210 Y-17.20853
G01 X-20.70471 Y-17.19463
G01 X-20.68195 Y-17.20352
G01 X-20.65779 Y-17.20733
G01 X-20.57245 Y-17.21203
G01 X-20.36409 Y-17.20888
G01 X-20.17906 Y-17.18856
G01 X-20.05587 Y-17.16613
G01 X-19.99379 Y-17.22793
G01 X-19.71109 Y-17.53164
G01 X-19.63712 Y-17.59280
G01 X-19.58094 Y-17.67108
G01 X-19.31175 Y-17.95851
G01 X-19.31543 Y-17.96382
G01 X-19.31175 Y-17.95851
G01 X-19.27593 Y-17.97627
G01 X-19.25625 Y-17.98015
G01 X-19.25704 Y-17.98442
G01 X-19.25625 Y-17.98015
G01 X-19.13004 Y-17.97807
G01 X-19.02066 Y-18.03565
G01 X-18.92003 Y-18.10052
G01 X-18.87111 Y-18.19206
G01 X-18.83994 Y-18.26646
G01 X-18.92816 Y-18.20725
G01 X-18.96283 Y-18.18825
G01 X-19.00029 Y-18.17553
G01 X-19.10525 Y-18.15445
G01 X-19.13466 Y-18.15056
G01 X-19.17418 Y-18.15142
G01 X-19.29864 Y-18.17553
G01 X-19.33608 Y-18.18823
G01 X-19.36239 Y-18.20192
G01 X-19.46834 Y-18.27360
G01 X-19.50479 Y-18.31083
G01 X-19.54868 Y-18.36778
G01 X-19.57542 Y-18.41142
G01 X-19.65104 Y-18.48703
G01 X-19.74306 Y-18.54147
G01 X-19.85094 Y-18.57281
G01 X-20.02318 Y-18.57317
G01 X-20.02318 Y-18.52679
G01 X-19.90087 Y-18.52648
G01 X-19.84802 Y-18.52110
G01 X-19.80601 Y-18.51055
G01 X-19.73008 Y-18.47959
G01 X-19.67100 Y-18.43875
G01 X-19.64792 Y-18.41815
G01 X-19.60176 Y-18.36247
G01 X-19.57951 Y-18.32534
G01 X-19.55208 Y-18.25892
G01 X-19.53651 Y-18.16933
G01 X-19.53570 Y-17.84998
G01 X-19.54566 Y-17.76428
G01 X-19.56928 Y-17.69537
G01 X-19.58289 Y-17.66758
G01 X-19.63712 Y-17.59280
G01 X-19.71109 Y-17.53164
G01 X-19.97641 Y-17.24642
G01 X-20.82691 Y-17.24642
G01 X-20.91632 Y-17.32427
G01 X-20.82691 Y-17.24642
G01 X-20.81113 Y-17.17650
G01 X-20.80430 Y-17.08381
G01 X-20.96498 Y-16.89743
G01 X-21.08088 Y-16.82885
G01 X-21.03773 Y-16.94947
G01 X-21.02863 Y-16.99798
G01 X-21.03443 Y-17.13451
G01 X-21.04789 Y-17.19219
G01 X-21.10222 Y-17.30680
G01 X-21.13671 Y-17.35488
G01 X-21.24052 Y-17.44756
G01 X-21.34893 Y-17.51292
G01 X-21.35916 Y-17.52316
G01 X-21.27344 Y-17.52316
G01 X-21.23333 Y-17.50258
G01 X-21.17771 Y-17.48432
G01 X-21.08749 Y-17.47319
G01 X-19.91248 Y-17.47319
G01 X-19.83095 Y-17.48249
G01 X-19.79122 Y-17.49364
G01 X-19.71670 Y-17.52803
G01 X-19.64433 Y-17.58541
G01 X-19.61756 Y-17.61680
G01 X-19.58094 Y-17.67108
G01 X-19.31175 Y-17.95851
G01 X-19.27593 Y-17.97627
G01 X-19.25625 Y-17.98015
G01 X-19.13004 Y-17.97807
G01 X-19.02066 Y-18.03565
G01 X-18.92003 Y-18.10052
G01 X-18.87111 Y-18.19206
G01 X-18.83994 Y-18.26646
G01 X-18.81657 Y-18.28597
G01 X-18.79051 Y-18.31569
G01 X-18.71602 Y-18.43027
G01 X-18.69912 Y-18.47670
G01 X-18.67614 Y-18.59262
G01 X-18.67367 Y-19.53598
G01 X-18.67804 Y-19.58020
G01 X-18.69912 Y-19.68515
G01 X-18.72059 Y-19.74035
G01 X-18.79808 Y-19.85592
G01 X-18.86359 Y-19.92297
G01 X-18.92785 Y-20.02714
G01 X-18.96687 Y-20.14494
G01 X-18.97367 Y-20.21154
G01 X-18.97367 Y-20.98843
G01 X-18.96687 Y-21.05500
G01 X-18.92785 Y-21.17283
G01 X-18.78096 Y-21.40250
G01 X-18.76323 Y-21.45045
G01 X-18.74114 Y-21.56082
G01 X-18.70692 Y-21.60003
G01 X-18.74124 Y-21.63956
G01 X-18.73773 Y-21.60491
G01 X-18.74114 Y-21.56082
G01 X-18.73773 Y-21.59503
G01 X-18.74032 Y-21.63445
G01 X-18.76321 Y-21.74951
G01 X-18.77258 Y-21.77877
G01 X-18.79102 Y-21.81532
G01 X-18.85267 Y-21.90524
G01 X-18.92785 Y-22.02713
G01 X-18.96687 Y-22.14494
G01 X-18.97367 Y-22.21154
G01 X-18.97367 Y-22.98842
G01 X-18.96687 Y-23.05500
G01 X-18.92785 Y-23.17283
G01 X-18.86359 Y-23.27702
G01 X-18.79808 Y-23.34405
G01 X-18.72059 Y-23.45959
G01 X-18.69912 Y-23.51479
G01 X-18.67477 Y-23.64174
G01 X-18.67395 Y-26.03358
G01 X-18.69912 Y-26.17160
G01 X-18.72059 Y-26.22680
G01 X-18.79122 Y-26.33360
G01 X-18.85709 Y-26.40292
G01 X-18.96105 Y-26.54600
G01 X-19.04136 Y-26.70363
G01 X-19.09600 Y-26.87183
G01 X-19.12366 Y-27.04653
G01 X-19.12366 Y-27.22342
G01 X-19.09600 Y-27.39812
G01 X-19.04136 Y-27.56634
G01 X-18.96064 Y-27.72468
G01 X-18.80446 Y-27.94747
G01 X-18.77941 Y-28.00325
G01 X-18.76958 Y-28.03507
G01 X-18.75249 Y-28.11435
G01 X-18.74970 Y-28.17183
G01 X-18.66999 Y-28.31589
G01 X-18.80946 Y-28.39951
G01 X-18.79206 Y-28.36713
G01 X-18.76720 Y-28.29944
G01 X-18.75107 Y-28.20863
G01 X-18.74970 Y-28.17183
G01 X-18.75107 Y-28.20863
G01 X-18.76720 Y-28.29944
G01 X-18.79206 Y-28.36713
G01 X-18.80763 Y-28.39662
G01 X-18.85757 Y-28.47216
G01 X-18.92457 Y-28.53957
G01 X-19.04667 Y-28.63101
G01 X-19.09267 Y-28.69245
G01 X-19.12160 Y-28.77002
G01 X-19.12160 Y-30.57992
G01 X-19.09267 Y-30.65750
G01 X-19.04550 Y-30.72049
G01 X-18.98249 Y-30.76765
G01 X-18.90489 Y-30.79661
G01 X-18.88571 Y-30.79867
G01 X-17.11424 Y-30.79867
G01 X-17.09506 Y-30.79661
G01 X-17.01747 Y-30.76765
G01 X-16.95445 Y-30.72049
G01 X-16.90728 Y-30.65750
G01 X-16.87835 Y-30.57992
G01 X-16.87629 Y-30.56072
G01 X-16.87601 Y-29.68998
G01 X-16.85079 Y-29.55188
G01 X-16.82935 Y-29.49672
G01 X-16.76512 Y-29.39903
G01 X-16.73690 Y-29.36469
G01 X-15.47668 Y-28.10441
G01 X-15.40294 Y-27.99408
G01 X-15.35217 Y-27.87150
G01 X-15.32628 Y-27.74132
G01 X-15.32628 Y-7.93361
G01 X-15.35217 Y-7.80346
G01 X-15.40294 Y-7.68086
G01 X-15.47668 Y-7.57050
G01 X-20.42053 Y-2.62666
G01 X-20.53085 Y-2.55293
G01 X-20.65345 Y-2.50215
G01 X-20.78363 Y-2.47627
G01 X-23.79101 Y-2.47627
G01 X-23.87473 Y-2.46802
G01 X-23.91435 Y-2.45976
G01 X-24.03112 Y-2.40858
G01 X-24.07435 Y-2.38265
G01 X-24.26922 Y-2.18427
G01 X-24.37140 Y-2.12123
G01 X-24.43803 Y-2.09812
G01 X-24.51941 Y-2.05781
G01 X-24.54666 Y-2.03995
G01 X-24.63909 Y-1.94897
G01 X-24.66487 Y-1.91740
G01 X-24.79632 Y-1.84536
G01 X-24.88410 Y-1.78603
G01 X-25.09289 Y-1.61000
G01 X-25.18689 Y-1.51468
G01 X-25.17597 Y-1.45324
G01 X-25.15644 Y-1.38397
G01 X-25.08722 Y-1.21856
G01 X-25.03007 Y-1.12133
G01 X-24.99233 Y-1.07269
G01 X-24.95027 Y-1.02756
G01 X-24.99233 Y-1.07269
G01 X-25.03007 Y-1.12133
G01 X-25.08722 Y-1.21856
G01 X-25.15644 Y-1.38397
G01 X-25.17597 Y-1.45324
G01 X-25.18689 Y-1.51468
G01 X-25.09289 Y-1.61000
G01 X-24.96657 Y-1.71648
G01 X-25.09289 Y-1.61000
G01 X-25.18413 Y-1.51783
G01 X-25.36952 Y-1.30637
G01 X-25.28166 Y-1.10033
G01 X-25.36952 Y-1.30637
G01 X-25.48420 Y-1.14722
G01 X-25.17498 Y-1.07561
G01 X-24.62863 Y-0.95882
G01 X-24.08037 Y-0.85128
G01 X-23.53038 Y-0.75303
G01 X-22.97880 Y-0.66408
G01 X-22.42579 Y-0.58450
G01 X-21.87153 Y-0.51430
G01 X-21.31614 Y-0.45349
G01 X-20.75983 Y-0.40206
G01 X-20.20270 Y-0.36007
G01 X-19.64494 Y-0.32751
G01 X-19.08673 Y-0.30439
G01 X-18.52821 Y-0.29073
G01 X-17.96951 Y-0.28651
G01 X-17.41084 Y-0.29177
G01 X-16.85234 Y-0.30645
G01 X-16.29415 Y-0.33061
G01 X-15.73647 Y-0.36419
G01 X-15.17942 Y-0.40721
G01 X-14.62319 Y-0.45966
G01 X-14.06792 Y-0.52151
G01 X-13.51379 Y-0.59273
G01 X-12.96093 Y-0.67335
G01 X-12.40953 Y-0.76330
G01 X-11.90963 Y-0.85314
G01 X-11.36139 Y-0.96086
G01 X-11.04389 Y-1.02885
G01 X-10.97260 Y-1.12032
G01 X-10.87963 Y-1.28552
G01 X-10.84014 Y-1.39121
G01 X-10.82614 Y-1.45120
G01 X-10.81679 Y-1.51643
G01 X-10.70559 Y-1.39421
G01 X-10.63114 Y-1.29903
G01 X-10.67338 Y-1.19129
G01 X-10.72236 Y-1.09934
G01 X-11.04389 Y-1.02885
G01 X-10.51288 Y-1.14788
G01 X-10.70559 Y-1.39421
G01 X-10.79718 Y-1.49786
G01 X-11.04029 Y-1.72801
G01 X-11.12845 Y-1.79514
G01 X-11.27844 Y-1.88887
G01 X-11.34100 Y-1.91945
G01 X-11.27844 Y-1.88887
G01 X-11.12845 Y-1.79514
G01 X-11.03196 Y-1.72016
G01 X-11.03178 Y-1.62601
G01 X-11.04628 Y-1.50939
G01 X-11.05690 Y-1.45816
G01 X-11.08596 Y-1.37970
G01 X-11.15342 Y-1.25880
G01 X-11.19335 Y-1.20221
G01 X-11.23412 Y-1.15903
G01 X-11.34900 Y-1.06751
G01 X-11.40018 Y-1.03457
G01 X-11.46482 Y-1.00518
G01 X-11.59114 Y-0.96566
G01 X-12.45789 Y-0.80264
G01 X-13.55951 Y-0.63393
G01 X-14.65791 Y-0.50335
G01 X-15.76906 Y-0.40914
G01 X-16.88915 Y-0.35227
G01 X-18.00421 Y-0.33350
G01 X-19.11850 Y-0.35248
G01 X-20.22325 Y-0.40853
G01 X-21.34967 Y-0.50419
G01 X-22.44806 Y-0.63503
G01 X-23.55032 Y-0.80404
G01 X-24.40823 Y-0.96553
G01 X-24.48387 Y-0.98852
G01 X-24.58316 Y-1.02855
G01 X-24.63610 Y-1.05542
G01 X-24.70038 Y-1.10155
G01 X-24.80625 Y-1.20460
G01 X-24.83963 Y-1.24488
G01 X-24.86812 Y-1.28875
G01 X-24.92952 Y-1.42494
G01 X-24.95410 Y-1.50015
G01 X-24.96523 Y-1.57851
G01 X-24.96657 Y-1.71648
G01 X-24.88410 Y-1.78603
G01 X-24.79632 Y-1.84536
G01 X-24.66487 Y-1.91740
G01 X-24.68367 Y-1.88389
G01 X-24.72378 Y-1.78465
G01 X-24.73848 Y-1.72735
G01 X-24.73805 Y-1.58085
G01 X-24.73079 Y-1.54193
G01 X-24.72093 Y-1.51392
G01 X-24.67874 Y-1.41557
G01 X-24.65862 Y-1.38158
G01 X-24.63985 Y-1.35865
G01 X-24.55634 Y-1.27681
G01 X-24.53300 Y-1.25847
G01 X-24.49853 Y-1.23904
G01 X-24.38885 Y-1.19499
G01 X-24.35659 Y-1.18643
G01 X-23.51593 Y-1.02829
G01 X-22.41370 Y-0.85918
G01 X-21.31525 Y-0.72857
G01 X-20.20410 Y-0.63457
G01 X-19.11464 Y-0.57927
G01 X-18.00804 Y-0.56030
G01 X-16.88531 Y-0.57927
G01 X-15.78821 Y-0.63508
G01 X-14.68471 Y-0.72857
G01 X-13.59385 Y-0.85814
G01 X-12.49977 Y-1.02560
G01 X-11.63305 Y-1.18864
G01 X-11.53676 Y-1.22039
G01 X-11.49802 Y-1.24005
G01 X-11.39589 Y-1.31851
G01 X-11.36813 Y-1.34671
G01 X-11.35073 Y-1.37079
G01 X-11.29302 Y-1.47249
G01 X-11.27816 Y-1.50912
G01 X-11.27133 Y-1.53797
G01 X-11.25690 Y-1.65395
G01 X-11.25718 Y-1.69354
G01 X-11.26190 Y-1.72286
G01 X-11.29017 Y-1.82611
G01 X-11.30397 Y-1.86314
G01 X-11.32987 Y-1.90518
G01 X-11.39584 Y-1.98951
G01 X-11.42401 Y-2.01724
G01 X-11.45657 Y-2.03970
G01 X-11.55085 Y-2.09291
G01 X-11.62855 Y-2.12123
G01 X-11.73074 Y-2.18427
G01 X-11.81567 Y-2.26921
G01 X-11.87872 Y-2.37139
G01 X-11.91702 Y-2.48696
G01 X-11.92367 Y-2.55217
G01 X-11.92367 Y-3.74777
G01 X-11.91702 Y-3.81297
G01 X-11.87872 Y-3.92854
G01 X-11.81567 Y-4.03075
G01 X-11.74793 Y-4.10002
G01 X-11.67044 Y-4.21561
G01 X-11.65154 Y-4.26123
G01 X-11.63663 Y-4.33172
G01 X-11.54562 Y-4.42036
G01 X-11.63660 Y-4.50799
G01 X-11.62616 Y-4.45445
G01 X-11.62357 Y-4.41503
G01 X-11.63663 Y-4.33172
G01 X-11.62487 Y-4.39527
G01 X-11.62401 Y-4.43479
G01 X-11.64684 Y-4.55950
G01 X-11.65789 Y-4.59748
G01 X-11.67539 Y-4.63293
G01 X-11.73467 Y-4.72206
G01 X-11.75522 Y-4.74835
G01 X-11.81567 Y-4.80921
G01 X-11.87872 Y-4.91139
G01 X-11.91702 Y-5.02696
G01 X-11.92367 Y-5.09217
G01 X-11.92367 Y-6.28777
G01 X-11.91702 Y-6.35295
G01 X-11.87872 Y-6.46852
G01 X-11.81567 Y-6.57075
G01 X-11.74793 Y-6.63999
G01 X-11.67044 Y-6.75561
G01 X-11.65154 Y-6.80123
G01 X-11.63663 Y-6.87172
G01 X-11.54562 Y-6.96036
G01 X-11.63660 Y-7.04799
G01 X-11.62616 Y-6.99445
G01 X-11.62357 Y-6.95503
G01 X-11.63663 Y-6.87172
G01 X-11.62487 Y-6.93527
G01 X-11.62401 Y-6.97479
G01 X-11.64684 Y-7.09950
G01 X-11.65789 Y-7.13748
G01 X-11.67539 Y-7.17293
G01 X-11.73467 Y-7.26206
G01 X-11.75522 Y-7.28835
G01 X-11.81567 Y-7.34921
G01 X-11.87872 Y-7.45139
G01 X-11.91702 Y-7.56696
G01 X-11.92367 Y-7.63217
G01 X-11.92367 Y-8.82777
G01 X-11.91702 Y-8.89297
G01 X-11.87872 Y-9.00854
G01 X-11.81567 Y-9.11075
G01 X-11.74793 Y-9.18002
G01 X-11.67044 Y-9.29561
G01 X-11.65154 Y-9.34123
G01 X-11.63663 Y-9.41172
G01 X-11.54562 Y-9.50036
G01 X-11.63660 Y-9.58799
G01 X-11.62616 Y-9.53445
G01 X-11.62357 Y-9.49503
G01 X-11.63663 Y-9.41172
G01 X-11.62487 Y-9.47527
G01 X-11.62401 Y-9.51479
G01 X-11.64684 Y-9.63950
G01 X-11.65789 Y-9.67748
G01 X-11.67539 Y-9.71293
G01 X-11.73467 Y-9.80206
G01 X-11.75522 Y-9.82835
G01 X-11.81567 Y-9.88921
G01 X-11.87872 Y-9.99139
G01 X-11.91702 Y-10.10696
G01 X-11.92367 Y-10.17217
G01 X-11.92367 Y-11.36777
G01 X-11.91702 Y-11.43297
G01 X-11.87872 Y-11.54854
G01 X-11.81567 Y-11.65075
G01 X-11.74793 Y-11.72002
G01 X-11.67044 Y-11.83561
G01 X-11.65154 Y-11.88123
G01 X-11.63663 Y-11.95172
G01 X-11.54562 Y-12.04036
G01 X-11.63660 Y-12.12799
G01 X-11.62616 Y-12.07445
G01 X-11.62357 Y-12.03503
G01 X-11.63663 Y-11.95172
G01 X-11.62487 Y-12.01527
G01 X-11.62401 Y-12.05479
G01 X-11.64684 Y-12.17950
G01 X-11.65789 Y-12.21748
G01 X-11.67539 Y-12.25293
G01 X-11.73467 Y-12.34206
G01 X-11.75522 Y-12.36835
G01 X-11.81567 Y-12.42921
G01 X-11.87872 Y-12.53139
G01 X-11.91702 Y-12.64696
G01 X-11.92367 Y-12.71217
G01 X-11.92367 Y-13.90777
G01 X-11.91702 Y-13.97297
G01 X-11.87872 Y-14.08854
G01 X-11.81567 Y-14.19075
G01 X-11.74793 Y-14.26002
G01 X-11.67044 Y-14.37561
G01 X-11.65154 Y-14.42123
G01 X-11.63663 Y-14.49172
G01 X-11.54562 Y-14.58036
G01 X-11.63660 Y-14.66799
G01 X-11.62616 Y-14.61445
G01 X-11.62357 Y-14.57503
G01 X-11.63663 Y-14.49172
G01 X-11.62487 Y-14.55527
G01 X-11.62401 Y-14.59479
G01 X-11.64684 Y-14.71950
G01 X-11.65789 Y-14.75748
G01 X-11.67539 Y-14.79293
G01 X-11.73467 Y-14.88206
G01 X-11.75522 Y-14.90835
G01 X-11.81567 Y-14.96921
G01 X-11.87872 Y-15.07139
G01 X-11.91702 Y-15.18696
G01 X-11.92367 Y-15.25217
G01 X-11.92367 Y-16.44777
G01 X-11.91702 Y-16.51297
G01 X-11.87872 Y-16.62854
G01 X-11.81567 Y-16.73075
G01 X-11.74793 Y-16.80002
G01 X-11.67044 Y-16.91561
G01 X-11.65154 Y-16.96123
G01 X-11.63663 Y-17.03172
G01 X-11.54562 Y-17.12036
G01 X-11.63660 Y-17.20799
G01 X-11.62616 Y-17.15445
G01 X-11.62357 Y-17.11503
G01 X-11.63663 Y-17.03172
G01 X-11.62487 Y-17.09527
G01 X-11.62401 Y-17.13479
G01 X-11.64684 Y-17.25950
G01 X-11.65789 Y-17.29748
G01 X-11.67539 Y-17.33293
G01 X-11.73467 Y-17.42206
G01 X-11.75522 Y-17.44835
G01 X-11.81567 Y-17.50921
G01 X-11.87872 Y-17.61139
G01 X-11.91702 Y-17.72696
G01 X-11.92367 Y-17.79217
G01 X-11.92367 Y-18.98777
G01 X-11.91702 Y-19.05297
G01 X-11.87872 Y-19.16854
G01 X-11.81567 Y-19.27075
G01 X-11.74793 Y-19.34002
G01 X-11.67044 Y-19.45561
G01 X-11.65154 Y-19.50123
G01 X-11.63663 Y-19.57172
G01 X-11.54562 Y-19.66036
G01 X-11.63660 Y-19.74799
G01 X-11.62616 Y-19.69445
G01 X-11.62357 Y-19.65503
G01 X-11.63663 Y-19.57172
G01 X-11.62487 Y-19.63527
G01 X-11.62401 Y-19.67479
G01 X-11.64684 Y-19.79950
G01 X-11.65789 Y-19.83748
G01 X-11.67539 Y-19.87293
G01 X-11.73467 Y-19.96206
G01 X-11.75522 Y-19.98835
G01 X-11.81567 Y-20.04921
G01 X-11.87872 Y-20.15139
G01 X-11.91702 Y-20.26696
G01 X-11.92367 Y-20.33217
G01 X-11.92367 Y-21.52777
G01 X-11.91702 Y-21.59297
G01 X-11.87872 Y-21.70854
G01 X-11.81567 Y-21.81078
G01 X-11.73074 Y-21.89569
G01 X-11.62855 Y-21.95873
G01 X-11.51298 Y-21.99701
G01 X-11.44778 Y-22.00366
G01 X-9.31217 Y-22.00366
G01 X-9.24697 Y-21.99701
G01 X-9.13140 Y-21.95873
G01 X-9.02922 Y-21.89569
G01 X-8.94428 Y-21.81078
G01 X-8.88124 Y-21.70854
G01 X-8.84293 Y-21.59297
G01 X-8.83628 Y-21.52777
G01 X-8.83628 Y-20.33217
G01 X-8.84293 Y-20.26696
G01 X-8.88124 Y-20.15139
G01 X-8.94428 Y-20.04919
G01 X-9.01200 Y-19.97992
G01 X-9.08949 Y-19.86437
G01 X-9.10839 Y-19.81876
G01 X-9.12330 Y-19.74822
G01 X-9.21436 Y-19.65957
G01 X-9.12335 Y-19.57197
G01 X-9.13376 Y-19.62544
G01 X-9.13638 Y-19.66491
G01 X-9.12330 Y-19.74822
G01 X-9.13506 Y-19.68467
G01 X-9.13592 Y-19.64512
G01 X-9.11309 Y-19.52041
G01 X-9.10201 Y-19.48249
G01 X-9.08454 Y-19.44705
G01 X-9.01885 Y-19.34881
G01 X-8.94428 Y-19.27078
G01 X-8.88124 Y-19.16854
G01 X-8.84293 Y-19.05297
G01 X-8.83628 Y-18.98777
G01 X-8.83628 Y-17.79217
G01 X-8.84293 Y-17.72696
G01 X-8.88124 Y-17.61139
G01 X-8.94428 Y-17.50919
G01 X-9.01200 Y-17.43992
G01 X-9.08454 Y-17.33293
G01 X-9.10839 Y-17.27876
G01 X-9.12330 Y-17.20822
G01 X-9.21436 Y-17.11957
G01 X-9.12335 Y-17.03197
G01 X-9.13376 Y-17.08544
G01 X-9.13638 Y-17.12491
G01 X-9.12330 Y-17.20822
G01 X-9.13506 Y-17.14467
G01 X-9.13592 Y-17.10512
G01 X-9.11309 Y-16.98041
G01 X-9.10201 Y-16.94249
G01 X-9.08454 Y-16.90705
G01 X-9.01885 Y-16.80881
G01 X-8.94428 Y-16.73078
G01 X-8.88124 Y-16.62854
G01 X-8.84293 Y-16.51297
G01 X-8.83628 Y-16.44777
G01 X-8.83628 Y-15.25217
G01 X-8.84293 Y-15.18696
G01 X-8.88124 Y-15.07139
G01 X-8.94428 Y-14.96919
G01 X-9.01200 Y-14.89992
G01 X-9.08454 Y-14.79293
G01 X-9.10839 Y-14.73876
G01 X-9.12330 Y-14.66822
G01 X-9.21436 Y-14.57957
G01 X-9.12335 Y-14.49197
G01 X-9.13376 Y-14.54544
G01 X-9.13638 Y-14.58491
G01 X-9.12330 Y-14.66822
G01 X-9.13506 Y-14.60467
G01 X-9.13592 Y-14.56512
G01 X-9.11309 Y-14.44041
G01 X-9.10201 Y-14.40249
G01 X-9.08454 Y-14.36705
G01 X-9.01885 Y-14.26881
G01 X-8.94428 Y-14.19078
G01 X-8.88124 Y-14.08854
G01 X-8.84293 Y-13.97297
G01 X-8.83628 Y-13.90777
G01 X-8.83628 Y-12.71217
G01 X-8.84293 Y-12.64696
G01 X-8.88124 Y-12.53139
G01 X-8.94428 Y-12.42919
G01 X-9.01200 Y-12.35992
G01 X-9.08454 Y-12.25293
G01 X-9.10839 Y-12.19876
G01 X-9.12330 Y-12.12822
G01 X-9.21436 Y-12.03957
G01 X-9.12335 Y-11.95197
G01 X-9.13376 Y-12.00544
G01 X-9.13638 Y-12.04491
G01 X-9.12330 Y-12.12822
G01 X-9.13506 Y-12.06467
