( pcb2gcode 2.5.0 )
( Software-independent Gcode )

G94 ( Millimeters per minute feed rate. )
G21 ( Units == Millimeters. )

G90 ( Absolute coordinates. )
G00 S13000 ( RPM spindle speed. )
G01 F120.00000 ( Feedrate. )


G00 Z15.00000 (Retract to tool change height)
T1
M5      (Spindle stop.)
G04 P1.00000 (Wait for spindle to stop)
(MSG, Change tool bit to cutter diameter 1.00000mm)
M6      (Tool change.)
M0      (Temporary machine stop.)
M3 ( Spindle on clockwise. )
G04 P1.00000 (Wait for spindle to get up to speed)
G04 P0 ( dwell for no time -- G64 should not smooth over this point )
G00 Z2.00000 ( retract )

G00 X-0.49997 Y-4.99999 ( rapid move to begin. )
G01 Z-0.50000 F60.00000 ( plunge. )
G04 P0 ( dwell for no time -- G64 should not smooth over this point )
G01 F120.00000
G01 X-0.50371 Y-4.93906
G01 X-0.51483 Y-4.87904
G01 X-0.53317 Y-4.82082
G01 X-0.56335 Y-4.75635
G01 X-0.59629 Y-4.70494
G01 X-0.63525 Y-4.65795
G01 X-0.67965 Y-4.61607
G01 X-0.72880 Y-4.57990
G01 X-1.22748 Y-4.28556
G01 X-1.72829 Y-4.00177
G01 X-2.21897 Y-3.73459
G01 X-2.72153 Y-3.47177
G01 X-3.23609 Y-3.21376
G01 X-3.74736 Y-2.96822
G01 X-4.25501 Y-2.73484
G01 X-4.77418 Y-2.50662
G01 X-5.29720 Y-2.28719
G01 X-5.82384 Y-2.07668
G01 X-6.36191 Y-1.87216
G01 X-6.89539 Y-1.67973
G01 X-7.43214 Y-1.49629
G01 X-7.97184 Y-1.32204
G01 X-8.50631 Y-1.15931
G01 X-9.05972 Y-1.00099
G01 X-9.60760 Y-0.85430
G01 X-10.15787 Y-0.71694
G01 X-10.70214 Y-0.59073
G01 X-11.26498 Y-0.47023
G01 X-11.82119 Y-0.36101
G01 X-12.32903 Y-0.26980
G01 X-12.88044 Y-0.17986
G01 X-13.44163 Y-0.09794
G01 X-14.01254 Y-0.02456
G01 X-14.56781 Y0.03726
G01 X-15.13246 Y0.09058
G01 X-15.70639 Y0.13490
G01 X-16.26408 Y0.16848
G01 X-16.83918 Y0.19337
G01 X-17.40611 Y0.20820
G01 X-17.96478 Y0.21346
G01 X-18.54043 Y0.20912
G01 X-19.10740 Y0.19517
G01 X-19.67408 Y0.17163
G01 X-20.24027 Y0.13851
G01 X-20.80585 Y0.09581
G01 X-21.37054 Y0.04354
G01 X-21.92594 Y-0.01725
G01 X-22.48860 Y-0.08847
G01 X-23.04999 Y-0.16916
G01 X-23.61829 Y-0.26081
G01 X-24.16828 Y-0.35905
G01 X-24.73312 Y-0.46985
G01 X-25.27948 Y-0.58664
G01 X-25.83205 Y-0.71453
G01 X-26.39057 Y-0.85385
G01 X-26.93030 Y-0.99825
G01 X-27.48374 Y-1.15639
G01 X-28.01828 Y-1.31895
G01 X-28.56611 Y-1.49573
G01 X-29.10279 Y-1.67909
G01 X-29.62839 Y-1.86858
G01 X-30.16651 Y-2.07294
G01 X-30.69321 Y-2.28331
G01 X-31.21627 Y-2.50253
G01 X-31.72783 Y-2.72715
G01 X-32.25089 Y-2.96743
G01 X-32.75457 Y-3.20919
G01 X-33.26922 Y-3.46707
G01 X-33.77189 Y-3.72974
G01 X-34.27004 Y-4.00088
G01 X-34.76353 Y-4.28041
G01 X-35.24496 Y-4.56390
G01 X-35.29556 Y-4.59801
G01 X-35.34164 Y-4.63804
G01 X-35.37608 Y-4.67550
G01 X-35.40653 Y-4.71625
G01 X-35.43737 Y-4.76893
G01 X-35.46155 Y-4.82498
G01 X-35.47872 Y-4.88353
G01 X-35.48865 Y-4.94375
G01 X-35.49127 Y-4.99458
G01 X-35.49947 Y-29.55572
G01 X-35.49594 Y-29.66786
G01 X-35.48314 Y-29.84307
G01 X-35.46119 Y-30.01942
G01 X-35.43038 Y-30.19440
G01 X-35.39071 Y-30.36763
G01 X-35.34595 Y-30.52641
G01 X-35.26688 Y-30.75577
G01 X-35.19076 Y-30.93801
G01 X-35.11956 Y-31.08681
G01 X-35.03503 Y-31.24309
G01 X-34.93562 Y-31.40553
G01 X-34.84263 Y-31.54187
G01 X-34.73534 Y-31.68353
G01 X-34.61626 Y-31.82478
G01 X-34.46302 Y-31.98655
G01 X-34.32843 Y-32.11309
G01 X-34.18723 Y-32.23232
G01 X-34.00661 Y-32.36760
G01 X-33.89422 Y-32.44291
G01 X-33.74601 Y-32.53329
G01 X-33.64799 Y-32.58769
G01 X-33.50250 Y-32.66092
G01 X-33.33036 Y-32.73727
G01 X-33.20605 Y-32.78548
G01 X-33.05195 Y-32.83814
G01 X-32.94449 Y-32.87006
G01 X-32.76603 Y-32.91510
G01 X-32.64583 Y-32.93986
G01 X-32.46402 Y-32.96902
G01 X-32.35272 Y-32.98213
G01 X-32.19033 Y-32.99465
G01 X-32.05919 Y-32.99948
G01 X-3.94962 Y-32.99960
G01 X-3.77502 Y-32.99275
G01 X-3.61066 Y-32.97812
G01 X-3.41506 Y-32.95071
G01 X-3.17757 Y-32.90184
G01 X-3.01808 Y-32.85942
G01 X-2.84213 Y-32.80288
G01 X-2.61615 Y-32.71464
G01 X-2.46614 Y-32.64596
G01 X-2.30848 Y-32.56410
G01 X-2.14086 Y-32.46511
G01 X-1.96383 Y-32.34670
G01 X-1.81864 Y-32.23704
G01 X-1.64160 Y-32.08609
G01 X-1.50838 Y-31.95800
G01 X-1.38687 Y-31.82841
G01 X-1.27338 Y-31.69442
G01 X-1.19809 Y-31.59750
G01 X-1.09174 Y-31.44723
G01 X-1.02535 Y-31.34406
G01 X-0.94264 Y-31.20375
G01 X-0.88969 Y-31.10492
G01 X-0.80957 Y-30.93916
G01 X-0.75722 Y-30.81665
G01 X-0.69934 Y-30.66438
G01 X-0.66378 Y-30.55803
G01 X-0.61552 Y-30.39133
G01 X-0.56126 Y-30.15206
G01 X-0.54186 Y-30.03951
G01 X-0.51821 Y-29.85694
G01 X-0.50729 Y-29.72412
G01 X-0.50038 Y-29.55077
G01 X-0.49997 Y-4.99999
G01 Z-1.00000 F60.00000 ( plunge. )
G04 P0 ( dwell for no time -- G64 should not smooth over this point )
G01 F120.00000
G01 X-0.50371 Y-4.93906
G01 X-0.51483 Y-4.87904
G01 X-0.53317 Y-4.82082
G01 X-0.56335 Y-4.75635
G01 X-0.59629 Y-4.70494
G01 X-0.63525 Y-4.65795
G01 X-0.67965 Y-4.61607
G01 X-0.72880 Y-4.57990
G01 X-1.22748 Y-4.28556
G01 X-1.72829 Y-4.00177
G01 X-2.21897 Y-3.73459
G01 X-2.72153 Y-3.47177
G01 X-3.23609 Y-3.21376
G01 X-3.74736 Y-2.96822
G01 X-4.25501 Y-2.73484
G01 X-4.77418 Y-2.50662
G01 X-5.29720 Y-2.28719
G01 X-5.82384 Y-2.07668
G01 X-6.36191 Y-1.87216
G01 X-6.89539 Y-1.67973
G01 X-7.43214 Y-1.49629
G01 X-7.97184 Y-1.32204
G01 X-8.50631 Y-1.15931
G01 X-9.05972 Y-1.00099
G01 X-9.60760 Y-0.85430
G01 X-10.15787 Y-0.71694
G01 X-10.70214 Y-0.59073
G01 X-11.26498 Y-0.47023
G01 X-11.82119 Y-0.36101
G01 X-12.32903 Y-0.26980
G01 X-12.88044 Y-0.17986
G01 X-13.44163 Y-0.09794
G01 X-14.01254 Y-0.02456
G01 X-14.56781 Y0.03726
G01 X-15.13246 Y0.09058
G01 X-15.70639 Y0.13490
G01 X-16.26408 Y0.16848
G01 X-16.83918 Y0.19337
G01 X-17.40611 Y0.20820
G01 X-17.96478 Y0.21346
G01 X-18.54043 Y0.20912
G01 X-19.10740 Y0.19517
G01 X-19.67408 Y0.17163
G01 X-20.24027 Y0.13851
G01 X-20.80585 Y0.09581
G01 X-21.37054 Y0.04354
G01 X-21.92594 Y-0.01725
G01 X-22.48860 Y-0.08847
G01 X-23.04999 Y-0.16916
G01 X-23.61829 Y-0.26081
G01 X-24.16828 Y-0.35905
G01 X-24.73312 Y-0.46985
G01 X-25.27948 Y-0.58664
G01 X-25.83205 Y-0.71453
G01 X-26.39057 Y-0.85385
G01 X-26.93030 Y-0.99825
G01 X-27.48374 Y-1.15639
G01 X-28.01828 Y-1.31895
G01 X-28.56611 Y-1.49573
G01 X-29.10279 Y-1.67909
G01 X-29.62839 Y-1.86858
G01 X-30.16651 Y-2.07294
G01 X-30.69321 Y-2.28331
G01 X-31.21627 Y-2.50253
G01 X-31.72783 Y-2.72715
G01 X-32.25089 Y-2.96743
G01 X-32.75457 Y-3.20919
G01 X-33.26922 Y-3.46707
G01 X-33.77189 Y-3.72974
G01 X-34.27004 Y-4.00088
G01 X-34.76353 Y-4.28041
G01 X-35.24496 Y-4.56390
G01 X-35.29556 Y-4.59801
G01 X-35.34164 Y-4.63804
G01 X-35.37608 Y-4.67550
G01 X-35.40653 Y-4.71625
G01 X-35.43737 Y-4.76893
G01 X-35.46155 Y-4.82498
G01 X-35.47872 Y-4.88353
G01 X-35.48865 Y-4.94375
G01 X-35.49127 Y-4.99458
G01 X-35.49947 Y-29.55572
G01 X-35.49594 Y-29.66786
G01 X-35.48314 Y-29.84307
G01 X-35.46119 Y-30.01942
G01 X-35.43038 Y-30.19440
G01 X-35.39071 Y-30.36763
G01 X-35.34595 Y-30.52641
G01 X-35.26688 Y-30.75577
G01 X-35.19076 Y-30.93801
G01 X-35.11956 Y-31.08681
G01 X-35.03503 Y-31.24309
G01 X-34.93562 Y-31.40553
G01 X-34.84263 Y-31.54187
G01 X-34.73534 Y-31.68353
G01 X-34.61626 Y-31.82478
G01 X-34.46302 Y-31.98655
G01 X-34.32843 Y-32.11309
G01 X-34.18723 Y-32.23232
G01 X-34.00661 Y-32.36760
G01 X-33.89422 Y-32.44291
G01 X-33.74601 Y-32.53329
G01 X-33.64799 Y-32.58769
G01 X-33.50250 Y-32.66092
G01 X-33.33036 Y-32.73727
G01 X-33.20605 Y-32.78548
G01 X-33.05195 Y-32.83814
G01 X-32.94449 Y-32.87006
G01 X-32.76603 Y-32.91510
G01 X-32.64583 Y-32.93986
G01 X-32.46402 Y-32.96902
G01 X-32.35272 Y-32.98213
G01 X-32.19033 Y-32.99465
G01 X-32.05919 Y-32.99948
G01 X-3.94962 Y-32.99960
G01 X-3.77502 Y-32.99275
G01 X-3.61066 Y-32.97812
G01 X-3.41506 Y-32.95071
G01 X-3.17757 Y-32.90184
G01 X-3.01808 Y-32.85942
G01 X-2.84213 Y-32.80288
G01 X-2.61615 Y-32.71464
G01 X-2.46614 Y-32.64596
G01 X-2.30848 Y-32.56410
G01 X-2.14086 Y-32.46511
G01 X-1.96383 Y-32.34670
G01 X-1.81864 Y-32.23704
G01 X-1.64160 Y-32.08609
G01 X-1.50838 Y-31.95800
G01 X-1.38687 Y-31.82841
G01 X-1.27338 Y-31.69442
G01 X-1.19809 Y-31.59750
G01 X-1.09174 Y-31.44723
G01 X-1.02535 Y-31.34406
G01 X-0.94264 Y-31.20375
G01 X-0.88969 Y-31.10492
G01 X-0.80957 Y-30.93916
G01 X-0.75722 Y-30.81665
G01 X-0.69934 Y-30.66438
G01 X-0.66378 Y-30.55803
G01 X-0.61552 Y-30.39133
G01 X-0.56126 Y-30.15206
G01 X-0.54186 Y-30.03951
G01 X-0.51821 Y-29.85694
G01 X-0.50729 Y-29.72412
G01 X-0.50038 Y-29.55077
G01 X-0.49997 Y-4.99999
G01 Z-1.50000 F60.00000 ( plunge. )
G04 P0 ( dwell for no time -- G64 should not smooth over this point )
G01 F120.00000
G01 X-0.50371 Y-4.93906
G01 X-0.51483 Y-4.87904
G01 X-0.53317 Y-4.82082
G01 X-0.56335 Y-4.75635
G01 X-0.59629 Y-4.70494
G01 X-0.63525 Y-4.65795
G01 X-0.67965 Y-4.61607
G01 X-0.72880 Y-4.57990
G01 X-1.22748 Y-4.28556
G01 X-1.72829 Y-4.00177
G01 X-2.21897 Y-3.73459
G01 X-2.72153 Y-3.47177
G01 X-3.23609 Y-3.21376
G01 X-3.74736 Y-2.96822
G01 X-4.25501 Y-2.73484
G01 X-4.77418 Y-2.50662
G01 X-5.29720 Y-2.28719
G01 X-5.82384 Y-2.07668
G01 X-6.36191 Y-1.87216
G01 X-6.89539 Y-1.67973
G01 X-7.43214 Y-1.49629
G01 X-7.97184 Y-1.32204
G01 X-8.50631 Y-1.15931
G01 X-9.05972 Y-1.00099
G01 X-9.60760 Y-0.85430
G01 X-10.15787 Y-0.71694
G01 X-10.70214 Y-0.59073
G01 X-11.26498 Y-0.47023
G01 X-11.82119 Y-0.36101
G01 X-12.32903 Y-0.26980
G01 X-12.88044 Y-0.17986
G01 X-13.44163 Y-0.09794
G01 X-14.01254 Y-0.02456
G01 X-14.56781 Y0.03726
G01 X-15.13246 Y0.09058
G01 X-15.70639 Y0.13490
G01 X-16.26408 Y0.16848
G01 X-16.83918 Y0.19337
G01 X-17.40611 Y0.20820
G01 X-17.96478 Y0.21346
G01 X-18.54043 Y0.20912
G01 X-19.10740 Y0.19517
G01 X-19.67408 Y0.17163
G01 X-20.24027 Y0.13851
G01 X-20.80585 Y0.09581
G01 X-21.37054 Y0.04354
G01 X-21.92594 Y-0.01725
G01 X-22.48860 Y-0.08847
G01 X-23.04999 Y-0.16916
G01 X-23.61829 Y-0.26081
G01 X-24.16828 Y-0.35905
G01 X-24.73312 Y-0.46985
G01 X-25.27948 Y-0.58664
G01 X-25.83205 Y-0.71453
G01 X-26.39057 Y-0.85385
G01 X-26.93030 Y-0.99825
G01 X-27.48374 Y-1.15639
G01 X-28.01828 Y-1.31895
G01 X-28.56611 Y-1.49573
G01 X-29.10279 Y-1.67909
G01 X-29.62839 Y-1.86858
G01 X-30.16651 Y-2.07294
G01 X-30.69321 Y-2.28331
G01 X-31.21627 Y-2.50253
G01 X-31.72783 Y-2.72715
G01 X-32.25089 Y-2.96743
G01 X-32.75457 Y-3.20919
G01 X-33.26922 Y-3.46707
G01 X-33.77189 Y-3.72974
G01 X-34.27004 Y-4.00088
G01 X-34.76353 Y-4.28041
G01 X-35.24496 Y-4.56390
G01 X-35.29556 Y-4.59801
G01 X-35.34164 Y-4.63804
G01 X-35.37608 Y-4.67550
G01 X-35.40653 Y-4.71625
G01 X-35.43737 Y-4.76893
G01 X-35.46155 Y-4.82498
G01 X-35.47872 Y-4.88353
G01 X-35.48865 Y-4.94375
G01 X-35.49127 Y-4.99458
G01 X-35.49947 Y-29.55572
G01 X-35.49594 Y-29.66786
G01 X-35.48314 Y-29.84307
G01 X-35.46119 Y-30.01942
G01 X-35.43038 Y-30.19440
G01 X-35.39071 Y-30.36763
G01 X-35.34595 Y-30.52641
G01 X-35.26688 Y-30.75577
G01 X-35.19076 Y-30.93801
G01 X-35.11956 Y-31.08681
G01 X-35.03503 Y-31.24309
G01 X-34.93562 Y-31.40553
G01 X-34.84263 Y-31.54187
G01 X-34.73534 Y-31.68353
G01 X-34.61626 Y-31.82478
G01 X-34.46302 Y-31.98655
G01 X-34.32843 Y-32.11309
G01 X-34.18723 Y-32.23232
G01 X-34.00661 Y-32.36760
G01 X-33.89422 Y-32.44291
G01 X-33.74601 Y-32.53329
G01 X-33.64799 Y-32.58769
G01 X-33.50250 Y-32.66092
G01 X-33.33036 Y-32.73727
G01 X-33.20605 Y-32.78548
G01 X-33.05195 Y-32.83814
G01 X-32.94449 Y-32.87006
G01 X-32.76603 Y-32.91510
G01 X-32.64583 Y-32.93986
G01 X-32.46402 Y-32.96902
G01 X-32.35272 Y-32.98213
G01 X-32.19033 Y-32.99465
G01 X-32.05919 Y-32.99948
G01 X-3.94962 Y-32.99960
G01 X-3.77502 Y-32.99275
G01 X-3.61066 Y-32.97812
G01 X-3.41506 Y-32.95071
G01 X-3.17757 Y-32.90184
G01 X-3.01808 Y-32.85942
G01 X-2.84213 Y-32.80288
G01 X-2.61615 Y-32.71464
G01 X-2.46614 Y-32.64596
G01 X-2.30848 Y-32.56410
G01 X-2.14086 Y-32.46511
G01 X-1.96383 Y-32.34670
G01 X-1.81864 Y-32.23704
G01 X-1.64160 Y-32.08609
G01 X-1.50838 Y-31.95800
G01 X-1.38687 Y-31.82841
G01 X-1.27338 Y-31.69442
G01 X-1.19809 Y-31.59750
G01 X-1.09174 Y-31.44723
G01 X-1.02535 Y-31.34406
G01 X-0.94264 Y-31.20375
G01 X-0.88969 Y-31.10492
G01 X-0.80957 Y-30.93916
G01 X-0.75722 Y-30.81665
G01 X-0.69934 Y-30.66438
G01 X-0.66378 Y-30.55803
G01 X-0.61552 Y-30.39133
G01 X-0.56126 Y-30.15206
G01 X-0.54186 Y-30.03951
G01 X-0.51821 Y-29.85694
G01 X-0.50729 Y-29.72412
G01 X-0.50038 Y-29.55077
G01 X-0.49997 Y-4.99999
G01 Z-2.00000 F60.00000 ( plunge. )
G04 P0 ( dwell for no time -- G64 should not smooth over this point )
G01 F120.00000
G01 X-0.50371 Y-4.93906
G01 X-0.51483 Y-4.87904
G01 X-0.53317 Y-4.82082
G01 X-0.56335 Y-4.75635
G01 X-0.59629 Y-4.70494
G01 X-0.63525 Y-4.65795
G01 X-0.67965 Y-4.61607
G01 X-0.72880 Y-4.57990
G01 X-1.22748 Y-4.28556
G01 X-1.72829 Y-4.00177
G01 X-2.21897 Y-3.73459
G01 X-2.72153 Y-3.47177
G01 X-3.23609 Y-3.21376
G01 X-3.74736 Y-2.96822
G01 X-4.25501 Y-2.73484
G01 X-4.77418 Y-2.50662
G01 X-5.29720 Y-2.28719
G01 X-5.82384 Y-2.07668
G01 X-6.36191 Y-1.87216
G01 X-6.89539 Y-1.67973
G01 X-7.43214 Y-1.49629
G01 X-7.97184 Y-1.32204
G01 X-8.50631 Y-1.15931
G01 X-9.05972 Y-1.00099
G01 X-9.60760 Y-0.85430
G01 X-10.15787 Y-0.71694
G01 X-10.70214 Y-0.59073
G01 X-11.26498 Y-0.47023
G01 X-11.82119 Y-0.36101
G01 X-12.32903 Y-0.26980
G01 X-12.88044 Y-0.17986
G01 X-13.44163 Y-0.09794
G01 X-14.01254 Y-0.02456
G01 X-14.56781 Y0.03726
G01 X-15.13246 Y0.09058
G01 X-15.70639 Y0.13490
G01 X-16.26408 Y0.16848
G01 X-16.83918 Y0.19337
G01 X-17.40611 Y0.20820
G01 X-17.96478 Y0.21346
G01 X-18.54043 Y0.20912
G01 X-19.10740 Y0.19517
G01 X-19.67408 Y0.17163
G01 X-20.24027 Y0.13851
G01 X-20.80585 Y0.09581
G01 X-21.37054 Y0.04354
G01 X-21.92594 Y-0.01725
G01 X-22.48860 Y-0.08847
G01 X-23.04999 Y-0.16916
G01 X-23.61829 Y-0.26081
G01 X-24.16828 Y-0.35905
G01 X-24.73312 Y-0.46985
G01 X-25.27948 Y-0.58664
G01 X-25.83205 Y-0.71453
G01 X-26.39057 Y-0.85385
G01 X-26.93030 Y-0.99825
G01 X-27.48374 Y-1.15639
G01 X-28.01828 Y-1.31895
G01 X-28.56611 Y-1.49573
G01 X-29.10279 Y-1.67909
G01 X-29.62839 Y-1.86858
G01 X-30.16651 Y-2.07294
G01 X-30.69321 Y-2.28331
G01 X-31.21627 Y-2.50253
G01 X-31.72783 Y-2.72715
G01 X-32.25089 Y-2.96743
G01 X-32.75457 Y-3.20919
G01 X-33.26922 Y-3.46707
G01 X-33.77189 Y-3.72974
G01 X-34.27004 Y-4.00088
G01 X-34.76353 Y-4.28041
G01 X-35.24496 Y-4.56390
G01 X-35.29556 Y-4.59801
G01 X-35.34164 Y-4.63804
G01 X-35.37608 Y-4.67550
G01 X-35.40653 Y-4.71625
G01 X-35.43737 Y-4.76893
G01 X-35.46155 Y-4.82498
G01 X-35.47872 Y-4.88353
G01 X-35.48865 Y-4.94375
G01 X-35.49127 Y-4.99458
G01 X-35.49947 Y-29.55572
G01 X-35.49594 Y-29.66786
G01 X-35.48314 Y-29.84307
G01 X-35.46119 Y-30.01942
G01 X-35.43038 Y-30.19440
G01 X-35.39071 Y-30.36763
G01 X-35.34595 Y-30.52641
G01 X-35.26688 Y-30.75577
G01 X-35.19076 Y-30.93801
G01 X-35.11956 Y-31.08681
G01 X-35.03503 Y-31.24309
G01 X-34.93562 Y-31.40553
G01 X-34.84263 Y-31.54187
G01 X-34.73534 Y-31.68353
G01 X-34.61626 Y-31.82478
G01 X-34.46302 Y-31.98655
G01 X-34.32843 Y-32.11309
G01 X-34.18723 Y-32.23232
G01 X-34.00661 Y-32.36760
G01 X-33.89422 Y-32.44291
G01 X-33.74601 Y-32.53329
G01 X-33.64799 Y-32.58769
G01 X-33.50250 Y-32.66092
G01 X-33.33036 Y-32.73727
G01 X-33.20605 Y-32.78548
G01 X-33.05195 Y-32.83814
G01 X-32.94449 Y-32.87006
G01 X-32.76603 Y-32.91510
G01 X-32.64583 Y-32.93986
G01 X-32.46402 Y-32.96902
G01 X-32.35272 Y-32.98213
G01 X-32.19033 Y-32.99465
G01 X-32.05919 Y-32.99948
G01 X-3.94962 Y-32.99960
G01 X-3.77502 Y-32.99275
G01 X-3.61066 Y-32.97812
G01 X-3.41506 Y-32.95071
G01 X-3.17757 Y-32.90184
G01 X-3.01808 Y-32.85942
G01 X-2.84213 Y-32.80288
G01 X-2.61615 Y-32.71464
G01 X-2.46614 Y-32.64596
G01 X-2.30848 Y-32.56410
G01 X-2.14086 Y-32.46511
G01 X-1.96383 Y-32.34670
G01 X-1.81864 Y-32.23704
G01 X-1.64160 Y-32.08609
G01 X-1.50838 Y-31.95800
G01 X-1.38687 Y-31.82841
G01 X-1.27338 Y-31.69442
G01 X-1.19809 Y-31.59750
G01 X-1.09174 Y-31.44723
G01 X-1.02535 Y-31.34406
G01 X-0.94264 Y-31.20375
G01 X-0.88969 Y-31.10492
G01 X-0.80957 Y-30.93916
G01 X-0.75722 Y-30.81665
G01 X-0.69934 Y-30.66438
G01 X-0.66378 Y-30.55803
G01 X-0.61552 Y-30.39133
G01 X-0.56126 Y-30.15206
G01 X-0.54186 Y-30.03951
G01 X-0.51821 Y-29.85694
G01 X-0.50729 Y-29.72412
G01 X-0.50038 Y-29.55077
G01 X-0.49997 Y-4.99999
G01 Z-2.50000 F60.00000 ( plunge. )
G04 P0 ( dwell for no time -- G64 should not smooth over this point )
G01 F120.00000
G01 X-0.50371 Y-4.93906
G01 X-0.51483 Y-4.87904
G01 X-0.53317 Y-4.82082
G01 X-0.56335 Y-4.75635
G01 X-0.59629 Y-4.70494
G01 X-0.63525 Y-4.65795
G01 X-0.67965 Y-4.61607
G01 X-0.72880 Y-4.57990
G01 X-1.22748 Y-4.28556
G01 X-1.72829 Y-4.00177
G01 X-2.21897 Y-3.73459
G01 X-2.72153 Y-3.47177
G01 X-3.23609 Y-3.21376
G01 X-3.74736 Y-2.96822
G01 X-4.25501 Y-2.73484
G01 X-4.77418 Y-2.50662
G01 X-5.29720 Y-2.28719
G01 X-5.82384 Y-2.07668
G01 X-6.36191 Y-1.87216
G01 X-6.89539 Y-1.67973
G01 X-7.43214 Y-1.49629
G01 X-7.97184 Y-1.32204
G01 X-8.50631 Y-1.15931
G01 X-9.05972 Y-1.00099
G01 X-9.60760 Y-0.85430
G01 X-10.15787 Y-0.71694
G01 X-10.70214 Y-0.59073
G01 X-11.26498 Y-0.47023
G01 X-11.82119 Y-0.36101
G01 X-12.32903 Y-0.26980
G01 X-12.88044 Y-0.17986
G01 X-13.44163 Y-0.09794
G01 X-14.01254 Y-0.02456
G01 X-14.56781 Y0.03726
G01 X-15.13246 Y0.09058
G01 X-15.70639 Y0.13490
G01 X-16.26408 Y0.16848
G01 X-16.83918 Y0.19337
G01 X-17.40611 Y0.20820
G01 X-17.96478 Y0.21346
G01 X-18.54043 Y0.20912
G01 X-19.10740 Y0.19517
G01 X-19.67408 Y0.17163
G01 X-20.24027 Y0.13851
G01 X-20.80585 Y0.09581
G01 X-21.37054 Y0.04354
G01 X-21.92594 Y-0.01725
G01 X-22.48860 Y-0.08847
G01 X-23.04999 Y-0.16916
G01 X-23.61829 Y-0.26081
G01 X-24.16828 Y-0.35905
G01 X-24.73312 Y-0.46985
G01 X-25.27948 Y-0.58664
G01 X-25.83205 Y-0.71453
G01 X-26.39057 Y-0.85385
G01 X-26.93030 Y-0.99825
G01 X-27.48374 Y-1.15639
G01 X-28.01828 Y-1.31895
G01 X-28.56611 Y-1.49573
G01 X-29.10279 Y-1.67909
G01 X-29.62839 Y-1.86858
G01 X-30.16651 Y-2.07294
G01 X-30.69321 Y-2.28331
G01 X-31.21627 Y-2.50253
G01 X-31.72783 Y-2.72715
G01 X-32.25089 Y-2.96743
G01 X-32.75457 Y-3.20919
G01 X-33.26922 Y-3.46707
G01 X-33.77189 Y-3.72974
G01 X-34.27004 Y-4.00088
G01 X-34.76353 Y-4.28041
G01 X-35.24496 Y-4.56390
G01 X-35.29556 Y-4.59801
G01 X-35.34164 Y-4.63804
G01 X-35.37608 Y-4.67550
G01 X-35.40653 Y-4.71625
G01 X-35.43737 Y-4.76893
G01 X-35.46155 Y-4.82498
G01 X-35.47872 Y-4.88353
G01 X-35.48865 Y-4.94375
G01 X-35.49127 Y-4.99458
G01 X-35.49947 Y-29.55572
G01 X-35.49594 Y-29.66786
G01 X-35.48314 Y-29.84307
G01 X-35.46119 Y-30.01942
G01 X-35.43038 Y-30.19440
G01 X-35.39071 Y-30.36763
G01 X-35.34595 Y-30.52641
G01 X-35.26688 Y-30.75577
G01 X-35.19076 Y-30.93801
G01 X-35.11956 Y-31.08681
G01 X-35.03503 Y-31.24309
G01 X-34.93562 Y-31.40553
G01 X-34.84263 Y-31.54187
G01 X-34.73534 Y-31.68353
G01 X-34.61626 Y-31.82478
G01 X-34.46302 Y-31.98655
G01 X-34.32843 Y-32.11309
G01 X-34.18723 Y-32.23232
G01 X-34.00661 Y-32.36760
G01 X-33.89422 Y-32.44291
G01 X-33.74601 Y-32.53329
G01 X-33.64799 Y-32.58769
G01 X-33.50250 Y-32.66092
G01 X-33.33036 Y-32.73727
G01 X-33.20605 Y-32.78548
G01 X-33.05195 Y-32.83814
G01 X-32.94449 Y-32.87006
G01 X-32.76603 Y-32.91510
G01 X-32.64583 Y-32.93986
G01 X-32.46402 Y-32.96902
G01 X-32.35272 Y-32.98213
G01 X-32.19033 Y-32.99465
G01 X-32.05919 Y-32.99948
G01 X-3.94962 Y-32.99960
G01 X-3.77502 Y-32.99275
G01 X-3.61066 Y-32.97812
G01 X-3.41506 Y-32.95071
G01 X-3.17757 Y-32.90184
G01 X-3.01808 Y-32.85942
G01 X-2.84213 Y-32.80288
G01 X-2.61615 Y-32.71464
G01 X-2.46614 Y-32.64596
G01 X-2.30848 Y-32.56410
G01 X-2.14086 Y-32.46511
G01 X-1.96383 Y-32.34670
G01 X-1.81864 Y-32.23704
G01 X-1.64160 Y-32.08609
G01 X-1.50838 Y-31.95800
G01 X-1.38687 Y-31.82841
G01 X-1.27338 Y-31.69442
G01 X-1.19809 Y-31.59750
G01 X-1.09174 Y-31.44723
G01 X-1.02535 Y-31.34406
G01 X-0.94264 Y-31.20375
G01 X-0.88969 Y-31.10492
G01 X-0.80957 Y-30.93916
G01 X-0.75722 Y-30.81665
G01 X-0.69934 Y-30.66438
G01 X-0.66378 Y-30.55803
G01 X-0.61552 Y-30.39133
G01 X-0.56126 Y-30.15206
G01 X-0.54186 Y-30.03951
G01 X-0.51821 Y-29.85694
G01 X-0.50729 Y-29.72412
G01 X-0.50038 Y-29.55077
G01 X-0.49997 Y-4.99999

G04 P0 ( dwell for no time -- G64 should not smooth over this point )
G00 Z15.000000 ( retract )

M5 ( Spindle off. )
G04 P1.000000
M9 ( Coolant off. )
M2 ( Program end. )

